terrinbabu/Matlab/log_filtering/UR10_35_KF/ejt_KF2_0kg_sinjall_v5_1.txt
seq	time	q0	q1	q2	q3	q4	q5	Dq0	Dq1	Dq2	Dq3	Dq4	Dq5	eff0	eff1	eff2	eff3	eff4	eff5	
25	1573229628.734693067	-1.24017	-2.11062	-1.72284	-1.57114	0.60054	0.732184	0.027341	0.0280106	0.0280859	0.0272235	0.0272911	0.0281822	16.2221	82.6063	33.289	4.89472	2.11769	2.59666	
26	1573229628.742694213	-1.24004	-2.11049	-1.72271	-1.57101	0.60068	0.732316	0.0271705	0.0278232	0.0279297	0.0270467	0.0272072	0.0280716	16.2357	82.6019	33.2838	4.88919	2.11409	2.592	
27	1573229628.750671542	-1.23992	-2.11036	-1.72258	-1.57088	0.600818	0.73245	0.0270066	0.0276713	0.0277739	0.0268532	0.0271029	0.0279489	16.2319	82.5987	33.2778	4.88905	2.11264	2.59285	
28	1573229628.758694378	-1.23979	-2.11023	-1.72245	-1.57074	0.600956	0.732588	0.0268898	0.0274861	0.0274676	0.0266557	0.0270165	0.0279581	16.2584	82.6612	33.2945	4.88585	2.10322	2.58674	
29	1573229628.766693625	-1.23966	-2.1101	-1.72232	-1.57061	0.601098	0.732725	0.0267926	0.0272847	0.0273254	0.0264697	0.0269165	0.027907	16.219	82.5823	33.2421	4.88592	2.11309	2.59452	
30	1573229628.774685498	-1.23953	-2.10997	-1.7222	-1.57048	0.601236	0.732862	0.0266826	0.027113	0.027171	0.0263389	0.0267336	0.0278558	16.2237	82.6092	33.2621	4.8857	2.1049	2.5908	
31	1573229628.782644299	-1.2394	-2.10984	-1.72207	-1.57035	0.601371	0.733001	0.026591	0.0269262	0.0270619	0.0261686	0.0265425	0.0277775	16.2208	82.5784	33.2353	4.8841	2.10779	2.59103	
32	1573229628.790706556	-1.23927	-2.10971	-1.72193	-1.57022	0.601505	0.73314	0.0264679	0.0267288	0.0270218	0.026036	0.0263548	0.0276252	16.1963	82.6062	33.2595	4.88751	2.10627	2.58973	
33	1573229628.798699013	-1.23914	-2.10959	-1.7218	-1.57009	0.601641	0.73328	0.0263205	0.026513	0.0269554	0.0259232	0.0261734	0.0274811	16.1978	82.6048	33.2613	4.88807	2.10381	2.588	
34	1573229628.806691423	-1.23901	-2.10946	-1.72167	-1.56996	0.601774	0.733418	0.0261848	0.0263392	0.0269525	0.02584	0.0260297	0.0273578	16.1814	82.5848	33.2636	4.89401	2.10993	2.5908	
35	1573229628.814701850	-1.23888	-2.10933	-1.72153	-1.56983	0.601908	0.733554	0.0260621	0.0261996	0.0268672	0.0257735	0.0259479	0.0271592	16.1939	82.5894	33.2697	4.88739	2.10424	2.58515	
36	1573229628.822704719	-1.23875	-2.1092	-1.7214	-1.56969	0.602037	0.733691	0.0259463	0.026042	0.0268038	0.0256838	0.0257016	0.0269552	16.1906	82.5824	33.2599	4.88166	2.09438	2.5856	
37	1573229628.830688231	-1.23862	-2.10907	-1.72126	-1.56956	0.602166	0.733826	0.0258046	0.0258785	0.0267783	0.0255504	0.0254135	0.026819	16.1784	82.588	33.2766	4.89013	2.09617	2.58478	
38	1573229628.838668024	-1.23849	-2.10894	-1.72113	-1.56943	0.602296	0.733963	0.0256983	0.0257206	0.0267448	0.0254405	0.0252136	0.0267029	16.1819	82.5846	33.2768	4.88948	2.0956	2.58388	
39	1573229628.846665693	-1.23836	-2.10881	-1.72098	-1.5693	0.602428	0.734096	0.0255991	0.0255578	0.0267833	0.0253108	0.025062	0.0265685	16.1821	82.5803	33.2881	4.89065	2.0982	2.58492	
40	1573229628.854685230	-1.23822	-2.10869	-1.72084	-1.56916	0.602557	0.734233	0.0255464	0.0253997	0.0268111	0.0252118	0.0249708	0.0264963	16.1829	82.5815	33.3029	4.89409	2.10037	2.58478	
41	1573229628.862678666	-1.23809	-2.10856	-1.7207	-1.56903	0.602687	0.73437	0.0254696	0.0252702	0.0268037	0.0252063	0.0248926	0.0263861	16.1664	82.5771	33.3116	4.89213	2.09927	2.58392	
42	1573229628.870659311	-1.23796	-2.10843	-1.72055	-1.56889	0.602815	0.734507	0.0253453	0.0251658	0.0267647	0.0251383	0.0247805	0.0262254	16.1652	82.5814	33.3222	4.89645	2.09198	2.57862	
43	1573229628.878684741	-1.23782	-2.1083	-1.72041	-1.56875	0.602945	0.734644	0.0252504	0.0250691	0.0266295	0.0250588	0.0247179	0.026139	16.1883	82.5964	33.3293	4.89117	2.09133	2.57899	
44	1573229628.886673194	-1.23769	-2.10817	-1.72027	-1.56862	0.603077	0.734781	0.0251347	0.0249918	0.0264686	0.0249876	0.0246286	0.0260352	16.156	82.5815	33.3146	4.89503	2.088	2.57709	
45	1573229628.894683384	-1.23756	-2.10803	-1.72013	-1.56848	0.603209	0.734916	0.0250256	0.0249085	0.0263578	0.0248165	0.0245169	0.0258933	16.1877	82.5847	33.3115	4.89022	2.08222	2.57356	
46	1573229628.902662609	-1.23743	-2.1079	-1.71999	-1.56835	0.603341	0.735052	0.0249558	0.0248165	0.0262405	0.0246248	0.0244437	0.0258092	16.1763	82.5859	33.3113	4.89395	2.08647	2.57607	
47	1573229628.910706820	-1.2373	-2.10777	-1.71985	-1.56822	0.603475	0.735189	0.0248693	0.0247342	0.0261636	0.0244491	0.0244037	0.0257188	16.1727	82.5655	33.3014	4.89393	2.08582	2.57512	
48	1573229628.918820026	-1.23716	-2.10764	-1.7197	-1.56808	0.603607	0.735327	0.0248105	0.0246414	0.0261631	0.0243449	0.0243065	0.0256331	16.1552	82.577	33.3149	4.89373	2.08914	2.57864	
49	1573229628.926666898	-1.23702	-2.10751	-1.71956	-1.56795	0.60374	0.735464	0.0247572	0.0245518	0.0260981	0.0242902	0.0242905	0.0255494	16.17	82.5888	33.3307	4.89825	2.0898	2.57451	
50	1573229628.934676630	-1.23689	-2.10738	-1.71941	-1.56781	0.603877	0.735602	0.0246732	0.0244736	0.0260688	0.0242409	0.0243447	0.0254762	16.1487	82.5747	33.3264	4.89981	2.09124	2.57737	
51	1573229628.942677122	-1.23676	-2.10724	-1.71927	-1.56767	0.604015	0.735739	0.0246064	0.0244103	0.0260063	0.0242109	0.0243315	0.0254376	16.1674	82.5884	33.3405	4.89478	2.08444	2.57446	
52	1573229628.950680591	-1.23662	-2.10711	-1.71913	-1.56754	0.604152	0.735878	0.0245092	0.0243489	0.0258038	0.0241458	0.024333	0.0253914	16.15	82.6054	33.3462	4.90196	2.08199	2.56972	
53	1573229628.958732737	-1.23649	-2.10697	-1.71899	-1.5674	0.604293	0.736018	0.024395	0.0243058	0.0256383	0.0240715	0.0243936	0.0253247	16.1497	82.5844	33.3242	4.90105	2.08595	2.57232	
54	1573229628.966679789	-1.23635	-2.10684	-1.71885	-1.56726	0.604435	0.736157	0.0243744	0.0242551	0.0254423	0.0240314	0.0244163	0.0252061	16.1911	82.5952	33.319	4.88487	2.07986	2.5687	
55	1573229628.974673358	-1.23622	-2.1067	-1.71871	-1.56712	0.604576	0.736296	0.0243788	0.024199	0.0252431	0.0239979	0.0244062	0.0251196	16.1666	82.5856	33.3069	4.89489	2.08236	2.57152	
56	1573229628.982675786	-1.23608	-2.10656	-1.71857	-1.56698	0.604715	0.736435	0.0243316	0.0242044	0.0250552	0.0239468	0.0243633	0.0250936	16.1568	82.5634	33.295	4.89752	2.07835	2.57002	
57	1573229628.990698052	-1.23594	-2.10643	-1.71844	-1.56685	0.604857	0.736579	0.0242944	0.0241663	0.0248434	0.0238396	0.0243537	0.0250282	16.1707	82.6072	33.2984	4.89514	2.07594	2.56523	
58	1573229628.998698650	-1.2358	-2.10629	-1.7183	-1.56671	0.605005	0.736722	0.0242832	0.024108	0.024696	0.0237764	0.0244015	0.0249847	16.1615	82.5836	33.2844	4.89717	2.08246	2.57142	
59	1573229629.006670374	-1.23566	-2.10615	-1.71817	-1.56657	0.605151	0.736865	0.0242756	0.0240642	0.0245329	0.0238092	0.0243943	0.0249443	16.1641	82.5999	33.2855	4.8931	2.07907	2.56853	
60	1573229629.014695140	-1.23552	-2.10601	-1.71803	-1.56643	0.6053	0.737008	0.0243006	0.0240124	0.0244118	0.0237551	0.0244156	0.0248625	16.1788	82.5621	33.2607	4.89484	2.07915	2.56781	
61	1573229629.022720435	-1.23538	-2.10587	-1.7179	-1.56629	0.605448	0.737151	0.0243017	0.0240146	0.0243118	0.0237115	0.024456	0.0247644	16.1467	82.5577	33.2669	4.89981	2.08345	2.56983	
62	1573229629.030677590	-1.23524	-2.10573	-1.71777	-1.56614	0.605598	0.737292	0.0242886	0.0240027	0.0241646	0.0237084	0.0244504	0.0246804	16.1673	82.5837	33.2706	4.89572	2.07445	2.56621	
63	1573229629.038688066	-1.2351	-2.10559	-1.71763	-1.566	0.605745	0.737432	0.0242986	0.0240311	0.0240735	0.0235909	0.0244309	0.0246081	16.1625	82.5169	33.2389	4.89976	2.0784	2.56815	
64	1573229629.046673881	-1.23496	-2.10544	-1.7175	-1.56586	0.605895	0.737571	0.0243247	0.024092	0.0240569	0.0234464	0.0244001	0.0245221	16.1632	82.5342	33.2503	4.89587	2.07517	2.56772	
65	1573229629.054667398	-1.23481	-2.1053	-1.71736	-1.56572	0.606045	0.737712	0.0243579	0.024094	0.0239606	0.0233251	0.0243466	0.0244439	16.1767	82.5736	33.2705	4.89367	2.07093	2.56359	
66	1573229629.062731505	-1.23466	-2.10515	-1.71722	-1.56558	0.606192	0.737854	0.0244225	0.0241055	0.0239392	0.0232809	0.0242482	0.0243798	16.1622	82.5338	33.254	4.89358	2.07841	2.57097	
67	1573229629.070666195	-1.23451	-2.10501	-1.71708	-1.56544	0.606337	0.737995	0.0244652	0.024111	0.0239369	0.0233469	0.0241213	0.0243306	16.1524	82.5709	33.2853	4.89714	2.07536	2.56838	
68	1573229629.078691792	-1.23437	-2.10486	-1.71695	-1.5653	0.606482	0.738141	0.024465	0.0241093	0.023891	0.0233731	0.0239597	0.0243323	16.153	82.5516	33.278	4.89866	2.07027	2.56812	
69	1573229629.086705409	-1.23422	-2.10472	-1.71681	-1.56516	0.606626	0.738284	0.0244803	0.0240946	0.0238707	0.0233564	0.0238326	0.0243805	16.1613	82.5712	33.2974	4.90363	2.07213	2.56741	
70	1573229629.095022694	-1.23406	-2.10457	-1.71666	-1.56502	0.606768	0.738429	0.0244976	0.0240846	0.0237846	0.0233433	0.0237664	0.0244146	16.1582	82.5688	33.2999	4.90264	2.07021	2.56531	
71	1573229629.102664638	-1.23391	-2.10442	-1.71652	-1.56487	0.606914	0.738573	0.0245565	0.0240841	0.0238047	0.0233438	0.02368	0.0243623	16.1688	82.5388	33.2797	4.89625	2.07303	2.56838	
72	1573229629.110684487	-1.23376	-2.10428	-1.71638	-1.56473	0.607059	0.738719	0.0246155	0.02407	0.0238756	0.0233548	0.0235416	0.0242872	16.1582	82.558	33.3104	4.8989	2.06853	2.56588	
73	1573229629.118747273	-1.23361	-2.10413	-1.71624	-1.56458	0.607202	0.738869	0.0246265	0.0240395	0.0238851	0.0233884	0.0233645	0.0242624	16.1513	82.5694	33.3263	4.90213	2.06652	2.56615	
74	1573229629.126692406	-1.23345	-2.10398	-1.71609	-1.56444	0.607343	0.739014	0.0246267	0.0240077	0.0239561	0.0234566	0.023272	0.0242545	16.1418	82.5686	33.3428	4.91283	2.07543	2.56806	
75	1573229629.134694387	-1.2333	-2.10383	-1.71595	-1.56429	0.607484	0.739161	0.0246177	0.0239546	0.0240236	0.0234485	0.0232534	0.0242411	16.1601	82.5825	33.3596	4.91025	2.06512	2.56165	
76	1573229629.142701249	-1.23314	-2.10368	-1.7158	-1.56414	0.607623	0.739306	0.024593	0.0239237	0.0240866	0.0233926	0.0231938	0.0241779	16.1413	82.5487	33.3628	4.91107	2.06834	2.56427	
77	1573229629.150669230	-1.23299	-2.10353	-1.71565	-1.56399	0.607763	0.739449	0.0245609	0.0239396	0.0243227	0.0233929	0.023097	0.0240771	16.1168	82.5042	33.3569	4.91573	2.07635	2.57074	
78	1573229629.158673087	-1.23284	-2.10337	-1.7155	-1.56385	0.607905	0.739593	0.0245463	0.0239193	0.0244961	0.0233501	0.0230257	0.0239781	16.1716	82.5858	33.4315	4.90667	2.05957	2.55757	
79	1573229629.166661339	-1.23268	-2.10323	-1.71534	-1.5637	0.608051	0.739738	0.0245581	0.0238481	0.0245734	0.0233217	0.0230442	0.0239544	16.146	82.568	33.4349	4.91786	2.07198	2.56547	
80	1573229629.174692261	-1.23253	-2.10308	-1.71519	-1.56355	0.608195	0.739883	0.0245709	0.0237831	0.0246021	0.0233735	0.0231005	0.0239668	16.1656	82.6012	33.4719	4.91327	2.06565	2.55993	
81	1573229629.182686054	-1.23237	-2.10293	-1.71503	-1.5634	0.608345	0.740031	0.0245663	0.0236862	0.0245551	0.0234141	0.0231645	0.0239805	16.1597	82.5952	33.4688	4.91468	2.063	2.55963	
82	1573229629.190728521	-1.23221	-2.10279	-1.71488	-1.56325	0.608493	0.740176	0.0245582	0.0236546	0.0244462	0.0233889	0.0231993	0.0239447	16.1651	82.5744	33.471	4.91366	2.05837	2.55528	
83	1573229629.198707445	-1.23206	-2.10264	-1.71473	-1.5631	0.608642	0.740322	0.0244891	0.0236993	0.0243058	0.0233603	0.0231807	0.0238579	16.1313	82.5458	33.4506	4.91628	2.06059	2.55881	
84	1573229629.206674189	-1.2319	-2.10249	-1.71458	-1.56295	0.608789	0.740469	0.0244146	0.0237148	0.0241346	0.0233112	0.0231006	0.0237783	16.1582	82.5967	33.4703	4.91204	2.04957	2.55156	
85	1573229629.214689655	-1.23175	-2.10233	-1.71443	-1.5628	0.608935	0.740618	0.0243942	0.0237286	0.0240472	0.0232648	0.0230071	0.023729	16.1502	82.5475	33.4367	4.9123	2.05862	2.55907	
86	1573229629.222694502	-1.23159	-2.10218	-1.71428	-1.56265	0.609083	0.740765	0.0243458	0.0237101	0.0239456	0.0231869	0.0229458	0.0237142	16.1485	82.6026	33.4754	4.91955	2.04951	2.55188	
87	1573229629.230681463	-1.23143	-2.10203	-1.71413	-1.5625	0.60923	0.740912	0.0243163	0.0237385	0.0239183	0.0231571	0.022912	0.023686	16.1332	82.5139	33.4291	4.91774	2.06727	2.56322	
88	1573229629.238693175	-1.23128	-2.10187	-1.71398	-1.56235	0.609378	0.741059	0.024276	0.0237811	0.0239222	0.0232309	0.0228965	0.0236001	16.1241	82.5746	33.4761	4.92086	2.06131	2.55715	
89	1573229629.246711448	-1.23113	-2.10172	-1.71383	-1.5622	0.609531	0.741206	0.0241863	0.0237638	0.0238191	0.0233571	0.0229003	0.0234942	16.1254	82.6028	33.4872	4.92005	2.05831	2.55547	
90	1573229629.254750591	-1.23097	-2.10156	-1.71368	-1.56205	0.609677	0.741352	0.0241152	0.023772	0.0237325	0.0234874	0.0228304	0.0234492	16.1185	82.5602	33.4698	4.92175	2.06057	2.56004	
91	1573229629.262664062	-1.23082	-2.1014	-1.71353	-1.56189	0.609826	0.741501	0.0240495	0.0237689	0.0236928	0.0235531	0.0227348	0.0234559	16.1266	82.5839	33.4806	4.92335	2.05107	2.55422	
92	1573229629.270677986	-1.23066	-2.10125	-1.71338	-1.56174	0.609973	0.741648	0.0239732	0.0237137	0.0236182	0.0235344	0.0226962	0.0234052	16.1388	82.6026	33.4944	4.92237	2.05106	2.55059	
93	1573229629.279830361	-1.23051	-2.1011	-1.71324	-1.56158	0.61012	0.741796	0.023903	0.0236499	0.0235622	0.0234743	0.0226136	0.0233163	16.1263	82.5696	33.4784	4.92115	2.0458	2.55093	
94	1573229629.286686351	-1.23035	-2.10094	-1.71309	-1.56143	0.610268	0.74194	0.0238017	0.0235657	0.0235059	0.0234257	0.0225954	0.0232037	16.1209	82.6279	33.5174	4.93012	2.05166	2.54846	
95	1573229629.294670992	-1.2302	-2.10079	-1.71294	-1.56128	0.610416	0.742089	0.0236672	0.0235043	0.0233943	0.0234404	0.0225818	0.0231444	16.1085	82.5891	33.5022	4.92582	2.04769	2.55116	
96	1573229629.302688084	-1.23005	-2.10063	-1.71279	-1.56112	0.610567	0.742237	0.0235869	0.0234524	0.0232149	0.0234386	0.02248	0.0231009	16.1446	82.6064	33.4984	4.91712	2.0404	2.54662	
97	1573229629.310711305	-1.2299	-2.10048	-1.71265	-1.56097	0.610718	0.742383	0.0235079	0.0233776	0.0230937	0.0234058	0.0224641	0.0230459	16.1144	82.5944	33.4923	4.93209	2.04966	2.54939	
98	1573229629.318683812	-1.22975	-2.10032	-1.71251	-1.56082	0.610868	0.742532	0.0233895	0.0232906	0.0229613	0.0233274	0.02247	0.0230537	16.127	82.621	33.5087	4.92855	2.03825	2.54472	
99	1573229629.326737425	-1.2296	-2.10017	-1.71236	-1.56066	0.611019	0.742678	0.023291	0.023169	0.0228505	0.0232671	0.0224508	0.0230636	16.1141	82.6007	33.4894	4.92957	2.04627	2.54906	
100	1573229629.334677318	-1.22945	-2.10002	-1.71222	-1.56051	0.611168	0.742825	0.0232152	0.0231087	0.0228355	0.0232278	0.022391	0.0229412	16.1012	82.53	33.467	4.92502	2.04711	2.54928	
101	1573229629.342682830	-1.2293	-2.09987	-1.71207	-1.56036	0.611321	0.742974	0.0231217	0.0230835	0.0228684	0.0231436	0.0223385	0.0228695	16.0948	82.5533	33.4868	4.93566	2.04693	2.55087	
102	1573229629.350660942	-1.22915	-2.09971	-1.71193	-1.56021	0.61147	0.743123	0.0229945	0.0230319	0.0228246	0.0230743	0.0222729	0.0228219	16.0958	82.577	33.5118	4.92903	2.04075	2.54547	
103	1573229629.358688483	-1.22901	-2.09956	-1.71178	-1.56005	0.611619	0.743272	0.0228463	0.0229919	0.0227988	0.0230268	0.0222148	0.022915	16.076	82.5589	33.508	4.94548	2.04718	2.55469	
104	1573229629.366698001	-1.22886	-2.0994	-1.71163	-1.5599	0.611768	0.743424	0.0227458	0.0229623	0.0228113	0.0229519	0.0221888	0.0230538	16.11	82.5617	33.517	4.93071	2.04322	2.548	
105	1573229629.374686748	-1.22871	-2.09925	-1.71149	-1.55976	0.61192	0.743574	0.0226822	0.0229176	0.022924	0.0228982	0.0221912	0.0230212	16.0706	82.5181	33.5051	4.93821	2.05629	2.55588	
106	1573229629.382710335	-1.22857	-2.09909	-1.71134	-1.55961	0.612071	0.743726	0.0225998	0.0229039	0.0230232	0.0228987	0.0223223	0.0229793	16.0876	82.5523	33.5577	4.94473	2.05678	2.55009	
107	1573229629.390711494	-1.22842	-2.09894	-1.71118	-1.55945	0.612226	0.743877	0.0225225	0.0228603	0.0230338	0.0229043	0.0224118	0.0230983	16.0847	82.5628	33.5625	4.93946	2.04544	2.5545	
108	1573229629.398709390	-1.22828	-2.09879	-1.71103	-1.5593	0.61238	0.744033	0.0224495	0.0227517	0.0231069	0.022939	0.0223441	0.0232262	16.081	82.5671	33.5756	4.93364	2.04603	2.55085	
109	1573229629.406717916	-1.22813	-2.09864	-1.71087	-1.55915	0.612533	0.74419	0.0224038	0.0226577	0.0231237	0.0229651	0.0222684	0.0232093	16.1009	82.5567	33.5841	4.92905	2.04241	2.54868	
110	1573229629.414710187	-1.22798	-2.09849	-1.71072	-1.559	0.612684	0.744343	0.0223684	0.022575	0.0231047	0.0230951	0.0223531	0.0231746	16.0774	82.5757	33.6092	4.945	2.06239	2.55357	
111	1573229629.422683956	-1.22783	-2.09834	-1.71057	-1.55884	0.612841	0.744499	0.022318	0.0225034	0.0231297	0.0232238	0.0224794	0.0231557	16.0784	82.5485	33.6	4.93945	2.04665	2.54944	
112	1573229629.430718039	-1.22769	-2.09819	-1.71041	-1.55869	0.612996	0.744654	0.0222198	0.0224707	0.0231018	0.0231918	0.0224423	0.0230349	16.0769	82.5288	33.6043	4.93447	2.03744	2.54299	
113	1573229629.438711789	-1.22754	-2.09803	-1.71025	-1.55853	0.613152	0.744807	0.0221145	0.022433	0.0230832	0.0231394	0.0223047	0.022936	16.0703	82.5478	33.6117	4.93712	2.03581	2.54687	
114	1573229629.446678775	-1.2274	-2.09789	-1.7101	-1.55838	0.613304	0.74496	0.0220476	0.02234	0.0232123	0.0230633	0.0223292	0.0230564	16.0733	82.5285	33.6224	4.9589	2.05634	2.55466	
115	1573229629.454780680	-1.22725	-2.09774	-1.70995	-1.55822	0.613459	0.745112	0.0219637	0.0222393	0.023318	0.0230212	0.022438	0.0231122	16.0634	82.5669	33.6645	4.94289	2.04147	2.5452	
116	1573229629.462710807	-1.22711	-2.09759	-1.70979	-1.55807	0.613613	0.745268	0.0218569	0.0221704	0.0233053	0.023032	0.0225393	0.0230723	16.0678	82.5391	33.6657	4.95285	2.05291	2.54813	
117	1573229629.470697127	-1.22696	-2.09744	-1.70963	-1.55791	0.613768	0.745422	0.0218079	0.0221522	0.0233461	0.0231509	0.0226449	0.0230764	16.0506	82.505	33.6574	4.94535	2.05721	2.55629	
118	1573229629.478869734	-1.22682	-2.09729	-1.70947	-1.55775	0.613921	0.745574	0.0217624	0.0221446	0.0235153	0.0232849	0.0226097	0.0230718	16.0435	82.4791	33.6608	4.94911	2.05295	2.5546	
119	1573229629.486674027	-1.22667	-2.09713	-1.70931	-1.55759	0.614076	0.74573	0.0217093	0.0221231	0.0235487	0.0233246	0.0225603	0.023026	16.0813	82.5578	33.7186	4.93865	2.03601	2.54221	
120	1573229629.494702876	-1.22653	-2.09698	-1.70915	-1.55743	0.614233	0.745885	0.0216614	0.0220475	0.0234886	0.0233417	0.0225085	0.0229749	16.0722	82.5454	33.7104	4.94316	2.04006	2.54567	
121	1573229629.502668077	-1.22638	-2.09683	-1.70899	-1.55727	0.614386	0.746041	0.0216328	0.0219948	0.0235151	0.0233601	0.022579	0.0229638	16.0732	82.5025	33.7078	4.95383	2.05345	2.54887	
122	1573229629.510666024	-1.22624	-2.09668	-1.70883	-1.55711	0.614542	0.746196	0.0216228	0.0219941	0.0235037	0.0233789	0.0226651	0.0229247	16.0734	82.5183	33.7234	4.94392	2.04167	2.54522	
123	1573229629.518666706	-1.22609	-2.09653	-1.70867	-1.55695	0.6147	0.746353	0.0215957	0.0219581	0.0234451	0.0234139	0.0226534	0.0229269	16.0847	82.5412	33.735	4.94487	2.04055	2.54541	
124	1573229629.526709786	-1.22595	-2.09638	-1.70851	-1.55679	0.614855	0.746508	0.021577	0.0218865	0.0234257	0.0234427	0.0227432	0.0229429	16.0663	82.5297	33.7413	4.95855	2.04946	2.54578	
125	1573229629.534691080	-1.2258	-2.09624	-1.70835	-1.55663	0.615016	0.746665	0.0215486	0.0219614	0.0234067	0.0233747	0.0228478	0.0229159	16.0684	82.4217	33.7042	4.95076	2.04209	2.54581	
126	1573229629.542689283	-1.22565	-2.09608	-1.70819	-1.55647	0.615177	0.746824	0.0215687	0.022036	0.0232845	0.0232446	0.0229548	0.0230047	16.1081	82.5492	33.7579	4.95501	2.0405	2.54262	
127	1573229629.550681938	-1.2255	-2.09593	-1.70803	-1.55631	0.615339	0.746983	0.0216771	0.0219707	0.023221	0.023138	0.0230724	0.023043	16.1378	82.5053	33.7193	4.93128	2.0407	2.54273	
128	1573229629.558738260	-1.22535	-2.09578	-1.70787	-1.55615	0.6155	0.747142	0.0217813	0.0220394	0.0231569	0.0230626	0.023061	0.0230891	16.0855	82.4364	33.7197	4.95159	2.04224	2.55005	
129	1573229629.566681839	-1.2252	-2.09563	-1.70771	-1.556	0.615661	0.747302	0.0218035	0.0221249	0.0230636	0.0231252	0.0230401	0.0232017	16.075	82.5224	33.7487	4.94866	2.04701	2.54892	
130	1573229629.574654100	-1.22505	-2.09548	-1.70755	-1.55584	0.61582	0.747464	0.0218067	0.0220936	0.0231396	0.0231646	0.0230055	0.0231889	16.0678	82.4733	33.7288	4.95367	2.04297	2.54737	
131	1573229629.582672110	-1.2249	-2.09532	-1.70739	-1.55568	0.615981	0.747624	0.0219049	0.0220924	0.0231519	0.0230754	0.0229715	0.0231765	16.1495	82.4946	33.7547	4.93411	2.03496	2.54251	
132	1573229629.590708391	-1.22474	-2.09517	-1.70723	-1.55552	0.616144	0.747785	0.0221059	0.0220783	0.0230682	0.0230042	0.0230628	0.0232006	16.1473	82.4992	33.7554	4.94484	2.04524	2.54418	
133	1573229629.598722559	-1.22459	-2.09502	-1.70708	-1.55536	0.616312	0.747948	0.0222134	0.0221633	0.0230543	0.0229609	0.0231813	0.0231318	16.0774	82.412	33.7353	4.95222	2.0482	2.54775	
134	1573229629.606682284	-1.22443	-2.09486	-1.70692	-1.5552	0.616475	0.74811	0.0222237	0.0222606	0.0230094	0.0230338	0.0232708	0.0230375	16.0773	82.5278	33.7956	4.96078	2.05166	2.54576	
135	1573229629.614657643	-1.22427	-2.0947	-1.70676	-1.55505	0.616641	0.748271	0.0222264	0.0222284	0.0229208	0.0231972	0.0233123	0.0231082	16.0901	82.5324	33.7944	4.95307	2.04006	2.54814	
136	1573229629.622703461	-1.22411	-2.09455	-1.7066	-1.55488	0.616803	0.74843	0.0222167	0.0222915	0.0229599	0.0232501	0.0231943	0.0231354	16.0454	82.3906	33.7375	4.96146	2.04641	2.55047	
137	1573229629.630679097	-1.22395	-2.09439	-1.70644	-1.55472	0.616964	0.748591	0.022291	0.0223475	0.0229791	0.0232993	0.0231049	0.0230419	16.1427	82.533	33.8064	4.93653	2.03904	2.54265	
138	1573229629.638690465	-1.22379	-2.09423	-1.70629	-1.55456	0.617125	0.748752	0.0223528	0.0222683	0.0228592	0.0233518	0.0230409	0.0229642	16.0948	82.5337	33.8134	4.95533	2.02909	2.53736	
139	1573229629.646667321	-1.22363	-2.09408	-1.70613	-1.5544	0.617288	0.748912	0.022421	0.022193	0.0228788	0.0232564	0.0229517	0.0229079	16.1394	82.4732	33.7746	4.94375	2.03503	2.54335	
140	1573229629.654677980	-1.22348	-2.09392	-1.70598	-1.55424	0.61745	0.749072	0.0224807	0.0221324	0.0228756	0.0231834	0.0229808	0.022976	16.1039	82.5445	33.8481	4.97016	2.03693	2.54043	
141	1573229629.662667563	-1.22331	-2.09376	-1.70582	-1.55408	0.617612	0.749231	0.0225598	0.0221903	0.0227428	0.0231301	0.0230249	0.0230088	16.1406	82.4071	33.772	4.94373	2.0379	2.54396	
142	1573229629.670692562	-1.22315	-2.09361	-1.70566	-1.55392	0.617774	0.749393	0.0227401	0.0222503	0.0227755	0.0230789	0.0229628	0.0229412	16.1382	82.4552	33.7874	4.94721	2.0405	2.5457	
143	1573229629.678686831	-1.22299	-2.09345	-1.70551	-1.55376	0.617934	0.749552	0.0229293	0.0223214	0.0228163	0.023135	0.0228878	0.022895	16.1315	82.4086	33.7979	4.9476	2.04579	2.54933	
144	1573229629.686680681	-1.22282	-2.09329	-1.70535	-1.5536	0.618095	0.749711	0.0230362	0.0223908	0.0228591	0.0231237	0.0228204	0.0228267	16.1091	82.4693	33.8245	4.96177	2.0332	2.54073	
145	1573229629.694735664	-1.22265	-2.09313	-1.70519	-1.55344	0.618254	0.74987	0.023136	0.0224597	0.0228862	0.0230366	0.0227563	0.0228678	16.1528	82.4152	33.8252	4.95353	2.03752	2.54709	
146	1573229629.702676351	-1.22248	-2.09297	-1.70503	-1.55328	0.618416	0.750032	0.0232283	0.0225517	0.0228027	0.0229889	0.0226777	0.023031	16.1206	82.4943	33.8612	4.96367	2.02846	2.54244	
147	1573229629.710664208	-1.22231	-2.09281	-1.70487	-1.55312	0.618577	0.750196	0.0232322	0.0226352	0.0228555	0.0230355	0.0227021	0.0231982	16.0766	82.4067	33.8408	4.98158	2.05729	2.55611	
148	1573229629.718700345	-1.22214	-2.09264	-1.70471	-1.55296	0.61874	0.75036	0.0232245	0.0227158	0.022843	0.0231728	0.0227265	0.0232712	16.1071	82.5186	33.8985	4.96234	2.03173	2.54148	
149	1573229629.726671768	-1.22197	-2.09248	-1.70455	-1.55279	0.618902	0.750523	0.0232107	0.0227873	0.0228431	0.0233122	0.0227562	0.0232175	16.0712	82.4024	33.8526	4.97968	2.05645	2.55209	
150	1573229629.734673438	-1.22181	-2.09232	-1.70439	-1.55263	0.619065	0.750687	0.0232952	0.0228525	0.0228657	0.0233616	0.0228017	0.0232534	16.1717	82.494	33.8937	4.95582	2.02916	2.54175	
151	1573229629.742672358	-1.22164	-2.09215	-1.70424	-1.55246	0.619227	0.750851	0.0233715	0.0229289	0.0228898	0.0233147	0.0227377	0.02326	16.0876	82.3935	33.863	4.9717	2.03973	2.54642	
152	1573229629.750655776	-1.22147	-2.09199	-1.70407	-1.5523	0.619389	0.751018	0.0234446	0.0229643	0.0229045	0.0233637	0.0227644	0.0232839	16.1703	82.5317	33.9364	4.96351	2.03913	2.54324	
153	1573229629.758693878	-1.22129	-2.09182	-1.70391	-1.55213	0.619553	0.751182	0.0235146	0.0230092	0.022917	0.0233891	0.0229027	0.0232783	16.0936	82.3994	33.8897	4.98176	2.04579	2.54486	
154	1573229629.766661640	-1.22112	-2.09165	-1.70375	-1.55196	0.619721	0.751348	0.023585	0.0230566	0.0229024	0.0233283	0.0229146	0.0231735	16.1845	82.5035	33.9344	4.94855	2.02189	2.53518	
155	1573229629.774670138	-1.22095	-2.09149	-1.70359	-1.5518	0.619884	0.751511	0.023658	0.0231203	0.0229026	0.0233822	0.0229071	0.023077	16.0875	82.4026	33.9105	4.98296	2.05335	2.5493	
156	1573229629.782680095	-1.22078	-2.09132	-1.70343	-1.55163	0.620047	0.751673	0.0237362	0.0231837	0.0228766	0.0234043	0.0229364	0.0229482	16.1925	82.5016	33.9512	4.95169	2.02175	2.53198	
157	1573229629.790734745	-1.22061	-2.09115	-1.70326	-1.55146	0.620211	0.751835	0.0238085	0.023242	0.0228573	0.0234281	0.0228674	0.0229462	16.0902	82.4015	33.9237	4.98273	2.0451	2.55172	
158	1573229629.798691008	-1.22043	-2.09098	-1.7031	-1.5513	0.620373	0.751997	0.0238804	0.0233149	0.0228396	0.0234599	0.0228034	0.0229449	16.1904	82.4939	33.9638	4.95597	2.02371	2.53345	
159	1573229629.806673644	-1.22026	-2.09081	-1.70294	-1.55113	0.62054	0.752158	0.0239421	0.0232916	0.0228376	0.0235013	0.0227783	0.0228481	16.1032	82.4716	33.9637	4.97956	2.03896	2.54355	
160	1573229629.814689846	-1.22008	-2.09064	-1.70277	-1.55096	0.620705	0.75232	0.0238908	0.0232483	0.0229732	0.0235388	0.0228271	0.0227888	16.1119	82.4815	33.9911	4.98865	2.03691	2.53886	
161	1573229629.822687792	-1.21991	-2.09047	-1.7026	-1.55079	0.620871	0.752479	0.0239341	0.0233012	0.0230028	0.0234659	0.0228394	0.0228161	16.1759	82.4122	33.9753	4.96716	2.02653	2.54024	
162	1573229629.830664539	-1.21974	-2.0903	-1.70244	-1.55063	0.621037	0.752642	0.0239776	0.0233491	0.0229382	0.0233332	0.0228653	0.0228492	16.1398	82.5003	34.0204	4.98443	2.02674	2.53224	
163	1573229629.838684549	-1.21956	-2.09013	-1.70228	-1.55046	0.621204	0.752802	0.0240303	0.0233123	0.0228206	0.0232231	0.0228739	0.0227756	16.1941	82.4869	34.006	4.95849	2.01904	2.53174	
164	1573229629.846682397	-1.21938	-2.08997	-1.70211	-1.55029	0.621371	0.752962	0.024071	0.0233689	0.0228047	0.0231004	0.0228971	0.022666	16.1094	82.3972	33.9819	4.99208	2.03652	2.53819	
165	1573229629.854673882	-1.21921	-2.0898	-1.70195	-1.55013	0.621537	0.753123	0.0241014	0.0234043	0.0227349	0.0229493	0.0228999	0.0226653	16.2093	82.5091	34.0312	4.96166	2.01283	2.53032	
166	1573229629.862679317	-1.21903	-2.08963	-1.70179	-1.54997	0.621705	0.753284	0.0241406	0.0234479	0.0226766	0.0229311	0.0228161	0.022778	16.0902	82.3988	33.9932	4.99105	2.03985	2.54811	
167	1573229629.870703721	-1.21886	-2.08945	-1.70162	-1.54981	0.621869	0.753448	0.0240445	0.0234998	0.0226819	0.0230303	0.0227335	0.0228995	16.1081	82.5072	34.0569	4.98811	2.02469	2.53805	
168	1573229629.878686809	-1.21869	-2.08928	-1.70146	-1.54964	0.622033	0.753613	0.0239384	0.0235516	0.0226987	0.0230323	0.0225941	0.0230221	16.0969	82.392	34.0064	4.98926	2.02768	2.54411	
169	1573229629.886721258	-1.21851	-2.08911	-1.70129	-1.54948	0.622197	0.753781	0.0238651	0.0236059	0.0226903	0.0230481	0.0225643	0.0231519	16.1202	82.5134	34.0792	4.99305	2.02996	2.53805	
170	1573229629.894680690	-1.21834	-2.08893	-1.70113	-1.54931	0.62236	0.753948	0.0237457	0.0235616	0.0226989	0.023038	0.0225163	0.0232698	16.0892	82.4726	34.0585	4.99356	2.0176	2.538	
171	1573229629.902691382	-1.21817	-2.08876	-1.70097	-1.54915	0.622523	0.754118	0.0236155	0.0235118	0.0226394	0.0229429	0.0223379	0.0232969	16.1318	82.512	34.0884	4.97719	2.00712	2.52827	
172	1573229629.910692538	-1.218	-2.08859	-1.7008	-1.54899	0.622685	0.754285	0.0235085	0.0235393	0.0226075	0.0229473	0.0222014	0.0233188	16.0615	82.3994	34.0472	4.9991	2.03345	2.54708	
173	1573229629.918675240	-1.21783	-2.08842	-1.70063	-1.54882	0.622844	0.754455	0.0233887	0.023528	0.0225878	0.0230351	0.0221923	0.023315	16.1128	82.5444	34.1201	4.99011	2.02228	2.53059	
174	1573229629.926668668	-1.21766	-2.08825	-1.70047	-1.54866	0.623002	0.754623	0.0232759	0.0234285	0.0225702	0.0229969	0.0222773	0.0233112	16.0949	82.465	34.0864	5.00399	2.0252	2.53699	
175	1573229629.934661372	-1.21749	-2.08808	-1.70031	-1.5485	0.623164	0.754792	0.0231761	0.0233357	0.0225265	0.0229681	0.0222745	0.0233237	16.1161	82.5226	34.1225	4.98152	2.01484	2.53086	
176	1573229629.942669502	-1.21733	-2.08791	-1.70014	-1.54833	0.623325	0.754962	0.0230981	0.0233373	0.0224975	0.0229566	0.0222715	0.0233407	16.0765	82.3904	34.0734	5.00728	2.03247	2.54219	
177	1573229629.950667625	-1.21716	-2.08774	-1.69998	-1.54817	0.623486	0.755132	0.0229793	0.0233519	0.0224353	0.0229573	0.0223607	0.023448	16.0963	82.5202	34.144	5.00032	2.02216	2.53401	
178	1573229629.958713374	-1.217	-2.08757	-1.69982	-1.54801	0.623647	0.755301	0.0228827	0.0232682	0.0223846	0.0230342	0.0224442	0.0235476	16.0805	82.4589	34.1083	5.0039	2.03348	2.5419	
179	1573229629.966726065	-1.21683	-2.0874	-1.69965	-1.54784	0.623812	0.755473	0.0228102	0.0232865	0.0223626	0.0231087	0.0225486	0.0235268	16.0831	82.4163	34.1108	4.99692	2.03051	2.53635	
180	1573229629.974700802	-1.21667	-2.08723	-1.69949	-1.54768	0.623974	0.755642	0.0226899	0.0233031	0.0223417	0.0230911	0.0226282	0.0234009	16.0638	82.4515	34.1197	5.00791	2.02557	2.53363	
181	1573229629.982666256	-1.2165	-2.08706	-1.69933	-1.54751	0.624143	0.755811	0.0226561	0.0233287	0.0223437	0.0229957	0.0227302	0.0232788	16.1306	82.3861	34.1014	4.98676	2.02703	2.534	
182	1573229629.990691948	-1.21634	-2.08689	-1.69916	-1.54735	0.62431	0.755981	0.0226226	0.0234398	0.0223516	0.0229783	0.022824	0.0232675	16.0394	82.3886	34.1213	5.01532	2.03879	2.5444	
183	1573229629.998772872	-1.21618	-2.08672	-1.699	-1.54719	0.624479	0.756152	0.0224547	0.0235481	0.0223098	0.0230572	0.0228323	0.0232851	16.0519	82.4213	34.1477	5.0015	2.02261	2.53498	
184	1573229630.006714033	-1.21602	-2.08655	-1.69884	-1.54702	0.624645	0.756319	0.0223085	0.0235628	0.0222856	0.0231372	0.0228373	0.0231907	16.0586	82.4566	34.1526	5.00607	2.03124	2.53596	
185	1573229630.014696659	-1.21586	-2.08637	-1.69867	-1.54685	0.624815	0.756488	0.0221702	0.0235829	0.0222067	0.0232144	0.0228457	0.0231874	16.0545	82.4291	34.1651	5.00492	2.01961	2.53526	
186	1573229630.022692809	-1.2157	-2.0862	-1.69851	-1.54669	0.624986	0.756656	0.0221256	0.0235912	0.0221503	0.023278	0.0227806	0.0231848	16.102	82.4285	34.1354	4.98726	2.02548	2.53671	
187	1573229630.030735531	-1.21554	-2.08603	-1.69835	-1.54652	0.625154	0.756824	0.0221997	0.0235948	0.0220997	0.0232678	0.0226966	0.0230804	16.1267	82.3909	34.1388	4.98399	2.01414	2.52966	
188	1573229630.038704882	-1.21538	-2.08586	-1.69818	-1.54635	0.625321	0.756991	0.0222693	0.0235555	0.0220621	0.0231329	0.022696	0.0230618	16.1317	82.464	34.1616	4.99813	2.01853	2.53101	
189	1573229630.046677749	-1.21522	-2.08569	-1.69802	-1.54618	0.625487	0.757158	0.0222395	0.0233637	0.022165	0.0230934	0.0227737	0.0230441	16.0622	82.4876	34.2019	5.00889	2.02532	2.53165	
190	1573229630.054681868	-1.21506	-2.08552	-1.69785	-1.54601	0.625654	0.757323	0.0222237	0.0231977	0.0222654	0.0231742	0.0227304	0.0229167	16.1039	82.4213	34.1798	4.98711	2.02103	2.53439	
191	1573229630.062659828	-1.2149	-2.08536	-1.69769	-1.54584	0.625823	0.757486	0.0222084	0.0230698	0.0223695	0.0232415	0.022706	0.0227833	16.0621	82.4479	34.224	5.01028	2.02695	2.53233	
192	1573229630.070700614	-1.21474	-2.08519	-1.69752	-1.54567	0.62599	0.757652	0.0221995	0.0230331	0.0223716	0.0233191	0.0226972	0.0227654	16.1036	82.3674	34.2035	4.99619	2.02269	2.53696	
193	1573229630.078696597	-1.21458	-2.08502	-1.69735	-1.5455	0.626156	0.757819	0.0221762	0.0230037	0.0223996	0.0232542	0.0226858	0.0228499	16.0721	82.442	34.2437	5.01936	2.01681	2.52939	
194	1573229630.086677708	-1.21441	-2.08486	-1.69718	-1.54533	0.626325	0.757986	0.0220712	0.0229758	0.0225081	0.0232128	0.0227693	0.0229294	16.0431	82.3589	34.2346	5.021	2.03341	2.54025	
195	1573229630.094667596	-1.21425	-2.08469	-1.69701	-1.54516	0.62649	0.758154	0.0219718	0.0229293	0.0226273	0.0232006	0.0228334	0.0230081	16.0693	82.4438	34.2814	5.01871	2.01919	2.53071	
196	1573229630.102920571	-1.21409	-2.08453	-1.69684	-1.54499	0.626662	0.758323	0.0219552	0.0228899	0.0228603	0.0230809	0.0229237	0.0229807	16.0793	82.3018	34.2369	5.00904	2.03267	2.53763	
197	1573229630.110665763	-1.21394	-2.08436	-1.69666	-1.54482	0.626833	0.75849	0.0219235	0.0229549	0.0230784	0.0230403	0.0230055	0.022953	16.0324	82.3544	34.3096	5.02496	2.03348	2.53976	
198	1573229630.118684508	-1.21377	-2.0842	-1.69648	-1.54465	0.627004	0.758662	0.02191	0.0229336	0.0232148	0.0231004	0.0230858	0.0230415	16.0975	82.4111	34.34	5.00825	2.02857	2.53616	
199	1573229630.126703590	-1.21361	-2.08403	-1.6963	-1.54449	0.627176	0.758832	0.0219816	0.0229032	0.0233436	0.0231564	0.0231707	0.0231265	16.0836	82.3359	34.3342	5.01244	2.03422	2.54048	
200	1573229630.134690483	-1.21345	-2.08387	-1.69612	-1.54431	0.627348	0.759004	0.0220509	0.0229588	0.0234643	0.0231379	0.0232496	0.0232079	16.0979	82.3293	34.3474	5.01311	2.0279	2.53699	
201	1573229630.142673474	-1.21329	-2.0837	-1.69594	-1.54414	0.627523	0.759179	0.0221279	0.0230198	0.0235951	0.0231324	0.0233321	0.0233067	16.0881	82.3354	34.3735	5.01366	2.03441	2.54068	
202	1573229630.150673025	-1.21312	-2.08354	-1.69575	-1.54397	0.627698	0.759353	0.0222115	0.0230835	0.0235589	0.023203	0.0234124	0.0233939	16.1168	82.3743	34.4085	5.00807	2.0243	2.53378	
203	1573229630.158706653	-1.21296	-2.08337	-1.69557	-1.5438	0.627874	0.759529	0.022288	0.0231469	0.0235345	0.0232686	0.0234918	0.023485	16.0922	82.3343	34.3855	5.01575	2.0342	2.54073	
204	1573229630.166670788	-1.21279	-2.0832	-1.69539	-1.54362	0.62805	0.759708	0.0223747	0.0232067	0.0236419	0.0233464	0.0235692	0.0235842	16.095	82.3326	34.4033	5.01689	2.03409	2.54062	
205	1573229630.174681170	-1.21262	-2.08303	-1.69521	-1.54345	0.628228	0.759887	0.0224548	0.0232758	0.0236286	0.0234135	0.0236566	0.0236767	16.1182	82.3676	34.4365	5.01292	2.02629	2.53518	
206	1573229630.183208903	-1.21245	-2.08286	-1.69503	-1.54327	0.628408	0.760067	0.0225441	0.0233402	0.0235311	0.0234836	0.0237455	0.0237724	16.1155	82.3574	34.4306	5.01484	2.02794	2.53655	
207	1573229630.190690855	-1.21228	-2.08269	-1.69485	-1.5431	0.62859	0.760244	0.0226327	0.0234121	0.0235485	0.0235562	0.02375	0.0238525	16.0996	82.3251	34.4162	5.0135	2.02767	2.54083	
208	1573229630.198676067	-1.21211	-2.08251	-1.69467	-1.54292	0.62877	0.760424	0.0227293	0.023484	0.0236545	0.0236408	0.0237528	0.0239388	16.1042	82.3318	34.4406	5.02099	2.0336	2.54079	
209	1573229630.206674857	-1.21194	-2.08234	-1.69449	-1.54274	0.628951	0.760603	0.0228227	0.0235518	0.0236457	0.0237274	0.0238397	0.0239196	16.1238	82.3562	34.4661	5.01329	2.02643	2.53274	
210	1573229630.214663711	-1.21176	-2.08217	-1.69431	-1.54256	0.629128	0.760783	0.0229213	0.0236223	0.0236425	0.0238001	0.0239053	0.0239022	16.1087	82.3303	34.4574	5.02371	2.0336	2.54049	
211	1573229630.222690519	-1.21158	-2.08199	-1.69413	-1.54237	0.629311	0.760964	0.0230147	0.0236904	0.0237428	0.023879	0.0239909	0.0239991	16.1119	82.3288	34.4744	5.02469	2.03344	2.54028	
212	1573229630.230678896	-1.21141	-2.08181	-1.69395	-1.54219	0.629494	0.761146	0.0231126	0.0237629	0.0238319	0.0238583	0.0240774	0.0240837	16.1295	82.3235	34.4859	5.02503	2.02565	2.53579	
213	1573229630.238680916	-1.21123	-2.08164	-1.69377	-1.54201	0.629676	0.761327	0.0232152	0.0238394	0.0239274	0.0238483	0.0240653	0.0240785	16.1153	82.3171	34.4983	5.01525	2.02711	2.53766	
214	1573229630.246675713	-1.21105	-2.08146	-1.69358	-1.54183	0.629861	0.76151	0.0233148	0.0239094	0.0239318	0.0239342	0.0240779	0.0240773	16.136	82.3516	34.5363	5.02311	2.027	2.53572	
215	1573229630.254675856	-1.21087	-2.08128	-1.6934	-1.54164	0.630044	0.761693	0.0234267	0.0239934	0.0239439	0.0240195	0.0241609	0.0240727	16.1222	82.3195	34.5225	5.02405	2.03309	2.53725	
216	1573229630.262696361	-1.21068	-2.0811	-1.69322	-1.54146	0.630228	0.761876	0.0235322	0.0240793	0.0240455	0.0240963	0.024239	0.0240679	16.1263	82.3238	34.5448	5.0293	2.0331	2.53963	
217	1573229630.271064306	-1.2105	-2.08091	-1.69303	-1.54127	0.630412	0.762058	0.0236528	0.0241639	0.0241398	0.0241793	0.0243148	0.0241481	16.1284	82.3208	34.561	5.03065	2.03339	2.53984	
218	1573229630.278698120	-1.21031	-2.08073	-1.69284	-1.54108	0.630599	0.762242	0.0237671	0.0242571	0.024244	0.0242677	0.0244009	0.0242345	16.1314	82.3218	34.5798	5.03212	2.03356	2.5399	
219	1573229630.286680805	-1.21012	-2.08054	-1.69266	-1.5409	0.630788	0.762427	0.0238909	0.024357	0.0243405	0.0243549	0.0244947	0.0243199	16.1358	82.3207	34.597	5.03292	2.0334	2.53974	
220	1573229630.294696752	-1.20994	-2.08035	-1.69247	-1.54071	0.630979	0.762613	0.024005	0.0244578	0.0244445	0.0244414	0.0245938	0.0244043	16.1374	82.3199	34.6151	5.03473	2.03371	2.54004	
221	1573229630.302684471	-1.20974	-2.08016	-1.69228	-1.54052	0.63117	0.7628	0.0241314	0.024561	0.024548	0.0245228	0.0246896	0.0244981	16.1417	82.3194	34.6335	5.03565	2.03384	2.53999	
222	1573229630.310669136	-1.20955	-2.07997	-1.69209	-1.54033	0.631361	0.76299	0.0242569	0.0246674	0.0246528	0.0246086	0.0247824	0.0245976	16.1445	82.3187	34.6516	5.03696	2.034	2.54011	
223	1573229630.318691142	-1.20936	-2.07978	-1.6919	-1.54014	0.631552	0.763177	0.0243718	0.0247685	0.0247528	0.024694	0.0248745	0.0246806	16.1478	82.3179	34.6696	5.03807	2.03392	2.54014	
224	1573229630.326671201	-1.20916	-2.07958	-1.69171	-1.53995	0.631748	0.763368	0.024502	0.0248689	0.0248566	0.0247785	0.0249815	0.024776	16.1517	82.3169	34.6876	5.03927	2.03412	2.54027	
225	1573229630.334711287	-1.20897	-2.07939	-1.69151	-1.53975	0.631945	0.763561	0.0246296	0.0249741	0.0249584	0.0248706	0.0250878	0.0248796	16.1532	82.3139	34.7048	5.04078	2.03468	2.5406	
226	1573229630.342699335	-1.20877	-2.07919	-1.69132	-1.53956	0.632142	0.763755	0.0247622	0.025081	0.0250716	0.0249618	0.0251915	0.0249839	16.1581	82.3151	34.7249	5.04187	2.03449	2.54057	
227	1573229630.350688968	-1.20857	-2.079	-1.69112	-1.53936	0.632339	0.76395	0.0249005	0.0251769	0.0251846	0.0250504	0.0252874	0.0250905	16.1611	82.3143	34.744	5.04283	2.03437	2.54056	
228	1573229630.358745341	-1.20837	-2.0788	-1.69093	-1.53917	0.632538	0.764145	0.0250373	0.0252707	0.0252994	0.0251384	0.0253846	0.0251855	16.165	82.3127	34.763	5.04396	2.03455	2.5407	
229	1573229630.366752451	-1.20817	-2.07861	-1.69073	-1.53897	0.632737	0.764343	0.0251732	0.0253725	0.0254185	0.0252316	0.0254792	0.0252916	16.1696	82.3124	34.7831	5.04484	2.03474	2.54081	
230	1573229630.374693561	-1.20796	-2.07841	-1.69053	-1.53877	0.632937	0.764543	0.0253305	0.0254718	0.0255368	0.0253331	0.0255753	0.025401	16.1727	82.3093	34.8023	5.04678	2.03513	2.54102	
231	1573229630.382661176	-1.20775	-2.07821	-1.69032	-1.53857	0.633138	0.764744	0.0254806	0.0255863	0.0256623	0.0254288	0.0256776	0.0255124	16.1762	82.3092	34.8232	5.04818	2.03515	2.5411	
232	1573229630.390690083	-1.20754	-2.078	-1.69012	-1.53837	0.633341	0.764946	0.0256184	0.0256966	0.0257783	0.0255337	0.0257786	0.0256282	16.1799	82.3081	34.8426	5.04944	2.03523	2.54128	
233	1573229630.398682938	-1.20734	-2.0778	-1.68991	-1.53817	0.633544	0.76515	0.0257586	0.0258032	0.0259078	0.0256348	0.0258801	0.0257447	16.1835	82.3076	34.8637	5.05076	2.03513	2.54125	
234	1573229630.406673353	-1.20713	-2.0776	-1.6897	-1.53797	0.633748	0.765354	0.0259046	0.0259151	0.0260407	0.0257269	0.0259773	0.0258585	16.1885	82.3062	34.8848	5.05164	2.03538	2.54145	
235	1573229630.414661481	-1.20691	-2.07739	-1.6895	-1.53776	0.633952	0.765558	0.0260533	0.0260371	0.026156	0.0258228	0.0260712	0.0259659	16.1916	82.305	34.9044	5.05323	2.03555	2.54153	
236	1573229630.422695569	-1.2067	-2.07719	-1.68929	-1.53756	0.634156	0.765765	0.0261945	0.0261482	0.0262775	0.0259155	0.0261664	0.0260792	16.1954	82.3041	34.9249	5.05477	2.03561	2.54161	
237	1573229630.430688074	-1.20649	-2.07698	-1.68908	-1.53736	0.63436	0.765972	0.0263355	0.0262703	0.0263939	0.0259034	0.0262579	0.026194	16.2143	82.2996	34.9409	5.05562	2.02752	2.53691	
238	1573229630.438690376	-1.20628	-2.07676	-1.68887	-1.53715	0.634564	0.766179	0.0264723	0.0263978	0.0264257	0.0259024	0.0263443	0.0263021	16.2176	82.3267	34.9756	5.05268	2.0302	2.53797	
239	1573229630.446730787	-1.20606	-2.07655	-1.68866	-1.53694	0.63477	0.766386	0.0266186	0.0265167	0.0264545	0.026003	0.0264338	0.0264016	16.2067	82.3018	34.9711	5.05787	2.03596	2.54183	
240	1573229630.454696436	-1.20585	-2.07634	-1.68845	-1.53674	0.634975	0.766593	0.0267544	0.0266327	0.0265632	0.0261095	0.0265228	0.026498	16.2094	82.3002	34.9904	5.05953	2.03597	2.54198	
241	1573229630.462668779	-1.20563	-2.07613	-1.68825	-1.53653	0.63518	0.766803	0.0268898	0.0267619	0.0266657	0.026207	0.0266088	0.0266056	16.2138	82.2999	35.0093	5.06056	2.03572	2.54193	
242	1573229630.470688829	-1.20541	-2.07591	-1.68804	-1.53632	0.635387	0.767011	0.0270292	0.0268877	0.0267738	0.0261982	0.0266939	0.0267015	16.2327	82.2945	35.0243	5.06169	2.02794	2.53736	
243	1573229630.478697305	-1.20519	-2.0757	-1.68783	-1.53611	0.635596	0.76722	0.0271592	0.0270093	0.0268785	0.0261967	0.0267865	0.0268003	16.2205	82.2964	35.0479	5.06275	2.03608	2.54212	
244	1573229630.486701979	-1.20497	-2.07548	-1.68761	-1.53591	0.635804	0.767431	0.0272991	0.0271298	0.0268894	0.02629	0.0268723	0.0268976	16.2396	82.3227	35.0789	5.06029	2.0301	2.53788	
245	1573229630.494689342	-1.20475	-2.07526	-1.68741	-1.5357	0.636014	0.767643	0.0274297	0.0272449	0.0268913	0.0263869	0.0269666	0.0269105	16.227	82.2916	35.0666	5.06116	2.03633	2.53945	
246	1573229630.502687562	-1.20453	-2.07505	-1.6872	-1.53549	0.636226	0.767854	0.0275527	0.0273568	0.0268701	0.026491	0.0270664	0.0269194	16.25	82.3244	35.1021	5.06247	2.02917	2.53674	
247	1573229630.510706851	-1.20432	-2.07483	-1.68699	-1.53528	0.63644	0.768065	0.0276701	0.0274825	0.0268611	0.0264954	0.0271729	0.0270192	16.2454	82.2895	35.0851	5.06833	2.02984	2.53797	
248	1573229630.518685262	-1.20409	-2.07461	-1.68678	-1.53507	0.636652	0.768278	0.0277094	0.0275988	0.0269605	0.0265011	0.0272674	0.0271198	16.1924	82.3058	35.1225	5.08165	2.03516	2.54108	
249	1573229630.526697104	-1.20387	-2.07439	-1.68657	-1.53486	0.636871	0.76849	0.0277451	0.027721	0.027051	0.0265972	0.0273802	0.0272107	16.2343	82.2877	35.1246	5.07049	2.03683	2.54221	
250	1573229630.534694406	-1.20366	-2.07416	-1.68636	-1.53465	0.637087	0.768703	0.0278533	0.0278388	0.0271497	0.0266863	0.0274767	0.0273052	16.2373	82.2896	35.1452	5.07184	2.03681	2.54217	
251	1573229630.542640671	-1.20344	-2.07394	-1.68614	-1.53443	0.637302	0.768915	0.0279617	0.0279495	0.0272548	0.0267875	0.0275681	0.0273917	16.2394	82.287	35.1639	5.07341	2.03716	2.54235	
252	1573229630.550750788	-1.20322	-2.07372	-1.68593	-1.53422	0.637523	0.76913	0.0280655	0.0280604	0.0273619	0.0268826	0.0276766	0.027486	16.2424	82.2859	35.1839	5.07466	2.03712	2.54237	
253	1573229630.559011039	-1.203	-2.0735	-1.68571	-1.53401	0.637742	0.769346	0.0281595	0.028161	0.027473	0.0269785	0.027773	0.0275852	16.2447	82.2831	35.203	5.07595	2.03721	2.54253	
254	1573229630.566706615	-1.20278	-2.07328	-1.6855	-1.53379	0.637959	0.769563	0.0282589	0.0282566	0.0275726	0.0270717	0.0277662	0.0276864	16.2461	82.2765	35.2172	5.07007	2.03014	2.54243	
255	1573229630.574659878	-1.20256	-2.07306	-1.68528	-1.53358	0.638175	0.769782	0.0283551	0.0283488	0.0275857	0.0271614	0.0277623	0.0277949	16.2651	82.3054	35.2528	5.07492	2.03079	2.53851	
256	1573229630.582661492	-1.20234	-2.07283	-1.68506	-1.53336	0.638394	0.770002	0.0284419	0.0283478	0.0276161	0.0272572	0.0278514	0.0278945	16.2685	82.3575	35.2762	5.07665	2.03011	2.5377	
257	1573229630.590663460	-1.20212	-2.07261	-1.68484	-1.53315	0.638612	0.770222	0.0284501	0.0283445	0.027726	0.0273531	0.027939	0.0279971	16.2103	82.289	35.283	5.09408	2.03518	2.54175	
258	1573229630.598660460	-1.2019	-2.07239	-1.68462	-1.53293	0.638831	0.770443	0.0284578	0.0283284	0.0278349	0.0274536	0.0280232	0.0280935	16.2692	82.3525	35.3168	5.07955	2.03	2.53768	
259	1573229630.606667247	-1.20167	-2.07217	-1.6844	-1.53271	0.639052	0.770665	0.0285464	0.0282305	0.027943	0.0275455	0.0281154	0.0281976	16.27	82.3351	35.3322	5.08101	2.03099	2.53848	
260	1573229630.614695804	-1.20145	-2.07195	-1.68418	-1.53249	0.639272	0.770888	0.028631	0.0281224	0.0280604	0.0276428	0.0282012	0.0282983	16.2753	82.3507	35.3601	5.08198	2.02951	2.53723	
261	1573229630.622690959	-1.20123	-2.07173	-1.68396	-1.53227	0.639495	0.771112	0.0286324	0.0281015	0.0281748	0.0277433	0.0282954	0.028399	16.2155	82.272	35.3641	5.09956	2.03544	2.54203	
262	1573229630.630658578	-1.20101	-2.07152	-1.68373	-1.53205	0.639716	0.771337	0.0286339	0.0281746	0.0282956	0.0278411	0.0283773	0.0284995	16.2562	82.2546	35.3696	5.08859	2.03724	2.54313	
263	1573229630.638666073	-1.20079	-2.0713	-1.6835	-1.53183	0.639939	0.771559	0.0287111	0.0282596	0.028409	0.0279435	0.0284665	0.0285867	16.2582	82.253	35.3902	5.0902	2.03728	2.54312	
264	1573229630.646676217	-1.20057	-2.07108	-1.68328	-1.5316	0.640162	0.771785	0.0287884	0.0283355	0.0285174	0.0280425	0.0285499	0.028685	16.2605	82.2529	35.4106	5.09132	2.03717	2.54311	
265	1573229630.654656714	-1.20035	-2.07086	-1.68305	-1.53138	0.640386	0.77201	0.0288649	0.028409	0.0286277	0.0281501	0.0286343	0.0287766	16.2621	82.2489	35.4299	5.09287	2.03742	2.54325	
266	1573229630.662654024	-1.20013	-2.07064	-1.68282	-1.53115	0.640611	0.772236	0.0289424	0.0284854	0.0287383	0.0282486	0.0287228	0.0288668	16.265	82.2484	35.4506	5.09404	2.03731	2.54316	
267	1573229630.670672745	-1.19991	-2.07042	-1.6826	-1.53093	0.640838	0.772462	0.0290111	0.0285552	0.0288367	0.0283503	0.0288116	0.0289514	16.2653	82.2466	35.47	5.09596	2.03754	2.54325	
268	1573229630.678661311	-1.19969	-2.0702	-1.68237	-1.5307	0.641063	0.772688	0.029082	0.0286288	0.0289348	0.0284474	0.0288965	0.0290369	16.2679	82.2435	35.4884	5.09711	2.03748	2.54326	
269	1573229630.686663022	-1.19946	-2.06997	-1.68214	-1.53048	0.641289	0.772914	0.0291617	0.0287083	0.0290344	0.0285443	0.0289741	0.0291168	16.2701	82.2429	35.5086	5.09846	2.03738	2.5432	
270	1573229630.694657152	-1.19923	-2.06975	-1.68191	-1.53025	0.641516	0.773141	0.029241	0.02879	0.0290163	0.0286386	0.0290572	0.0292038	16.2923	82.2713	35.5409	5.09509	2.03005	2.53805	
271	1573229630.702996673	-1.19901	-2.06953	-1.68169	-1.53002	0.641742	0.773369	0.0293173	0.0288637	0.0290049	0.0287357	0.0291335	0.0292874	16.274	82.2379	35.5274	5.1015	2.03773	2.54337	
272	1573229630.710663246	-1.19878	-2.0693	-1.68146	-1.52979	0.64197	0.773598	0.0293919	0.0289358	0.0291018	0.0288338	0.0292173	0.0293746	16.275	82.2374	35.5471	5.10309	2.03767	2.54328	
273	1573229630.718669576	-1.19856	-2.06908	-1.68123	-1.52956	0.642198	0.773827	0.0293728	0.0290104	0.0291905	0.0289292	0.0292999	0.0294552	16.2319	82.2489	35.5806	5.1174	2.03593	2.5424	
274	1573229630.726660992	-1.19833	-2.06885	-1.681	-1.52933	0.642427	0.774056	0.0293608	0.0290858	0.0292728	0.0290227	0.0293786	0.0295392	16.2749	82.2308	35.5822	5.10584	2.03762	2.5433	
275	1573229630.734663783	-1.19811	-2.06863	-1.68077	-1.5291	0.64266	0.774288	0.0294287	0.0291672	0.0293695	0.028995	0.0294704	0.0296252	16.2937	82.2244	35.5965	5.10682	2.02865	2.53801	
276	1573229630.742665408	-1.19788	-2.0684	-1.68054	-1.52887	0.642892	0.77452	0.0294966	0.0292433	0.029456	0.0289687	0.029557	0.0297118	16.2783	82.2268	35.6198	5.10738	2.03807	2.54357	
277	1573229630.750680023	-1.19765	-2.06817	-1.68031	-1.52864	0.643124	0.774754	0.0295756	0.0293208	0.0295453	0.0290639	0.029637	0.0298014	16.2805	82.2242	35.6381	5.1089	2.03792	2.54354	
278	1573229630.758655406	-1.19743	-2.06794	-1.68008	-1.52841	0.643355	0.774989	0.0296535	0.029404	0.0296337	0.0291583	0.0297099	0.029894	16.2831	82.2225	35.6569	5.11025	2.03785	2.5435	
279	1573229630.766701887	-1.1972	-2.06771	-1.67985	-1.52818	0.643588	0.775226	0.0297342	0.0294885	0.0296302	0.0292508	0.0297911	0.0299906	16.3015	82.2454	35.6864	5.10774	2.03189	2.53935	
280	1573229630.774725242	-1.19696	-2.06748	-1.67961	-1.52795	0.643822	0.775463	0.0298268	0.0295723	0.0296368	0.0293437	0.0298741	0.0300815	16.2873	82.2179	35.6795	5.11318	2.03821	2.54363	
281	1573229630.782679042	-1.19673	-2.06725	-1.67938	-1.52772	0.644061	0.775701	0.0299156	0.0296513	0.0297186	0.0294387	0.0299745	0.0301762	16.2895	82.2151	35.697	5.11468	2.0382	2.5437	
282	1573229630.790667929	-1.19649	-2.06701	-1.67915	-1.52748	0.644295	0.775937	0.0299996	0.029737	0.0298023	0.0295255	0.0300509	0.0302603	16.2915	82.212	35.7146	5.11587	2.03837	2.54378	
283	1573229630.798651966	-1.19626	-2.06678	-1.67892	-1.52725	0.644532	0.776174	0.0300885	0.0298188	0.0298864	0.0296155	0.0301376	0.0303404	16.2934	82.2095	35.7329	5.1174	2.03836	2.54379	
284	1573229630.806676544	-1.19602	-2.06654	-1.67868	-1.52701	0.64477	0.776411	0.0301762	0.0299023	0.0299713	0.0297057	0.0302178	0.0304223	16.2955	82.2063	35.7508	5.11884	2.0386	2.54395	
285	1573229630.814655393	-1.19578	-2.06631	-1.67845	-1.52678	0.645008	0.77665	0.0302759	0.0299901	0.0300616	0.0297959	0.0303008	0.030506	16.2979	82.2047	35.7701	5.12051	2.03861	2.54388	
286	1573229630.822656919	-1.19554	-2.06607	-1.67822	-1.52654	0.645244	0.776887	0.0303707	0.0300748	0.030141	0.0298901	0.0303732	0.0305852	16.3	82.2012	35.7875	5.12179	2.03889	2.54406	
287	1573229630.830664961	-1.1953	-2.06583	-1.67798	-1.5263	0.645482	0.777126	0.0304714	0.0301647	0.0302267	0.0299898	0.0304527	0.0306654	16.3024	82.198	35.8056	5.12325	2.0389	2.54397	
288	1573229630.838680866	-1.19506	-2.0656	-1.67774	-1.52606	0.645722	0.777365	0.0305653	0.0302582	0.0303114	0.030089	0.0305327	0.0306432	16.3032	82.1909	35.8196	5.1203	2.03901	2.54097	
289	1573229630.846691370	-1.19482	-2.06535	-1.6775	-1.52582	0.64596	0.777604	0.0306566	0.0303593	0.0304072	0.0301783	0.0306069	0.0305374	16.3057	82.1884	35.8391	5.1223	2.03942	2.54082	
290	1573229630.854653731	-1.19458	-2.06511	-1.67726	-1.52558	0.646202	0.77784	0.0307431	0.0304546	0.0305053	0.0302707	0.0306975	0.0305174	16.309	82.1906	35.8631	5.12781	2.0392	2.54305	
291	1573229630.862661854	-1.19434	-2.06487	-1.67702	-1.52534	0.646446	0.77808	0.0308365	0.030558	0.0305971	0.0303646	0.0307886	0.0306016	16.3117	82.1878	35.8819	5.12917	2.03934	2.54308	
292	1573229630.870696633	-1.19409	-2.06462	-1.67678	-1.5251	0.64669	0.77832	0.0309303	0.0306676	0.0306933	0.0304643	0.030876	0.0306794	16.3146	82.1865	35.9022	5.13068	2.03937	2.54294	
293	1573229630.878695503	-1.19385	-2.06438	-1.67654	-1.52485	0.646932	0.77856	0.0310253	0.0307772	0.0307786	0.0305658	0.0309578	0.0307563	16.3166	82.1833	35.9205	5.13212	2.03946	2.54304	
294	1573229630.886678556	-1.1936	-2.06413	-1.6763	-1.52461	0.647178	0.778798	0.0311159	0.0308856	0.0308731	0.0306618	0.0310513	0.0308248	16.3191	82.182	35.9407	5.13344	2.0392	2.54285	
295	1573229630.894664681	-1.19336	-2.06388	-1.67605	-1.52436	0.647427	0.779039	0.0312115	0.0309876	0.0309675	0.0307608	0.0311451	0.0308982	16.3218	82.1801	35.9604	5.1349	2.03946	2.54285	
296	1573229630.902688473	-1.19311	-2.06363	-1.67581	-1.52412	0.647674	0.77928	0.0313087	0.0310855	0.0310614	0.0308547	0.0312364	0.0309726	16.3245	82.1778	35.9802	5.13646	2.03953	2.54281	
297	1573229630.910724369	-1.19286	-2.06338	-1.67556	-1.52387	0.647919	0.779522	0.0314064	0.0311839	0.031144	0.0309517	0.031314	0.0310461	16.3269	82.1753	35.9988	5.13777	2.03946	2.54283	
298	1573229630.918678385	-1.19261	-2.06313	-1.67532	-1.52363	0.648168	0.779764	0.0315092	0.0312827	0.0312182	0.0310492	0.0314016	0.0311222	16.3296	82.1723	36.0166	5.13922	2.03927	2.54267	
299	1573229630.926716218	-1.19236	-2.06289	-1.67508	-1.52338	0.648417	0.78001	0.0315998	0.0313745	0.0311884	0.031138	0.0314827	0.0312058	16.35	82.1992	36.0483	5.13638	2.03225	2.5377	
300	1573229630.934670410	-1.19211	-2.06264	-1.67483	-1.52313	0.648665	0.780255	0.0316937	0.0314653	0.0310634	0.0312211	0.0315598	0.0312834	16.3515	82.1947	36.0485	5.13811	2.03273	2.538	
301	1573229630.942731599	-1.19186	-2.06239	-1.67459	-1.52289	0.648912	0.780502	0.0317796	0.0315548	0.0310331	0.0313094	0.0316335	0.0313642	16.3359	82.1638	36.036	5.14369	2.03938	2.54266	
302	1573229630.950674989	-1.19161	-2.06214	-1.67435	-1.52264	0.649161	0.780747	0.0318624	0.0316442	0.0310992	0.0314017	0.0317083	0.0314397	16.3379	82.1612	36.0533	5.14518	2.03945	2.54268	
303	1573229630.958683278	-1.19136	-2.06188	-1.67411	-1.52239	0.649412	0.78099	0.0319448	0.0317354	0.0311648	0.0314879	0.0317886	0.031501	16.3391	82.157	36.0698	5.14683	2.03975	2.54274	
304	1573229630.966675998	-1.19111	-2.06163	-1.67387	-1.52214	0.649661	0.781238	0.0319296	0.0318272	0.0312396	0.0315749	0.0318593	0.0315773	16.2946	82.1695	36.1039	5.16175	2.03781	2.54171	
305	1573229630.974663363	-1.19086	-2.06138	-1.67362	-1.52189	0.64991	0.781487	0.0319075	0.0319209	0.0313177	0.0316648	0.0319269	0.0316563	16.3385	82.1513	36.106	5.14981	2.03958	2.54264	
306	1573229630.982673935	-1.19061	-2.06112	-1.67338	-1.52164	0.650159	0.781734	0.0319763	0.0320154	0.0313929	0.0317474	0.0319936	0.0317274	16.3393	82.1483	36.1243	5.15143	2.03977	2.54267	
307	1573229630.990729904	-1.19036	-2.06087	-1.67313	-1.52139	0.650408	0.781982	0.0319483	0.0321092	0.0314664	0.0318342	0.0320589	0.0317969	16.2903	82.1629	36.1604	5.16785	2.03771	2.54147	
308	1573229630.998688260	-1.19012	-2.06061	-1.67289	-1.52113	0.650659	0.78223	0.0318275	0.0321906	0.0315387	0.0319239	0.0321335	0.0318662	16.2955	82.1569	36.1748	5.16666	2.03803	2.54165	
309	1573229631.006697052	-1.18987	-2.06036	-1.67264	-1.52088	0.65091	0.78248	0.0318143	0.0321834	0.0316211	0.032007	0.0322056	0.0319354	16.351	82.211	36.2045	5.15249	2.03336	2.53776	
310	1573229631.014659838	-1.18962	-2.06011	-1.67239	-1.52063	0.651164	0.78273	0.0318776	0.0320849	0.0316929	0.0320909	0.0322825	0.0320084	16.3527	82.2067	36.2229	5.15393	2.03322	2.53761	
311	1573229631.022688812	-1.18937	-2.05986	-1.67214	-1.52037	0.651416	0.782978	0.0319431	0.0319605	0.0317853	0.0321793	0.0323536	0.0320651	16.3579	82.2126	36.2467	5.15456	2.03208	2.53667	
312	1573229631.030686216	-1.18912	-2.05961	-1.67189	-1.52012	0.65167	0.783224	0.0320111	0.0319085	0.0318715	0.0322583	0.0324238	0.0321156	16.3408	82.1222	36.2363	5.16007	2.03941	2.54205	
313	1573229631.038682565	-1.18887	-2.05936	-1.67164	-1.51987	0.651926	0.783474	0.0320738	0.0318707	0.0319443	0.0323372	0.0325035	0.0321772	16.3588	82.1944	36.2806	5.15811	2.03286	2.5371	
314	1573229631.046703708	-1.18863	-2.05912	-1.67139	-1.51961	0.65218	0.783724	0.0321319	0.0317444	0.0320279	0.0324085	0.0325752	0.0322389	16.3597	82.1817	36.2976	5.15949	2.03311	2.53728	
315	1573229631.054714539	-1.18838	-2.05887	-1.67114	-1.51936	0.652438	0.783975	0.0321858	0.0317091	0.0321082	0.0324813	0.0326539	0.0322997	16.3451	82.105	36.2906	5.16438	2.03949	2.54195	
316	1573229631.062666162	-1.18813	-2.05863	-1.67088	-1.5191	0.652691	0.784227	0.0322442	0.0317645	0.0321833	0.0325455	0.0327131	0.032366	16.3467	82.102	36.3087	5.16547	2.03921	2.54184	
317	1573229631.070694878	-1.18788	-2.05838	-1.67063	-1.51885	0.652946	0.784478	0.0322947	0.0318107	0.0322493	0.0326104	0.032669	0.0324237	16.3454	82.0923	36.319	5.15859	2.03148	2.54188	
318	1573229631.078715599	-1.18763	-2.05814	-1.67038	-1.5186	0.653198	0.78473	0.0323474	0.031858	0.0323169	0.0326715	0.0326187	0.0324872	16.3493	82.0958	36.3434	5.16809	2.03817	2.5416	
319	1573229631.086688695	-1.18738	-2.05789	-1.67013	-1.51834	0.653452	0.784983	0.0323231	0.0319105	0.0323954	0.0327352	0.0325684	0.0325476	16.3061	82.0992	36.369	5.17314	2.02816	2.54068	
320	1573229631.095233075	-1.18713	-2.05764	-1.66987	-1.51809	0.653704	0.785237	0.0322904	0.0319677	0.032474	0.0327894	0.032511	0.0326096	16.3474	82.0879	36.3794	5.17098	2.0375	2.54162	
321	1573229631.102692687	-1.18688	-2.05739	-1.66961	-1.51784	0.653955	0.78549	0.0323454	0.0320208	0.0325549	0.0328519	0.0325589	0.0326674	16.3486	82.0864	36.3989	5.1724	2.03735	2.54146	
322	1573229631.110653376	-1.18663	-2.05715	-1.66936	-1.51758	0.654204	0.785744	0.0323143	0.0320685	0.0326345	0.0329113	0.0325996	0.0327264	16.3069	82.0981	36.4329	5.18628	2.03503	2.54033	
323	1573229631.118668179	-1.18638	-2.0569	-1.6691	-1.51733	0.654453	0.785998	0.0322805	0.0321155	0.0325947	0.0329709	0.0325406	0.0327823	16.3641	82.1015	36.4415	5.16279	2.02247	2.53625	
324	1573229631.126696164	-1.18613	-2.05665	-1.66885	-1.51707	0.654703	0.786252	0.0323269	0.0321575	0.0324577	0.0330299	0.0324861	0.0328359	16.3654	82.1025	36.4469	5.17236	2.02944	2.53651	
325	1573229631.134664034	-1.18588	-2.0564	-1.66859	-1.51682	0.654953	0.786507	0.0323764	0.0322085	0.0324213	0.0330905	0.0325287	0.0328922	16.35	82.0719	36.4345	5.17776	2.03599	2.54098	
326	1573229631.142714854	-1.18563	-2.05615	-1.66834	-1.51656	0.655201	0.786761	0.0324252	0.0322595	0.0323876	0.0331419	0.0325637	0.0329448	16.3671	82.0917	36.4619	5.17522	2.02973	2.5367	
327	1573229631.151084990	-1.18538	-2.0559	-1.66809	-1.51631	0.655452	0.787017	0.0324716	0.0323107	0.0323515	0.03319	0.0326067	0.032998	16.3514	82.0634	36.451	5.18049	2.03613	2.54109	
328	1573229631.158676804	-1.18513	-2.05566	-1.66784	-1.51605	0.655704	0.787274	0.0325172	0.0323548	0.0324083	0.0332443	0.032653	0.0330586	16.3537	82.0605	36.4678	5.18166	2.03578	2.54081	
329	1573229631.166668732	-1.18488	-2.05541	-1.66759	-1.51579	0.655957	0.787532	0.0325692	0.032401	0.0324605	0.0333014	0.032703	0.0331176	16.3544	82.0549	36.483	5.18301	2.03601	2.541	
330	1573229631.174696280	-1.18463	-2.05515	-1.66734	-1.51554	0.65621	0.78779	0.0326265	0.0324604	0.0325226	0.033358	0.0327505	0.0331765	16.356	82.051	36.4993	5.1843	2.03591	2.54088	
331	1573229631.182678351	-1.18437	-2.0549	-1.66708	-1.51528	0.656462	0.788049	0.0326837	0.0325151	0.0325985	0.0334124	0.0327896	0.0332358	16.3576	82.0467	36.5174	5.18539	2.036	2.54088	
332	1573229631.190675566	-1.18412	-2.05465	-1.66682	-1.51502	0.656715	0.788308	0.0327464	0.0325695	0.0326659	0.03358	0.0328334	0.0332902	16.3435	82.0464	36.5386	5.18724	2.04398	2.54555	
333	1573229631.198675762	-1.18386	-2.05439	-1.66656	-1.51475	0.65697	0.788568	0.0328111	0.0326246	0.0328402	0.0337472	0.0328816	0.0333432	16.3447	82.0145	36.5415	5.19283	2.04201	2.54503	
334	1573229631.206722318	-1.1836	-2.05414	-1.6663	-1.51449	0.657225	0.788826	0.0328784	0.0326894	0.0330064	0.0338138	0.0329294	0.0333931	16.3627	82.0359	36.5866	5.19036	2.03561	2.54046	
335	1573229631.214707973	-1.18334	-2.05388	-1.66604	-1.51423	0.657483	0.789083	0.0329409	0.032749	0.0330829	0.0338713	0.0329835	0.0333352	16.3636	82.0265	36.6001	5.18688	2.03547	2.5372	
336	1573229631.222678801	-1.18308	-2.05363	-1.66578	-1.51396	0.657742	0.789341	0.0330198	0.0328119	0.0331607	0.0339247	0.0330416	0.0332875	16.3668	82.0292	36.6239	5.19295	2.03523	2.53964	
337	1573229631.230682751	-1.18282	-2.05337	-1.66552	-1.5137	0.657999	0.789599	0.033088	0.0328792	0.0332361	0.033974	0.0330896	0.0333363	16.3681	82.0244	36.6417	5.1944	2.03529	2.53966	
338	1573229631.238693857	-1.18256	-2.05311	-1.66526	-1.51344	0.658257	0.789857	0.0331584	0.0329417	0.0333057	0.0340262	0.0331355	0.0333843	16.3707	82.0205	36.6591	5.19561	2.03529	2.53948	
339	1573229631.246744579	-1.1823	-2.05285	-1.66499	-1.51317	0.658514	0.790118	0.0332315	0.0330073	0.0333783	0.0340859	0.0331808	0.0334396	16.3718	82.0171	36.6773	5.19703	2.03502	2.53945	
340	1573229631.254696723	-1.18203	-2.05259	-1.66473	-1.51291	0.658769	0.790378	0.0333044	0.03307	0.0334563	0.0341386	0.0331326	0.0334931	16.372	82.0072	36.6899	5.1916	2.02881	2.53937	
341	1573229631.262678465	-1.18177	-2.05233	-1.66446	-1.51264	0.659024	0.790639	0.0333804	0.0331367	0.033545	0.0341903	0.0330882	0.0335424	16.3759	82.0087	36.7147	5.19975	2.0344	2.53932	
342	1573229631.270724228	-1.1815	-2.05207	-1.66419	-1.51238	0.659282	0.790901	0.0334568	0.0332064	0.0336306	0.0342383	0.0331341	0.0335961	16.378	82.0054	36.7344	5.20102	2.03402	2.53898	
343	1573229631.278719081	-1.18123	-2.05181	-1.66392	-1.51211	0.65954	0.791164	0.0335356	0.0332793	0.0337069	0.0342003	0.0331808	0.0336508	16.3937	81.9992	36.7496	5.20222	2.02696	2.53473	
344	1573229631.286694681	-1.18097	-2.05154	-1.66365	-1.51185	0.659798	0.791427	0.033612	0.0333528	0.0337811	0.0341685	0.0332262	0.0337041	16.3817	81.9981	36.7714	5.20323	2.03395	2.53882	
345	1573229631.294739365	-1.1807	-2.05128	-1.66339	-1.51158	0.660055	0.791692	0.0336806	0.0334274	0.0338538	0.0342241	0.0332631	0.0337605	16.3834	81.9948	36.7898	5.20459	2.03377	2.53874	
346	1573229631.302679425	-1.18043	-2.05101	-1.66312	-1.51131	0.660315	0.791955	0.0337552	0.0335071	0.0339139	0.0342791	0.0333117	0.0338103	16.3854	81.9903	36.8066	5.20581	2.03366	2.53867	
347	1573229631.310705527	-1.18017	-2.05074	-1.66285	-1.51105	0.660573	0.79222	0.0338267	0.0335897	0.033975	0.0343309	0.0333485	0.0338646	16.3866	81.9865	36.8238	5.20738	2.03378	2.53855	
348	1573229631.318704352	-1.1799	-2.05047	-1.66259	-1.51078	0.660834	0.792484	0.0339002	0.0336724	0.0340331	0.0343799	0.0333949	0.0337881	16.3873	81.976	36.8351	5.203	2.03369	2.53456	
349	1573229631.326741688	-1.17963	-2.0502	-1.66232	-1.51051	0.661095	0.792748	0.0339665	0.0337483	0.0339945	0.0344284	0.0334419	0.0337203	16.4079	82.0056	36.8707	5.20615	2.0266	2.53295	
350	1573229631.334714064	-1.17936	-2.04993	-1.66205	-1.51024	0.661355	0.793011	0.0340411	0.0338263	0.0339697	0.0343823	0.0334825	0.0337674	16.4081	81.9714	36.8561	5.21137	2.02499	2.53258	
351	1573229631.342714351	-1.17909	-2.04966	-1.66179	-1.50998	0.661615	0.793275	0.0341143	0.0338999	0.0339224	0.03432	0.0335262	0.0338195	16.412	81.9984	36.8895	5.20809	2.02633	2.53258	
352	1573229631.350748068	-1.17881	-2.04939	-1.66153	-1.50971	0.661876	0.793539	0.0341821	0.0339733	0.0338784	0.0343718	0.0335699	0.0338632	16.3965	81.9681	36.8774	5.21361	2.03275	2.53696	
353	1573229631.359246035	-1.17854	-2.04912	-1.66126	-1.50944	0.66214	0.793803	0.0341508	0.0340459	0.0338347	0.0343288	0.033625	0.0339078	16.3802	82.0041	36.9212	5.22551	2.01599	2.52663	
354	1573229631.367200172	-1.17828	-2.04885	-1.661	-1.50917	0.662407	0.794067	0.0339847	0.0341119	0.0336869	0.034197	0.0336884	0.0339535	16.3625	82.0035	36.9248	5.22997	2.01634	2.52684	
355	1573229631.374779806	-1.17801	-2.04858	-1.66074	-1.50891	0.662674	0.794332	0.0338258	0.0341744	0.0336386	0.0341569	0.0337542	0.0340006	16.3403	81.972	36.9115	5.23119	2.02989	2.53539	
356	1573229631.382732153	-1.17775	-2.04831	-1.66048	-1.50864	0.662941	0.794598	0.0336581	0.0342437	0.0336798	0.0340974	0.0338131	0.0340472	16.34	81.9685	36.9271	5.23579	2.02115	2.53027	
357	1573229631.382732153	-1.1775	-2.04806	-1.66023	-1.50839	0.663195	0.794849	0.0334181	0.034255	0.0336699	0.0339873	0.0338174	0.0340413	16.3205	81.9667	36.9414	5.23579	2.02904	2.5348	
358	1573229631.398751874	-1.17724	-2.04779	-1.65996	-1.50813	0.663466	0.795118	0.0332417	0.0343078	0.0337297	0.034031	0.0338906	0.0340995	16.3207	81.961	36.9569	5.23568	2.02906	2.53474	
359	1573229631.406766682	-1.17698	-2.04752	-1.6597	-1.50786	0.663736	0.795387	0.0330857	0.0342645	0.0337837	0.0340763	0.0339504	0.0341576	16.3372	82.033	36.9993	5.23206	2.02217	2.5295	
360	1573229631.414692036	-1.17672	-2.04725	-1.65943	-1.50759	0.664008	0.795657	0.0330282	0.0341213	0.0338368	0.0340198	0.034017	0.0342139	16.3957	81.9994	36.9927	5.21898	2.01734	2.52626	
361	1573229631.422776518	-1.17646	-2.04698	-1.65917	-1.50733	0.664279	0.795925	0.0330688	0.0339764	0.033884	0.0339678	0.0340811	0.0342649	16.3841	82.0026	37.0149	5.21927	2.02438	2.53019	
362	1573229631.430691336	-1.1762	-2.04671	-1.6589	-1.50706	0.66455	0.796196	0.0331132	0.0339201	0.0339343	0.0340087	0.0341368	0.034319	16.3679	81.9152	37.0034	5.22448	2.03138	2.53538	
363	1573229631.438681449	-1.17594	-2.04645	-1.65864	-1.5068	0.66482	0.796469	0.0331522	0.0338726	0.0339929	0.0340454	0.0341914	0.0343807	16.3835	81.9751	37.0425	5.22245	2.02553	2.53095	
364	1573229631.446706735	-1.17568	-2.04619	-1.65837	-1.50653	0.665089	0.796739	0.0331966	0.033828	0.0340504	0.0339934	0.0342388	0.0344284	16.3846	81.8991	37.0326	5.22684	2.02353	2.53062	
365	1573229631.454729029	-1.17542	-2.04592	-1.6581	-1.50627	0.665359	0.79701	0.0332376	0.0338693	0.0341088	0.0338338	0.0342903	0.0344827	16.3862	81.8921	37.0479	5.22765	2.02314	2.53037	
366	1573229631.462664146	-1.17517	-2.04566	-1.65783	-1.506	0.665631	0.797281	0.0332674	0.0339154	0.0341741	0.0336591	0.0343428	0.0345303	16.388	81.8897	37.0666	5.22814	2.02236	2.52975	
367	1573229631.470695302	-1.17491	-2.04539	-1.65756	-1.50574	0.665904	0.797552	0.0332961	0.0339489	0.0342366	0.0335894	0.0344009	0.0345767	16.3724	81.8876	37.0873	5.22906	2.03129	2.53487	
368	1573229631.478723489	-1.17465	-2.04513	-1.65729	-1.50548	0.666175	0.797825	0.0333288	0.0339853	0.0343014	0.0335399	0.0344546	0.0346262	16.3859	81.8813	37.102	5.23	2.02431	2.53072	
369	1573229631.486743242	-1.17439	-2.04487	-1.65701	-1.50522	0.666447	0.798097	0.033364	0.0339387	0.0343601	0.0334955	0.0345036	0.0346738	16.3887	81.944	37.1452	5.22777	2.02493	2.53008	
370	1573229631.494666796	-1.17413	-2.0446	-1.65674	-1.50495	0.666718	0.79837	0.0334012	0.0338911	0.0344145	0.0335276	0.034546	0.0347223	16.3756	81.871	37.1385	5.23219	2.03096	2.53447	
371	1573229631.502712815	-1.17387	-2.04434	-1.65647	-1.50469	0.666988	0.798641	0.0334401	0.033929	0.0344759	0.0335584	0.0345889	0.034765	16.3774	81.8676	37.156	5.23309	2.03047	2.53409	
372	1573229631.510702503	-1.17361	-2.04407	-1.6562	-1.50443	0.667261	0.798912	0.0334749	0.0339615	0.0344271	0.0334965	0.0346368	0.034801	16.4089	81.8859	37.1816	5.23039	2.01648	2.52503	
373	1573229631.518670482	-1.17335	-2.04381	-1.65593	-1.50417	0.667535	0.799184	0.0335063	0.0339995	0.0343781	0.0334407	0.0346896	0.0348388	16.3792	81.8573	37.1715	5.23511	2.03056	2.53381	
374	1573229631.526691947	-1.17309	-2.04354	-1.65566	-1.50391	0.66781	0.799454	0.0335374	0.0340405	0.0343216	0.03347	0.0347471	0.034778	16.3986	81.8776	37.1976	5.22725	2.02312	2.52554	
375	1573229631.534689839	-1.17282	-2.04328	-1.65539	-1.50365	0.668085	0.799724	0.0335698	0.0340751	0.0341632	0.0335028	0.0347999	0.0347165	16.3988	81.8751	37.199	5.23323	2.02332	2.52822	
376	1573229631.542677341	-1.17256	-2.04301	-1.65512	-1.50338	0.668359	0.799995	0.0336062	0.0341105	0.0340099	0.0335365	0.0347432	0.0347563	16.396	81.8599	37.1886	5.22646	2.01636	2.52866	
377	1573229631.550684768	-1.1723	-2.04274	-1.65486	-1.50312	0.668631	0.800264	0.0336443	0.0341512	0.0339649	0.0335676	0.0345943	0.0347867	16.3808	81.8314	37.1775	5.23228	2.02288	2.53291	
378	1573229631.558723470	-1.17203	-2.04248	-1.65459	-1.50286	0.668903	0.800536	0.0336884	0.0341866	0.0340171	0.0336037	0.0344491	0.0348213	16.382	81.8247	37.1926	5.23264	2.02129	2.53277	
379	1573229631.566666168	-1.17177	-2.04221	-1.65432	-1.50259	0.669171	0.800805	0.0337352	0.0342281	0.0340625	0.0336411	0.0342555	0.0348488	16.3813	81.8168	37.2057	5.23175	2.01857	2.53281	
380	1573229631.574702476	-1.1715	-2.04194	-1.65405	-1.50233	0.669438	0.801075	0.0337797	0.034267	0.0341111	0.0336827	0.0341597	0.034879	16.3872	81.822	37.2311	5.24304	2.02678	2.53227	
381	1573229631.582687786	-1.17124	-2.04167	-1.65379	-1.50206	0.669706	0.801347	0.033833	0.0343029	0.0341461	0.0337231	0.034103	0.0349133	16.3858	81.8096	37.239	5.23727	2.0203	2.53235	
382	1573229631.590725782	-1.17097	-2.04141	-1.65352	-1.5018	0.669973	0.801619	0.0338807	0.0343393	0.0341858	0.0337623	0.0340517	0.0349461	16.3896	81.8106	37.2602	5.2457	2.02624	2.53214	
383	1573229631.598681720	-1.1707	-2.04114	-1.65325	-1.50153	0.67024	0.801891	0.0340257	0.0343813	0.0342324	0.0338041	0.034085	0.0349763	16.4365	81.7901	37.2596	5.23331	2.02854	2.53289	
384	1573229631.606682924	-1.17043	-2.04087	-1.65298	-1.50126	0.670507	0.802162	0.0341807	0.0344254	0.0342765	0.0338431	0.0341174	0.0350011	16.3975	81.7999	37.291	5.24814	2.02606	2.53177	
385	1573229631.614676423	-1.17016	-2.04059	-1.65271	-1.501	0.670776	0.802432	0.0342424	0.0344813	0.0343307	0.0338818	0.0341529	0.0350232	16.3993	81.7942	37.3071	5.24921	2.02597	2.53166	
386	1573229631.622672306	-1.16988	-2.04032	-1.65244	-1.50073	0.671044	0.802703	0.0344108	0.0345265	0.0343831	0.0339275	0.0340924	0.0350487	16.4504	81.7655	37.2984	5.22746	2.02181	2.53268	
387	1573229631.630758023	-1.1696	-2.04005	-1.65216	-1.50046	0.671311	0.802975	0.0346835	0.0345771	0.0344351	0.0339748	0.0340334	0.0350753	16.4544	81.7679	37.3226	5.23811	2.028	2.53242	
388	1573229631.638789703	-1.16932	-2.03977	-1.65189	-1.50019	0.671578	0.803248	0.0348465	0.0346355	0.0344942	0.0340219	0.0340649	0.0351031	16.4159	81.7804	37.3575	5.25292	2.0247	2.53089	
389	1573229631.649243863	-1.16904	-2.0395	-1.65162	-1.49992	0.671845	0.80352	0.0349198	0.0346868	0.034457	0.0340593	0.0340964	0.0351279	16.4324	81.7968	37.3843	5.25084	2.01888	2.52667	
390	1573229631.654826405	-1.16876	-2.03922	-1.65134	-1.49965	0.672111	0.803793	0.0349929	0.0347406	0.0344237	0.0341025	0.0341191	0.0350689	16.4174	81.7647	37.371	5.25169	2.02489	2.52791	
391	1573229631.662865577	-1.16848	-2.03895	-1.65107	-1.49938	0.67238	0.804063	0.0350626	0.0347957	0.034468	0.0341413	0.0341561	0.0349147	16.4203	81.7609	37.3871	5.25258	2.02439	2.52699	
392	1573229631.670839112	-1.16819	-2.03867	-1.6508	-1.49911	0.67265	0.804332	0.0351392	0.0348539	0.0345102	0.0340907	0.0341917	0.0348478	16.4356	81.7558	37.4028	5.25811	2.01747	2.5251	
393	1573229631.678753371	-1.16793	-2.0384	-1.65054	-1.49885	0.672906	0.804588	0.0351609	0.0348604	0.0345018	0.0339885	0.0341773	0.0348155	16.4236	81.7534	37.4171	5.25861	2.02404	2.5288	
394	1573229631.686774242	-1.16764	-2.03812	-1.65027	-1.49858	0.673176	0.804857	0.0352246	0.0349305	0.0345397	0.034027	0.0342168	0.0348299	16.4247	81.7487	37.4326	5.25983	2.02399	2.52866	
395	1573229631.694793114	-1.16736	-2.03784	-1.65	-1.49831	0.673447	0.805127	0.0352972	0.0349936	0.0345768	0.0340736	0.034252	0.0348533	16.4265	81.7434	37.4478	5.26115	2.02387	2.52841	
396	1573229631.702747482	-1.16708	-2.03756	-1.64973	-1.49804	0.673717	0.805399	0.035365	0.035065	0.0346072	0.0341224	0.0342841	0.0348751	16.4277	81.7338	37.4603	5.26299	2.02521	2.52904	
397	1573229631.710759962	-1.16679	-2.03728	-1.64946	-1.49777	0.673991	0.80567	0.0354321	0.0352398	0.0347588	0.0343216	0.0344519	0.035004	16.3755	81.6442	37.4546	5.28667	2.0584	2.54851	
398	1573229631.718684907	-1.16651	-2.03699	-1.64919	-1.49749	0.674262	0.805943	0.0353979	0.0352273	0.0346368	0.0345054	0.0344982	0.0351307	16.4574	81.944	37.6027	5.25535	1.98468	2.50606	
399	1573229631.726658425	-1.16622	-2.03671	-1.64892	-1.49722	0.674533	0.806218	0.0353695	0.0351096	0.0344252	0.034558	0.0343206	0.0351569	16.4244	81.7121	37.4756	5.2584	2.01518	2.52838	
400	1573229631.734713231	-1.16594	-2.03643	-1.64865	-1.49694	0.674805	0.80649	0.0353367	0.0351648	0.0344567	0.0346008	0.0342471	0.0351757	16.387	81.7288	37.5135	5.28159	2.02035	2.52705	
401	1573229631.742667063	-1.16566	-2.03615	-1.64838	-1.49667	0.675075	0.806765	0.0353067	0.0352134	0.0344927	0.0346458	0.0342802	0.0352013	16.4262	81.7088	37.5129	5.27029	2.02255	2.52777	
402	1573229631.750724457	-1.16538	-2.03587	-1.64811	-1.49639	0.675346	0.807038	0.0353542	0.0352633	0.0345222	0.0346041	0.034314	0.0352186	16.4388	81.7001	37.5239	5.27176	2.01561	2.52359	
403	1573229631.758674157	-1.1651	-2.03559	-1.64784	-1.49612	0.675615	0.807314	0.0352713	0.0352198	0.034564	0.0345605	0.0343398	0.0352454	16.3812	81.7872	37.5894	5.28751	2.01264	2.52142	
404	1573229631.766706895	-1.16483	-2.03531	-1.64756	-1.49585	0.675887	0.807589	0.0351851	0.0350832	0.0346103	0.0345981	0.0343737	0.0352708	16.4375	81.7624	37.5847	5.27039	2.01557	2.5222	
405	1573229631.774692677	-1.16455	-2.03503	-1.64729	-1.49557	0.676158	0.807863	0.0350848	0.0349074	0.0346549	0.0346348	0.0344029	0.035192	16.3768	81.7895	37.6264	5.2855	2.01004	2.51631	
406	1573229631.782675660	-1.16428	-2.03476	-1.64701	-1.4953	0.676429	0.808136	0.0348993	0.0347134	0.0346979	0.0346766	0.0343503	0.0351164	16.3886	81.7606	37.6288	5.27876	2.00608	2.51995	
407	1573229631.790665150	-1.164	-2.03449	-1.64674	-1.49502	0.6767	0.808406	0.0348412	0.0346378	0.0347401	0.0347214	0.0342999	0.0351215	16.4127	81.6629	37.6061	5.27773	2.02102	2.52593	
408	1573229631.798687209	-1.16373	-2.03422	-1.64646	-1.49475	0.67697	0.808676	0.0347655	0.0345719	0.0347862	0.0347648	0.0343289	0.0351284	16.38	81.7486	37.6663	5.29052	2.01137	2.51957	
409	1573229631.806661632	-1.16346	-2.03394	-1.64619	-1.49447	0.677238	0.808947	0.0346868	0.0345029	0.0348345	0.0348116	0.0343481	0.0351411	16.4087	81.6479	37.6377	5.28044	2.02086	2.52553	
410	1573229631.814657525	-1.16319	-2.03367	-1.64591	-1.49419	0.67751	0.809221	0.0347081	0.0345346	0.0348806	0.0348551	0.0343811	0.0351602	16.4095	81.6428	37.6533	5.28178	2.02084	2.52535	
411	1573229631.822659125	-1.16292	-2.0334	-1.64563	-1.49392	0.67778	0.809494	0.0347288	0.0344715	0.0349287	0.0348929	0.0344096	0.0351785	16.4246	81.7039	37.6929	5.27984	2.01446	2.52046	
412	1573229631.830689668	-1.16265	-2.03313	-1.64535	-1.49364	0.678052	0.809766	0.0347463	0.0344074	0.0349767	0.0349326	0.0344438	0.035192	16.4105	81.6284	37.685	5.28447	2.02073	2.52486	
413	1573229631.838693249	-1.16238	-2.03286	-1.64508	-1.49336	0.678324	0.810039	0.0347633	0.0344305	0.03502	0.0349734	0.0345638	0.0352064	16.4139	81.6302	37.7072	5.29243	2.02657	2.52433	
414	1573229631.846703965	-1.16211	-2.03259	-1.6448	-1.49309	0.678598	0.810314	0.0347763	0.0343594	0.0349732	0.0350075	0.0346817	0.0352264	16.4432	81.7119	37.7533	5.27971	2.00815	2.51516	
415	1573229631.854679090	-1.16184	-2.03233	-1.64452	-1.49281	0.678873	0.810589	0.0347897	0.0342862	0.0349193	0.0350384	0.0347184	0.0352504	16.4115	81.6089	37.7159	5.28819	2.02085	2.52412	
416	1573229631.862711932	-1.16157	-2.03206	-1.64425	-1.49254	0.679147	0.810866	0.0347085	0.0343074	0.03495	0.0350718	0.0347536	0.0352747	16.3672	81.6199	37.7475	5.30289	2.01788	2.52281	
417	1573229631.870724086	-1.1613	-2.03179	-1.64397	-1.49226	0.679424	0.811143	0.0346323	0.0343207	0.0348619	0.0351013	0.0347974	0.0352993	16.4287	81.6277	37.7594	5.28576	2.01279	2.51827	
418	1573229631.878658311	-1.16103	-2.03152	-1.6437	-1.49198	0.679699	0.811419	0.0346519	0.0343307	0.0347802	0.0351349	0.0348299	0.0353203	16.4083	81.591	37.7386	5.29172	2.02075	2.52362	
419	1573229631.886684914	-1.16077	-2.03126	-1.64343	-1.49171	0.679974	0.811695	0.0346631	0.0343521	0.0347991	0.0351671	0.0348649	0.0353388	16.4088	81.5853	37.7516	5.29278	2.0206	2.52339	
420	1573229631.894696573	-1.1605	-2.03099	-1.64316	-1.49143	0.680248	0.811972	0.0346785	0.034369	0.0348258	0.0351985	0.0348936	0.0353585	16.4091	81.5791	37.7653	5.29403	2.02043	2.52321	
421	1573229631.902672138	-1.16023	-2.03072	-1.64288	-1.49115	0.680523	0.81225	0.0346899	0.034388	0.0348478	0.0352243	0.0349213	0.0353861	16.4091	81.5737	37.7788	5.29538	2.02042	2.523	
422	1573229631.910722214	-1.15996	-2.03045	-1.64261	-1.49088	0.680799	0.812527	0.0347081	0.0344086	0.0348697	0.0352523	0.0349559	0.0354049	16.41	81.5677	37.792	5.29652	2.02047	2.52288	
423	1573229631.918807226	-1.15969	-2.03018	-1.64234	-1.4906	0.681076	0.812802	0.034727	0.0344279	0.0349012	0.0352809	0.0349934	0.0354191	16.4104	81.5605	37.8056	5.29769	2.02061	2.52273	
424	1573229631.926730928	-1.15942	-2.02991	-1.64206	-1.49032	0.681353	0.813078	0.034752	0.0344466	0.0349371	0.035319	0.0350296	0.0354344	16.411	81.5542	37.8198	5.29876	2.02067	2.52258	
425	1573229631.934666495	-1.15914	-2.02964	-1.64178	-1.49004	0.68163	0.813355	0.0347808	0.0344752	0.0349761	0.0353584	0.0350664	0.0353634	16.4108	81.5435	37.8305	5.2959	2.02065	2.51962	
426	1573229631.942676049	-1.15887	-2.02937	-1.64151	-1.48976	0.681906	0.81363	0.034807	0.0345054	0.0350109	0.035386	0.0350949	0.0352894	16.4128	81.5431	37.8494	5.30111	2.02027	2.52157	
427	1573229631.950745913	-1.1586	-2.02909	-1.64123	-1.48949	0.682182	0.813905	0.0348406	0.0345311	0.035043	0.035417	0.0351204	0.0353022	16.4138	81.5366	37.8636	5.3024	2.02032	2.52137	
428	1573229631.950745913	-1.15834	-2.02884	-1.64097	-1.48922	0.682443	0.814166	0.0348236	0.0345086	0.0350218	0.0353968	0.0350977	0.0352632	16.4133	81.5303	37.8729	5.30337	2.01995	2.52097	
429	1573229631.966731463	-1.15806	-2.02856	-1.64069	-1.48894	0.682721	0.814443	0.0348683	0.0345395	0.0350489	0.0354333	0.0351322	0.0352816	16.4145	81.5246	37.8869	5.30452	2.0197	2.52071	
430	1573229631.974749637	-1.15778	-2.02829	-1.64042	-1.48866	0.683001	0.814717	0.0349184	0.0345683	0.0350717	0.0354728	0.0351727	0.0352868	16.4158	81.5178	37.8999	5.30573	2.01971	2.5205	
431	1573229631.982726325	-1.1575	-2.02802	-1.64014	-1.48838	0.683281	0.814991	0.0349746	0.0346009	0.0351001	0.0355007	0.035212	0.0352932	16.4171	81.5118	37.9139	5.30708	2.01963	2.52018	
432	1573229631.991250062	-1.15721	-2.02774	-1.63986	-1.4881	0.68356	0.815264	0.0350278	0.0346361	0.035128	0.035528	0.0352477	0.0352026	16.4177	81.5014	37.9232	5.30374	2.01975	2.5171	
433	1573229631.998804758	-1.15693	-2.02747	-1.63959	-1.48782	0.68384	0.815538	0.0350742	0.0346715	0.0351617	0.0355526	0.0352852	0.0351211	16.4195	81.5001	37.9423	5.30946	2.01946	2.51926	
434	1573229632.007279396	-1.15665	-2.02719	-1.63931	-1.48754	0.684121	0.815812	0.0351219	0.0347082	0.0351922	0.0355791	0.0353234	0.0351336	16.4206	81.4938	37.9562	5.31058	2.01947	2.5191	
435	1573229632.014746840	-1.15637	-2.02691	-1.63903	-1.48726	0.684403	0.816086	0.0351776	0.0347466	0.0352172	0.0355968	0.0353634	0.0351435	16.4223	81.4872	37.9695	5.31166	2.0194	2.51885	
436	1573229632.022745114	-1.15608	-2.02663	-1.63876	-1.48699	0.684687	0.81636	0.0352277	0.0347945	0.0352417	0.0356168	0.035406	0.0351504	16.4231	81.4813	37.9835	5.31296	2.01943	2.51864	
437	1573229632.030756254	-1.1558	-2.02636	-1.63848	-1.48671	0.684968	0.816636	0.0352788	0.0348421	0.0352637	0.0356452	0.0354408	0.0351662	16.4248	81.4761	37.9972	5.31407	2.01928	2.51834	
438	1573229632.038776606	-1.15552	-2.02608	-1.6382	-1.48643	0.685252	0.81691	0.0353244	0.0348846	0.0352048	0.0356613	0.0354837	0.035173	16.4408	81.4915	38.0222	5.31204	2.01334	2.51408	
439	1573229632.046692938	-1.15523	-2.0258	-1.63792	-1.48615	0.685534	0.817184	0.0353627	0.0349317	0.0351482	0.0356706	0.0355183	0.0351818	16.4267	81.4633	38.0105	5.31642	2.01915	2.51792	
440	1573229632.054725618	-1.15495	-2.02551	-1.63765	-1.48587	0.685816	0.817458	0.0354045	0.0349817	0.0351672	0.0356847	0.0355475	0.03519	16.4274	81.4563	38.0234	5.31775	2.01929	2.51771	
441	1573229632.062706097	-1.15467	-2.02523	-1.63737	-1.4856	0.686098	0.817734	0.0354529	0.0350235	0.0351909	0.0356983	0.0355836	0.0352022	16.429	81.4508	38.0371	5.31875	2.01914	2.51746	
442	1573229632.070647825	-1.15438	-2.02495	-1.6371	-1.48532	0.686379	0.818011	0.0354955	0.0350625	0.0352118	0.0357184	0.0356101	0.0352193	16.4298	81.4446	38.0506	5.31998	2.01905	2.51726	
443	1573229632.078669688	-1.1541	-2.02467	-1.63682	-1.48504	0.686659	0.818288	0.0355329	0.0351098	0.0352264	0.0357391	0.0356351	0.0352341	16.4307	81.4384	38.0633	5.32111	2.01898	2.51708	
444	1573229632.086664135	-1.15382	-2.02439	-1.63654	-1.48476	0.686941	0.818564	0.0355711	0.035157	0.0352422	0.0357641	0.0356625	0.0352447	16.4314	81.4315	38.0761	5.32232	2.01876	2.51679	
445	1573229632.094714194	-1.15353	-2.02411	-1.63627	-1.48448	0.687223	0.818841	0.0355159	0.0352047	0.0352603	0.0357817	0.0356894	0.0352602	16.3901	81.4403	38.1052	5.33644	2.01601	2.51557	
446	1573229632.102663529	-1.15325	-2.02382	-1.63599	-1.4842	0.687505	0.819117	0.0354653	0.0352526	0.0352851	0.0357915	0.035716	0.035269	16.4288	81.4198	38.103	5.32464	2.01855	2.51626	
447	1573229632.110670657	-1.15297	-2.02354	-1.63571	-1.48392	0.687786	0.819395	0.0354949	0.0352896	0.035308	0.0358071	0.0357374	0.0352823	16.4292	81.4126	38.1161	5.32587	2.01862	2.51618	
448	1573229632.118679137	-1.15269	-2.02326	-1.63544	-1.48364	0.688066	0.819672	0.0355213	0.0353286	0.0353262	0.035823	0.0357576	0.0352945	16.4299	81.406	38.1291	5.32708	2.01853	2.51597	
449	1573229632.126672186	-1.15241	-2.02298	-1.63516	-1.48336	0.688349	0.819951	0.0355464	0.035364	0.0353489	0.0358418	0.0357858	0.0353137	16.4302	81.4005	38.1429	5.32831	2.01839	2.51567	
450	1573229632.134671062	-1.15213	-2.02269	-1.63488	-1.48308	0.688632	0.820227	0.0354561	0.0354066	0.0353778	0.0358624	0.0358108	0.035323	16.3769	81.4123	38.1775	5.34599	2.01462	2.51421	
451	1573229632.142666338	-1.15185	-2.02241	-1.6346	-1.4828	0.688914	0.820506	0.0352689	0.0354422	0.0354124	0.0358854	0.035836	0.0353387	16.3802	81.4024	38.1883	5.34455	2.01521	2.51422	
452	1573229632.150667366	-1.15157	-2.02213	-1.63431	-1.48252	0.689195	0.820783	0.0351892	0.0354723	0.0354503	0.0359067	0.0358522	0.0353471	16.4207	81.3799	38.1858	5.3319	2.0181	2.51504	
453	1573229632.158695435	-1.1513	-2.02185	-1.63403	-1.48223	0.689478	0.821062	0.0352002	0.0355019	0.0354863	0.0359336	0.0358793	0.0353633	16.4212	81.3735	38.2004	5.33316	2.01794	2.51479	
454	1573229632.166649620	-1.15102	-2.02157	-1.63375	-1.48195	0.689759	0.821341	0.0352156	0.0355297	0.0355283	0.0359497	0.0358945	0.0353803	16.4214	81.367	38.2154	5.33435	2.01776	2.5146	
455	1573229632.174648602	-1.15075	-2.02129	-1.63346	-1.48167	0.690041	0.82162	0.0352301	0.0355558	0.0355823	0.0359664	0.0359138	0.0353963	16.4219	81.36	38.2313	5.33549	2.01782	2.51445	
456	1573229632.182669275	-1.15047	-2.02101	-1.63318	-1.48139	0.690324	0.821901	0.0352392	0.035575	0.0356263	0.0359825	0.0359352	0.0354202	16.4225	81.3534	38.2466	5.3366	2.01761	2.51417	
457	1573229632.190666845	-1.1502	-2.02073	-1.63289	-1.48111	0.690604	0.822181	0.0352506	0.0356024	0.0356666	0.0359954	0.0359468	0.0354403	16.4224	81.3469	38.2617	5.33773	2.01758	2.51406	
458	1573229632.198661008	-1.14992	-2.02045	-1.63261	-1.48082	0.690885	0.822464	0.0352654	0.0356239	0.035707	0.0360218	0.0359608	0.0354704	16.4232	81.3409	38.2772	5.33883	2.01731	2.51372	
459	1573229632.206727391	-1.14964	-2.02017	-1.63232	-1.48054	0.691165	0.822747	0.0352755	0.0356448	0.0356562	0.0360508	0.0359728	0.0354972	16.439	81.3563	38.3034	5.33653	2.0111	2.50935	
460	1573229632.214655027	-1.14937	-2.01989	-1.63203	-1.48025	0.691448	0.82303	0.0352833	0.035663	0.0356084	0.0360801	0.0359918	0.0355191	16.4237	81.3273	38.2918	5.34119	2.0171	2.51338	
461	1573229632.222678797	-1.14909	-2.01961	-1.63175	-1.47996	0.69173	0.823312	0.0352981	0.0356797	0.035638	0.0361143	0.0360094	0.0355426	16.4239	81.3201	38.3056	5.34242	2.01699	2.51321	
462	1573229632.230956351	-1.14882	-2.01933	-1.63147	-1.47968	0.692013	0.823593	0.0353077	0.0356986	0.0356747	0.0361439	0.0360271	0.0355625	16.4244	81.3131	38.3199	5.34356	2.01683	2.51296	
463	1573229632.238643075	-1.14854	-2.01905	-1.63118	-1.47939	0.692297	0.823875	0.0353199	0.0357184	0.0357049	0.0361711	0.0360472	0.0355844	16.4248	81.3064	38.334	5.34464	2.0167	2.51273	
464	1573229632.246653762	-1.14826	-2.01877	-1.6309	-1.4791	0.69258	0.824157	0.0353297	0.0357354	0.0357349	0.0361996	0.0360652	0.0356018	16.425	81.2992	38.3477	5.34597	2.01675	2.51258	
465	1573229632.254651750	-1.14799	-2.01849	-1.63061	-1.47882	0.692865	0.82444	0.0353398	0.0357556	0.0357748	0.0362292	0.0360903	0.0356238	16.4258	81.2927	38.3627	5.34706	2.01649	2.51229	
466	1573229632.262657649	-1.14771	-2.01821	-1.63033	-1.47853	0.693152	0.824723	0.0353589	0.0357807	0.0358019	0.0362566	0.0361192	0.0356495	16.4264	81.2853	38.376	5.34815	2.01663	2.51219	
467	1573229632.270672425	-1.14743	-2.01792	-1.63004	-1.47824	0.693438	0.825007	0.0353836	0.0358049	0.0358339	0.0362894	0.0361446	0.0356731	16.4268	81.2776	38.3899	5.34952	2.01662	2.51206	
468	1573229632.278735205	-1.14715	-2.01764	-1.62975	-1.47795	0.693726	0.825292	0.0354154	0.0358341	0.0358704	0.0363184	0.0361794	0.0357036	16.428	81.2712	38.4045	5.35053	2.01648	2.51185	
469	1573229632.286654550	-1.14686	-2.01736	-1.62947	-1.47766	0.694013	0.825579	0.0354511	0.0358646	0.0359066	0.0363429	0.0362077	0.0357409	16.4285	81.2641	38.4189	5.35179	2.01659	2.51179	
470	1573229632.294700108	-1.14658	-2.01707	-1.62918	-1.47737	0.694301	0.825865	0.035485	0.0358976	0.0359385	0.0363692	0.0362342	0.0357724	16.4297	81.2571	38.433	5.35289	2.01655	2.51156	
471	1573229632.302643530	-1.1463	-2.01678	-1.6289	-1.47708	0.694589	0.826153	0.0355204	0.0359293	0.0359735	0.0363991	0.0362661	0.0358106	16.4306	81.2503	38.4473	5.35398	2.01638	2.5114	
472	1573229632.310678945	-1.14601	-2.0165	-1.62861	-1.47679	0.694877	0.826441	0.0355626	0.0359646	0.0360029	0.0364281	0.0362905	0.0358452	16.4313	81.2432	38.4613	5.35522	2.01644	2.51129	
473	1573229632.318672085	-1.14573	-2.01621	-1.62832	-1.4765	0.695167	0.826729	0.0356044	0.0360005	0.0360344	0.0364674	0.0363238	0.0358812	16.4327	81.2355	38.475	5.35639	2.01653	2.51122	
474	1573229632.326646039	-1.14544	-2.01592	-1.62803	-1.47621	0.695454	0.827018	0.0357531	0.0360434	0.0360741	0.036503	0.0363483	0.0359211	16.4828	81.2112	38.4709	5.3425	2.01994	2.51216	
475	1573229632.334649232	-1.14515	-2.01563	-1.62775	-1.47592	0.695742	0.827308	0.0360284	0.0361665	0.0361016	0.0365435	0.0363725	0.0359592	16.484	81.1363	38.4585	5.34436	2.0267	2.51682	
476	1573229632.342662283	-1.14486	-2.01534	-1.62746	-1.47562	0.696033	0.827598	0.036281	0.0362943	0.0361351	0.0365771	0.0364055	0.0360004	16.4882	81.2036	38.5024	5.3477	2.01917	2.51156	
477	1573229632.350657001	-1.14456	-2.01505	-1.62717	-1.47533	0.696323	0.827889	0.0365056	0.0363327	0.0361733	0.036532	0.0364361	0.0360447	16.5063	81.1931	38.5135	5.34884	2.01252	2.50747	
478	1573229632.358659022	-1.14426	-2.01476	-1.62688	-1.47504	0.69661	0.82818	0.0366503	0.036375	0.03621	0.0363751	0.0364545	0.0360853	16.4763	81.1975	38.5417	5.36178	2.00751	2.50521	
479	1573229632.366665434	-1.14397	-2.01447	-1.62659	-1.47475	0.6969	0.828471	0.036706	0.0365095	0.0362526	0.0363008	0.0364835	0.036124	16.4477	81.1288	38.5385	5.3654	2.02263	2.51493	
480	1573229632.374679017	-1.14367	-2.01417	-1.6263	-1.47446	0.697188	0.828761	0.0367723	0.036655	0.0362985	0.0363396	0.0365081	0.0361575	16.4638	81.1911	38.577	5.36328	2.01621	2.51002	
481	1573229632.382676837	-1.14337	-2.01388	-1.62601	-1.47416	0.697478	0.829052	0.0368375	0.0367078	0.0363451	0.0363729	0.0365335	0.0361926	16.4651	81.1833	38.5922	5.3647	2.01635	2.50996	
482	1573229632.390674764	-1.14307	-2.01358	-1.62572	-1.47387	0.69777	0.829344	0.0369023	0.036762	0.0363896	0.0363984	0.0365689	0.0362307	16.4678	81.1764	38.6078	5.36554	2.01616	2.5097	
483	1573229632.398670854	-1.14276	-2.01328	-1.62542	-1.47358	0.698061	0.829633	0.036965	0.0368206	0.0364349	0.0363482	0.0366	0.036262	16.4808	81.1669	38.6205	5.36709	2.00936	2.50551	
484	1573229632.406695291	-1.14246	-2.01298	-1.62513	-1.47329	0.698354	0.829923	0.0370269	0.0368759	0.0364748	0.0362107	0.0366361	0.0362935	16.4828	81.159	38.6353	5.36776	2.00908	2.50519	
485	1573229632.414670988	-1.14216	-2.01268	-1.62484	-1.473	0.698648	0.830215	0.037084	0.0369414	0.0365129	0.0360573	0.0366776	0.0363307	16.4864	81.1515	38.6497	5.36842	2.00774	2.50424	
486	1573229632.422726073	-1.14186	-2.01238	-1.62454	-1.47272	0.698944	0.830508	0.0371401	0.0370056	0.0365499	0.0358952	0.0367215	0.0363711	16.4858	81.1453	38.6653	5.36874	2.00902	2.50486	
487	1573229632.430753471	-1.14156	-2.01208	-1.62425	-1.47243	0.699241	0.830802	0.0371904	0.0370663	0.0364989	0.0357495	0.0367665	0.0364139	16.5039	81.1593	38.6914	5.36603	2.00213	2.50007	
488	1573229632.438702076	-1.14126	-2.01178	-1.62396	-1.47215	0.699536	0.831096	0.0372423	0.0371245	0.0364464	0.0356763	0.0368033	0.036455	16.4763	81.1332	38.6828	5.36985	2.01589	2.5086	
489	1573229632.446708589	-1.14096	-2.01148	-1.62367	-1.47186	0.699832	0.831391	0.03729	0.0371795	0.036477	0.035701	0.0368432	0.0364992	16.4773	81.126	38.697	5.37099	2.01582	2.50849	
490	1573229632.454663893	-1.14066	-2.01118	-1.62338	-1.47158	0.700128	0.831688	0.037341	0.0372311	0.0365201	0.0357247	0.0368791	0.0365521	16.4783	81.1181	38.712	5.37224	2.01593	2.50844	
491	1573229632.462707759	-1.14036	-2.01087	-1.62308	-1.47129	0.700423	0.831985	0.0373853	0.0372824	0.0365665	0.0357489	0.0369119	0.0366015	16.4792	81.1108	38.7278	5.37348	2.01604	2.50834	
492	1573229632.470679626	-1.14006	-2.01057	-1.62279	-1.471	0.700717	0.832282	0.0374289	0.0373372	0.0366054	0.0357779	0.0369427	0.036653	16.4804	81.1032	38.7424	5.37459	2.01602	2.50823	
493	1573229632.478708314	-1.13976	-2.01027	-1.6225	-1.47072	0.70101	0.83258	0.0374687	0.0373862	0.0367651	0.0358043	0.0369652	0.0367026	16.4604	81.0666	38.7421	5.38044	2.02412	2.5136	
494	1573229632.486669977	-1.13946	-2.00997	-1.6222	-1.47043	0.701305	0.832878	0.0375048	0.0374368	0.0370439	0.0358295	0.0369974	0.0367509	16.4621	81.0599	38.7778	5.38135	2.02396	2.51332	
495	1573229632.494689530	-1.13917	-2.00967	-1.6219	-1.47014	0.701598	0.833176	0.0375378	0.0374763	0.037298	0.0358564	0.037022	0.036796	16.4666	81.0576	38.8153	5.38163	2.02251	2.51225	
496	1573229632.502705626	-1.13887	-2.00937	-1.62159	-1.46986	0.701893	0.833476	0.0375735	0.03743	0.0375651	0.0358895	0.0370522	0.0368462	16.4751	81.102	38.8637	5.38105	2.01888	2.50929	
497	1573229632.510686376	-1.13857	-2.00907	-1.62129	-1.46957	0.702188	0.833774	0.0376087	0.0373939	0.0377429	0.0359267	0.0370815	0.0368946	16.4847	81.0619	38.8958	5.38052	2.01629	2.50768	
498	1573229632.518681530	-1.13827	-2.00877	-1.62098	-1.46928	0.702485	0.834074	0.0376499	0.0374314	0.0378053	0.035966	0.0371144	0.0369429	16.4854	81.0545	38.913	5.38182	2.0162	2.50749	
499	1573229632.526716586	-1.13797	-2.00847	-1.62067	-1.46899	0.70278	0.834372	0.0376847	0.0374651	0.0378694	0.0360066	0.0371434	0.0369816	16.4864	81.0475	38.9304	5.38306	2.01609	2.50729	
500	1573229632.534742686	-1.13767	-2.00817	-1.62037	-1.46869	0.703078	0.83467	0.0377169	0.0375063	0.0379246	0.0360529	0.0371812	0.0370213	16.4875	81.0405	38.9472	5.38428	2.01609	2.50708	
501	1573229632.542682282	-1.13737	-2.00787	-1.62006	-1.4684	0.703376	0.834969	0.0377536	0.0375421	0.0379743	0.036095	0.0372185	0.0370663	16.4878	81.0315	38.9626	5.38575	2.01622	2.50704	
502	1573229632.550691216	-1.13707	-2.00757	-1.61976	-1.46811	0.703675	0.835268	0.0377761	0.0375788	0.0380208	0.0361368	0.0372583	0.037108	16.489	81.0251	38.9789	5.38681	2.01603	2.5067	
503	1573229632.558668217	-1.13677	-2.00727	-1.61945	-1.46781	0.703975	0.835566	0.0378034	0.0376151	0.0379585	0.0361817	0.0373007	0.0371445	16.5085	81.0441	39.0086	5.38392	2.00852	2.50138	
504	1573229632.566679889	-1.13647	-2.00697	-1.61915	-1.46752	0.704275	0.835865	0.0378277	0.0375537	0.0378966	0.0362248	0.0373394	0.0371834	16.5055	81.0779	39.0154	5.38572	2.00936	2.50145	
505	1573229632.574673841	-1.13617	-2.00667	-1.61884	-1.46723	0.704575	0.836166	0.0378534	0.0374911	0.0379328	0.036269	0.0373798	0.0372296	16.4912	80.9983	39.0061	5.39048	2.01617	2.50631	
506	1573229632.582672381	-1.13588	-2.00638	-1.61854	-1.46693	0.704877	0.836467	0.037876	0.0375201	0.0379668	0.0363153	0.0374259	0.0372765	16.4917	80.9902	39.0205	5.39154	2.01626	2.5062	
507	1573229632.590725662	-1.13558	-2.00608	-1.61824	-1.46664	0.705179	0.83677	0.0378973	0.0375498	0.0380035	0.0363626	0.0374677	0.0373258	16.4923	80.982	39.0349	5.3928	2.01624	2.50606	
508	1573229632.598684127	-1.13528	-2.00578	-1.61794	-1.46634	0.705481	0.837072	0.0379192	0.0375781	0.0380404	0.0364126	0.0375089	0.0373718	16.4929	80.9739	39.0492	5.39411	2.01635	2.50592	
509	1573229632.606706851	-1.13498	-2.00548	-1.61763	-1.46604	0.705783	0.837373	0.0379457	0.0376105	0.0380852	0.0364616	0.0375533	0.0374169	16.4936	80.9656	39.0644	5.39523	2.01656	2.50586	
510	1573229632.614684220	-1.13468	-2.00518	-1.61733	-1.46574	0.706086	0.837676	0.0379716	0.037648	0.0381242	0.0365101	0.037595	0.0374632	16.4943	80.9574	39.0792	5.39648	2.01662	2.50573	
511	1573229632.622713654	-1.13438	-2.00488	-1.61703	-1.46545	0.706389	0.837979	0.0380039	0.0376921	0.0381642	0.0365589	0.0376406	0.0375092	16.4953	80.9492	39.0936	5.39761	2.01679	2.50567	
512	1573229632.630776135	-1.13408	-2.00458	-1.61672	-1.46515	0.706694	0.838282	0.0381465	0.0377309	0.0382975	0.0366042	0.0376867	0.0375549	16.5265	80.9028	39.0786	5.38789	2.02687	2.51087	
513	1573229632.638693143	-1.13377	-2.00427	-1.61642	-1.46485	0.706997	0.838587	0.0382896	0.0377727	0.0384248	0.0366534	0.0377291	0.0376033	16.5025	80.9331	39.1386	5.39997	2.0171	2.50549	
514	1573229632.646698917	-1.13347	-2.00397	-1.61611	-1.46455	0.707302	0.838891	0.038427	0.0378137	0.038468	0.0368442	0.0377752	0.0376498	16.525	80.9157	39.143	5.38866	2.0312	2.51257	
515	1573229632.654693668	-1.13316	-2.00367	-1.6158	-1.46425	0.707607	0.839196	0.0386543	0.0378616	0.0385117	0.0370247	0.0378207	0.0376979	16.5527	80.9015	39.1518	5.38985	2.0209	2.50629	
516	1573229632.662697709	-1.13285	-2.00336	-1.61549	-1.46395	0.707912	0.839502	0.0387991	0.0379154	0.0385507	0.0372154	0.0378659	0.0377481	16.4979	80.9134	39.1885	5.40438	2.02784	2.51118	
517	1573229632.670688676	-1.13254	-2.00305	-1.61519	-1.46364	0.70822	0.839809	0.0388484	0.0379686	0.0385994	0.0374015	0.037919	0.0378008	16.5168	80.9008	39.1998	5.40688	2.01775	2.505	
518	1573229632.678690941	-1.13222	-2.00275	-1.61488	-1.46333	0.708528	0.840116	0.0389069	0.0380201	0.0386411	0.037558	0.0379732	0.037851	16.5054	80.8966	39.2183	5.40796	2.02544	2.50937	
519	1573229632.686719189	-1.13191	-2.00244	-1.61457	-1.46303	0.708837	0.84042	0.0389699	0.0380785	0.0386799	0.037713	0.0380293	0.0378958	16.52	80.885	39.23	5.41025	2.01804	2.50472	
520	1573229632.694677431	-1.13159	-2.00213	-1.61426	-1.46272	0.709146	0.840727	0.039029	0.0381369	0.0387207	0.037777	0.0382026	0.0379435	16.526	80.8856	39.2535	5.42108	2.02657	2.50421	
521	1573229632.702681595	-1.13127	-2.00182	-1.61395	-1.46241	0.709456	0.841034	0.0390901	0.0381963	0.038762	0.0378405	0.0383738	0.0379921	16.5232	80.8689	39.2601	5.41268	2.01899	2.50444	
522	1573229632.710692725	-1.13096	-2.0015	-1.61364	-1.4621	0.709768	0.841342	0.039146	0.0382586	0.0387999	0.0379035	0.0384292	0.0380439	16.5245	80.8607	39.2752	5.4141	2.01918	2.50434	
523	1573229632.718676851	-1.13064	-2.00119	-1.61333	-1.46179	0.71008	0.841649	0.0392067	0.0383219	0.0388463	0.0379665	0.0384863	0.0380939	16.5256	80.8521	39.2903	5.41533	2.0194	2.50429	
524	1573229632.726677514	-1.13032	-2.00088	-1.61302	-1.46148	0.710393	0.841959	0.0392625	0.0383891	0.0388881	0.0381279	0.0385414	0.0381491	16.5136	80.8477	39.3095	5.41648	2.02739	2.5088	
525	1573229632.734675773	-1.13001	-2.00057	-1.61271	-1.46117	0.710707	0.842269	0.0393252	0.0384507	0.0389294	0.0383982	0.038601	0.0382077	16.5127	80.84	39.325	5.41843	2.02885	2.50945	
526	1573229632.742691137	-1.12969	-2.00025	-1.6124	-1.46085	0.711021	0.842581	0.0393778	0.0385135	0.0389697	0.0386812	0.0386577	0.0382653	16.5154	80.8328	39.3408	5.42055	2.02805	2.50878	
527	1573229632.750689103	-1.12937	-1.99994	-1.61209	-1.46053	0.711335	0.842893	0.0394318	0.0385725	0.0389986	0.038951	0.0387123	0.0383267	16.5174	80.8234	39.3538	5.4225	2.02793	2.50854	
528	1573229632.758706824	-1.12905	-1.99963	-1.61178	-1.46021	0.711647	0.843205	0.0394902	0.0386313	0.0390355	0.0391224	0.0387597	0.0383826	16.5325	80.8128	39.3658	5.42472	2.01991	2.50358	
529	1573229632.766907273	-1.12873	-1.99931	-1.61147	-1.45989	0.711963	0.843518	0.0395409	0.0386866	0.0389864	0.0391983	0.0388202	0.0384413	16.5489	80.8242	39.3911	5.42285	2.01429	2.49949	
530	1573229632.774675638	-1.12842	-1.999	-1.61116	-1.45957	0.712279	0.843829	0.0395948	0.0387472	0.0389411	0.0392685	0.0388808	0.0384915	16.5349	80.7952	39.3808	5.42747	2.02042	2.50343	
531	1573229632.782664913	-1.1281	-1.99868	-1.61085	-1.45925	0.712595	0.844143	0.0396476	0.0388045	0.0389759	0.0394242	0.0389373	0.0385496	16.5241	80.79	39.3986	5.42876	2.02735	2.50736	
532	1573229632.790687870	-1.12778	-1.99837	-1.61054	-1.45893	0.71291	0.844453	0.0396106	0.0388606	0.0390105	0.0395762	0.0389906	0.0385967	16.4983	80.7918	39.4256	5.443	2.01726	2.50221	
533	1573229632.798687007	-1.12746	-1.99805	-1.61024	-1.4586	0.713224	0.844765	0.0395652	0.0389131	0.0390414	0.0396441	0.0390391	0.0386446	16.5335	80.77	39.4242	5.43221	2.02063	2.50298	
534	1573229632.806706747	-1.12714	-1.99774	-1.60993	-1.45828	0.713539	0.845079	0.0395205	0.0389634	0.0390796	0.03971	0.0390916	0.038699	16.4951	80.7747	39.4547	5.44585	2.01745	2.50198	
535	1573229632.814661512	-1.12683	-1.99742	-1.60961	-1.45796	0.713855	0.845393	0.0393858	0.0390204	0.0391215	0.0397794	0.0391426	0.0387524	16.4928	80.7663	39.4698	5.44692	2.01753	2.50181	
536	1573229632.822708237	-1.12652	-1.99711	-1.6093	-1.45764	0.714172	0.845707	0.0393334	0.039074	0.0391651	0.0398383	0.0391982	0.0388053	16.5271	80.7441	39.4695	5.43628	2.02101	2.50261	
537	1573229632.830735158	-1.12621	-1.99679	-1.60899	-1.45732	0.714491	0.846023	0.0393633	0.0391242	0.0393192	0.0398998	0.0392577	0.0388628	16.5086	80.7088	39.4701	5.4416	2.02868	2.50769	
538	1573229632.838726744	-1.12589	-1.99648	-1.60867	-1.45699	0.714809	0.846339	0.0393967	0.0391707	0.0394694	0.0399573	0.039312	0.0389205	16.5286	80.7273	39.5185	5.43887	2.02116	2.50234	
539	1573229632.846667183	-1.12558	-1.99616	-1.60835	-1.45667	0.715125	0.846656	0.0394193	0.0392146	0.039521	0.0400176	0.0393599	0.0389824	16.5296	80.7185	39.5345	5.43986	2.02114	2.50215	
540	1573229632.854811605	-1.12527	-1.99585	-1.60804	-1.45635	0.715443	0.846974	0.0394511	0.0392508	0.0395621	0.0400707	0.0394111	0.0390427	16.5302	80.7101	39.5497	5.44126	2.02113	2.50198	
541	1573229632.862699807	-1.12496	-1.99554	-1.60772	-1.45603	0.715758	0.847293	0.039481	0.0392956	0.0396075	0.0401224	0.0394514	0.0391027	16.531	80.7012	39.5652	5.4424	2.02118	2.50185	
542	1573229632.870690073	-1.12465	-1.99522	-1.6074	-1.45571	0.716076	0.847612	0.0395048	0.0393364	0.0396503	0.0401798	0.039496	0.039163	16.5318	80.6928	39.5807	5.44372	2.02118	2.50168	
543	1573229632.878704107	-1.12433	-1.99491	-1.60709	-1.45539	0.716392	0.847929	0.0395246	0.0393684	0.0396885	0.0402288	0.0395387	0.0392178	16.532	80.6832	39.5951	5.44503	2.02127	2.50158	
544	1573229632.886819742	-1.12402	-1.9946	-1.60677	-1.45506	0.71671	0.848247	0.0395458	0.0394055	0.0397249	0.0402772	0.039582	0.0392736	16.5326	80.6751	39.6103	5.44634	2.0213	2.50137	
545	1573229632.894681247	-1.12371	-1.99428	-1.60645	-1.45474	0.717024	0.848567	0.0394704	0.0394375	0.0396785	0.0403271	0.0396162	0.0393339	16.5066	80.7002	39.6528	5.4574	2.01176	2.49625	
546	1573229632.902712385	-1.1234	-1.99397	-1.60614	-1.45442	0.71734	0.848887	0.0393954	0.0394705	0.0396365	0.0403695	0.0396506	0.0393936	16.5287	80.6556	39.6252	5.44871	2.02154	2.50123	
547	1573229632.910686852	-1.12309	-1.99366	-1.60582	-1.4541	0.717654	0.849206	0.039412	0.0395068	0.0396756	0.040418	0.0396839	0.0394463	16.5293	80.648	39.6405	5.44988	2.02141	2.50096	
548	1573229632.918784346	-1.12278	-1.99334	-1.6055	-1.45378	0.717969	0.849527	0.0394319	0.0395376	0.0397184	0.0404612	0.0397164	0.0395045	16.5297	80.6378	39.655	5.45114	2.02163	2.50096	
549	1573229632.926704398	-1.12247	-1.99303	-1.60518	-1.45346	0.718284	0.849848	0.0394554	0.0395699	0.0397593	0.0405042	0.039749	0.0395606	16.5306	80.6286	39.67	5.45224	2.02173	2.50083	
550	1573229632.934670488	-1.12216	-1.99272	-1.60487	-1.45313	0.718599	0.850168	0.0394803	0.039599	0.0397988	0.0405531	0.0397817	0.0396131	16.531	80.6196	39.6846	5.45345	2.0218	2.50069	
551	1573229632.942768225	-1.12185	-1.9924	-1.60455	-1.45281	0.718915	0.850489	0.0395089	0.0396367	0.0398316	0.0406021	0.0398157	0.0396665	16.5318	80.6098	39.6986	5.4547	2.02179	2.50053	
552	1573229632.950729803	-1.12154	-1.99209	-1.60423	-1.45248	0.719233	0.85081	0.0395409	0.0396737	0.0398707	0.0406514	0.0398545	0.0397185	16.5327	80.6007	39.7133	5.45588	2.02181	2.50035	
553	1573229632.958686038	-1.12122	-1.99177	-1.60391	-1.45216	0.719549	0.851131	0.0395766	0.0397122	0.0399105	0.0406979	0.0398882	0.0397684	16.5334	80.5911	39.7278	5.45717	2.02199	2.50026	
554	1573229632.966675856	-1.1209	-1.99145	-1.6036	-1.45184	0.719866	0.85145	0.0396179	0.0397525	0.0399532	0.0407462	0.0399242	0.0398111	16.5347	80.5827	39.7429	5.45823	2.02195	2.50006	
555	1573229632.974749015	-1.12059	-1.99114	-1.60328	-1.45151	0.720185	0.851771	0.0397423	0.0397913	0.0400859	0.0408001	0.0399634	0.0398589	16.5557	80.5384	39.7306	5.4515	2.03182	2.50515	
556	1573229632.982843739	-1.12027	-1.99082	-1.60295	-1.45118	0.720502	0.852092	0.0399634	0.0398353	0.0402184	0.0408483	0.0399993	0.0399055	16.5808	80.5493	39.7714	5.44809	2.02569	2.50067	
557	1573229632.990704078	-1.11994	-1.9905	-1.60263	-1.45086	0.720822	0.852412	0.0401043	0.0399603	0.0403523	0.0408934	0.0400374	0.03995	16.5194	80.4749	39.7714	5.46815	2.03416	2.50814	
558	1573229632.998728936	-1.11962	-1.99018	-1.60231	-1.45053	0.721142	0.852732	0.0401537	0.0401885	0.0404881	0.040942	0.0400787	0.0399934	16.5334	80.4769	39.809	5.46674	2.02927	2.50466	
559	1573229633.006698127	-1.1193	-1.98986	-1.60198	-1.4502	0.721461	0.853054	0.0402074	0.0403387	0.0405438	0.0409889	0.0401141	0.0400401	16.5494	80.5416	39.8495	5.46444	2.02245	2.49932	
560	1573229633.014704250	-1.11897	-1.98953	-1.60165	-1.44987	0.721781	0.853377	0.0402609	0.0403852	0.0405988	0.0410368	0.0401507	0.0400899	16.551	80.5326	39.866	5.46555	2.02245	2.49912	
561	1573229633.022677602	-1.11864	-1.98921	-1.60133	-1.44955	0.722101	0.853699	0.0403142	0.0405162	0.0406461	0.0410874	0.0401893	0.040138	16.5401	80.4651	39.8616	5.46968	2.02823	2.50318	
