terrinbabu/Matlab/log_filtering/UR10_35_KF/ejt_KF2_3kg_lift_drop.txt
seq	time	q0	q1	q2	q3	q4	q5	Dq0	Dq1	Dq2	Dq3	Dq4	Dq5	eff0	eff1	eff2	eff3	eff4	eff5	
38	1580482312.664701318	0.00239863	-0.895076	2.13238	-2.79043	-1.56954	-2.6233	2.68092e-05	3.02768e-06	8.64493e-05	-2.34623e-05	-2.41144e-06	-3.96122e-05	15.5174	-47.7652	-15.0615	-5.35269	-2.17916	-2.26504	
39	1580482312.672632952	0.00239836	-0.895077	2.13238	-2.79042	-1.56954	-2.6233	2.42938e-05	-3.48073e-06	7.76885e-05	-1.78424e-05	1.09806e-05	-3.3964e-05	15.5173	-75.6122	-15.0623	-5.35268	2.99289	-2.26503	
40	1580482312.680634881	0.0023981	-0.895075	2.13238	-2.79043	-1.56954	-2.6233	2.18935e-05	7.30734e-06	6.37961e-05	-2.40391e-05	6.94933e-07	-3.42619e-05	15.5173	-47.7652	-15.0635	-5.35269	2.20395	-2.26503	
41	1580482312.688609534	0.00240084	-0.895072	2.13238	-2.79043	-1.56954	-2.6233	3.63604e-05	2.27906e-05	5.63553e-05	-2.41483e-05	8.09107e-06	-2.32253e-05	15.5177	-47.7651	-15.0641	-5.35269	2.99288	-2.265	
42	1580482312.696663641	0.00239947	-0.895071	2.13238	-2.79043	-1.56954	-2.6233	2.74145e-05	2.5979e-05	5.48462e-05	-3.52295e-05	1.4894e-05	-2.9641e-05	15.5175	-47.7651	-15.0642	-5.35273	2.99291	-2.26502	
43	1580482312.704655356	0.00240307	-0.895073	2.13238	-2.79043	-1.56954	-2.6233	4.64339e-05	1.7887e-05	5.32987e-05	-3.98983e-05	2.11329e-05	-3.54888e-05	15.518	-47.7651	-15.0643	-5.35274	2.99295	-2.26504	
44	1580482312.712663524	0.00240259	-0.89507	2.13238	-2.79043	-1.56953	-2.6233	4.21501e-05	3.21245e-05	5.71616e-05	-3.86708e-05	2.68362e-05	-2.43628e-05	15.5179	-47.765	-15.0639	-5.35274	2.99296	-2.265	
45	1580482312.720656039	0.00240114	-0.89507	2.13238	-2.79043	-1.56953	-2.6233	3.26269e-05	2.89713e-05	4.97599e-05	-4.28467e-05	2.12195e-05	-3.03429e-05	15.5176	-47.765	-15.0646	-5.35275	2.99295	-2.26502	
46	1580482312.728670151	0.00240073	-0.895074	2.13238	-2.79043	-1.56954	-2.6233	2.91176e-05	9.64447e-06	4.81464e-05	-3.56451e-05	1.03804e-05	-2.50525e-05	15.5175	-47.7651	-15.0647	-5.35272	2.99291	-2.26501	
47	1580482312.736669218	0.00239935	-0.895072	2.13237	-2.79043	-1.56954	-2.6233	2.0415e-05	1.86245e-05	3.05125e-05	-3.44445e-05	5.87195e-06	-2.54294e-05	15.5172	-47.7651	-15.0662	-5.35271	2.9929	-2.26501	
48	1580482312.744680719	0.00239899	-0.895074	2.13237	-2.79043	-1.56954	-2.6233	1.76222e-05	5.46097e-06	3.00104e-05	-3.32483e-05	1.68124e-06	-2.57121e-05	15.5171	-47.7652	-15.0663	-5.3527	2.99289	-2.26501	
49	1580482312.752671866	0.00239768	-0.895074	2.13237	-2.79043	-1.56954	-2.6233	9.68045e-06	9.26692e-06	1.89246e-05	-3.73264e-05	-2.20558e-06	-1.52666e-05	15.5169	-47.7652	-15.0673	-5.3527	-2.1791	-2.26498	
50	1580482312.760692777	0.00239931	-0.895076	2.13237	-2.79043	-1.56954	-2.62329	1.80733e-05	-3.15262e-06	2.43054e-05	-3.57751e-05	-5.67486e-07	5.12418e-06	15.5171	-75.6121	-15.0668	-5.3527	-1.06062	2.2571	
51	1580482312.768696427	0.00239894	-0.895075	2.13237	-2.79043	-1.56954	-2.62329	1.53278e-05	1.15786e-06	2.92199e-05	-3.42486e-05	9.48963e-07	2.39998e-05	15.517	-47.7652	-15.0664	-5.35269	2.8609	2.25716	
52	1580482312.776734609	0.00239859	-0.895075	2.13237	-2.79043	-1.56954	-2.62329	1.27297e-05	-2.6956e-08	3.36912e-05	-3.27481e-05	2.3493e-06	2.5607e-05	15.517	-62.0639	-15.066	-5.35269	2.99289	2.25716	
53	1580482312.784677623	0.0023992	-0.895073	2.13237	-2.79043	-1.56954	-2.62329	1.54409e-05	9.1469e-06	2.23242e-05	-4.15535e-05	-1.19842e-05	2.18886e-05	15.5171	-47.7651	-15.0669	-5.3527	-2.17915	2.25715	
54	1580482312.792705848	0.00239883	-0.895073	2.13237	-2.79043	-1.56954	-2.62329	1.27664e-05	1.25168e-05	1.17167e-05	-4.96149e-05	-2.01404e-05	1.32719e-05	15.517	-47.7651	-15.0678	-5.35272	-2.17917	2.25713	
55	1580482312.800708230	0.00239657	-0.895073	2.13237	-2.79043	-1.56954	-2.62329	2.81482e-08	1.05265e-05	1.19947e-05	-5.18894e-05	-1.2219e-05	2.05773e-05	0.436749	-47.7652	-15.0678	-5.35273	-2.17914	2.25715	
56	1580482312.808771909	0.00239535	-0.895073	2.13237	-2.79043	-1.56954	-2.62329	-6.73124e-06	8.64625e-06	7.16568e-06	-5.38682e-05	-1.49353e-05	7.00488e-06	-15.5169	-47.7652	-15.0683	-5.35274	-2.17914	2.25711	
57	1580482312.816725517	0.00239324	-0.895073	2.13237	-2.79043	-1.56954	-2.62329	-1.80484e-05	1.18923e-05	-2.363e-06	-5.05481e-05	-7.38075e-06	9.44254e-06	-15.5172	-47.7652	-15.0691	-5.35273	-2.17911	2.25712	
58	1580482312.824693723	0.00239497	-0.895073	2.13237	-2.79043	-1.56954	-2.62329	-8.45374e-06	9.87927e-06	-1.62048e-05	-4.73355e-05	-5.33842e-06	-3.29479e-06	-15.5169	-47.7653	-15.0703	-5.35273	-2.17909	-2.26495	
59	1580482312.832698707	0.0023957	-0.895072	2.13236	-2.79043	-1.56954	-2.62329	-4.51979e-06	1.29413e-05	-2.40668e-05	-4.91931e-05	-8.39179e-06	-5.19652e-06	-15.5168	-47.7653	-15.071	-5.35273	-2.1791	-2.26496	
60	1580482312.840762177	0.0023964	-0.895071	2.13237	-2.79043	-1.56954	-2.6233	-8.63524e-07	2.0684e-05	-2.14478e-05	-4.58578e-05	-1.12091e-05	-1.18897e-05	-13.399	-47.7652	-15.0708	-5.35273	-2.17912	-2.26497	
61	1580482312.848732871	0.002398	-0.895071	2.13237	-2.79043	-1.56954	-2.6233	7.46152e-06	1.80066e-05	-4.23997e-06	-3.75348e-05	-8.89222e-06	-8.26799e-06	15.5169	-47.7652	-15.0692	-5.35271	-2.17913	-2.26496	
62	1580482312.856708142	0.0023986	-0.89507	2.13237	-2.79043	-1.56954	-2.6233	1.02663e-05	2.52296e-05	2.00276e-06	-3.96573e-05	-1.66751e-05	-2.45075e-05	15.517	-47.7651	-15.0687	-5.35271	-2.17917	-2.265	
63	1580482312.864726677	0.00240103	-0.895072	2.13237	-2.79043	-1.56954	-2.6233	2.26025e-05	1.22628e-05	-1.91171e-06	-3.66737e-05	-4.25711e-06	-2.00355e-05	15.5173	-47.7652	-15.069	-5.35271	-2.17911	-2.265	
64	1580482312.872731961	0.00240058	-0.895073	2.13237	-2.79043	-1.56954	-2.6233	1.94489e-05	5.18404e-06	-5.55421e-06	-2.87796e-05	-1.22047e-05	-2.06573e-05	15.5172	-47.7652	-15.0694	-5.35268	-2.17914	-2.265	
65	1580482312.880693935	0.00239831	-0.895073	2.13237	-2.79043	-1.56954	-2.6233	6.79645e-06	8.18501e-06	-4.13127e-06	-3.11576e-05	-9.77087e-06	-2.11874e-05	15.5168	-47.7652	-15.0692	-5.35269	-2.17913	-2.265	
66	1580482312.888694372	0.0023998	-0.895074	2.13237	-2.79043	-1.56954	-2.6233	1.42096e-05	1.39349e-06	1.9782e-06	-2.35401e-05	-2.70169e-06	-2.64101e-05	15.517	-47.7652	-15.0687	-5.35268	-2.17911	-2.26501	
67	1580482312.896708740	0.00240122	-0.895071	2.13237	-2.79043	-1.56954	-2.6233	2.10687e-05	1.40779e-05	-6.6059e-06	-2.6083e-05	3.88835e-06	-2.17015e-05	15.5172	-47.7652	-15.0695	-5.35269	2.9929	-2.265	
68	1580482312.904684436	0.00240167	-0.895074	2.13237	-2.79043	-1.56954	-2.6233	2.26417e-05	2.0111e-06	-9.85994e-06	-2.3652e-05	1.94792e-05	-2.19943e-05	15.5172	-47.7653	-15.0698	-5.35269	2.99298	-2.265	
69	1580482312.912688464	0.00239937	-0.895075	2.13237	-2.79043	-1.56954	-2.6233	9.84822e-06	-4.34861e-06	5.95414e-06	-2.13237e-05	1.51332e-05	-2.69214e-05	15.5169	-75.6122	-15.0684	-5.35268	2.99295	-2.26501	
70	1580482312.920702847	0.00239897	-0.895078	2.13237	-2.79043	-1.56954	-2.6233	7.30718e-06	-1.98257e-05	1.13085e-05	-2.84625e-05	1.1047e-05	-1.7306e-05	15.5168	-75.6123	-15.068	-5.3527	2.99294	-2.26499	
71	1580482312.928670524	0.00239948	-0.895078	2.13237	-2.79043	-1.56953	-2.6233	9.59568e-06	-2.00473e-05	2.09296e-05	-2.57231e-05	2.11916e-05	-1.77139e-05	15.5169	-75.6123	-15.0671	-5.3527	2.99298	-2.26499	
72	1580482312.936729910	0.00240088	-0.895074	2.13238	-2.79043	-1.56953	-2.6233	1.6359e-05	-1.66364e-06	2.9848e-05	-2.31007e-05	2.13267e-05	-1.80516e-05	15.5171	-75.6121	-15.0663	-5.35269	2.99296	-2.26498	
73	1580482312.944689241	0.00239951	-0.895077	2.13237	-2.79043	-1.56954	-2.6233	8.7012e-06	-1.70065e-05	1.96335e-05	-2.05931e-05	1.67875e-05	-9.00133e-06	15.5168	-75.6122	-15.0672	-5.35268	2.99295	-2.26496	
74	1580482312.952668093	0.00240089	-0.895076	2.13237	-2.79043	-1.56954	-2.6233	1.53778e-05	-8.13931e-06	1.9239e-05	-2.73832e-05	3.1437e-06	-1.89978e-05	15.517	-75.6122	-15.0672	-5.35269	2.99289	-2.26499	
75	1580482312.960689528	0.00239953	-0.895078	2.13237	-2.79043	-1.56954	-2.6233	7.77759e-06	-1.83169e-05	1.88217e-05	-1.97528e-05	8.8692e-06	-2.371e-05	15.5168	-75.6122	-15.0673	-5.35267	2.99292	-2.265	
76	1580482312.968734166	0.00239821	-0.895077	2.13237	-2.79043	-1.56954	-2.6233	6.55673e-07	-1.39492e-05	1.8384e-05	-2.64069e-05	1.41918e-05	-3.26014e-05	10.1738	-75.6122	-15.0673	-5.3527	2.99295	-2.26503	
77	1580482312.976688587	0.00239873	-0.895077	2.13237	-2.79043	-1.56953	-2.6233	3.09958e-06	-1.43718e-05	4.34363e-06	-1.42568e-05	1.91274e-05	-3.62977e-05	15.5167	-75.6123	-15.0686	-5.35266	2.99297	-2.26504	
78	1580482312.984686360	0.00239745	-0.895078	2.13237	-2.79043	-1.56954	-2.6233	-3.69722e-06	-1.92448e-05	-8.78323e-06	-2.10786e-05	5.48198e-06	-3.51571e-05	-15.5168	-75.6123	-15.0697	-5.35267	2.99292	-2.26504	
79	1580482312.992692097	0.00239798	-0.895078	2.13237	-2.79043	-1.56954	-2.6233	-1.0259e-06	-1.92699e-05	5.89002e-06	-1.37548e-05	1.08481e-05	-2.02796e-05	-15.5167	-75.6123	-15.0685	-5.35265	2.99293	-2.26499	
80	1580482313.000707668	0.0023985	-0.895077	2.13237	-2.79043	-1.56954	-2.6233	1.46311e-06	-1.47868e-05	-2.75104e-06	-1.15176e-05	6.90266e-06	-2.44639e-05	15.5166	-75.6123	-15.0692	-5.35264	2.99292	-2.265	
81	1580482313.008639282	0.00239988	-0.895079	2.13237	-2.79043	-1.56954	-2.6233	8.2469e-06	-2.40837e-05	-6.37857e-06	-9.39221e-06	-1.03187e-05	-3.27616e-05	15.5168	-75.6123	-15.0696	-5.35263	-2.17913	-2.26503	
82	1580482313.016677810	0.00240208	-0.895081	2.13237	-2.79043	-1.56954	-2.6233	1.90108e-05	-3.27224e-05	-1.41864e-05	-1.18025e-05	-4.08479e-06	-3.60138e-05	15.5171	-75.6124	-15.0703	-5.35264	-2.17909	-2.26504	
83	1580482313.024668292	0.00240156	-0.89508	2.13237	-2.79043	-1.56954	-2.6233	1.57319e-05	-2.73307e-05	-1.70521e-05	-5.03057e-06	1.75051e-06	-3.01557e-05	15.517	-75.6124	-15.0705	-5.35262	2.9929	-2.26502	
84	1580482313.032686817	0.00240106	-0.895079	2.13237	-2.79043	-1.56954	-2.6233	1.26224e-05	-2.22301e-05	-2.40863e-05	-3.2416e-06	2.81374e-06	-2.89939e-05	15.5169	-75.6124	-15.0712	-5.35262	2.99291	-2.26502	
85	1580482313.040689021	0.00240057	-0.895079	2.13236	-2.79043	-1.56954	-2.6233	9.67766e-06	-1.74117e-05	-2.62476e-05	7.35969e-06	3.80026e-06	-1.90132e-05	15.5169	-75.6124	-15.0714	-0.246383	2.9929	-2.26499	
86	1580482313.048665529	0.00239923	-0.895079	2.13236	-2.79043	-1.56954	-2.6233	2.51983e-06	-1.72167e-05	-3.25657e-05	8.39546e-06	1.34132e-05	-2.2766e-05	15.5167	-75.6124	-15.0719	-0.246386	2.99295	-2.265	
87	1580482313.056699240	0.00239967	-0.89508	2.13236	-2.79043	-1.56953	-2.6233	4.5173e-06	-2.13287e-05	-2.5415e-05	1.81908e-05	2.23771e-05	-3.05538e-05	15.5167	-75.6125	-15.0713	-0.246365	2.99298	-2.26502	
88	1580482313.064656700	0.0024001	-0.895077	2.13237	-2.79042	-1.56953	-2.6233	6.36846e-06	-7.87788e-06	-1.86701e-05	3.16399e-05	2.64026e-05	-3.77699e-05	15.5168	-75.6124	-15.0707	-0.246332	2.99297	-2.26503	
89	1580482313.072696004	0.0024005	-0.895078	2.13237	-2.79042	-1.56953	-2.6233	8.07924e-06	-1.24507e-05	-1.66134e-05	3.11109e-05	2.15212e-05	-2.71702e-05	15.5168	-75.6124	-15.0705	-0.246327	2.99295	-2.265	
90	1580482313.080668153	0.00239917	-0.895077	2.13237	-2.79042	-1.56953	-2.6233	1.0551e-06	-8.15014e-06	-1.03763e-05	3.05555e-05	1.69022e-05	-3.00987e-05	15.5167	-75.6124	-15.07	-0.246327	2.99293	-2.26501	
91	1580482313.088691222	0.0023996	-0.895076	2.13237	-2.79042	-1.56953	-2.6233	3.03191e-06	1.54821e-07	-4.51496e-06	2.14565e-05	2.53174e-05	-3.27699e-05	15.5167	-59.5332	-15.0694	-0.246362	2.99296	-2.26501	
92	1580482313.096683347	0.00240088	-0.895075	2.13237	-2.79042	-1.56953	-2.6233	9.13403e-06	3.69124e-06	-3.25913e-06	3.00337e-05	2.88999e-05	-3.51948e-05	15.5169	-47.7654	-15.0693	-0.246339	2.99297	-2.26502	
93	1580482313.104696346	0.00240039	-0.895075	2.13237	-2.79042	-1.56953	-2.6233	6.32783e-06	2.77162e-06	-6.3022e-06	3.3785e-05	2.79664e-05	-2.89336e-05	15.5168	-47.7654	-15.0696	-0.246324	2.99296	-2.265	
94	1580482313.112659715	0.00239906	-0.895074	2.13237	-2.79042	-1.56953	-2.6233	-5.53366e-07	6.11295e-06	-9.14129e-06	3.28565e-05	2.28207e-05	-2.72065e-05	-8.58641	-47.7654	-15.0698	-0.246321	2.99294	-2.26499	
95	1580482313.120632920	0.00240034	-0.895074	2.13237	-2.79042	-1.56953	-2.6233	5.63296e-06	5.04031e-06	7.91096e-07	1.93466e-05	1.79466e-05	-1.70557e-05	15.5168	-47.7653	-15.0689	-0.246357	2.99292	-2.26497	
96	1580482313.128692844	0.00240242	-0.895075	2.13237	-2.79042	-1.56953	-2.6233	1.56095e-05	-1.5035e-07	1.42736e-05	1.49965e-05	2.58614e-05	-1.59306e-05	15.5171	-63.7822	-15.0677	-0.246377	2.99296	-2.26497	
97	1580482313.136659107	0.00240102	-0.895074	2.13237	-2.79042	-1.56953	-2.6233	8.19941e-06	7.46011e-06	1.02481e-05	1.50488e-05	2.49061e-05	-6.4338e-06	15.5169	-47.7653	-15.0681	-0.246373	2.99295	-2.26494	
98	1580482313.144618925	0.00239882	-0.895074	2.13237	-2.79042	-1.56953	-2.6233	-2.9378e-06	6.2959e-06	1.05938e-05	1.50695e-05	1.98115e-05	6.80103e-06	-15.5167	-47.7653	-15.068	-0.246365	2.99293	2.25713	
99	1580482313.152618455	0.0023967	-0.895073	2.13237	-2.79042	-1.56953	-2.6233	-1.3384e-05	9.31779e-06	6.76849e-06	1.9352e-05	1.4988e-05	1.07066e-05	-15.517	-47.7653	-15.0684	-0.246347	2.99291	2.25714	
100	1580482313.160694382	0.00239635	-0.895073	2.13237	-2.79042	-1.56953	-2.6233	-1.48969e-05	1.21332e-05	7.27602e-06	1.90562e-05	2.27602e-05	1.4356e-05	-15.5171	-47.7653	-15.0683	-0.246351	2.99294	2.25715	
101	1580482313.168670557	0.00239685	-0.895075	2.13237	-2.79043	-1.56953	-2.6233	-1.21757e-05	2.30037e-06	2.00215e-05	1.05513e-05	1.34556e-05	9.56776e-06	-15.517	-47.7653	-15.0672	-0.246373	2.9929	2.25714	
102	1580482313.176659833	0.00239565	-0.895073	2.13237	-2.79043	-1.56953	-2.6233	-1.78069e-05	9.55123e-06	1.56196e-05	1.07107e-05	8.93516e-06	9.82964e-07	-15.5171	-47.7653	-15.0676	-0.24637	2.99288	2.2186	
103	1580482313.184634037	0.0023945	-0.895074	2.13238	-2.79043	-1.56953	-2.6233	-2.30616e-05	8.20739e-06	2.77132e-05	1.084e-05	1.68628e-05	5.12482e-06	-15.5173	-47.7652	-15.0665	-0.246375	2.99291	2.25713	
104	1580482313.193269056	0.00239507	-0.895071	2.13238	-2.79043	-1.56953	-2.6233	-1.98113e-05	1.90772e-05	2.68586e-05	6.89144e-06	1.61658e-05	4.95964e-06	-15.5172	-47.7652	-15.0665	-0.246387	2.9929	2.25713	
105	1580482313.200665726	0.00239394	-0.895072	2.13237	-2.79043	-1.56953	-2.6233	-2.48372e-05	1.71393e-05	1.38968e-05	7.20626e-06	1.1439e-05	7.66781e-07	-15.5173	-47.7652	-15.0677	-0.246381	2.99289	1.72981	
106	1580482313.208631439	0.00239454	-0.895072	2.13237	-2.79043	-1.56954	-2.6233	-2.14294e-05	1.52847e-05	1.7775e-05	3.46873e-06	2.79187e-06	-7.18482e-06	-15.5172	-47.7652	-15.0673	-0.246388	2.99286	-2.26494	
107	1580482313.216645168	0.00239511	-0.895071	2.13237	-2.79043	-1.56954	-2.6233	-1.81908e-05	1.75167e-05	1.33687e-05	3.95795e-06	-5.33963e-06	-6.62119e-06	-15.5171	-47.7652	-15.0677	-0.246381	-2.17916	-2.26494	
108	1580482313.224684189	0.00239814	-0.895071	2.13237	-2.79042	-1.56954	-2.6233	-3.20691e-06	1.95771e-05	1.31915e-05	1.6542e-05	-4.8309e-06	-2.08171e-06	-15.5167	-47.7652	-15.0677	-0.246343	-2.17917	-2.26492	
109	1580482313.232659791	0.0023986	-0.89507	2.13238	-2.79043	-1.56954	-2.6233	-9.96356e-07	2.14724e-05	2.49252e-05	8.2903e-06	-1.64369e-05	-9.7362e-06	-15.4601	-47.7651	-15.0666	-0.246364	-2.17922	-2.26494	
110	1580482313.240652201	0.00239904	-0.895069	2.13238	-2.79042	-1.56954	-2.6233	1.07873e-06	2.71715e-05	3.58972e-05	1.2567e-05	-1.13062e-05	-1.69025e-05	15.5167	-47.765	-15.0656	-0.246357	-2.17921	-2.26496	
111	1580482313.248683349	0.00239946	-0.895069	2.13238	-2.79043	-1.56954	-2.6233	3.02283e-06	2.85233e-05	3.03404e-05	4.55861e-06	-1.84703e-05	-1.57005e-05	15.5168	-47.765	-15.0661	-0.246375	-2.17923	-2.26496	
112	1580482313.256789850	0.00239905	-0.89507	2.13238	-2.79043	-1.56954	-2.6233	8.85058e-07	2.18668e-05	4.07927e-05	8.98423e-06	-2.10797e-05	-1.84684e-05	13.7332	-47.765	-15.0651	-0.246361	-2.17925	-2.26497	
113	1580482313.264659933	0.00239699	-0.895069	2.13238	-2.79043	-1.56954	-2.6233	-9.01282e-06	2.34064e-05	3.87716e-05	5.12845e-06	-1.17332e-05	-1.7107e-05	-15.5169	-47.765	-15.0653	-0.246377	-2.1792	-2.26496	
114	1580482313.272697811	0.00239666	-0.895069	2.13238	-2.79043	-1.56954	-2.6233	-1.04478e-05	2.48057e-05	2.1163e-05	5.40094e-06	-6.83487e-06	-1.57875e-05	-15.5169	-47.7651	-15.0669	-0.246375	-2.17917	-2.26496	
115	1580482313.280699697	0.00239716	-0.895069	2.13238	-2.79043	-1.56954	-2.6233	-7.86563e-06	2.21766e-05	2.01363e-05	5.64669e-06	-1.00072e-05	-6.64442e-06	-15.5168	-47.7651	-15.067	-0.24637	-2.17918	-2.26494	
116	1580482313.288805110	0.002396	-0.89507	2.13237	-2.79043	-1.56954	-2.6233	-1.32276e-05	1.96583e-05	1.52465e-05	5.86683e-06	-1.70103e-05	-5.86584e-06	-15.517	-47.7651	-15.0674	-0.246363	-2.17921	-2.26494	
117	1580482313.296695874	0.0023957	-0.895069	2.13238	-2.79043	-1.56954	-2.6233	-1.43602e-05	2.11161e-05	2.22155e-05	6.06246e-06	-1.95451e-05	-5.11586e-06	-15.517	-47.765	-15.0667	-0.246361	-2.17922	-2.26493	
118	1580482313.304693915	0.0023946	-0.895068	2.13237	-2.79043	-1.56954	-2.6233	-1.92756e-05	2.62978e-05	1.33055e-05	6.23465e-06	-2.59036e-05	-5.39818e-07	-15.5172	-47.7651	-15.0675	-0.246354	-2.17925	-1.22444	
119	1580482313.312696033	0.00239435	-0.895068	2.13238	-2.79043	-1.56954	-2.6233	-2.00036e-05	2.34357e-05	2.41002e-05	2.54295e-06	-1.63189e-05	-3.91052e-06	-15.5172	-47.765	-15.0665	-0.246373	-2.17921	-2.26493	
120	1580482313.320715294	0.0023933	-0.895071	2.13238	-2.79043	-1.56954	-2.6233	-2.45019e-05	1.28834e-05	1.88906e-05	2.89302e-06	-1.49295e-05	-7.06842e-06	-15.5173	-47.7651	-15.067	-0.246371	-2.17919	-2.26494	
121	1580482313.328702917	0.00239555	-0.895072	2.13238	-2.79043	-1.56954	-2.6233	-1.33445e-05	6.89365e-06	2.53954e-05	3.2166e-06	-1.35957e-05	-2.38827e-06	-15.517	-47.7651	-15.0665	-0.246371	-2.17919	-2.26493	
122	1580482313.336694921	0.00239528	-0.895074	2.13238	-2.79043	-1.56954	-2.6233	-1.42917e-05	-2.71675e-06	2.00528e-05	3.51468e-06	-4.70912e-06	-9.38395e-06	-15.5171	-75.6121	-15.067	-0.246376	-2.17914	-2.26495	
123	1580482313.344653297	0.00239584	-0.895072	2.13238	-2.79042	-1.56954	-2.6233	-1.13462e-05	3.55491e-06	3.01456e-05	1.15225e-05	3.66294e-06	-1.59453e-05	-15.517	-47.7651	-15.0661	-0.24636	2.99286	-2.26497	
124	1580482313.352709569	0.00239638	-0.89507	2.13238	-2.79043	-1.56954	-2.6233	-8.55326e-06	1.32275e-05	2.82474e-05	3.77172e-06	-3.73129e-06	-2.96434e-06	-15.5169	-47.765	-15.0662	-0.246376	-2.17915	-2.26493	
125	1580482313.360714938	0.0023969	-0.89507	2.13238	-2.79043	-1.56954	-2.6233	-5.90858e-06	1.4772e-05	3.39351e-05	-3.53361e-06	4.53055e-06	5.35174e-06	-15.5168	-47.765	-15.0656	-5.3526	2.99287	2.25712	
126	1580482313.368646437	0.00239902	-0.89507	2.13238	-2.79043	-1.56954	-2.6233	4.14166e-06	1.24399e-05	3.17116e-05	-6.6519e-06	-2.86935e-06	1.31787e-05	15.5168	-47.765	-15.0658	-5.3526	-2.17914	2.25714	
127	1580482313.376684587	0.00239865	-0.89507	2.13238	-2.79043	-1.56954	-2.6233	2.30964e-06	1.39593e-05	3.32949e-05	-5.83384e-06	5.28712e-06	2.05312e-05	15.5167	-47.765	-15.0657	-5.35261	2.99287	2.25716	
128	1580482313.384731033	0.00239669	-0.895068	2.13238	-2.79043	-1.56954	-2.62329	-6.9232e-06	2.28228e-05	4.21803e-05	-8.7842e-06	1.76486e-06	2.36183e-05	-15.5168	-47.7649	-15.0648	-5.35261	2.99285	2.25717	
129	1580482313.392724573	0.0023964	-0.895067	2.13238	-2.79043	-1.56954	-2.62329	-8.13028e-06	2.74065e-05	3.93069e-05	-1.15477e-05	-1.55795e-06	2.64879e-05	-15.5168	-47.7649	-15.0651	-5.35262	-2.17915	2.25718	
130	1580482313.400692009	0.00239852	-0.895067	2.13238	-2.79043	-1.56954	-2.62329	1.92972e-06	2.42542e-05	3.28121e-05	-1.04224e-05	-1.59594e-05	2.54396e-05	15.5167	-47.7649	-15.0656	-5.3526	-2.1792	2.25717	
131	1580482313.408694450	0.00239817	-0.895069	2.13238	-2.79043	-1.56954	-2.62329	2.56229e-07	1.75381e-05	3.03208e-05	-1.67362e-05	-3.47806e-06	2.8106e-05	3.97584	-47.7649	-15.0659	-5.35263	-2.17914	2.25718	
132	1580482313.416784929	0.00239783	-0.895066	2.13238	-2.79043	-1.56954	-2.62329	-1.32198e-06	2.9598e-05	2.05394e-05	-1.52853e-05	-2.7662e-06	4.18481e-05	-15.5167	-47.7649	-15.0667	-5.35262	-2.17914	2.25722	
133	1580482313.424700423	0.00239671	-0.895065	2.13238	-2.79043	-1.56954	-2.62329	-6.50113e-06	3.35576e-05	1.12748e-05	-1.38898e-05	-5.76531e-06	5.47273e-05	-15.5168	-47.7649	-15.0675	-5.35261	-2.17915	2.25726	
134	1580482313.432650634	0.00239642	-0.895062	2.13238	-2.79043	-1.56954	-2.62329	-7.68968e-06	4.45495e-05	9.83879e-06	-1.62116e-05	-8.58293e-06	5.55631e-05	-15.5168	-47.7648	-15.0676	-5.35262	-2.17917	2.25726	
135	1580482313.440675429	0.00239535	-0.895065	2.13237	-2.79043	-1.56954	-2.62329	-1.24679e-05	3.27693e-05	1.15553e-06	-1.0921e-05	-1.12247e-05	5.62528e-05	-15.517	-47.7649	-15.0684	-5.3526	-2.17917	2.25726	
136	1580482313.448735808	0.00239511	-0.895064	2.13238	-2.79043	-1.56954	-2.62329	-1.32909e-05	3.63062e-05	3.88074e-06	-2.27176e-06	-1.36961e-05	5.31626e-05	-15.517	-47.7649	-15.0681	-5.35257	-2.17919	2.25725	
137	1580482313.456696229	0.00239329	-0.895064	2.13238	-2.79043	-1.56954	-2.62329	-2.13418e-05	3.231e-05	6.43552e-06	-1.51612e-06	-1.23726e-05	5.01541e-05	-15.5172	-47.7649	-15.0679	-5.35257	-2.17918	2.25725	
138	1580482313.464669581	0.0023947	-0.895064	2.13237	-2.79043	-1.56954	-2.62329	-1.43425e-05	3.20963e-05	-9.27052e-06	-8e-07	-1.47222e-05	3.62974e-05	-15.517	-47.765	-15.0693	-4.84195	-2.17918	2.2572	
139	1580482313.472692064	0.00239291	-0.895066	2.13237	-2.79043	-1.56954	-2.62329	-2.22261e-05	2.46136e-05	-1.32497e-05	-1.22362e-07	-1.33038e-05	3.40609e-05	-15.5173	-47.7651	-15.0697	-3.11187	-2.17917	2.25719	
140	1580482313.480695830	0.00239433	-0.895064	2.13237	-2.79043	-1.56954	-2.62329	-1.51543e-05	3.18965e-05	-1.69871e-05	7.85772e-06	-1.19424e-05	4.28999e-05	-15.5171	-47.765	-15.07	-0.246342	-2.17917	2.25722	
141	1580482313.488686054	0.00239256	-0.895064	2.13237	-2.79043	-1.56954	-2.62329	-2.28818e-05	2.7941e-05	-1.3315e-05	8.05435e-06	-2.51305e-05	4.01836e-05	-15.5173	-47.765	-15.0696	-0.246334	-2.17922	2.25721	
142	1580482313.496698293	0.00239321	-0.895065	2.13237	-2.79042	-1.56954	-2.62329	-1.93431e-05	2.41523e-05	-9.83371e-06	1.55236e-05	-1.95003e-05	3.39712e-05	-15.5172	-47.765	-15.0693	-0.246317	-2.1792	2.2572	
143	1580482313.504698201	0.00239149	-0.895065	2.13237	-2.79042	-1.56954	-2.62329	-2.67263e-05	2.40941e-05	5.95634e-07	1.8978e-05	-2.4996e-05	4.25289e-05	-15.5174	-47.765	-15.0684	-0.246302	-2.17924	2.25722	
144	1580482313.512683327	0.00239139	-0.895066	2.13237	-2.79042	-1.56954	-2.62329	-2.64948e-05	1.6876e-05	3.31717e-06	1.8506e-05	-2.64391e-05	4.6829e-05	-15.5174	-47.765	-15.0682	-0.246302	-2.17924	2.25724	
145	1580482313.520692263	0.00238896	-0.895068	2.13237	-2.79042	-1.56954	-2.62329	-3.69246e-05	1.00263e-05	-1.21936e-06	2.17167e-05	-3.14423e-05	4.71854e-05	-15.5177	-47.7651	-15.0686	-0.246287	-2.17925	2.25724	
146	1580482313.528641433	0.00238895	-0.89507	2.13237	-2.79042	-1.56955	-2.62329	-3.60374e-05	-1.42377e-07	-1.96902e-06	1.74948e-05	-3.61089e-05	4.38998e-05	-15.5177	-63.671	-15.0687	-0.246297	-2.17926	2.25722	
147	1580482313.536710936	0.00238895	-0.89507	2.13237	-2.79042	-1.56955	-2.62329	-3.51352e-05	9.7157e-07	8.47235e-07	1.70051e-05	-4.39766e-05	3.36651e-05	-15.5176	-48.161	-15.0684	-0.246297	-2.1793	2.2572	
148	1580482313.544681444	0.00238818	-0.89507	2.13238	-2.79042	-1.56955	-2.62329	-3.77554e-05	-1.50259e-06	7.01543e-06	1.65128e-05	-4.41525e-05	3.80771e-05	-15.5177	-75.6121	-15.0679	-0.246298	-2.1793	2.25721	
149	1580482313.552690947	0.00238743	-0.895071	2.13237	-2.79042	-1.56955	-2.62329	-4.01614e-05	-3.84346e-06	-1.20611e-06	1.25118e-05	-4.42399e-05	4.58202e-05	-15.5178	-75.6121	-15.0686	-0.246308	-2.17929	2.25723	
150	1580482313.560679731	0.00238828	-0.895071	2.13237	-2.79042	-1.56955	-2.62329	-3.53295e-05	-6.05454e-06	1.51813e-06	1.58455e-05	-4.07462e-05	4.2347e-05	-15.5177	-75.6121	-15.0684	-0.246302	-2.17928	2.25722	
151	1580482313.568710228	0.00238832	-0.895073	2.13237	-2.79042	-1.56955	-2.62328	-3.42081e-05	-1.5254e-05	-6.38018e-06	2.24534e-05	-4.08612e-05	4.96612e-05	-15.5176	-75.6122	-15.0692	-0.246279	-2.17928	2.25724	
152	1580482313.576681053	0.00239145	-0.895074	2.13237	-2.79042	-1.56955	-2.62328	-1.92095e-05	-2.03065e-05	-1.03568e-05	2.15598e-05	-3.74182e-05	5.28619e-05	-15.5172	-75.6122	-15.0695	-0.246284	-2.17925	2.25724	
153	1580482313.584673172	0.00239064	-0.895076	2.13237	-2.79042	-1.56955	-2.62328	-2.23312e-05	-2.86583e-05	-1.41008e-05	2.06775e-05	-3.75668e-05	4.87827e-05	-15.5173	-75.6123	-15.0699	-0.246287	-2.17925	2.25723	
154	1580482313.592698303	0.00238986	-0.895077	2.13237	-2.79042	-1.56954	-2.62328	-2.5238e-05	-2.94487e-05	-7.24118e-06	2.34049e-05	-2.03427e-05	4.82988e-05	-15.5174	-75.6123	-15.0693	-0.246291	-2.17918	2.25723	
155	1580482313.600698883	0.00238988	-0.895078	2.13237	-2.79042	-1.56954	-2.62328	-2.4469e-05	-3.36011e-05	-1.11026e-05	2.23523e-05	-1.09302e-05	4.08532e-05	-15.5174	-75.6123	-15.0697	-0.246301	-2.17913	2.2572	
156	1580482313.608670697	0.00239221	-0.895076	2.13237	-2.79042	-1.56954	-2.62329	-1.33194e-05	-2.37101e-05	-1.47372e-05	1.78772e-05	-1.93545e-05	3.71823e-05	-15.5171	-75.6123	-15.07	-0.246311	-2.17917	2.25719	
157	1580482313.616658540	0.00239063	-0.895077	2.13237	-2.79042	-1.56954	-2.62328	-2.00049e-05	-2.80542e-05	-1.47199e-05	1.36159e-05	-2.02778e-05	4.05751e-05	-15.5173	-75.6123	-15.07	-0.246323	-2.17917	2.2572	
158	1580482313.624699566	0.00238987	-0.895078	2.13237	-2.79042	-1.56955	-2.62328	-2.28443e-05	-3.56764e-05	-1.46831e-05	1.65453e-05	-2.46709e-05	3.67924e-05	-15.5174	-75.6123	-15.0701	-0.246312	-2.17919	2.25719	
159	1580482313.632718532	0.00238991	-0.895079	2.13237	-2.79042	-1.56955	-2.62329	-2.20533e-05	-3.58614e-05	-1.46276e-05	1.23205e-05	-2.18136e-05	2.9734e-05	-15.5173	-75.6123	-15.0701	-0.246329	-2.17917	2.25717	
160	1580482313.640771648	0.00239148	-0.895079	2.13237	-2.79042	-1.56955	-2.62329	-1.44184e-05	-3.59798e-05	-1.45545e-05	1.17084e-05	-2.24756e-05	2.64086e-05	-15.5171	-75.6123	-15.0701	-0.246332	-2.17917	2.25716	
161	1580482313.648700852	0.00239377	-0.895079	2.13237	-2.79042	-1.56955	-2.62329	-3.75783e-06	-3.60349e-05	-1.44647e-05	1.46391e-05	-2.30588e-05	3.36035e-05	-15.5168	-75.6123	-15.0701	-0.246323	-2.17918	2.25718	
162	1580482313.656692138	0.00239293	-0.89508	2.13237	-2.79042	-1.56955	-2.62328	-7.28679e-06	-3.94167e-05	-1.7746e-05	1.04738e-05	-2.35666e-05	3.33648e-05	-15.5169	-75.6124	-15.0704	-0.246336	-2.17917	2.25718	
163	1580482313.664664272	0.00239289	-0.895079	2.13237	-2.79042	-1.56954	-2.62329	-7.2104e-06	-3.57949e-05	-2.42004e-05	1.34066e-05	-1.38679e-05	2.96972e-05	-15.5169	-75.6124	-15.071	-0.246333	-2.17913	2.25717	
164	1580482313.672746302	0.00239361	-0.89508	2.13237	-2.79042	-1.56954	-2.62329	-3.73385e-06	-3.56821e-05	-1.67889e-05	2.54229e-06	-8.03741e-06	2.95406e-05	-15.5168	-75.6124	-15.0703	-0.246372	-2.17911	2.25716	
165	1580482313.680712444	0.00239431	-0.895078	2.13237	-2.79043	-1.56954	-2.62329	-4.34847e-07	-2.87963e-05	-1.31153e-05	-1.0176e-06	-9.22637e-06	2.59741e-05	-6.74743	-75.6123	-15.07	-5.35258	-2.17912	2.25715	
166	1580482313.688689233	0.00239575	-0.895078	2.13237	-2.79043	-1.56954	-2.62329	6.06117e-06	-2.8942e-05	-1.63264e-05	-1.03335e-06	-1.03302e-05	2.25493e-05	15.5168	-75.6123	-15.0703	-5.35259	-2.17912	2.25714	
167	1580482313.696658112	0.00239639	-0.895078	2.13237	-2.79043	-1.56954	-2.62329	8.83896e-06	-2.90331e-05	-1.93392e-05	-4.39312e-06	-1.32035e-06	1.92638e-05	15.5169	-75.6123	-15.0706	-5.3526	-2.17908	2.25713	
168	1580482313.704727674	0.00239549	-0.895079	2.13237	-2.79043	-1.56954	-2.62329	4.75048e-06	-3.24078e-05	-2.21595e-05	-7.62484e-07	-6.26482e-06	2.63218e-05	15.5167	-75.6124	-15.0708	-4.74618	-2.1791	2.25715	
169	1580482313.712720577	0.00239613	-0.89508	2.13237	-2.79043	-1.56954	-2.62328	7.5688e-06	-3.22207e-05	-2.14663e-05	-4.11629e-06	-4.13972e-06	2.9487e-05	15.5168	-75.6124	-15.0708	-5.3526	-2.17909	2.25716	
170	1580482313.720700473	0.00239449	-0.895081	2.13237	-2.79043	-1.56954	-2.62328	2.17909e-07	-3.87616e-05	-2.40958e-05	-7.28531e-06	4.52075e-06	3.24246e-05	3.38117	-75.6125	-15.0711	-5.35261	2.99294	2.25717	
171	1580482313.728711343	0.00239516	-0.895081	2.13237	-2.79043	-1.56954	-2.62329	3.25071e-06	-3.81337e-05	-3.31674e-05	-3.52082e-06	-3.9721e-06	2.51442e-05	15.5167	-75.6125	-15.0719	-5.3526	-2.17908	2.25715	
172	1580482313.736772646	0.00239805	-0.895083	2.13237	-2.79043	-1.56954	-2.62329	1.59759e-05	-4.42141e-05	-3.17919e-05	-3.38952e-06	-8.6951e-06	2.48093e-05	15.517	-75.6125	-15.0718	-5.3526	-2.1791	2.25714	
173	1580482313.744705714	0.00239786	-0.895084	2.13237	-2.79043	-1.56954	-2.62328	1.48533e-05	-4.64698e-05	-2.05561e-05	-6.55639e-06	-1.31459e-05	2.78032e-05	15.517	-75.6125	-15.0708	-5.3526	-2.17912	2.25715	
174	1580482313.752714929	0.00239616	-0.895083	2.13237	-2.79043	-1.56954	-2.62329	7.16287e-06	-4.19556e-05	-1.97479e-05	-9.54538e-06	-1.06281e-05	1.73714e-05	15.5168	-75.6125	-15.0708	-5.35262	-2.17911	2.25713	
175	1580482313.760664645	0.00239452	-0.895083	2.13237	-2.79043	-1.56954	-2.62329	-1.24677e-07	-4.08916e-05	-2.87864e-05	-1.56397e-05	-8.22258e-06	1.72945e-05	-1.93464	-75.6125	-15.0716	-5.35264	-2.17909	2.25713	
176	1580482313.768741176	0.00239368	-0.895084	2.13237	-2.79043	-1.56954	-2.62329	-3.73203e-06	-4.64881e-05	-3.07557e-05	-1.14436e-05	-1.25989e-05	1.06435e-05	-15.5168	-75.6126	-15.0718	-5.35262	-2.17911	2.25711	
177	1580482313.776657117	0.00239437	-0.895084	2.13237	-2.79043	-1.56954	-2.62329	-5.78003e-07	-4.50538e-05	-2.60454e-05	-7.4543e-06	-1.00611e-05	1.08453e-05	-8.96875	-75.6125	-15.0714	-5.35262	-2.17911	2.25711	
178	1580482313.784701067	0.00239578	-0.895083	2.13237	-2.79043	-1.56955	-2.62329	5.68468e-06	-3.71111e-05	-2.8053e-05	-3.66681e-06	-1.75317e-05	7.75486e-06	15.5168	-75.6125	-15.0715	-5.3526	-2.17915	2.2571	
179	1580482313.792717524	0.00239715	-0.895083	2.13237	-2.79043	-1.56955	-2.62329	1.16091e-05	-3.60218e-05	-2.99085e-05	-6.70007e-06	-1.47015e-05	4.80678e-06	15.5169	-75.6125	-15.0717	-5.35261	-2.17913	2.25709	
180	1580482313.800723340	0.00239699	-0.89508	2.13237	-2.79043	-1.56954	-2.62329	1.0691e-05	-2.52113e-05	-1.52907e-05	2.84371e-07	-1.19928e-05	1.9981e-06	15.5169	-75.6124	-15.0704	-2.07347	-2.17914	2.25709	
181	1580482313.808693825	0.00239683	-0.895079	2.13237	-2.79043	-1.56954	-2.62329	9.80751e-06	-1.81609e-05	-4.78219e-06	3.04556e-07	-9.40324e-06	-3.90592e-06	15.5169	-75.6123	-15.0694	-2.02194	-2.17914	-2.26495	
182	1580482313.816705817	0.00239592	-0.895079	2.13237	-2.79042	-1.56954	-2.62329	5.71683e-06	-1.78987e-05	-1.26853e-06	3.67497e-06	-6.93046e-06	-3.05237e-06	15.5168	-75.6123	-15.0691	-0.246394	-2.17914	-2.26495	
183	1580482313.824697833	0.00239579	-0.895077	2.13237	-2.79042	-1.56955	-2.62329	5.06946e-06	-7.96816e-06	-1.15356e-06	3.5151e-06	-1.43505e-05	-2.24783e-06	15.5168	-75.6123	-15.0691	-0.24639	-2.17917	-2.26494	
184	1580482313.832728586	0.00239566	-0.895078	2.13237	-2.79042	-1.56954	-2.62329	4.45085e-06	-1.47183e-05	2.16766e-06	3.3568e-06	-8.38683e-06	-4.69989e-06	15.5168	-75.6123	-15.0688	-0.246395	-2.17915	-2.26495	
185	1580482313.840694830	0.0023948	-0.89508	2.13237	-2.79042	-1.56954	-2.62329	6.4163e-07	-2.10858e-05	-4.29309e-06	9.73171e-06	-9.12199e-06	-7.02393e-06	9.95596	-75.6124	-15.0694	-0.246374	-2.17914	-2.26496	
186	1580482313.848694502	0.00239544	-0.895078	2.13237	-2.79042	-1.56954	-2.62329	3.45663e-06	-1.41763e-05	2.37103e-06	1.5755e-05	-9.799e-06	-9.22307e-06	15.5168	-75.6123	-15.0688	-0.246357	-2.17916	-2.26496	
187	1580482313.856709474	0.00239532	-0.895079	2.13237	-2.79042	-1.56954	-2.62329	2.91698e-06	-1.39769e-05	8.68306e-06	1.17477e-05	-1.042e-05	-1.13004e-05	15.5167	-75.6123	-15.0682	-0.24637	-2.17916	-2.26496	
188	1580482313.864753916	0.00239447	-0.895079	2.13237	-2.79042	-1.56954	-2.62329	-7.93249e-07	-1.37617e-05	1.93313e-06	7.93054e-06	-7.8072e-06	-1.00793e-05	-12.3086	-75.6123	-15.0688	-0.246382	-2.17915	-2.26496	
189	1580482313.872697005	0.00239438	-0.895079	2.13237	-2.79042	-1.56954	-2.62329	-1.11648e-06	-1.67043e-05	-1.29294e-06	7.47167e-06	-8.4863e-06	-1.84315e-05	-15.5167	-75.6123	-15.0691	-0.246384	-2.17915	-2.26499	
190	1580482313.880644390	0.00239429	-0.89508	2.13237	-2.79042	-1.56954	-2.62329	-1.41886e-06	-1.94628e-05	-1.18197e-06	1.03155e-05	3.84445e-07	-1.03094e-05	-15.5167	-75.6123	-15.0691	-0.246378	1.40105	-2.26496	
191	1580482313.888721450	0.0023942	-0.895081	2.13237	-2.79042	-1.56954	-2.62329	-1.70106e-06	-2.20426e-05	5.24258e-06	6.55051e-06	2.48049e-06	-5.88667e-06	-15.5167	-75.6123	-15.0686	-0.246391	2.99288	-2.26495	
192	1580482313.896640708	0.00239486	-0.89508	2.13237	-2.79042	-1.56954	-2.62329	1.20412e-06	-1.8147e-05	-1.27913e-06	6.12097e-06	4.46856e-06	-4.90626e-06	15.5167	-75.6123	-15.0692	-0.246393	2.99289	-2.26495	
193	1580482313.904734008	0.0023955	-0.895082	2.13237	-2.79042	-1.56954	-2.62329	3.95843e-06	-2.39794e-05	1.15319e-05	1.21165e-05	3.20716e-06	-7.12005e-06	15.5168	-75.6123	-15.068	-0.246375	2.99288	-2.26495	
194	1580482313.912731457	0.00239685	-0.895081	2.13237	-2.79042	-1.56954	-2.62329	9.71944e-06	-2.30672e-05	7.84949e-06	1.4643e-05	-4.38853e-06	-1.23515e-05	15.5169	-75.6123	-15.0684	-0.246364	-2.17913	-2.26497	
195	1580482313.920713289	0.00239596	-0.895082	2.13237	-2.79042	-1.56954	-2.6233	5.72821e-06	-2.52922e-05	4.34703e-06	1.37587e-05	1.06727e-06	-2.36218e-05	15.5168	-75.6123	-15.0687	-0.246371	2.99287	-2.265	
196	1580482313.928755437	0.00239436	-0.895084	2.13237	-2.79042	-1.56954	-2.62329	-1.20296e-06	-3.06063e-05	1.02023e-06	1.28972e-05	-3.15674e-09	-1.52884e-05	-15.5167	-75.6124	-15.069	-0.24637	0.398722	-2.26498	
197	1580482313.936727501	0.00239501	-0.895083	2.13237	-2.79042	-1.56954	-2.6233	1.62718e-06	-2.92359e-05	7.21414e-06	1.20585e-05	-4.25472e-06	-2.63167e-05	15.5167	-75.6123	-15.0685	-0.246373	-2.17913	-2.26501	
198	1580482313.944745180	0.0023949	-0.895085	2.13238	-2.79042	-1.56954	-2.6233	1.18424e-06	-3.73396e-05	1.30778e-05	1.12427e-05	1.17772e-06	-3.67405e-05	15.5167	-75.6124	-15.068	-0.246381	2.99288	-2.26504	
199	1580482313.952718885	0.00239407	-0.895085	2.13237	-2.79042	-1.56954	-2.6233	-2.35526e-06	-3.55301e-05	9.31091e-06	7.34672e-06	9.4354e-06	-3.41022e-05	-15.5168	-75.6124	-15.0683	-0.246396	2.99292	-2.26503	
200	1580482313.960739638	0.00239473	-0.895087	2.13237	-2.79042	-1.56954	-2.6233	5.18183e-07	-4.31665e-05	8.8208e-06	5.41968e-07	1.72576e-05	-2.83948e-05	8.04045	-75.6124	-15.0684	-1.41582	2.99296	-2.26502	
201	1580482313.968735228	0.00239536	-0.895086	2.13237	-2.79043	-1.56954	-2.6233	3.24468e-06	-3.78569e-05	1.14325e-05	-5.91569e-06	2.15658e-05	-2.91834e-05	15.5167	-75.6124	-15.0682	-5.35264	2.99298	-2.26502	
202	1580482313.976723518	0.00239452	-0.895085	2.13238	-2.79043	-1.56954	-2.6233	-3.70714e-07	-3.27567e-05	1.38932e-05	-8.95189e-06	2.25412e-05	-3.29744e-05	-5.75227	-75.6123	-15.0679	-5.35265	2.99298	-2.26503	
203	1580482313.984724607	0.0023937	-0.895087	2.13237	-2.79043	-1.56954	-2.6233	-3.79836e-06	-3.72144e-05	1.00543e-05	-8.74461e-06	1.71606e-05	-2.40351e-05	-15.5168	-75.6124	-15.0683	-5.35265	2.99296	-2.26501	
204	1580482313.992703414	0.00239291	-0.895085	2.13238	-2.79043	-1.56954	-2.6233	-7.04301e-06	-2.89792e-05	1.25367e-05	-1.16066e-05	1.5226e-05	-2.79846e-05	-15.5169	-75.6123	-15.068	-5.35266	2.99295	-2.26501	
205	1580482314.000729446	0.0023936	-0.895083	2.13237	-2.79043	-1.56954	-2.6233	-3.95033e-06	-2.11152e-05	8.74674e-06	-1.73699e-05	1.33709e-05	-2.2442e-05	-15.5168	-75.6123	-15.0684	-5.35267	2.99294	-2.265	
206	1580482314.008744491	0.00239281	-0.895084	2.13237	-2.79043	-1.56954	-2.6233	-7.15431e-06	-2.2785e-05	-7.21207e-06	-1.97576e-05	1.77074e-05	-2.02701e-05	-15.5169	-75.6124	-15.0698	-5.35268	2.99297	-2.265	
207	1580482314.016716033	0.0023935	-0.895084	2.13237	-2.79043	-1.56954	-2.62329	-4.04919e-06	-2.12781e-05	-1.00218e-05	-2.80962e-05	1.87485e-05	-1.50699e-05	-15.5168	-75.6124	-15.0701	-5.35271	2.99298	-2.26498	
208	1580482314.024708189	0.00239561	-0.895082	2.13237	-2.79043	-1.56954	-2.62329	5.02568e-06	-1.37212e-05	-9.62946e-06	-3.29252e-05	1.97113e-05	-1.62639e-05	15.5168	-75.6123	-15.07	-5.35272	2.99298	-2.26499	
209	1580482314.032718305	0.00239478	-0.895082	2.13237	-2.79043	-1.56954	-2.62329	1.41734e-06	-1.25969e-05	-9.2427e-06	-3.13852e-05	1.75606e-05	-1.12389e-05	15.5167	-75.6123	-15.07	-5.35272	2.99297	-2.26497	
210	1580482314.040740511	0.00239541	-0.895084	2.13237	-2.79043	-1.56954	-2.62329	4.087e-06	-2.37507e-05	-1.79559e-05	-2.98777e-05	2.15584e-05	-1.56098e-05	15.5168	-75.6124	-15.0708	-5.35271	2.993	-2.26499	
211	1580482314.048640736	0.00239458	-0.895086	2.13237	-2.79043	-1.56954	-2.6233	5.3418e-07	-2.82453e-05	-1.71245e-05	-2.84033e-05	2.83484e-05	-1.97374e-05	8.28868	-75.6124	-15.0708	-5.35271	2.99303	-2.265	
212	1580482314.056771625	0.00239594	-0.895086	2.13237	-2.79043	-1.56954	-2.6233	6.26714e-06	-2.93233e-05	-1.93284e-05	-2.38223e-05	2.87162e-05	-2.36283e-05	15.5168	-75.6124	-15.071	-5.3527	2.99303	-2.26501	
213	1580482314.064724312	0.00239797	-0.895084	2.13237	-2.79043	-1.56953	-2.6233	1.47306e-05	-1.82453e-05	-2.74173e-05	-1.94384e-05	3.20374e-05	-2.42761e-05	15.5171	-75.6124	-15.0717	-5.35269	2.99304	-2.26501	
214	1580482314.072721496	0.00239779	-0.895085	2.13237	-2.79043	-1.56953	-2.6233	1.36779e-05	-2.28466e-05	-2.00229e-05	-1.22411e-05	3.21382e-05	-3.08699e-05	15.517	-75.6124	-15.071	-5.35267	2.99303	-2.26503	
215	1580482314.080746149	0.00239833	-0.895086	2.13237	-2.79043	-1.56953	-2.6233	1.5676e-05	-2.71744e-05	-1.2972e-05	-1.45107e-05	3.21878e-05	-3.40859e-05	15.5171	-75.6124	-15.0704	-5.35268	2.99303	-2.26504	
216	1580482314.088750370	0.00239742	-0.895086	2.13237	-2.79043	-1.56953	-2.6233	1.15307e-05	-2.51278e-05	-9.25148e-06	-1.66441e-05	3.21886e-05	-3.70905e-05	15.517	-75.6124	-15.0701	-5.35269	2.99303	-2.26504	
217	1580482314.096684131	0.00239797	-0.895085	2.13237	-2.79043	-1.56953	-2.6233	1.35871e-05	-2.01517e-05	-2.37537e-05	-1.56568e-05	3.51312e-05	-3.08651e-05	15.517	-75.6124	-15.0714	-5.35268	2.99304	-2.26503	
218	1580482314.104691543	0.00239921	-0.895084	2.13236	-2.79043	-1.56953	-2.6233	1.85192e-05	-1.83713e-05	-3.43883e-05	-1.46958e-05	3.78747e-05	-3.68976e-05	15.5172	-75.6125	-15.0724	-5.35268	2.99306	-2.26505	
219	1580482314.112696231	0.0023997	-0.895086	2.13236	-2.79043	-1.56953	-2.6233	2.01848e-05	-2.27178e-05	-2.95546e-05	-1.3761e-05	4.04251e-05	-2.75123e-05	15.5172	-75.6125	-15.072	-5.35268	2.99307	-2.26502	
220	1580482314.120713037	0.00240017	-0.895085	2.13236	-2.79043	-1.56953	-2.6233	2.1738e-05	-2.07455e-05	-2.78897e-05	-1.28524e-05	3.3758e-05	-2.46774e-05	15.5172	-75.6125	-15.0718	-5.35267	2.99304	-2.26501	
221	1580482314.128664022	0.00239778	-0.895084	2.13236	-2.79043	-1.56953	-2.6233	1.12609e-05	-1.58696e-05	-2.92308e-05	-1.49343e-05	3.34236e-05	-2.49131e-05	15.517	-75.6125	-15.0719	-5.35268	2.99303	-2.26501	
222	1580482314.136720031	0.00239687	-0.895083	2.13236	-2.79043	-1.56953	-2.6233	7.24144e-06	-8.24835e-06	-2.75016e-05	-1.98481e-05	3.60155e-05	-2.51002e-05	15.5169	-75.6124	-15.0717	-5.3527	2.99304	-2.26501	
223	1580482314.144715116	0.0023967	-0.895082	2.13236	-2.79043	-1.56953	-2.6233	6.38147e-06	-6.89462e-06	-2.87701e-05	-1.55093e-05	3.84244e-05	-2.81938e-05	15.5168	-75.6124	-15.0719	-5.35269	2.99305	-2.26501	
224	1580482314.152727437	0.00239796	-0.895081	2.13236	-2.79043	-1.56953	-2.6233	1.1481e-05	-2.64364e-06	-2.99314e-05	-1.44289e-05	3.77091e-05	-2.81439e-05	15.517	-75.6124	-15.072	-5.35268	2.99304	-2.26501	
225	1580482314.160731138	0.00239634	-0.895081	2.13237	-2.79043	-1.56953	-2.6233	4.48129e-06	1.40667e-06	-2.21649e-05	-7.37971e-06	4.28563e-05	-2.21131e-05	15.5168	-47.7654	-15.0712	-5.35266	2.99305	-2.26499	
226	1580482314.168702084	0.00239334	-0.895081	2.13236	-2.79043	-1.56953	-2.6233	-8.07845e-06	-6.10763e-07	-2.64939e-05	-9.59453e-06	4.1812e-05	-1.0361e-05	-15.5169	-70.1929	-15.0717	-5.35267	2.99305	-2.26496	
227	1580482314.176702304	0.00239326	-0.895082	2.13236	-2.79043	-1.56953	-2.6233	-8.21897e-06	-2.51935e-06	-2.17764e-05	-1.46138e-05	3.78276e-05	-1.10735e-05	-15.5169	-75.6124	-15.0712	-5.35268	2.99304	-2.26496	
228	1580482314.184718978	0.0023939	-0.895081	2.13237	-2.79043	-1.56953	-2.6233	-5.40092e-06	-1.39765e-06	-1.72595e-05	-1.35123e-05	4.27578e-05	-8.80873e-06	-15.5168	-75.6124	-15.0708	-5.35268	2.99306	-2.26495	
229	1580482314.192663023	0.0023924	-0.895079	2.13237	-2.79043	-1.56953	-2.6233	-1.15179e-05	8.43383e-06	-7.10166e-06	-1.53634e-05	4.44605e-05	-9.56089e-06	-15.5169	-47.7654	-15.0699	-5.35269	2.99305	-2.26495	
230	1580482314.200703473	0.00239164	-0.895077	2.13237	-2.79043	-1.56953	-2.62329	-1.43863e-05	1.48594e-05	-9.08725e-06	-1.11561e-05	5.47518e-05	-4.37572e-06	-15.517	-47.7654	-15.07	-5.35268	2.99309	-2.26493	
231	1580482314.208682534	0.00239162	-0.895079	2.13237	-2.79043	-1.56953	-2.6233	-1.41689e-05	9.20564e-06	-1.38659e-05	-1.30713e-05	5.28213e-05	-1.11281e-05	-15.517	-47.7654	-15.0705	-5.35268	2.99309	-2.26496	
232	1580482314.216914538	0.00239301	-0.895077	2.13237	-2.79043	-1.56953	-2.6233	-8.1069e-06	1.8452e-05	-1.25808e-05	-8.95104e-06	5.09077e-05	-8.82229e-06	-15.5168	-47.7653	-15.0703	-5.35267	2.99307	-2.26495	
233	1580482314.224672444	0.00239296	-0.895076	2.13237	-2.79043	-1.56953	-2.6233	-8.15684e-06	1.85318e-05	-5.54493e-06	-8.03238e-06	4.6116e-05	-1.53059e-05	-15.5168	-47.7653	-15.0697	-5.35267	2.99305	-2.26496	
234	1580482314.232650512	0.00239149	-0.895077	2.13237	-2.79043	-1.56953	-2.6233	-1.40054e-05	1.56967e-05	-4.6277e-06	-7.14579e-06	5.01648e-05	-1.56634e-05	-15.517	-47.7653	-15.0696	-5.35266	2.99307	-2.26496	
235	1580482314.240651152	0.00239219	-0.895076	2.13237	-2.79043	-1.56953	-2.6233	-1.08421e-05	1.87569e-05	-3.74584e-06	-9.17659e-06	4.52813e-05	-1.88649e-05	-15.5169	-47.7653	-15.0695	-5.35267	2.99304	-2.26497	
236	1580482314.248658227	0.00239286	-0.895078	2.13237	-2.79043	-1.56953	-2.6233	-7.8188e-06	1.28896e-05	-1.85017e-08	-8.21205e-06	4.63303e-05	-1.01859e-05	-15.5168	-47.7653	-15.0692	-5.35266	2.99305	-2.26495	
237	1580482314.256649027	0.00239282	-0.895076	2.13237	-2.79043	-1.56953	-2.6233	-7.82297e-06	1.89134e-05	-5.09616e-06	-1.41649e-06	4.43824e-05	-4.90756e-06	-15.5168	-47.7653	-15.0696	-5.35264	2.99304	-2.26493	
238	1580482314.264659323	0.00239347	-0.895076	2.13237	-2.79043	-1.56953	-2.6233	-4.93043e-06	1.88807e-05	-9.91375e-06	-6.54425e-06	4.24624e-05	-5.67622e-06	-15.5167	-47.7653	-15.0701	-5.35265	2.99303	-2.26494	
239	1580482314.272614669	0.00239552	-0.895077	2.13237	-2.79043	-1.56952	-2.6233	3.58675e-06	1.29853e-05	-1.44776e-05	-1.14089e-05	4.63001e-05	-9.26123e-06	15.5168	-47.7654	-15.0705	-5.35267	2.99306	-2.26495	
240	1580482314.280663758	0.0023947	-0.895077	2.13237	-2.79043	-1.56952	-2.6233	1.84954e-07	1.31984e-05	-1.3076e-05	-1.31579e-05	4.70199e-05	-1.26551e-05	2.86991	-47.7654	-15.0704	-5.35268	2.99306	-2.26496	
241	1580482314.288678805	0.00239391	-0.895076	2.13237	-2.79043	-1.56952	-2.6233	-3.04966e-06	1.90949e-05	-1.45754e-05	-1.1947e-05	4.47787e-05	-1.58628e-05	-15.5167	-47.7653	-15.0705	-5.35267	2.99305	-2.26497	
242	1580482314.296665066	0.00239384	-0.895076	2.13236	-2.79043	-1.56953	-2.6233	-3.25728e-06	1.89838e-05	-2.7486e-05	-1.07765e-05	3.97298e-05	-1.60405e-05	-15.5167	-47.7654	-15.0716	-5.35267	2.99304	-2.26497	
243	1580482314.304675941	0.00239168	-0.895076	2.13236	-2.79043	-1.56953	-2.6233	-1.20249e-05	1.88562e-05	-2.53931e-05	-6.68887e-06	3.48658e-05	-1.61848e-05	-15.5169	-47.7654	-15.0715	-5.35265	2.99301	-2.26497	
244	1580482314.312676530	0.00239167	-0.895076	2.13236	-2.79043	-1.56953	-2.6233	-1.17871e-05	1.87129e-05	-2.62019e-05	-2.78935e-06	3.30223e-05	-1.91353e-05	-15.5169	-47.7654	-15.0715	-5.35264	2.993	-2.26498	
245	1580482314.320655417	0.00239027	-0.895076	2.13236	-2.79043	-1.56953	-2.6233	-1.724e-05	1.57216e-05	-2.69314e-05	-4.85339e-06	3.4049e-05	-1.90797e-05	-15.5171	-47.7654	-15.0716	-5.35264	2.99301	-2.26498	
246	1580482314.328683304	0.00238891	-0.895076	2.13236	-2.79043	-1.56953	-2.6233	-2.24025e-05	1.56861e-05	-3.04123e-05	-1.03877e-06	2.93154e-05	-7.5162e-06	-15.5172	-47.7655	-15.0719	-5.35263	2.99299	-2.26494	
247	1580482314.336684798	0.00239038	-0.895076	2.13236	-2.79043	-1.56953	-2.6233	-1.59303e-05	1.56343e-05	-3.36778e-05	-5.98771e-06	3.04102e-05	-1.36092e-05	-15.5171	-47.7655	-15.0722	-5.35264	2.993	-2.26496	
248	1580482314.344697292	0.00238972	-0.895077	2.13236	-2.79043	-1.56953	-2.6233	-1.82483e-05	1.27491e-05	-3.39164e-05	-5.0498e-06	3.14024e-05	-1.93844e-05	-15.5171	-47.7655	-15.0723	-5.35264	2.993	-2.26498	
249	1580482314.352682656	0.00238978	-0.895073	2.13236	-2.79043	-1.56953	-2.6233	-1.75996e-05	2.68668e-05	-4.54563e-05	-4.14824e-06	3.22956e-05	-1.9224e-05	-15.5171	-47.7655	-15.0733	-5.35264	2.99301	-2.26498	
250	1580482314.360684998	0.00238984	-0.895073	2.13236	-2.79043	-1.56953	-2.6233	-1.69569e-05	2.90344e-05	-4.50259e-05	-3.6232e-07	3.30936e-05	-2.46577e-05	-15.5171	-47.7655	-15.0732	-3.72457	2.99301	-2.26499	
251	1580482314.368643243	0.0023892	-0.895074	2.13236	-2.79043	-1.56953	-2.6233	-1.91385e-05	2.25394e-05	-4.7353e-05	3.27907e-07	3.37997e-05	-2.41855e-05	-15.5171	-47.7656	-15.0735	-1.96235	2.99301	-2.26499	
252	1580482314.376716050	0.00238859	-0.895076	2.13235	-2.79043	-1.56953	-2.6233	-2.11867e-05	1.63308e-05	-5.22957e-05	-4.6093e-06	2.31139e-05	-2.37001e-05	-15.5172	-47.7656	-15.074	-5.35264	2.99298	-2.26499	
253	1580482314.384724332	0.00239008	-0.895074	2.13235	-2.79043	-1.56953	-2.6233	-1.46819e-05	2.16863e-05	-4.85438e-05	-3.71325e-06	2.69821e-05	-2.59955e-05	-15.517	-47.7656	-15.0736	-5.35264	2.99299	-2.265	
254	1580482314.392744819	0.00239152	-0.895074	2.13236	-2.79043	-1.56953	-2.6233	-8.46951e-06	2.11796e-05	-4.49017e-05	-5.64133e-06	2.22542e-05	-2.81412e-05	-15.5169	-47.7656	-15.0733	-5.35264	2.99297	-2.265	
255	1580482314.400686750	0.00239155	-0.895072	2.13236	-2.79043	-1.56953	-2.6233	-8.13964e-06	2.90203e-05	-4.13686e-05	9.94533e-07	2.04993e-05	-3.29248e-05	-15.5168	-47.7655	-15.0729	-0.260378	2.99295	-2.26501	
256	1580482314.408764084	0.00239296	-0.895072	2.13236	-2.79043	-1.56953	-2.6233	-2.2264e-06	2.81104e-05	-2.96086e-05	7.31132e-06	1.87929e-05	-3.46511e-05	-15.5167	-47.7655	-15.0718	-0.246402	2.99293	-2.26502	
257	1580482314.416703809	0.00239226	-0.895072	2.13236	-2.79042	-1.56953	-2.6233	-4.95791e-06	2.72079e-05	-2.66894e-05	1.33162e-05	1.14769e-05	-3.347e-05	-15.5167	-47.7655	-15.0716	-0.246378	2.99289	-2.26501	
258	1580482314.424700075	0.002395	-0.895072	2.13236	-2.79043	-1.56953	-2.6233	6.28113e-06	2.90823e-05	-2.10993e-05	1.05991e-05	1.01375e-05	-3.22964e-05	15.5169	-47.7654	-15.0711	-0.246387	2.99289	-2.26501	
259	1580482314.432713376	0.00239494	-0.895073	2.13236	-2.79043	-1.56953	-2.6233	5.94556e-06	2.24259e-05	-2.12711e-05	1.07644e-05	1.16044e-05	-2.83674e-05	15.5169	-47.7654	-15.0711	-0.246386	2.9929	-2.265	
260	1580482314.440711428	0.00239557	-0.895073	2.13236	-2.79043	-1.56953	-2.6233	8.39394e-06	2.16888e-05	-2.41587e-05	1.09091e-05	1.29772e-05	-2.17701e-05	15.5169	-47.7655	-15.0714	-0.246385	2.9929	-2.26498	
261	1580482314.448694558	0.00239618	-0.895073	2.13236	-2.79042	-1.56953	-2.6233	1.07155e-05	2.37133e-05	-2.41142e-05	1.1034e-05	8.74937e-06	-1.8265e-05	15.517	-47.7655	-15.0714	-0.246381	2.99288	-2.26497	
262	1580482314.456691119	0.0023954	-0.895072	2.13236	-2.79043	-1.56953	-2.6233	7.38419e-06	2.56096e-05	-1.30333e-05	5.63999e-06	1.0204e-05	-1.20938e-05	15.5169	-47.7654	-15.0703	-0.246398	2.99289	-2.26495	
263	1580482314.464691125	0.00239532	-0.89507	2.13236	-2.79043	-1.56953	-2.6233	6.96391e-06	3.28717e-05	-1.06943e-05	3.24337e-06	1.43125e-05	-3.34204e-06	15.5169	-47.7654	-15.0701	-0.246406	2.9929	-2.26493	
264	1580482314.472731841	0.00239593	-0.895072	2.13236	-2.79043	-1.56953	-2.6233	9.31112e-06	2.59304e-05	-1.39271e-05	3.69904e-06	7.12556e-06	-3.38567e-06	15.517	-47.7654	-15.0704	-0.2464	2.99288	-2.26493	
265	1580482314.480693218	0.00239653	-0.895073	2.13236	-2.79043	-1.56953	-2.6233	1.15353e-05	1.92862e-05	-6.0365e-06	4.12944e-06	8.58168e-06	-1.71524e-05	15.517	-47.7654	-15.0697	-0.246403	2.99288	-2.26497	
266	1580482314.488693889	0.0023971	-0.895074	2.13236	-2.79043	-1.56953	-2.6233	1.36394e-05	1.57737e-05	-6.70166e-06	4.53517e-06	7.21764e-06	-1.92548e-05	15.5171	-47.7654	-15.0698	-0.246401	2.99288	-2.26498	
267	1580482314.496699272	0.00239629	-0.895075	2.13236	-2.79043	-1.56953	-2.6233	1.01438e-05	1.24073e-05	-7.31954e-06	4.91686e-06	5.90117e-06	-1.84999e-05	15.517	-47.7654	-15.0699	-0.246399	2.99288	-2.26497	
268	1580482314.504661202	0.00239619	-0.895076	2.13236	-2.79043	-1.56953	-2.6233	9.53919e-06	9.18435e-06	-1.06139e-05	8.10623e-06	-3.64377e-06	-1.77516e-05	15.5169	-47.7655	-15.0702	-0.246383	-2.17914	-2.26497	
269	1580482314.512671876	0.00239677	-0.895077	2.13236	-2.79043	-1.56953	-2.6233	1.16839e-05	3.27559e-06	-2.19927e-05	8.30796e-06	-1.75805e-06	-2.52181e-05	15.517	-47.7656	-15.0713	-0.246384	-2.17913	-2.265	
270	1580482314.520689307	0.00239665	-0.895078	2.13236	-2.79043	-1.56953	-2.6233	1.09846e-05	-2.35729e-06	-2.18339e-05	8.49028e-06	-5.39358e-06	-2.13846e-05	15.517	-75.6125	-15.0713	-0.246381	-2.17914	-2.26499	
271	1580482314.528695866	0.00239653	-0.895079	2.13236	-2.79042	-1.56953	-2.6233	1.0305e-05	-4.90322e-06	-2.16473e-05	1.41796e-05	-3.43944e-06	-1.212e-05	15.5169	-75.6126	-15.0713	-0.246362	-2.17913	-2.26496	
272	1580482314.536724070	0.00239709	-0.895079	2.13236	-2.79042	-1.56953	-2.6233	1.23635e-05	-4.61832e-06	-1.87301e-05	1.40647e-05	-4.28499e-06	-1.69573e-05	15.517	-75.6125	-15.071	-0.246364	-2.17914	-2.26497	
273	1580482314.544690622	0.002399	-0.895078	2.13236	-2.79043	-1.56953	-2.6233	1.97372e-05	1.05817e-06	-1.59199e-05	8.53801e-06	-5.09201e-06	-5.17725e-06	15.5172	-47.7656	-15.0707	-0.246379	-2.17914	-2.26494	
274	1580482314.552694142	0.00240018	-0.895078	2.13236	-2.79043	-1.56953	-2.6233	2.40269e-05	-1.62212e-06	-1.59106e-05	3.26255e-06	-8.55654e-06	-1.0277e-05	15.5173	-75.6125	-15.0707	-0.246395	-2.17915	-2.26496	
275	1580482314.560671150	0.00239996	-0.895079	2.13236	-2.79043	-1.56953	-2.6233	2.26722e-05	-4.17406e-06	-1.58741e-05	9.23969e-07	-1.18529e-05	-9.73503e-06	15.5173	-75.6125	-15.0708	-0.440515	-2.17916	-2.26496	
276	1580482314.568710436	0.00240042	-0.895078	2.13236	-2.79043	-1.56953	-2.6233	2.4053e-05	1.45935e-06	-1.31252e-05	4.176e-06	-6.92491e-06	-6.5143e-06	15.5173	-47.7655	-15.0705	-0.246393	-2.17915	-2.26494	
277	1580482314.576690709	0.00240019	-0.895078	2.13236	-2.79043	-1.56954	-2.6233	2.2641e-05	1.45997e-06	-1.04823e-05	1.79792e-06	-1.57456e-05	-8.79656e-06	15.5173	-47.7655	-15.0702	-0.246396	-2.17919	-2.26495	
278	1580482314.584697799	0.00239928	-0.895078	2.13236	-2.79043	-1.56954	-2.6233	1.85739e-05	-1.21974e-06	-1.32994e-05	-3.14771e-06	-1.86733e-05	-1.36327e-05	15.5172	-75.6125	-15.0705	-5.35261	-2.17919	-2.26497	
279	1580482314.592657791	0.00239704	-0.895077	2.13236	-2.79043	-1.56953	-2.6233	9.29842e-06	1.57513e-06	-1.32863e-05	5.61933e-06	-1.3424e-05	-1.2871e-05	15.5169	-47.7656	-15.0705	-0.246386	-2.17918	-2.26496	
280	1580482314.600722657	0.00239689	-0.895078	2.13236	-2.79042	-1.56954	-2.6233	8.4976e-06	-1.1027e-06	-5.24181e-06	1.12977e-05	-1.64184e-05	-1.21235e-05	15.5169	-75.6125	-15.0698	-0.246367	-2.1792	-2.26496	
281	1580482314.608686639	0.00239742	-0.895076	2.13236	-2.79043	-1.56954	-2.6233	1.04023e-05	7.00657e-06	-5.55729e-06	8.59328e-06	-1.65914e-05	-6.00694e-06	15.517	-47.7655	-15.0698	-0.246375	-2.1792	-2.26494	
282	1580482314.616687905	0.00239523	-0.895076	2.13236	-2.79042	-1.56953	-2.6233	1.50386e-06	6.743e-06	-5.84415e-06	1.14333e-05	-1.14187e-05	-1.35754e-05	15.5167	-47.7655	-15.0698	-0.24637	-2.17918	-2.26496	
283	1580482314.624649999	0.00239579	-0.895079	2.13236	-2.79042	-1.56954	-2.6233	3.70333e-06	-4.25e-06	4.52287e-06	1.13627e-05	-1.44491e-05	-1.27433e-05	15.5168	-75.6125	-15.0689	-0.246369	-2.17919	-2.26496	
284	1580482314.632681978	0.002395	-0.895079	2.13236	-2.79042	-1.56953	-2.6233	4.61471e-07	-4.00707e-06	1.14264e-06	1.6692e-05	-9.36694e-06	-1.19287e-05	7.1605	-75.6125	-15.0692	-0.246354	-2.17917	-2.26495	
285	1580482314.640664368	0.00239489	-0.895079	2.13236	-2.79042	-1.56954	-2.6233	3.26069e-08	-6.41905e-06	5.87019e-06	1.37e-05	-1.52144e-05	-1.1132e-05	0.505944	-75.6125	-15.0688	-0.24636	-2.17919	-2.26495	
286	1580482314.648689817	0.00239547	-0.895079	2.13237	-2.79042	-1.56954	-2.6233	2.28132e-06	-6.06635e-06	1.03752e-05	1.88682e-05	-1.53798e-05	-1.03532e-05	15.5167	-75.6124	-15.0684	-0.246344	-2.1792	-2.26495	
287	1580482314.656662754	0.00239602	-0.89508	2.13237	-2.79042	-1.56954	-2.6233	4.42148e-06	-8.36265e-06	1.46625e-05	1.57455e-05	-1.55225e-05	-9.59247e-06	15.5168	-75.6124	-15.068	-0.246354	-2.1792	-2.26495	
288	1580482314.664701299	0.00239522	-0.895082	2.13237	-2.79042	-1.56953	-2.6233	1.15602e-06	-1.59183e-05	8.19372e-06	1.5384e-05	-1.03716e-05	-1.14857e-05	15.5167	-75.6125	-15.0687	-0.246358	-2.17917	-2.26495	
289	1580482314.672696079	0.00239511	-0.895083	2.13236	-2.79042	-1.56953	-2.6233	6.86539e-07	-2.04696e-05	7.28537e-06	9.75633e-06	-2.82058e-06	-1.06393e-05	10.6528	-75.6125	-15.0688	-0.24638	-2.17913	-2.26495	
290	1580482314.680692849	0.002395	-0.895083	2.13237	-2.79042	-1.56953	-2.6233	2.37534e-07	-1.94227e-05	9.04323e-06	1.23659e-05	-8.77255e-07	-1.77353e-06	3.68572	-75.6125	-15.0686	-0.246371	-1.86171	-2.26493	
291	1580482314.688698289	0.0023949	-0.895084	2.13237	-2.79042	-1.56953	-2.6233	-1.91389e-07	-2.37517e-05	1.07132e-05	1.21094e-05	-1.65093e-06	-3.96469e-06	-2.96976	-75.6125	-15.0685	-0.246372	-2.17912	-2.26493	
292	1580482314.696703522	0.00239413	-0.895083	2.13236	-2.79042	-1.56953	-2.6233	-3.23397e-06	-1.72666e-05	4.43891e-06	1.1849e-05	-7.73417e-06	-3.42447e-06	-15.5168	-75.6125	-15.069	-0.246369	-2.17915	-2.26493	
293	1580482314.704716829	0.00239338	-0.895083	2.13237	-2.79042	-1.56954	-2.6233	-6.1315e-06	-1.62915e-05	8.91741e-06	1.15851e-05	-1.35288e-05	5.10295e-06	-15.5168	-75.6125	-15.0686	-0.246365	-2.17918	2.25712	
294	1580482314.712686226	0.00239265	-0.895084	2.13236	-2.79042	-1.56954	-2.6233	-8.88717e-06	-2.06679e-05	5.34757e-06	8.70679e-06	-2.42637e-05	1.05168e-05	-15.5169	-75.6125	-15.069	-0.246367	-2.17922	2.25714	
295	1580482314.720700430	0.0023926	-0.895083	2.13237	-2.79042	-1.56954	-2.6233	-8.88291e-06	-1.68882e-05	9.7637e-06	8.55773e-06	-3.44734e-05	1.0404e-05	-15.5169	-75.6125	-15.0685	-0.246362	-2.17927	2.25714	
296	1580482314.728743254	0.00239256	-0.895082	2.13237	-2.79042	-1.56954	-2.6233	-8.86801e-06	-1.32619e-05	1.13642e-05	8.40403e-06	-3.10487e-05	1.55468e-05	-15.5169	-75.6125	-15.0684	-0.246364	-2.17926	2.25715	
297	1580482314.736639349	0.00239319	-0.895083	2.13237	-2.79042	-1.56954	-2.62329	-6.22967e-06	-1.76883e-05	1.54803e-05	8.24608e-06	-3.29455e-05	2.04361e-05	-15.5168	-75.6124	-15.068	-0.246364	-2.17926	2.25717	
298	1580482314.744688761	0.00239247	-0.895085	2.13237	-2.79042	-1.56954	-2.62329	-8.92439e-06	-2.44824e-05	2.19865e-05	1.07836e-05	-3.4716e-05	2.50778e-05	-15.5169	-75.6124	-15.0675	-0.246355	-2.17927	2.25718	
299	1580482314.752697871	0.00239377	-0.895084	2.13237	-2.79043	-1.56954	-2.62329	-3.66748e-06	-2.04607e-05	3.07602e-05	2.71933e-06	-2.85889e-05	2.42424e-05	-15.5168	-75.6124	-15.0666	-0.246384	-2.17925	2.25718	
300	1580482314.760705095	0.00239437	-0.895085	2.13237	-2.79043	-1.56954	-2.62329	-1.25036e-06	-2.17734e-05	3.39188e-05	1.98646e-07	-3.04745e-05	1.82436e-05	-15.5167	-75.6123	-15.0664	-2.29233	-2.17926	2.25716	
301	1580482314.768665559	0.00239562	-0.895086	2.13237	-2.79043	-1.56954	-2.62329	3.65416e-06	-2.56842e-05	3.43092e-05	3.76908e-07	-2.70695e-05	1.76701e-05	15.5167	-75.6123	-15.0664	-1.83721	-2.17924	2.25716	
302	1580482314.776692975	0.00239618	-0.895086	2.13237	-2.79043	-1.56954	-2.62329	5.73423e-06	-2.66982e-05	4.2382e-05	-4.61424e-06	-2.89494e-05	2.23158e-05	15.5168	-75.6123	-15.0656	-5.35261	-2.17925	2.25717	
303	1580482314.784695282	0.00239605	-0.895085	2.13237	-2.79043	-1.56954	-2.62329	5.12144e-06	-1.99025e-05	2.93218e-05	-4.21847e-06	-2.29802e-05	2.40953e-05	15.5168	-75.6123	-15.0668	-5.35261	-2.17922	2.25717	
304	1580482314.792759723	0.00239725	-0.895082	2.13237	-2.79043	-1.56954	-2.62329	9.70207e-06	-8.24878e-06	3.23655e-05	-3.8365e-06	-2.2403e-05	1.80493e-05	15.5169	-75.6122	-15.0664	-5.35261	-2.17922	2.25716	
305	1580482314.800703247	0.00239908	-0.895084	2.13237	-2.79043	-1.56954	-2.62329	1.66418e-05	-1.52006e-05	3.78e-05	-3.46814e-06	-1.92575e-05	1.73986e-05	15.5171	-75.6122	-15.066	-5.35261	-2.17921	2.25715	
306	1580482314.808682330	0.00239822	-0.895083	2.13237	-2.79043	-1.56954	-2.62329	1.29288e-05	-1.4016e-05	3.52465e-05	-3.11316e-06	-1.87984e-05	1.93235e-05	15.517	-75.6122	-15.0662	-5.35261	-2.17921	2.25716	
307	1580482314.816703667	0.00239737	-0.895083	2.13237	-2.79043	-1.56954	-2.62329	9.36988e-06	-1.28666e-05	3.78903e-05	-1.08117e-07	-1.57773e-05	2.11385e-05	15.5169	-75.6122	-15.0659	-3.07554	-2.1792	2.25717	
308	1580482314.824798014	0.00239787	-0.895084	2.13237	-2.79042	-1.56954	-2.62329	1.11034e-05	-1.43092e-05	3.52538e-05	5.31555e-06	-2.57636e-05	1.77325e-05	15.517	-75.6122	-15.0662	-0.246381	-2.17924	2.25716	
309	1580482314.832702176	0.00239901	-0.895085	2.13237	-2.79042	-1.56954	-2.62329	1.53101e-05	-2.08748e-05	3.01429e-05	5.27466e-06	-2.49459e-05	1.44629e-05	15.5171	-75.6123	-15.0667	-0.246382	-2.17923	2.25714	
310	1580482314.840702584	0.00239946	-0.895086	2.13237	-2.79043	-1.56954	-2.62329	1.67416e-05	-2.19109e-05	3.28789e-05	2.67883e-06	-2.6685e-05	1.64263e-05	15.5171	-75.6122	-15.0664	-0.246389	-2.17924	2.25715	
311	1580482314.848712331	0.00239924	-0.895084	2.13237	-2.79043	-1.56954	-2.6233	1.55269e-05	-1.52329e-05	3.03588e-05	1.97711e-07	-2.57662e-05	1.31899e-05	15.5171	-75.6122	-15.0666	-2.29472	-2.17923	2.25714	
312	1580482314.856696541	0.00239836	-0.895083	2.13237	-2.79043	-1.56954	-2.6233	1.17923e-05	-8.83926e-06	3.55438e-05	3.71147e-07	-1.97737e-05	7.54494e-06	15.517	-75.6122	-15.0661	-1.85193	-2.17921	2.25713	
313	1580482314.864685728	0.00240014	-0.895082	2.13238	-2.79042	-1.56954	-2.6233	1.84206e-05	-7.80141e-06	4.04491e-05	5.7139e-06	-2.68244e-05	7.22713e-06	15.5172	-75.6121	-15.0657	-0.246381	-2.17925	2.25713	
314	1580482314.872707469	0.00239923	-0.895081	2.13238	-2.79042	-1.56954	-2.6233	1.453e-05	-1.72951e-06	4.50814e-05	5.63414e-06	-3.35205e-05	-7.38441e-07	15.5171	-75.612	-15.0652	-0.246379	-2.17929	-1.67353	
315	1580482314.880708562	0.00239769	-0.895081	2.13238	-2.79043	-1.56954	-2.6233	8.25331e-06	-3.52342e-06	4.69164e-05	3.01922e-06	-3.987e-05	-3.22545e-06	15.5169	-75.612	-15.065	-0.246383	-2.17931	-2.26493	
316	1580482314.888713462	0.0023975	-0.895082	2.13238	-2.79043	-1.56955	-2.6233	7.33323e-06	-5.22904e-06	3.59729e-05	-2.00855e-06	-4.07249e-05	-5.38672e-07	15.5169	-75.6121	-15.066	-5.3526	-2.1793	-1.22185	
317	1580482314.896704843	0.00239863	-0.895082	2.13238	-2.79043	-1.56954	-2.6233	1.15195e-05	-6.84838e-06	3.55787e-05	8.66743e-07	-3.89666e-05	4.60239e-06	15.517	-75.6121	-15.0661	-0.586608	-2.1793	2.25712	
318	1580482314.904694244	0.00239907	-0.895082	2.13238	-2.79043	-1.56955	-2.6233	1.29666e-05	-5.86321e-06	4.53403e-05	9.88376e-07	-3.97601e-05	4.41465e-06	15.517	-75.612	-15.0652	-0.276066	-2.17931	2.25712	
319	1580482314.912645339	0.00240015	-0.895081	2.13238	-2.79043	-1.56955	-2.6233	1.68609e-05	1.19936e-07	4.4435e-05	-1.41415e-06	-4.81186e-05	1.71489e-06	15.5171	-60.0186	-15.0652	-5.35259	-2.17934	2.25711	
320	1580482314.920786648	0.00240055	-0.89508	2.13238	-2.79042	-1.56955	-2.6233	1.80302e-05	8.07374e-07	4.35157e-05	3.93316e-06	-4.83979e-05	9.34022e-06	15.5172	-50.447	-15.0653	-0.246373	-2.17935	2.25713	
321	1580482314.928652682	0.00240094	-0.895078	2.13238	-2.79042	-1.56955	-2.6233	1.91231e-05	8.99347e-06	5.01125e-05	6.52285e-06	-4.60945e-05	3.91147e-06	15.5172	-47.7649	-15.0646	-0.246367	-2.17935	2.25712	
322	1580482314.936699906	0.00240131	-0.895078	2.13238	-2.79043	-1.56955	-2.6233	2.01419e-05	9.28185e-06	5.89542e-05	1.3683e-06	-4.63436e-05	8.79943e-06	15.5172	-47.7649	-15.0638	-0.246383	-2.17935	2.25713	
323	1580482314.944707648	0.00240167	-0.895077	2.13238	-2.79042	-1.56955	-2.6233	2.10886e-05	1.20505e-05	5.97147e-05	4.05221e-06	-4.65231e-05	1.09041e-05	15.5173	-47.7648	-15.0637	-0.246373	-2.17935	2.25714	
324	1580482314.952767796	0.00240071	-0.895077	2.13238	-2.79042	-1.56955	-2.62329	1.69409e-05	1.21823e-05	6.03664e-05	4.01009e-06	-4.92346e-05	1.29016e-05	15.5172	-47.7648	-15.0636	-0.246371	-2.17937	2.25715	
325	1580482314.960713017	0.00240173	-0.895075	2.13238	-2.79042	-1.56955	-2.62329	2.04845e-05	2.22771e-05	5.59223e-05	3.96423e-06	-5.17614e-05	1.47944e-05	15.5173	-47.7648	-15.0639	-0.246369	-2.17938	2.25715	
326	1580482314.968667298	0.00240272	-0.895074	2.13238	-2.79042	-1.56955	-2.62329	2.38415e-05	2.44149e-05	6.15764e-05	8.99845e-06	-5.41086e-05	1.91266e-05	15.5174	-47.7647	-15.0634	-0.246351	-2.1794	2.25716	
327	1580482314.976705547	0.00240237	-0.895073	2.13238	-2.79042	-1.56955	-2.62329	2.20129e-05	2.64285e-05	5.44556e-05	8.71726e-06	-5.36933e-05	1.82144e-05	15.5173	-47.7647	-15.064	-0.246351	-2.17939	2.25716	
328	1580482314.984769069	0.00240073	-0.895071	2.13238	-2.79042	-1.56955	-2.62329	1.52418e-05	3.3291e-05	4.75869e-05	1.10218e-05	-5.32287e-05	1.23521e-05	15.5171	-47.7647	-15.0646	-0.246343	-2.17939	2.25715	
329	1580482314.992683674	0.00240043	-0.895071	2.13238	-2.79042	-1.56955	-2.62329	1.37449e-05	3.23607e-05	5.08931e-05	1.06276e-05	-5.02357e-05	1.17031e-05	15.5171	-47.7647	-15.0643	-0.246346	-2.17938	2.25714	
330	1580482315.000713861	0.00240144	-0.895072	2.13238	-2.79042	-1.56955	-2.62329	1.72794e-05	2.89564e-05	5.15073e-05	1.02373e-05	-4.73131e-05	1.10698e-05	15.5172	-47.7647	-15.0642	-0.246348	-2.17936	2.25714	
331	1580482315.008682616	0.00240177	-0.895074	2.13238	-2.79042	-1.56955	-2.62329	1.81439e-05	2.30977e-05	4.95531e-05	1.24251e-05	-4.19863e-05	1.2927e-05	15.5172	-47.7647	-15.0644	-0.246343	-2.17933	2.25714	
332	1580482315.016740830	0.00240144	-0.895074	2.13238	-2.79042	-1.56955	-2.6233	1.64611e-05	2.00455e-05	4.02089e-05	1.697e-05	-4.17868e-05	9.74294e-06	15.5171	-47.7648	-15.0653	-0.246328	-2.17933	2.25713	
333	1580482315.024718367	0.00240176	-0.895075	2.13238	-2.79042	-1.56955	-2.6233	1.73128e-05	1.7107e-05	3.86355e-05	1.13187e-05	-3.90737e-05	1.70537e-06	15.5172	-47.7648	-15.0654	-0.246349	-2.17931	2.25711	
334	1580482315.024718367	0.00240176	-0.895075	2.13238	-2.79042	-1.56955	-2.6233	1.73128e-05	1.7107e-05	3.86355e-05	1.13187e-05	-3.90737e-05	1.70537e-06	15.5172	-47.7648	-15.0654	-0.246349	-2.17931	2.25711	
335	1580482315.040694266	0.00239918	-0.895075	2.13238	-2.79042	-1.56955	-2.6233	6.78441e-06	1.63795e-05	3.56551e-05	7.89874e-06	-3.16102e-05	6.05907e-06	15.5169	-47.7648	-15.0657	-0.246361	-2.17927	2.25712	
336	1580482315.048756416	0.00239825	-0.895075	2.13238	-2.79042	-1.56955	-2.62329	3.06213e-06	1.6011e-05	3.41411e-05	1.25547e-05	-2.18395e-05	1.05886e-05	15.5168	-47.7649	-15.0658	-0.24635	-2.17923	2.25713	
337	1580482315.056708072	0.00239864	-0.895074	2.13238	-2.79042	-1.56955	-2.62329	4.43548e-06	1.80946e-05	3.7558e-05	1.45315e-05	-2.73006e-05	1.49029e-05	15.5168	-47.7648	-15.0655	-0.24634	-2.17926	2.25715	
338	1580482315.064714412	0.00240032	-0.895073	2.13238	-2.79042	-1.56955	-2.62329	1.06681e-05	2.25147e-05	3.58695e-05	1.38519e-05	-2.50278e-05	1.1604e-05	15.517	-47.7648	-15.0656	-0.246343	-2.17925	2.25714	
339	1580482315.072726429	0.00240001	-0.895073	2.13238	-2.79042	-1.56955	-2.62329	9.22404e-06	2.18146e-05	3.91042e-05	8.28889e-06	-2.03735e-05	1.08867e-05	15.5169	-47.7648	-15.0653	-0.246363	-2.17923	2.25713	
340	1580482315.080749336	0.00239841	-0.895075	2.13238	-2.79042	-1.56954	-2.62329	2.91576e-06	1.36879e-05	4.21425e-05	7.85236e-06	-1.58975e-05	1.26332e-05	15.5168	-47.7648	-15.065	-0.246366	-2.1792	2.25714	
341	1580482315.088709161	0.0023975	-0.895073	2.13238	-2.79042	-1.56954	-2.62329	-6.62682e-07	2.06532e-05	3.52239e-05	7.42449e-06	-1.1597e-05	9.40406e-06	-10.2826	-47.7648	-15.0656	-0.246369	-2.17919	2.25713	
342	1580482315.096710269	0.00239855	-0.895073	2.13238	-2.79042	-1.56954	-2.62329	3.26982e-06	1.99687e-05	3.34424e-05	2.12916e-06	-7.46889e-06	1.36707e-05	15.5168	-47.7648	-15.0658	-0.246387	-2.17916	2.25714	
343	1580482315.104678693	0.00239764	-0.895072	2.13238	-2.79042	-1.56954	-2.62329	-3.22671e-07	2.41603e-05	3.16947e-05	-4.99445e-07	-1.07554e-06	1.03776e-05	-5.00676	-47.7648	-15.0659	-4.07463	-2.17913	2.25713	
344	1580482315.112684609	0.00239804	-0.89507	2.13238	-2.79043	-1.56954	-2.62329	1.13172e-06	3.05677e-05	2.99812e-05	-3.01201e-06	-2.25488e-06	1.20819e-05	15.5167	-47.7647	-15.066	-5.3526	-2.17914	2.25714	
345	1580482315.120691143	0.00239778	-0.895072	2.13238	-2.79043	-1.56954	-2.62329	7.62898e-08	2.44142e-05	2.58739e-05	-5.41081e-06	1.48315e-06	1.36958e-05	1.18379	-47.7648	-15.0664	-5.35261	2.99286	2.25714	
346	1580482315.128717592	0.00239753	-0.895071	2.13238	-2.79043	-1.56954	-2.62329	-9.34764e-07	2.83023e-05	2.67627e-05	-5.27295e-06	2.08316e-07	1.76951e-05	-14.5044	-47.7648	-15.0663	-5.35261	0.945569	2.25715	
347	1580482315.136666484	0.00239728	-0.89507	2.13238	-2.79043	-1.56954	-2.62329	-1.90223e-06	2.95614e-05	2.27301e-05	-9.98047e-06	-1.0048e-06	2.40144e-05	-15.5167	-47.7648	-15.0666	-5.35262	-2.17913	2.25717	
348	1580482315.144725575	0.00239704	-0.895072	2.13238	-2.79043	-1.56954	-2.62329	-2.82692e-06	2.09569e-05	2.12621e-05	-4.69685e-06	-2.15764e-06	2.2623e-05	-15.5167	-47.7648	-15.0668	-5.35261	-2.17913	2.25716	
349	1580482315.152729275	0.0023981	-0.89507	2.13238	-2.79042	-1.56954	-2.62329	1.14728e-06	2.72983e-05	1.7412e-05	3.5657e-07	-3.25164e-06	1.88505e-05	15.5167	-47.7648	-15.0671	-1.88913	-2.17914	2.25715	
350	1580482315.160729951	0.00239784	-0.895071	2.13238	-2.79042	-1.56954	-2.62329	9.11633e-08	2.60879e-05	1.6118e-05	5.18431e-06	-1.87578e-06	2.00472e-05	1.41457	-47.7648	-15.0672	-0.246374	-2.17913	2.25716	
351	1580482315.168715468	0.00239823	-0.895072	2.13238	-2.79042	-1.56954	-2.62329	1.50156e-06	1.99841e-05	1.24465e-05	2.46664e-06	-5.53601e-07	1.63481e-05	15.5167	-47.7649	-15.0676	-0.246384	-1.02474	2.25714	
352	1580482315.176760369	0.00239796	-0.895072	2.13238	-2.79042	-1.56954	-2.62329	4.26604e-07	2.144e-05	1.13225e-05	-1.34914e-07	7.15718e-07	1.76049e-05	6.6195	-47.7649	-15.0677	-3.14394	2.25772	2.25715	
353	1580482315.184730646	0.00239706	-0.895072	2.13238	-2.79042	-1.56954	-2.62329	-3.01933e-06	2.04017e-05	1.26313e-05	-2.19509e-07	4.33606e-06	1.87845e-05	-15.5167	-47.7649	-15.0676	-3.35992	2.99288	2.25715	
354	1580482315.192709311	0.00239747	-0.895071	2.13238	-2.79042	-1.56954	-2.62329	-1.48631e-06	2.17835e-05	1.14611e-05	-3.01374e-07	5.39634e-06	1.50891e-05	-15.5167	-47.7649	-15.0676	-3.56893	2.99289	2.25714	
355	1580482315.200721967	0.00239723	-0.895073	2.13238	-2.79043	-1.56954	-2.62329	-2.43096e-06	1.57905e-05	7.92571e-06	-2.77735e-06	6.40831e-06	1.39349e-05	-15.5167	-47.7649	-15.068	-5.3526	2.9929	2.25713	
356	1580482315.208784921	0.00239699	-0.895072	2.13238	-2.79043	-1.56954	-2.62329	-3.33321e-06	1.97122e-05	1.17118e-05	-2.74836e-06	7.3729e-06	8.02665e-06	-15.5167	-47.7649	-15.0676	-5.3526	2.9929	2.25712	
357	1580482315.216736538	0.00239611	-0.895071	2.13238	-2.79043	-1.56954	-2.62329	-6.59725e-06	2.10453e-05	3.35747e-06	-2.71865e-06	3.41404e-06	1.19786e-05	-15.5168	-47.7649	-15.0684	-5.3526	2.99288	2.25713	
358	1580482315.224744350	0.00239782	-0.895072	2.13238	-2.79043	-1.56954	-2.62329	-1.10714e-07	1.75178e-05	7.2988e-06	-7.46349e-06	-3.69909e-07	1.57412e-05	-1.7179	-47.7649	-15.068	-5.35261	-0.549701	2.25714	
359	1580482315.232738070	0.00239757	-0.895071	2.13238	-2.79043	-1.56954	-2.62329	-1.10319e-06	2.12766e-05	1.51353e-06	-7.22287e-06	-6.36704e-06	1.93184e-05	-15.5167	-47.7649	-15.0685	-5.35261	-2.17914	2.25715	
360	1580482315.240748931	0.00239796	-0.895069	2.13237	-2.79043	-1.56954	-2.62329	3.41514e-07	2.72246e-05	-1.64393e-06	-6.98559e-06	-2.4674e-06	2.51913e-05	5.29918	-47.7649	-15.0688	-5.35261	-2.17912	2.25717	
361	1580482315.248742710	0.0023977	-0.895069	2.13237	-2.79043	-1.56954	-2.62329	-6.70666e-07	2.57418e-05	-4.66706e-06	-4.27809e-06	-8.34113e-06	1.63141e-05	-10.4065	-47.7649	-15.069	-5.3526	-2.17914	2.25714	
362	1580482315.256757870	0.00239873	-0.89507	2.13237	-2.79043	-1.56954	-2.62329	3.13671e-06	2.19164e-05	-9.93378e-06	-1.68556e-06	-9.0971e-06	1.97787e-05	15.5168	-47.765	-15.0695	-5.35259	-2.17914	2.25715	
363	1580482315.264696114	0.00239909	-0.89507	2.13237	-2.79043	-1.56954	-2.62329	4.3865e-06	2.29759e-05	-5.47422e-06	-4.04561e-06	-1.22726e-05	1.35294e-05	15.5168	-47.7649	-15.0691	-5.3526	-2.17916	2.25713	
364	1580482315.272752410	0.00240008	-0.895069	2.13237	-2.79043	-1.56954	-2.62329	7.95671e-06	2.39596e-05	-1.06879e-05	-6.29842e-06	-1.28263e-05	1.70619e-05	15.5169	-47.765	-15.0696	-5.3526	-2.17916	2.25714	
365	1580482315.280744838	0.00240104	-0.895068	2.13237	-2.79043	-1.56954	-2.62329	1.13595e-05	2.72364e-05	-1.33002e-05	-8.44617e-06	-1.09703e-05	1.56379e-05	15.517	-47.765	-15.0698	-5.35261	-2.17915	2.25713	
366	1580482315.288727943	0.00240007	-0.895068	2.13237	-2.79043	-1.56954	-2.62329	7.47035e-06	2.79719e-05	-1.34251e-05	-5.66944e-06	-9.17884e-06	2.14886e-05	15.5169	-47.765	-15.0698	-5.3526	-2.17915	2.25715	
367	1580482315.296723097	0.00240039	-0.895066	2.13237	-2.79043	-1.56954	-2.62329	8.48715e-06	3.33613e-05	-1.35348e-05	-3.00852e-06	-2.72993e-06	2.21938e-05	15.5169	-47.7649	-15.0698	-5.3526	-2.17912	2.25716	
368	1580482315.304730141	0.00240134	-0.895065	2.13237	-2.79042	-1.56954	-2.62329	1.18181e-05	3.84736e-05	-8.91458e-06	1.89638e-06	-6.08039e-06	2.04832e-05	15.517	-47.7649	-15.0693	-0.246378	-2.17914	2.25715	
369	1580482315.312716315	0.00240163	-0.895065	2.13237	-2.79042	-1.56954	-2.62329	1.26209e-05	3.62513e-05	-6.846e-06	1.78058e-06	-4.46981e-06	2.83815e-05	15.517	-47.7649	-15.0691	-0.246378	-2.17914	2.25717	
370	1580482315.320728104	0.00240254	-0.895066	2.13237	-2.79043	-1.56954	-2.62329	1.57366e-05	3.17295e-05	-4.8651e-06	-5.38808e-06	-5.68553e-07	2.63523e-05	15.5171	-47.7649	-15.069	-5.3526	-1.0634	2.25717	
371	1580482315.328730839	0.00240216	-0.895067	2.13237	-2.79043	-1.56954	-2.62329	1.39739e-05	2.9714e-05	-1.23654e-05	-5.19204e-06	3.16727e-06	1.96816e-05	15.5171	-47.765	-15.0697	-5.35261	2.99289	2.25715	
372	1580482315.336744486	0.00240115	-0.895067	2.13237	-2.79043	-1.56954	-2.62329	9.91186e-06	2.77488e-05	-1.24919e-05	-4.99931e-06	6.74071e-06	1.79685e-05	15.5169	-47.765	-15.0697	-5.35261	2.9929	2.25714	
373	1580482315.344685515	0.00240144	-0.895065	2.13237	-2.79043	-1.56954	-2.62329	1.07244e-05	3.28629e-05	-1.26036e-05	-4.80993e-06	1.01548e-05	1.86501e-05	15.517	-47.765	-15.0697	-5.35261	2.99291	2.25714	
374	1580482315.352718932	0.00240108	-0.895067	2.13237	-2.79043	-1.56954	-2.62329	9.13471e-06	2.59187e-05	-8.02046e-06	-4.62392e-06	1.34128e-05	1.6938e-05	15.5169	-47.765	-15.0693	-5.35261	2.99293	2.25714	
375	1580482315.360714014	0.00240199	-0.895069	2.13237	-2.79043	-1.56954	-2.62329	1.23011e-05	1.92431e-05	-1.0644e-05	-6.77858e-06	1.18431e-05	1.76156e-05	15.517	-47.765	-15.0696	-5.35262	2.99293	2.25714	
376	1580482315.368708426	0.00240098	-0.89507	2.13237	-2.79043	-1.56954	-2.62329	8.27334e-06	1.52595e-05	-8.47714e-06	-1.11668e-05	7.90423e-06	1.8241e-05	15.5169	-47.765	-15.0694	-5.35263	2.99292	2.25714	
377	1580482315.376683127	0.00240253	-0.89507	2.13237	-2.79043	-1.56954	-2.62329	1.37848e-05	1.3759e-05	-8.7307e-06	-1.30208e-05	4.13114e-06	2.59503e-05	15.517	-47.765	-15.0694	-5.35263	2.9929	2.25716	
378	1580482315.384703374	0.00240276	-0.89507	2.13237	-2.79043	-1.56954	-2.62329	1.43571e-05	1.23037e-05	-8.96762e-06	-1.24512e-05	2.94256e-06	2.85421e-05	15.517	-47.7651	-15.0694	-5.35263	2.9929	2.25717	
379	1580482315.392712340	0.00240173	-0.89507	2.13237	-2.79043	-1.56954	-2.62329	1.02096e-05	1.32191e-05	-9.18826e-06	-1.18927e-05	-6.13285e-07	2.86139e-05	15.5169	-47.7651	-15.0694	-5.35262	-1.17906	2.25717	
380	1580482315.400739555	0.00240199	-0.89507	2.13237	-2.79043	-1.56954	-2.62328	1.0899e-05	1.40756e-05	-1.17161e-05	-1.36684e-05	-4.01094e-06	3.10167e-05	15.5169	-47.7651	-15.0697	-5.35263	-2.17911	2.25717	
381	1580482315.408687961	0.00240223	-0.895069	2.13237	-2.79043	-1.56954	-2.62328	1.1544e-05	1.48748e-05	-1.41251e-05	-1.30317e-05	-7.25362e-06	3.09107e-05	15.517	-47.7651	-15.0699	-5.35262	-2.17913	2.25717	
382	1580482315.416690435	0.00240247	-0.89507	2.13237	-2.79043	-1.56954	-2.62329	1.21457e-05	1.33008e-05	-1.87352e-05	-1.7043e-05	-7.93437e-06	2.84537e-05	15.517	-47.7651	-15.0703	-5.35264	-2.17913	2.25717	
383	1580482315.424672947	0.00240207	-0.895068	2.13237	-2.79043	-1.56954	-2.62329	1.03785e-05	1.87195e-05	-1.387e-05	-1.38252e-05	-1.09808e-05	2.37529e-05	15.5169	-47.7651	-15.0698	-5.35263	-2.17915	2.25716	
384	1580482315.432709458	0.00240105	-0.895068	2.13237	-2.79043	-1.56954	-2.62329	6.34949e-06	1.92548e-05	-2.07624e-05	-1.0731e-05	-9.16376e-06	1.69133e-05	15.5168	-47.7651	-15.0705	-5.35262	-2.17914	2.25714	
385	1580482315.440694255	0.00240068	-0.895067	2.13237	-2.79043	-1.56954	-2.62329	4.80636e-06	2.205e-05	-2.041e-05	-7.75834e-06	-2.79351e-06	1.03465e-05	15.5168	-47.7651	-15.0704	-5.35261	-2.17911	2.25712	
386	1580482315.448702062	0.00240032	-0.895068	2.13237	-2.79043	-1.56954	-2.62329	3.32202e-06	1.77765e-05	-2.92786e-05	-4.90516e-06	3.30811e-06	1.5718e-05	15.5167	-47.7652	-15.0713	-5.35261	2.9929	2.25713	
387	1580482315.456664332	0.00239997	-0.895068	2.13237	-2.79043	-1.56954	-2.62329	1.89556e-06	1.59664e-05	-2.85207e-05	-2.16937e-06	-1.60462e-07	1.37873e-05	15.5167	-47.7652	-15.0712	-5.3526	-0.00806026	2.25713	
388	1580482315.464737772	0.00240088	-0.895069	2.13237	-2.79043	-1.56954	-2.62329	5.15221e-06	1.19112e-05	-3.23683e-05	-1.94173e-06	3.51848e-06	1.42216e-05	15.5168	-47.7653	-15.0716	-5.3526	2.9929	2.25713	
389	1580482315.472648526	0.00239926	-0.89507	2.13236	-2.79043	-1.56954	-2.62329	-9.80939e-07	1.03108e-05	-3.60169e-05	2.96673e-06	7.03818e-06	1.69616e-05	-15.2209	-47.7653	-15.0719	-0.246384	2.99292	2.25714	
390	1580482315.480689733	0.00239893	-0.895072	2.13237	-2.79043	-1.56954	-2.62329	-2.23617e-06	-5.10208e-07	-3.02893e-05	6.82832e-07	5.81081e-06	1.26288e-05	-15.5168	-68.7927	-15.0715	-1.05615	2.99292	2.25712	
391	1580482315.488702327	0.00239861	-0.895073	2.13237	-2.79043	-1.56954	-2.62329	-3.4373e-06	-3.90001e-06	-2.93622e-05	-1.50329e-06	2.24843e-06	8.46441e-06	-15.5168	-75.6123	-15.0714	-5.3526	2.9929	2.25711	
392	1580482315.496771739	0.00239892	-0.895074	2.13236	-2.79042	-1.56954	-2.62329	-2.28318e-06	-7.14439e-06	-3.53144e-05	3.3681e-06	3.51125e-06	9.04575e-06	-15.5168	-75.6124	-15.072	-0.246384	2.99291	2.25711	
393	1580482315.504690428	0.00239922	-0.895074	2.13236	-2.79042	-1.56954	-2.62329	-1.17841e-06	-5.67143e-06	-3.41119e-05	3.36064e-06	7.00611e-06	9.58815e-06	-15.5167	-75.6124	-15.0719	-0.246386	2.99293	2.25711	
394	1580482315.512691451	0.00239889	-0.895075	2.13237	-2.79043	-1.56954	-2.62329	-2.41877e-06	-8.82916e-06	-2.83557e-05	1.06542e-06	1.11616e-06	3.23887e-06	-15.5168	-75.6123	-15.0714	-0.246392	2.9929	2.2571	
395	1580482315.520687795	0.00239795	-0.895074	2.13237	-2.79042	-1.56954	-2.62329	-5.89953e-06	-7.28214e-06	-2.50986e-05	3.52292e-06	-2.23761e-06	-5.63581e-07	-15.5169	-75.6123	-15.0711	-0.246383	-2.1791	-1.27819	
396	1580482315.528720194	0.0023989	-0.895074	2.13237	-2.79042	-1.56954	-2.62329	-2.35255e-06	-5.79768e-06	-2.65133e-05	3.50093e-06	-7.92677e-07	-1.92702e-06	-15.5168	-75.6123	-15.0712	-0.246384	-1.64296	-2.26494	
397	1580482315.536731752	0.00239858	-0.895074	2.13236	-2.79042	-1.56954	-2.62329	-3.53451e-06	-6.65125e-06	-3.0116e-05	3.47623e-06	5.14715e-06	-3.23379e-06	-15.5168	-75.6124	-15.0715	-0.246388	2.99291	-2.26495	
398	1580482315.544708861	0.00239827	-0.895074	2.13236	-2.79042	-1.56954	-2.62329	-4.66405e-06	-7.46504e-06	-2.89843e-05	3.44895e-06	8.55565e-06	-2.21089e-06	-15.5168	-75.6124	-15.0715	-0.24639	2.99293	-2.26495	
399	1580482315.552702750	0.00239796	-0.895075	2.13236	-2.79042	-1.56954	-2.62329	-5.74216e-06	-1.05111e-05	-2.787e-05	3.41922e-06	2.63525e-06	-1.23308e-06	-15.5169	-75.6124	-15.0714	-0.246387	2.9929	-2.26494	
400	1580482315.560719329	0.00239953	-0.895076	2.13236	-2.79042	-1.56954	-2.62329	7.2487e-08	-1.34194e-05	-2.90421e-05	3.38714e-06	-7.63639e-07	-7.10559e-06	1.12471	-75.6124	-15.0715	-0.246387	-1.56786	-2.26496	
401	1580482315.568698165	0.00240167	-0.895077	2.13236	-2.79042	-1.56954	-2.62329	7.8436e-06	-1.85492e-05	-2.78666e-05	3.35285e-06	-1.65725e-06	-3.61325e-06	15.5168	-75.6124	-15.0714	-0.246387	-2.17909	-2.26495	
402	1580482315.576684269	0.00240191	-0.895078	2.13237	-2.79043	-1.56954	-2.62329	8.51697e-06	-1.88257e-05	-2.44477e-05	1.05296e-06	4.28203e-06	-2.57841e-06	15.5168	-75.6124	-15.0711	-0.246398	2.99291	-2.26495	
403	1580482315.584702625	0.00240151	-0.895077	2.13236	-2.79043	-1.56954	-2.62329	6.87751e-06	-1.45517e-05	-2.56699e-05	-1.14986e-06	7.70468e-06	3.06906e-06	15.5168	-75.6124	-15.0712	-5.35261	2.99293	2.2571	
404	1580482315.592711675	0.00240113	-0.895076	2.13237	-2.79043	-1.56954	-2.62329	5.29857e-06	-1.27057e-05	-2.00371e-05	-9.99097e-07	8.71699e-06	6.12029e-06	15.5168	-75.6124	-15.0707	-5.3503	2.99293	2.25711	
405	1580482315.600695683	0.00240075	-0.895076	2.13237	-2.79043	-1.56954	-2.62329	3.77923e-06	-1.31836e-05	-2.13895e-05	1.49235e-06	7.42322e-06	9.03143e-06	15.5167	-75.6124	-15.0708	-0.246397	2.99292	2.25711	
406	1580482315.608691547	0.00240163	-0.895075	2.13236	-2.79042	-1.56954	-2.62329	6.84882e-06	-9.12358e-06	-2.49139e-05	3.87614e-06	8.43184e-06	1.18054e-05	15.5168	-75.6124	-15.0712	-0.246389	2.99292	2.25712	
407	1580482315.616676225	0.0024031	-0.895077	2.13237	-2.79042	-1.56954	-2.62329	1.2041e-05	-1.65724e-05	-1.92586e-05	3.81371e-06	4.7993e-06	1.44451e-05	15.5169	-75.6124	-15.0707	-0.246388	2.99291	2.25713	
408	1580482315.624727284	0.00240205	-0.895075	2.13236	-2.79042	-1.56954	-2.62329	7.95734e-06	-7.86324e-06	-2.96485e-05	6.08781e-06	3.65608e-06	3.37541e-06	15.5168	-75.6124	-15.0716	-0.246381	2.9929	2.2571	
409	1580482315.632699023	0.00240227	-0.895073	2.13236	-2.79042	-1.56954	-2.62329	8.55156e-06	-1.76401e-06	-3.04923e-05	3.67787e-06	7.05047e-06	6.33192e-06	15.5169	-75.6124	-15.0716	-0.24639	2.99292	2.25711	
410	1580482315.640694769	0.00240124	-0.895075	2.13236	-2.79043	-1.56954	-2.62329	4.59957e-06	-7.22916e-06	-2.67806e-05	1.36632e-06	8.05204e-06	9.15261e-06	15.5168	-75.6124	-15.0713	-0.246398	2.99292	2.25712	
411	1580482315.648697540	0.00240024	-0.895074	2.13237	-2.79043	-1.56954	-2.62329	8.08389e-07	-3.40583e-06	-1.87158e-05	1.39183e-06	4.43382e-06	5.07421e-06	12.5435	-75.6124	-15.0706	-0.246397	2.9929	2.25711	
412	1580482315.656657420	0.00239988	-0.895074	2.13237	-2.79043	-1.56954	-2.62329	-5.75034e-07	-4.21943e-06	-1.99235e-05	-8.23181e-07	7.76936e-06	7.91846e-06	-8.92265	-75.6124	-15.0707	-4.90117	2.99292	2.25711	
413	1580482315.664690482	0.00239891	-0.895073	2.13236	-2.79043	-1.56954	-2.62329	-4.14843e-06	-5.2574e-07	-2.10574e-05	-7.08044e-07	8.72149e-06	6.11474e-06	-15.5168	-69.0091	-15.0708	-4.60721	2.99292	2.25711	
414	1580482315.672688769	0.00239919	-0.895073	2.13237	-2.79043	-1.56954	-2.62329	-3.0784e-06	7.76652e-07	-1.76536e-05	-5.9706e-07	1.18585e-05	4.3775e-06	-15.5168	-50.8752	-15.0705	-4.32386	2.99293	2.25711	
415	1580482315.680690277	0.00239947	-0.895073	2.13237	-2.79043	-1.56954	-2.62329	-2.05227e-06	-2.44017e-06	-9.91283e-06	1.82945e-06	1.48516e-05	-6.26041e-06	-15.5167	-75.6123	-15.0698	-0.246403	2.99294	-2.26495	
416	1580482315.688669319	0.00240098	-0.895073	2.13237	-2.79043	-1.56954	-2.62329	3.41027e-06	-1.06484e-06	-1.36271e-05	1.83426e-06	1.54757e-05	1.55674e-06	15.5167	-75.6124	-15.0701	-0.246402	2.99294	2.2571	
417	1580482315.696686443	0.0024006	-0.895074	2.13236	-2.79043	-1.56954	-2.62329	1.92457e-06	-4.19975e-06	-1.93937e-05	1.83686e-06	2.05091e-05	-2.22228e-06	15.5167	-75.6124	-15.0707	-0.246406	2.99297	-2.26494	
418	1580482315.704703574	0.00240146	-0.895073	2.13236	-2.79043	-1.56953	-2.62329	4.96732e-06	-2.75409e-06	-2.04484e-05	-2.60858e-06	2.30862e-05	-5.84242e-06	15.5168	-75.6124	-15.0708	-5.35262	2.99298	-2.26495	
419	1580482315.712704236	0.00240168	-0.895074	2.13236	-2.79043	-1.56954	-2.62329	5.64215e-06	-3.58931e-06	-1.92147e-05	-2.42254e-06	1.65602e-05	-2.60066e-06	15.5168	-75.6124	-15.0707	-5.35262	2.99295	-2.26494	
420	1580482315.720673290	0.00240067	-0.895075	2.13236	-2.79043	-1.56954	-2.62329	1.82101e-06	-6.60572e-06	-2.02289e-05	-2.2418e-06	1.02931e-05	-8.41257e-06	15.5167	-75.6125	-15.0708	-5.35261	2.99293	-2.26496	
421	1580482315.728690814	0.00240091	-0.895074	2.13237	-2.79043	-1.56954	-2.62329	2.61203e-06	-5.05883e-06	-1.23145e-05	2.37904e-07	1.32313e-05	-1.17578e-05	15.5167	-75.6124	-15.07	-2.19212	2.99293	-2.26497	
422	1580482315.736697979	0.00239992	-0.895073	2.13237	-2.79043	-1.56954	-2.62329	-1.08471e-06	8.52458e-07	-1.35716e-05	-4.11521e-06	1.16062e-05	-1.0526e-05	-15.5167	-49.8197	-15.0701	-5.35262	2.99293	-2.26496	
423	1580482315.744690036	0.00239956	-0.895073	2.13236	-2.79043	-1.56954	-2.62329	-2.40386e-06	-1.20453e-07	-1.91808e-05	6.50801e-07	1.22487e-05	-7.08286e-06	-15.5167	-63.3661	-15.0707	-1.13795	2.99293	-2.26495	
424	1580482315.752712015	0.00239982	-0.895072	2.13236	-2.79043	-1.56954	-2.62329	-1.44663e-06	3.36231e-06	-2.01149e-05	7.1051e-07	1.50602e-05	-6.03234e-06	-15.5167	-47.7655	-15.0707	-0.985503	2.99294	-2.26495	
425	1580482315.760691990	0.00240008	-0.895073	2.13236	-2.79043	-1.56954	-2.62329	-5.29861e-07	7.52493e-08	-2.09864e-05	-1.43895e-06	1.55323e-05	-7.22819e-06	-8.2217	-60.6413	-15.0708	-5.35261	2.99295	-2.26496	
426	1580482315.768690072	0.00240033	-0.895074	2.13236	-2.79043	-1.56954	-2.62329	3.47239e-07	-3.07568e-06	-1.739e-05	9.98631e-07	1.59686e-05	-6.16519e-06	5.38799	-75.6124	-15.0705	-0.249902	2.99295	-2.26495	
427	1580482315.776703253	0.00240119	-0.895073	2.13236	-2.79042	-1.56954	-2.62329	3.39824e-06	5.10374e-07	-2.05274e-05	5.53382e-06	1.63702e-05	-1.17462e-05	15.5167	-54.5828	-15.0708	-0.246393	2.99294	-2.26497	
428	1580482315.784688627	0.00240142	-0.895071	2.13236	-2.79042	-1.56954	-2.6233	4.10549e-06	6.14206e-06	-2.35091e-05	9.87269e-06	1.6738e-05	-1.48841e-05	15.5168	-47.7655	-15.071	-0.24638	2.99294	-2.26497	
429	1580482315.792684886	0.0023998	-0.895073	2.13236	-2.79042	-1.56954	-2.6233	-1.84691e-06	-1.73682e-06	-2.41423e-05	9.53849e-06	1.7073e-05	-1.56806e-05	-15.5167	-75.6125	-15.0712	-0.246381	2.99295	-2.26498	
430	1580482315.800698204	0.00239944	-0.895073	2.13236	-2.79042	-1.56954	-2.6233	-3.13812e-06	-4.21764e-07	-2.4721e-05	4.82024e-06	1.73762e-05	-1.64294e-05	-15.5168	-67.5615	-15.0712	-0.246396	2.99295	-2.26498	
431	1580482315.808700609	0.0023997	-0.895075	2.13236	-2.79042	-1.56954	-2.6233	-2.17027e-06	-1.02089e-05	-2.96301e-05	9.14856e-06	1.54569e-05	-2.15148e-05	-15.5167	-75.6126	-15.0717	-0.246383	2.99295	-2.265	
432	1580482315.816718765	0.00239874	-0.895074	2.13236	-2.79042	-1.56954	-2.6233	-5.64396e-06	-6.35412e-06	-2.55429e-05	6.63052e-06	1.36018e-05	-1.97989e-05	-15.5168	-75.6126	-15.0713	-0.24639	2.99294	-2.26499	
433	1580482315.824672066	0.00239902	-0.895075	2.13236	-2.79042	-1.56954	-2.6233	-4.57083e-06	-9.21648e-06	-1.94103e-05	6.39759e-06	9.53567e-06	-2.25096e-05	-15.5168	-75.6125	-15.0708	-0.246389	2.99292	-2.265	
434	1580482315.832695909	0.00239868	-0.895075	2.13236	-2.79042	-1.56954	-2.6233	-5.73541e-06	-9.76658e-06	-2.44338e-05	1.79839e-06	1.44551e-05	-1.84877e-05	-15.5168	-75.6126	-15.0713	-0.246406	2.99295	-2.26499	
435	1580482315.840702809	0.00239775	-0.895076	2.13236	-2.79042	-1.56953	-2.6233	-9.04051e-06	-1.02851e-05	-2.26722e-05	1.75374e-06	1.91535e-05	-2.12064e-05	-15.5169	-75.6126	-15.0711	-0.246409	2.99296	-2.26499	
436	1580482315.848662208	0.00239683	-0.895077	2.13236	-2.79043	-1.56954	-2.6233	-1.21994e-05	-1.52196e-05	-2.09575e-05	-4.71004e-07	1.48286e-05	-2.1611e-05	-15.517	-75.6126	-15.071	-4.00203	2.99295	-2.26499	
437	1580482315.856705361	0.00239655	-0.895077	2.13236	-2.79043	-1.56954	-2.6233	-1.30258e-05	-1.54914e-05	-1.49344e-05	-4.78016e-06	1.72882e-05	-2.19773e-05	-15.517	-75.6126	-15.0705	-5.35263	2.99296	-2.26499	
438	1580482315.864701002	0.00239627	-0.895076	2.13237	-2.79043	-1.56954	-2.6233	-1.38053e-05	-1.13866e-05	-9.14402e-06	-4.55425e-06	1.74515e-05	-2.66572e-05	-15.5171	-75.6125	-15.0699	-5.35263	2.99295	-2.26501	
439	1580482315.872711280	0.00239722	-0.895076	2.13237	-2.79043	-1.56953	-2.6233	-1.01701e-05	-9.61534e-06	-7.92836e-06	-4.33323e-06	1.97622e-05	-2.012e-05	-15.517	-75.6125	-15.0698	-5.35263	2.99296	-2.26499	
440	1580482315.880723842	0.00239815	-0.895075	2.13236	-2.79043	-1.56953	-2.6233	-6.67684e-06	-7.90911e-06	-1.10933e-05	-4.1171e-06	1.97847e-05	-2.04775e-05	-15.5169	-75.6125	-15.0701	-5.35263	2.99296	-2.26499	
441	1580482315.888715296	0.00239724	-0.895072	2.13237	-2.79043	-1.56953	-2.6233	-9.86278e-06	2.40648e-06	-5.43831e-06	-3.90586e-06	1.76167e-05	-1.86312e-05	-15.5169	-47.7655	-15.0695	-5.35263	2.99294	-2.26498	
442	1580482315.896699804	0.00239817	-0.895074	2.13237	-2.79043	-1.56953	-2.6233	-6.37406e-06	-5.12615e-06	-1.00318e-08	-1.4468e-06	1.9852e-05	-1.68432e-05	-15.5168	-75.6124	-15.069	-5.35262	2.99295	-2.26498	
443	1580482315.904726159	0.00239786	-0.895075	2.13237	-2.79043	-1.56954	-2.6233	-7.37533e-06	-5.76323e-06	8.67903e-07	-1.33902e-06	1.5395e-05	-1.72764e-05	-15.5169	-75.6124	-15.0689	-5.35262	2.99293	-2.26498	
444	1580482315.912712576	0.00239817	-0.895075	2.13237	-2.79043	-1.56953	-2.6233	-6.15516e-06	-6.36891e-06	3.87297e-06	-1.23446e-06	1.98389e-05	-1.98358e-05	-15.5168	-75.6124	-15.0687	-5.35262	2.99295	-2.26498	
445	1580482315.920689216	0.00239848	-0.895075	2.13237	-2.79043	-1.56953	-2.6233	-4.98012e-06	-6.94382e-06	6.75212e-06	-1.13308e-06	1.75988e-05	-2.01094e-05	-15.5168	-75.6124	-15.0684	-5.35262	2.99294	-2.26499	
446	1580482315.928691459	0.00239756	-0.895073	2.13237	-2.79043	-1.56953	-2.6233	-8.18641e-06	-1.01766e-06	5.19362e-06	1.20842e-06	1.75895e-05	-1.81941e-05	-15.5169	-75.6124	-15.0685	-0.246409	2.99294	-2.26498	
447	1580482315.936709149	0.00239788	-0.895072	2.13237	-2.79043	-1.56953	-2.6233	-6.91946e-06	4.66261e-06	5.85204e-06	1.21044e-06	1.54064e-05	-2.2804e-05	-15.5168	-47.7654	-15.0684	-0.246408	2.99292	-2.26499	
448	1580482315.944708882	0.00239819	-0.895073	2.13237	-2.79043	-1.56954	-2.6233	-5.6986e-06	-7.47145e-07	4.32738e-06	-3.094e-06	8.9057e-06	-2.07416e-05	-15.5168	-72.0918	-15.0686	-5.35262	2.9929	-2.26499	
449	1580482315.952691456	0.00239789	-0.895074	2.13237	-2.79043	-1.56954	-2.6233	-6.6848e-06	-3.69649e-06	5.01446e-06	-7.21689e-06	7.05061e-06	-2.51942e-05	-15.5168	-75.6124	-15.0685	-5.35263	2.9929	-2.265	
450	1580482315.960673796	0.00239759	-0.895076	2.13237	-2.79043	-1.56954	-2.6233	-7.62384e-06	-8.75468e-06	5.67056e-06	-6.86548e-06	3.02987e-06	-2.29921e-05	-15.5169	-75.6124	-15.0685	-5.35263	2.99288	-2.26499	
451	1580482315.968691500	0.0023967	-0.895076	2.13237	-2.79043	-1.56954	-2.6233	-1.06739e-05	-1.13636e-05	2.00461e-06	-6.5216e-06	5.69453e-06	-2.08572e-05	-15.517	-75.6124	-15.0689	-5.35263	2.9929	-2.26499	
452	1580482315.976741560	0.00239826	-0.895076	2.13237	-2.79043	-1.56954	-2.6233	-4.96728e-06	-1.171e-05	2.77808e-06	-1.81229e-06	1.72519e-06	-1.66025e-05	-15.5168	-75.6124	-15.0688	-5.35261	2.99288	-2.26498	
453	1580482315.984683162	0.00239856	-0.895077	2.13237	-2.79043	-1.56954	-2.6233	-3.7976e-06	-1.41723e-05	7.80202e-06	-1.66436e-06	2.28542e-06	-1.89732e-05	-15.5168	-75.6124	-15.0684	-5.35261	2.99288	-2.26498	
454	1580482315.992639202	0.00239705	-0.895078	2.13237	-2.79043	-1.56954	-2.6233	-9.12449e-06	-1.65188e-05	4.0559e-06	-3.66001e-06	-1.54511e-06	-2.33652e-05	-15.5169	-75.6124	-15.0687	-5.35262	-2.17911	-2.265	
455	1580482316.000696627	0.00239618	-0.895079	2.13237	-2.79043	-1.56954	-2.6233	-1.2074e-05	-1.87521e-05	4.73679e-06	-3.43242e-06	3.41644e-06	-2.32772e-05	-15.517	-75.6125	-15.0687	-5.35262	2.99289	-2.26499	
456	1580482316.008764862	0.00239653	-0.895079	2.13237	-2.79043	-1.56954	-2.6233	-1.05973e-05	-1.87395e-05	3.25223e-06	1.14438e-06	8.16838e-06	-2.10334e-05	-15.517	-75.6125	-15.0688	-0.246405	2.99291	-2.26499	
457	1580482316.016662720	0.00239507	-0.89508	2.13237	-2.79043	-1.56954	-2.6233	-1.56029e-05	-2.30593e-05	8.22581e-06	-9.52042e-07	8.44929e-06	-1.88598e-05	-15.5171	-75.6125	-15.0684	-5.23017	2.99291	-2.26498	
458	1580482316.024692800	0.00239546	-0.895079	2.13237	-2.79043	-1.56954	-2.6233	-1.3961e-05	-1.85705e-05	6.59667e-06	-5.09145e-06	1.08392e-05	-2.31472e-05	-15.5171	-75.6124	-15.0685	-5.35263	2.99292	-2.26499	
459	1580482316.032671013	0.00239644	-0.89508	2.13237	-2.79043	-1.56954	-2.6233	-1.0233e-05	-2.28464e-05	7.1584e-06	-4.79835e-06	1.09898e-05	-1.86774e-05	-15.517	-75.6125	-15.0685	-5.35263	2.99292	-2.26498	
460	1580482316.040687202	0.00239619	-0.89508	2.13237	-2.79043	-1.56954	-2.6233	-1.0923e-05	-2.25855e-05	9.81794e-06	-2.30115e-06	8.99555e-06	-1.00343e-05	-15.517	-75.6124	-15.0683	-5.35262	2.99291	-2.26496	
461	1580482316.048726486	0.00239656	-0.89508	2.13237	-2.79043	-1.56954	-2.6233	-9.43829e-06	-2.23122e-05	1.4484e-05	9.56892e-08	9.19681e-06	-6.06856e-06	-15.5169	-75.6124	-15.0678	-2.5552	2.99291	-2.26495	
462	1580482316.056698681	0.00239571	-0.89508	2.13237	-2.79043	-1.56954	-2.6233	-1.22712e-05	-2.20274e-05	1.47016e-05	-4.05649e-06	9.37901e-06	-6.54482e-06	-15.517	-75.6124	-15.0678	-5.35262	2.99291	-2.26495	
463	1580482316.064693196	0.00239548	-0.895077	2.13237	-2.79043	-1.56954	-2.6233	-1.28441e-05	-1.1133e-05	1.27774e-05	-1.58977e-06	1.16624e-05	-2.71187e-06	-15.517	-75.6124	-15.0679	-5.35261	2.99291	-2.26493	
464	1580482316.072749871	0.00239587	-0.895079	2.13237	-2.79043	-1.56953	-2.62329	-1.12515e-05	-1.77001e-05	6.68586e-06	-1.42495e-06	1.17211e-05	3.16977e-06	-15.517	-75.6124	-15.0685	-5.35261	2.99292	2.25711	
465	1580482316.080708732	0.00239684	-0.895079	2.13237	-2.79043	-1.56953	-2.62329	-7.58593e-06	-1.75481e-05	5.07037e-06	9.34741e-07	1.1764e-05	6.60769e-06	-15.5169	-75.6124	-15.0687	-0.413017	2.99292	2.25712	
466	1580482316.088689231	0.0023972	-0.895078	2.13237	-2.79042	-1.56953	-2.62329	-6.18747e-06	-1.1044e-05	3.5177e-06	3.19675e-06	1.17916e-05	1.40333e-06	-15.5168	-75.6124	-15.0688	-0.246397	2.99292	2.2571	
467	1580482316.096711192	0.00239755	-0.895076	2.13237	-2.79043	-1.56953	-2.62329	-4.83985e-06	-6.90634e-06	1.04716e-05	-1.05524e-06	1.18045e-05	4.89924e-06	-15.5168	-75.6123	-15.0681	-5.35261	2.99291	2.25711	
468	1580482316.104666889	0.00239669	-0.895078	2.13237	-2.79042	-1.56953	-2.62329	-7.7829e-06	-1.14515e-05	1.50222e-05	3.38909e-06	1.18033e-05	8.2479e-06	-15.5169	-75.6123	-15.0677	-0.246396	2.99291	2.25712	
469	1580482316.112675474	0.00239765	-0.89508	2.13237	-2.79042	-1.56953	-2.62329	-4.24256e-06	-1.79053e-05	1.72656e-05	5.54096e-06	1.60026e-05	7.19586e-06	-15.5168	-75.6123	-15.0676	-0.246391	2.99293	2.25712	
470	1580482316.120691673	0.00239679	-0.89508	2.13237	-2.79042	-1.56953	-2.62329	-7.19086e-06	-1.97819e-05	1.51912e-05	9.7041e-06	1.15082e-05	-1.7623e-07	-15.5169	-75.6124	-15.0678	-0.246377	2.99291	-0.402372	
471	1580482316.128679161	0.00239715	-0.89508	2.13237	-2.79042	-1.56953	-2.62329	-5.78286e-06	-1.94581e-05	1.73933e-05	1.15843e-05	1.14742e-05	1.20792e-06	-15.5168	-75.6123	-15.0676	-0.24637	2.99291	2.25711	
472	1580482316.136730289	0.0023987	-0.89508	2.13237	-2.79042	-1.56953	-2.62329	-2.02439e-07	-1.91272e-05	1.73882e-05	1.11911e-05	1.35289e-05	6.86266e-06	-3.1412	-75.6123	-15.0676	-0.246372	2.99292	2.25712	
473	1580482316.144693485	0.00239961	-0.895079	2.13237	-2.79042	-1.56953	-2.62329	3.04061e-06	-1.45923e-05	1.52682e-05	1.08026e-05	1.33856e-05	5.85826e-06	15.5167	-75.6123	-15.0677	-0.246373	2.99292	2.25712	
474	1580482316.152694337	0.00239991	-0.89508	2.13237	-2.79042	-1.56953	-2.62329	4.04073e-06	-1.65168e-05	1.11239e-05	1.25995e-05	1.53293e-05	4.88987e-06	15.5168	-75.6123	-15.0681	-0.246368	2.99293	2.25711	
475	1580482316.160693597	0.0023996	-0.895079	2.13237	-2.79042	-1.56953	-2.62329	2.89067e-06	-1.20614e-05	1.13276e-05	1.21319e-05	1.50818e-05	6.05145e-06	15.5167	-75.6123	-15.0681	-0.246369	2.99292	2.25712	
476	1580482316.168691621	0.00240167	-0.895078	2.13237	-2.79042	-1.56953	-2.62329	1.01336e-05	-9.86721e-06	9.42006e-06	1.1671e-05	1.27349e-05	5.06784e-06	15.5169	-75.6123	-15.0682	-0.246369	2.99291	2.25711	
477	1580482316.176647149	0.00240072	-0.895078	2.13237	-2.79042	-1.56953	-2.62329	6.62927e-06	-9.84189e-06	5.49121e-06	1.54813e-05	1.04689e-05	2.0296e-06	15.5168	-75.6123	-15.0686	-0.246356	2.9929	2.25711	
478	1580482316.184620500	0.00240039	-0.895078	2.13237	-2.79042	-1.56953	-2.62329	5.36092e-06	-9.80656e-06	-4.63086e-06	1.27718e-05	8.28286e-06	1.20229e-06	15.5168	-75.6124	-15.0695	-0.246364	2.9929	2.2571	
479	1580482316.192646719	0.00240244	-0.895079	2.13237	-2.79042	-1.56954	-2.62329	1.24633e-05	-1.1848e-05	4.60884e-06	1.44157e-05	6.17553e-06	4.08194e-07	15.517	-75.6123	-15.0687	-0.246358	2.99289	0.919018	
480	1580482316.200744059	0.00240326	-0.895077	2.13237	-2.79042	-1.56954	-2.62329	1.51388e-05	-5.45594e-06	8.79133e-07	1.17258e-05	4.1458e-06	-2.43759e-06	15.5171	-75.6123	-15.069	-0.246365	2.99288	-2.26494	
481	1580482316.208698309	0.00240524	-0.895076	2.13237	-2.79042	-1.56954	-2.62329	2.18117e-05	-3.48194e-06	-4.78121e-06	1.12154e-05	-2.05533e-06	-9.99873e-07	15.5172	-75.6123	-15.0695	-0.246364	-2.17913	-2.26465	
482	1580482316.216668113	0.00240659	-0.895078	2.13237	-2.79042	-1.56954	-2.62329	2.61654e-05	-9.9877e-06	-6.0453e-06	8.63376e-06	2.48031e-06	3.81025e-07	15.5174	-75.6124	-15.0697	-0.246375	2.99288	0.857585	
483	1580482316.224701657	0.00240612	-0.895079	2.13237	-2.79042	-1.56954	-2.62329	2.40482e-05	-1.19781e-05	-3.09479e-06	1.03875e-05	-3.64726e-06	3.82586e-06	15.5173	-75.6124	-15.0694	-0.246366	-2.17913	2.25711	
484	1580482316.232702868	0.00240506	-0.895078	2.13237	-2.79042	-1.56954	-2.62329	1.99056e-05	-7.64563e-06	-2.60389e-07	1.41352e-05	-1.13621e-06	8.57348e-07	15.5172	-75.6123	-15.0691	-0.246355	-2.17913	1.93456	
485	1580482316.240715557	0.0024064	-0.895078	2.13237	-2.79042	-1.56954	-2.62329	2.42521e-05	-7.62864e-06	2.45987e-06	1.14103e-05	-5.0336e-06	2.15763e-06	15.5173	-75.6123	-15.0689	-0.246362	-2.17914	2.2571	
486	1580482316.248693037	0.00240533	-0.895076	2.13237	-2.79042	-1.56954	-2.62329	2.00648e-05	-1.3867e-06	7.14017e-06	8.784e-06	-6.61456e-06	1.33137e-06	15.5172	-75.6122	-15.0684	-0.246369	-2.17915	2.2571	
487	1580482316.256694696	0.00240488	-0.895076	2.13237	-2.79042	-1.56954	-2.62329	1.81082e-05	-1.60595e-06	9.55394e-06	1.0478e-05	-6.05644e-06	2.60815e-06	15.5172	-75.6122	-15.0682	-0.246363	-2.17915	2.25711	
488	1580482316.264722940	0.00240503	-0.895076	2.13237	-2.79042	-1.56954	-2.62329	1.82916e-05	2.54897e-07	9.79274e-06	9.94111e-06	-7.58498e-06	-3.05339e-07	15.5172	-58.1397	-15.0681	-0.246364	-2.17916	-0.69429	
489	1580482316.272678659	0.00240458	-0.895076	2.13237	-2.79042	-1.56954	-2.62329	1.63716e-05	-2.48265e-08	3.81394e-06	9.41529e-06	-6.97954e-06	-1.03361e-06	15.5171	-62.0345	-15.0687	-0.246366	-2.17915	-2.26493	
490	1580482316.280653000	0.00240354	-0.895074	2.13237	-2.79042	-1.56954	-2.62329	1.24371e-05	7.96529e-06	2.20266e-06	1.10474e-05	-8.45769e-06	2.43907e-06	15.517	-47.7653	-15.0688	-0.246359	-2.17916	2.25711	
491	1580482316.288689575	0.0024043	-0.895072	2.13237	-2.79042	-1.56954	-2.62329	1.48687e-05	1.35631e-05	8.9042e-06	1.26016e-05	-7.80695e-06	7.91411e-06	15.5171	-47.7652	-15.0681	-0.246353	-2.17917	2.25712	
492	1580482316.296722587	0.00240386	-0.895071	2.13237	-2.79042	-1.56954	-2.62329	1.30438e-05	1.68618e-05	1.12056e-05	1.40796e-05	-9.23675e-06	8.916e-06	15.517	-47.7652	-15.0679	-0.246346	-2.17918	2.25713	
493	1580482316.304723583	0.00240284	-0.895071	2.13237	-2.79042	-1.56954	-2.62329	9.2096e-06	1.58949e-05	1.13448e-05	1.54828e-05	-1.06011e-05	5.75227e-06	15.5169	-47.7652	-15.0679	-0.246341	-2.17918	2.25712	
494	1580482316.312721736	0.00240243	-0.895071	2.13237	-2.79042	-1.56954	-2.62329	7.58772e-06	1.49524e-05	1.14677e-05	1.88694e-05	-1.19014e-05	6.82406e-06	15.5169	-47.7652	-15.0678	-0.246329	-2.17919	2.25712	
495	1580482316.320732483	0.00240203	-0.895071	2.13237	-2.79042	-1.56954	-2.62329	6.02292e-06	1.40343e-05	9.52005e-06	1.58539e-05	-9.02972e-06	5.79174e-06	15.5168	-47.7652	-15.068	-0.24634	-2.17917	2.25712	
496	1580482316.328724125	0.00240163	-0.89507	2.13237	-2.79042	-1.56954	-2.62329	4.51439e-06	1.72454e-05	7.64196e-06	1.9183e-05	-6.26645e-06	6.84833e-06	15.5168	-47.7652	-15.0682	-0.24633	-2.17916	2.25712	
497	1580482316.336732275	0.00240124	-0.895072	2.13237	-2.79042	-1.56954	-2.62329	3.06131e-06	1.20263e-05	7.88298e-06	1.81744e-05	-5.66041e-06	3.75466e-06	15.5168	-47.7652	-15.0682	-0.246334	-2.17916	2.25711	
498	1580482316.344658743	0.00240146	-0.895072	2.13237	-2.79042	-1.56954	-2.62329	3.72241e-06	1.1186e-05	6.05802e-06	1.71874e-05	-7.12315e-06	6.96941e-06	15.5168	-47.7653	-15.0684	-0.246336	-2.17916	2.25712	
499	1580482316.352703771	0.00240107	-0.895075	2.13237	-2.79042	-1.56954	-2.62329	2.29456e-06	5.35612e-08	6.3476e-06	1.62218e-05	-6.47435e-06	7.96031e-06	15.5167	-60.943	-15.0684	-0.246339	-2.17915	2.25712	
500	1580482316.360664817	0.00240011	-0.895076	2.13237	-2.79042	-1.56954	-2.62329	-1.13471e-06	-2.36862e-06	1.07091e-05	1.94493e-05	2.88064e-07	8.90374e-06	-15.5167	-75.6122	-15.068	-0.246332	1.15179	2.25713	
501	1580482316.368687242	0.00239916	-0.895077	2.13237	-2.79042	-1.56954	-2.62329	-4.42577e-06	-4.69032e-06	1.48845e-05	1.83586e-05	-1.39492e-06	7.75772e-06	-15.5168	-75.6122	-15.0677	-0.246335	-2.17913	2.25712	
502	1580482316.376667868	0.00239824	-0.895076	2.13237	-2.79042	-1.56954	-2.62329	-7.58102e-06	-2.83131e-06	1.07133e-05	1.72923e-05	1.07216e-06	8.69142e-06	-15.5169	-75.6122	-15.068	-0.246339	2.99286	2.25713	
503	1580482316.384683953	0.00239852	-0.895077	2.13237	-2.79042	-1.56954	-2.62329	-6.50297e-06	-5.12189e-06	6.69932e-06	1.42112e-05	1.39878e-06	5.50096e-06	-15.5168	-75.6123	-15.0684	-0.246349	2.99287	2.25712	
504	1580482316.392683729	0.0023982	-0.895076	2.13237	-2.79042	-1.56954	-2.62329	-7.51084e-06	-3.24029e-06	8.95176e-06	1.74316e-05	-4.4833e-06	6.50791e-06	-15.5169	-75.6122	-15.0682	-0.246335	-2.17914	2.25712	
505	1580482316.400700232	0.00239848	-0.895078	2.13237	-2.79042	-1.56954	-2.62329	-6.42558e-06	-9.65317e-06	7.03419e-06	1.22811e-05	-8.09036e-06	1.36214e-06	-15.5168	-75.6123	-15.0684	-0.246351	-2.17915	2.2571	
506	1580482316.408665361	0.00239699	-0.895079	2.13237	-2.79042	-1.56954	-2.62329	-1.15112e-05	-1.3765e-05	9.25349e-06	1.35053e-05	-1.35791e-05	4.59614e-06	-15.517	-75.6123	-15.0682	-0.246344	-2.17917	2.25711	
507	1580482316.416681098	0.00239671	-0.89508	2.13237	-2.79042	-1.56954	-2.62329	-1.22975e-05	-1.55848e-05	9.34295e-06	1.66969e-05	-1.26593e-05	1.5606e-06	-15.517	-75.6123	-15.0682	-0.246335	-2.17917	2.25711	
508	1580482316.424633417	0.00239821	-0.895079	2.13237	-2.79042	-1.56954	-2.62329	-6.91956e-06	-1.12266e-05	1.14492e-05	1.77127e-05	-1.1765e-05	6.88581e-06	-15.5169	-75.6122	-15.068	-0.246331	-2.17917	2.25712	
509	1580482316.432685725	0.00239849	-0.895079	2.13237	-2.79042	-1.56954	-2.62329	-5.82836e-06	-1.31148e-05	1.34596e-05	1.86686e-05	-1.29237e-05	5.78571e-06	-15.5168	-75.6122	-15.0678	-0.246328	-2.17918	2.25712	
510	1580482316.440721388	0.00239642	-0.895083	2.13237	-2.79042	-1.56954	-2.62329	-1.29226e-05	-2.51244e-05	7.27221e-06	1.9566e-05	-9.97222e-06	8.81643e-06	-15.517	-75.6123	-15.0685	-0.246327	-2.17915	2.25712	
511	1580482316.448718541	0.00239616	-0.895082	2.13237	-2.79042	-1.56954	-2.62329	-1.36162e-05	-2.03541e-05	9.42159e-06	1.42533e-05	-7.13e-06	3.58035e-06	-15.5171	-75.6123	-15.0683	-0.246346	-2.17914	2.25711	
512	1580482316.456690514	0.0023959	-0.895082	2.13237	-2.79042	-1.56954	-2.62329	-1.42694e-05	-2.18207e-05	1.34976e-05	1.31818e-05	1.67139e-06	2.59476e-06	-15.5171	-75.6123	-15.0679	-0.246354	2.99287	2.25711	
513	1580482316.464730554	0.00239566	-0.895082	2.13237	-2.79042	-1.56954	-2.62329	-1.4883e-05	-1.91656e-05	1.7397e-05	1.01179e-05	2.03689e-06	1.64599e-06	-15.5171	-75.6122	-15.0675	-0.246363	2.99287	2.2571	
514	1580482316.472699363	0.00239601	-0.895081	2.13237	-2.79042	-1.56954	-2.62329	-1.34287e-05	-1.65969e-05	1.70861e-05	9.18314e-06	3.66688e-07	-1.28507e-06	-15.517	-75.6122	-15.0675	-0.246366	1.35513	-2.26493	
515	1580482316.480721158	0.00239635	-0.895081	2.13238	-2.79042	-1.56954	-2.62329	-1.20199e-05	-1.61302e-05	2.28205e-05	6.25797e-06	-1.2377e-06	-4.09784e-06	-15.517	-75.6122	-15.067	-0.246375	-2.17912	-2.26494	
516	1580482316.488742374	0.0023961	-0.895081	2.13238	-2.79042	-1.56954	-2.62329	-1.26815e-05	-1.56653e-05	2.22586e-05	3.44143e-06	-7.62543e-07	-7.0956e-07	-15.517	-75.6122	-15.0671	-0.246383	-1.56506	-1.60824	
517	1580482316.496737269	0.00239761	-0.895081	2.13238	-2.79042	-1.56954	-2.62329	-7.23352e-06	-1.52025e-05	2.77359e-05	6.85141e-06	3.71983e-06	-3.53529e-06	-15.5169	-75.6121	-15.0665	-0.246375	2.99288	-2.26494	
518	1580482316.504757203	0.00239909	-0.89508	2.13238	-2.79042	-1.56954	-2.6233	-1.99609e-06	-1.07196e-05	2.69335e-05	4.00249e-06	1.98559e-06	-6.24492e-06	-15.5167	-75.6121	-15.0666	-0.246383	2.99287	-2.26495	
