terrinbabu/Matlab/log_filtering/UR10_35_KF/fjt_3kg_lift_drop.txt
seq	time	q0	q1	q2	q3	q4	q5	Dq0	Dq1	Dq2	Dq3	Dq4	Dq5	eff0	eff1	eff2	eff3	eff4	eff5	
26	1580482312.264698709	0.00240508	-0.895042	2.13238	-2.79043	-1.56952	-2.62333	0	0	-0	0	0	0	0	0	-0	0	0	0	
27	1580482312.272698587	0.00238112	-0.895066	2.1324	-2.79044	-1.56951	-2.62331	0	0	-0	0	0	0	0	0	-0	0	0	0	
28	1580482312.280673643	0.0023931	-0.895054	2.13236	-2.79044	-1.56956	-2.62327	0	0	-0	0	0	0	0	0	-0	0	0	0	
29	1580482312.288668234	0.00238112	-0.895089	2.13235	-2.79041	-1.56954	-2.62331	0	0	-0	0	0	0	0	0	-0	0	0	0	
30	1580482312.296674280	0.00238112	-0.895078	2.13235	-2.79043	-1.56954	-2.62332	0	0	-0	0	0	0	0	0	-0	0	0	0	
31	1580482312.304669129	0.00241707	-0.895066	2.13237	-2.79043	-1.56952	-2.62331	0	0	-0	0	0	0	0	0	-0	0	0	0	
32	1580482312.312672740	0.0023931	-0.895054	2.13235	-2.79044	-1.56952	-2.62327	0	0	-0	0	0	0	0	0	-0	0	0	0	
33	1580482312.320693813	0.00238112	-0.895066	2.13235	-2.79043	-1.56952	-2.62327	0	0	-0	0	0	0	0	0	-0	0	0	0	
34	1580482312.328723097	0.0023931	-0.895078	2.13241	-2.79044	-1.56952	-2.6233	0	0	-0	0	0	0	0	0	-0	0	0	0	
35	1580482312.336690503	0.00236913	-0.895102	2.13236	-2.79045	-1.56956	-2.62325	0	0	-0	0	0	0	0	0	-0	0	0	0	
36	1580482312.344690082	0.0023931	-0.895066	2.13236	-2.7904	-1.56954	-2.62327	0	0	-0	0	0	0	0	0	-0	0	0	0	
37	1580482312.352676028	0.0023931	-0.895042	2.13242	-2.79043	-1.56955	-2.6233	0	0	-0	0	0	0	0	0	-0	0	0	0	
38	1580482312.360752229	0.0023931	-0.895089	2.13238	-2.79041	-1.56952	-2.62332	0	0	-0	0	0	0	0	0	-0	0	0	0	
39	1580482312.368744982	0.00240508	-0.895078	2.13238	-2.79041	-1.56955	-2.62327	0	0	-0	0	0	0	0	0	-0	0	0	0	
40	1580482312.376709651	0.00240508	-0.895089	2.13235	-2.79043	-1.56956	-2.6233	0	0	-0	0	0	0	0	0	-0	0	0	0	
41	1580482312.384704023	0.00233318	-0.895102	2.13241	-2.79041	-1.56952	-2.62327	0	0	-0	0	0	0	0	0	-0	0	0	0	
42	1580482312.392839386	0.00241707	-0.895066	2.13232	-2.79043	-1.56957	-2.6233	0	0	-0	0	0	0	0	0	-0	0	0	0	
43	1580482312.400720091	0.00236913	-0.895089	2.13234	-2.79045	-1.56954	-2.62327	0	0	-0	0	0	0	0	0	-0	0	0	0	
44	1580482312.408666070	0.00240508	-0.895078	2.13234	-2.79043	-1.56957	-2.62331	0	0	-0	0	0	0	0	0	-0	0	0	0	
45	1580482312.416684190	0.0023931	-0.895066	2.13234	-2.79046	-1.56952	-2.62326	0	0	-0	0	0	0	0	0	-0	0	0	0	
46	1580482312.424724936	0.00238112	-0.895066	2.13236	-2.7904	-1.56954	-2.62329	0	0	-0	0	0	0	0	0	-0	0	0	0	
47	1580482312.432687319	0.0023931	-0.895102	2.13234	-2.79043	-1.56955	-2.62331	0	0	-0	0	0	0	0	0	-0	0	0	0	
48	1580482312.440703785	0.00240508	-0.895054	2.13238	-2.7904	-1.56955	-2.62326	0	0	-0	0	0	0	0	0	-0	0	0	0	
49	1580482312.448669259	0.0023931	-0.895078	2.1324	-2.79041	-1.56956	-2.62329	0	0	-0	0	0	0	0	0	-0	0	0	0	
50	1580482312.456703361	0.00236913	-0.895089	2.13234	-2.79041	-1.56954	-2.62332	0	0	-0	0	0	0	0	0	-0	0	0	0	
51	1580482312.464674097	0.00240508	-0.895089	2.13237	-2.79041	-1.56952	-2.62335	0	0	-0	0	0	0	0	0	-0	0	0	0	
52	1580482312.472698684	0.0023931	-0.895078	2.13232	-2.79041	-1.56952	-2.62327	0	0	-0	0	0	0	0	0	-0	0	0	0	
53	1580482312.480707801	0.00236913	-0.895054	2.13238	-2.79043	-1.56954	-2.62327	0	0	-0	0	0	0	0	0	-0	0	0	0	
54	1580482312.488697156	0.00241707	-0.895042	2.13238	-2.79043	-1.56955	-2.62331	0	0	-0	0	0	0	0	0	-0	0	0	0	
55	1580482312.496700436	0.00235715	-0.895066	2.13237	-2.79043	-1.56952	-2.62331	0	0	-0	0	0	0	0	0	-0	0	0	0	
56	1580482312.504702265	0.00241707	-0.895066	2.13231	-2.79041	-1.56955	-2.62327	0	0	-0	0	0	0	0	0	-0	0	0	0	
57	1580482312.512668834	0.00241707	-0.895102	2.13237	-2.79044	-1.56955	-2.62333	0	0	-0	0	0	0	0	0	-0	0	0	0	
58	1580482312.520875975	0.0023931	-0.895102	2.13242	-2.79045	-1.56954	-2.62329	0	0	-0	0	0	0	0	0	-0	0	0	0	
59	1580482312.528714288	0.00241707	-0.895054	2.13236	-2.79043	-1.56954	-2.62329	0	0	-0	0	0	0	0	0	-0	0	0	0	
60	1580482312.536702887	0.0023931	-0.895114	2.1324	-2.79043	-1.56954	-2.62325	0	0	-0	0	0	0	0	0	-0	0	0	0	
61	1580482312.544738767	0.0023931	-0.895066	2.13234	-2.79043	-1.56951	-2.62332	0	0	-0	0	0	0	0	0	-0	0	0	0	
62	1580482312.552695875	0.0023931	-0.895114	2.13237	-2.79043	-1.56955	-2.62332	0	0	-0	0	0	0	0	0	-0	0	0	0	
63	1580482312.560682220	0.0023931	-0.895089	2.13238	-2.7904	-1.56955	-2.62327	0	0	-0	0	0	0	0	0	-0	0	0	0	
64	1580482312.568700053	0.00240508	-0.895078	2.13238	-2.79041	-1.56952	-2.62331	0	0	-0	0	0	0	0	0	-0	0	0	0	
65	1580482312.576700157	0.00241707	-0.895102	2.13238	-2.79041	-1.56957	-2.62326	0	0	-0	0	0	0	0	0	-0	0	0	0	
66	1580482312.584728268	0.00242905	-0.895102	2.13238	-2.79041	-1.56955	-2.6233	0	0	-0	0	0	0	0	0	-0	0	0	0	
67	1580482312.592704480	0.0023931	-0.895066	2.13236	-2.79043	-1.56952	-2.6233	0	0	-0	0	0	0	0	0	-0	0	0	0	
68	1580482312.600690589	0.00235715	-0.895042	2.13236	-2.79044	-1.56955	-2.62327	0	0	-0	0	0	0	0	0	-0	0	0	0	
69	1580482312.608707753	0.00240508	-0.895089	2.13236	-2.79041	-1.56956	-2.62332	0	0	-0	0	0	0	0	0	-0	0	0	0	
70	1580482312.616716150	0.00240508	-0.895042	2.13236	-2.79043	-1.56954	-2.62331	0	0	-0	0	0	0	0	0	-0	0	0	0	
71	1580482312.624675396	0.00242905	-0.895078	2.1324	-2.79043	-1.56954	-2.62327	0	0	-0	0	0	0	0	0	-0	0	0	0	
72	1580482312.632702998	0.0023931	-0.895066	2.1324	-2.79043	-1.56954	-2.62331	0	0	-0	0	0	0	0	0	-0	0	0	0	
73	1580482312.640693961	0.0023931	-0.895042	2.13242	-2.79045	-1.56955	-2.6233	0	0	-0	0	0	0	0	0	-0	0	0	0	
74	1580482312.648770535	0.00238112	-0.895089	2.13238	-2.79041	-1.56955	-2.62329	0	0	-0	0	0	0	0	0	-0	0	0	0	
75	1580482312.656677487	0.00238112	-0.895102	2.13237	-2.79043	-1.56955	-2.62333	0	0	-0	0	0	0	0	0	-0	0	0	0	
76	1580482312.664701318	0.0023931	-0.895054	2.13238	-2.79045	-1.56951	-2.6233	0	0	-0	0	0	0	0	0	-0	0	0	0	
77	1580482312.672632952	0.0023931	-0.895089	2.13236	-2.79041	-1.56951	-2.62329	0	0	-0	0	0	0	0	0	-0	0	0	0	
78	1580482312.680634881	0.0023931	-0.895054	2.13235	-2.79044	-1.56956	-2.6233	0	0	-0	0	0	0	0	0	-0	0	0	0	
79	1580482312.688609534	0.00242905	-0.895042	2.13236	-2.79043	-1.56952	-2.62327	0	0	-0	0	0	0	0	0	-0	0	0	0	
80	1580482312.696663641	0.00238112	-0.895066	2.13237	-2.79045	-1.56952	-2.62331	0	0	-0	0	0	0	0	0	-0	0	0	0	
81	1580482312.704655356	0.00244066	-0.895089	2.13237	-2.79044	-1.56952	-2.62331	0	0	-0	0	0	0	0	0	-0	0	0	0	
82	1580482312.712663524	0.0023931	-0.895042	2.13238	-2.79043	-1.56952	-2.62327	0	0	-0	0	0	0	0	0	-0	0	0	0	
83	1580482312.720656039	0.00238112	-0.895078	2.13236	-2.79044	-1.56955	-2.62331	0	0	-0	0	0	0	0	0	-0	0	0	0	
84	1580482312.728670151	0.0023931	-0.895114	2.13237	-2.79041	-1.56956	-2.62329	0	0	-0	0	0	0	0	0	-0	0	0	0	
85	1580482312.736669218	0.00238112	-0.895054	2.13234	-2.79043	-1.56955	-2.6233	0	0	-0	0	0	0	0	0	-0	0	0	0	
86	1580482312.744680719	0.0023931	-0.895102	2.13237	-2.79043	-1.56955	-2.6233	0	0	-0	0	0	0	0	0	-0	0	0	0	
87	1580482312.752671866	0.00238112	-0.895066	2.13235	-2.79044	-1.56955	-2.62327	0	0	-0	0	0	0	0	0	-0	0	0	0	
88	1580482312.760692777	0.00241707	-0.895102	2.13238	-2.79043	-1.56954	-2.62325	0	0	-0	0	0	0	0	0	-0	0	0	0	
89	1580482312.768696427	0.0023931	-0.895066	2.13238	-2.79043	-1.56954	-2.62325	0	0	-0	0	0	0	0	0	-0	0	0	0	
90	1580482312.776734609	0.0023931	-0.895078	2.13238	-2.79043	-1.56954	-2.62329	0	0	-0	0	0	0	0	0	-0	0	0	0	
91	1580482312.784677623	0.00240508	-0.895054	2.13235	-2.79045	-1.56957	-2.6233	0	0	-0	0	0	0	0	0	-0	0	0	0	
92	1580482312.792705848	0.0023931	-0.895066	2.13235	-2.79045	-1.56956	-2.62331	0	0	-0	0	0	0	0	0	-0	0	0	0	
93	1580482312.800708230	0.00236913	-0.895078	2.13237	-2.79044	-1.56952	-2.62327	0	0	-0	0	0	0	0	0	-0	0	0	0	
94	1580482312.808771909	0.00238112	-0.895078	2.13236	-2.79044	-1.56955	-2.62332	0	0	-0	0	0	0	0	0	-0	0	0	0	
95	1580482312.816725517	0.00236913	-0.895066	2.13235	-2.79043	-1.56952	-2.62329	0	0	-0	0	0	0	0	0	-0	0	0	0	
96	1580482312.824693723	0.00241707	-0.895078	2.13234	-2.79043	-1.56954	-2.62332	0	0	-0	0	0	0	0	0	-0	0	0	0	
97	1580482312.832698707	0.00240508	-0.895066	2.13235	-2.79044	-1.56955	-2.6233	0	0	-0	0	0	0	0	0	-0	0	0	0	
98	1580482312.840762177	0.00240508	-0.895054	2.13237	-2.79043	-1.56955	-2.62331	0	0	-0	0	0	0	0	0	-0	0	0	0	
99	1580482312.848732871	0.00241707	-0.895078	2.13241	-2.79041	-1.56954	-2.62329	0	0	-0	0	0	0	0	0	-0	0	0	0	
100	1580482312.856708142	0.00240508	-0.895054	2.13238	-2.79044	-1.56956	-2.62333	0	0	-0	0	0	0	0	0	-0	0	0	0	
101	1580482312.864726677	0.00242905	-0.895102	2.13236	-2.79043	-1.56951	-2.62329	0	0	-0	0	0	0	0	0	-0	0	0	0	
102	1580482312.872731961	0.0023931	-0.895089	2.13236	-2.79041	-1.56956	-2.6233	0	0	-0	0	0	0	0	0	-0	0	0	0	
103	1580482312.880693935	0.00236913	-0.895066	2.13237	-2.79044	-1.56954	-2.6233	0	0	-0	0	0	0	0	0	-0	0	0	0	
104	1580482312.888694372	0.00241707	-0.895089	2.13238	-2.79041	-1.56952	-2.62331	0	0	-0	0	0	0	0	0	-0	0	0	0	
105	1580482312.896708740	0.00241707	-0.895042	2.13235	-2.79044	-1.56952	-2.62329	0	0	-0	0	0	0	0	0	-0	0	0	0	
106	1580482312.904684436	0.00240508	-0.895102	2.13236	-2.79043	-1.5695	-2.6233	0	0	-0	0	0	0	0	0	-0	0	0	0	
107	1580482312.912688464	0.00236913	-0.895089	2.13241	-2.79043	-1.56955	-2.62331	0	0	-0	0	0	0	0	0	-0	0	0	0	
108	1580482312.920702847	0.0023931	-0.895114	2.13238	-2.79045	-1.56955	-2.62327	0	0	-0	0	0	0	0	0	-0	0	0	0	
109	1580482312.928670524	0.00240508	-0.895078	2.1324	-2.79043	-1.56951	-2.6233	0	0	-0	0	0	0	0	0	-0	0	0	0	
110	1580482312.936729910	0.00241707	-0.89503	2.1324	-2.79043	-1.56954	-2.6233	0	0	-0	0	0	0	0	0	-0	0	0	0	
111	1580482312.944689241	0.00238112	-0.895114	2.13235	-2.79043	-1.56955	-2.62327	0	0	-0	0	0	0	0	0	-0	0	0	0	
112	1580482312.952668093	0.00241707	-0.895054	2.13237	-2.79045	-1.56957	-2.62332	0	0	-0	0	0	0	0	0	-0	0	0	0	
113	1580482312.960689528	0.00238112	-0.895102	2.13237	-2.79041	-1.56952	-2.62331	0	0	-0	0	0	0	0	0	-0	0	0	0	
114	1580482312.968734166	0.00238112	-0.895066	2.13237	-2.79045	-1.56952	-2.62332	0	0	-0	0	0	0	0	0	-0	0	0	0	
115	1580482312.976688587	0.00240508	-0.895078	2.13234	-2.7904	-1.56952	-2.62331	0	0	-0	0	0	0	0	0	-0	0	0	0	
116	1580482312.984686360	0.00238112	-0.895089	2.13234	-2.79045	-1.56957	-2.6233	0	0	-0	0	0	0	0	0	-0	0	0	0	
117	1580482312.992692097	0.00240508	-0.895078	2.13241	-2.79041	-1.56952	-2.62326	0	0	-0	0	0	0	0	0	-0	0	0	0	
118	1580482313.000707668	0.00240508	-0.895066	2.13235	-2.79043	-1.56955	-2.62331	0	0	-0	0	0	0	0	0	-0	0	0	0	
119	1580482313.008639282	0.00241707	-0.895102	2.13236	-2.79043	-1.56958	-2.62332	0	0	-0	0	0	0	0	0	-0	0	0	0	
120	1580482313.016677810	0.00242905	-0.895102	2.13235	-2.79044	-1.56952	-2.62331	0	0	-0	0	0	0	0	0	-0	0	0	0	
121	1580482313.024668292	0.0023931	-0.895066	2.13236	-2.79041	-1.56952	-2.62329	0	0	-0	0	0	0	0	0	-0	0	0	0	
122	1580482313.032686817	0.0023931	-0.895066	2.13235	-2.79043	-1.56954	-2.6233	0	0	-0	0	0	0	0	0	-0	0	0	0	
123	1580482313.040689021	0.0023931	-0.895066	2.13236	-2.7904	-1.56954	-2.62327	0	0	-0	0	0	0	0	0	-0	0	0	0	
124	1580482313.048665529	0.00238112	-0.895078	2.13235	-2.79043	-1.56951	-2.62331	0	0	-0	0	0	0	0	0	-0	0	0	0	
125	1580482313.056699240	0.00240508	-0.895089	2.13238	-2.7904	-1.56951	-2.62332	0	0	-0	0	0	0	0	0	-0	0	0	0	
126	1580482313.064656700	0.00240508	-0.895042	2.13238	-2.79039	-1.56952	-2.62332	0	0	-0	0	0	0	0	0	-0	0	0	0	
127	1580482313.072696004	0.00240508	-0.895089	2.13237	-2.79043	-1.56955	-2.62327	0	0	-0	0	0	0	0	0	-0	0	0	0	
128	1580482313.080668153	0.00238112	-0.895066	2.13238	-2.79043	-1.56955	-2.62331	0	0	-0	0	0	0	0	0	-0	0	0	0	
129	1580482313.088691222	0.00240508	-0.895054	2.13238	-2.79045	-1.56951	-2.62331	0	0	-0	0	0	0	0	0	-0	0	0	0	
130	1580482313.096683347	0.00241707	-0.895066	2.13237	-2.7904	-1.56952	-2.62331	0	0	-0	0	0	0	0	0	-0	0	0	0	
131	1580482313.104696346	0.0023931	-0.895078	2.13236	-2.79041	-1.56954	-2.62329	0	0	-0	0	0	0	0	0	-0	0	0	0	
132	1580482313.112659715	0.00238112	-0.895066	2.13236	-2.79043	-1.56955	-2.6233	0	0	-0	0	0	0	0	0	-0	0	0	0	
133	1580482313.120632920	0.00241707	-0.895078	2.1324	-2.79046	-1.56955	-2.62327	0	0	-0	0	0	0	0	0	-0	0	0	0	
134	1580482313.128692844	0.00242905	-0.895089	2.13241	-2.79044	-1.56951	-2.6233	0	0	-0	0	0	0	0	0	-0	0	0	0	
135	1580482313.136659107	0.00238112	-0.895054	2.13236	-2.79043	-1.56954	-2.62327	0	0	-0	0	0	0	0	0	-0	0	0	0	
136	1580482313.144618925	0.00236913	-0.895078	2.13237	-2.79043	-1.56955	-2.62326	0	0	-0	0	0	0	0	0	-0	0	0	0	
137	1580482313.152618455	0.00236913	-0.895066	2.13236	-2.79041	-1.56955	-2.62329	0	0	-0	0	0	0	0	0	-0	0	0	0	
138	1580482313.160694382	0.0023931	-0.895066	2.13237	-2.79043	-1.56951	-2.62329	0	0	-0	0	0	0	0	0	-0	0	0	0	
139	1580482313.168670557	0.00240508	-0.895102	2.13241	-2.79045	-1.56956	-2.62331	0	0	-0	0	0	0	0	0	-0	0	0	0	
140	1580482313.176659833	0.00238112	-0.895054	2.13236	-2.79043	-1.56955	-2.62332	0	0	-0	0	0	0	0	0	-0	0	0	0	
141	1580482313.184634037	0.00238112	-0.895078	2.13241	-2.79043	-1.56951	-2.62329	0	0	-0	0	0	0	0	0	-0	0	0	0	
142	1580482313.193269056	0.00240508	-0.895042	2.13237	-2.79044	-1.56954	-2.6233	0	0	-0	0	0	0	0	0	-0	0	0	0	
143	1580482313.200665726	0.00238112	-0.895078	2.13234	-2.79043	-1.56955	-2.62331	0	0	-0	0	0	0	0	0	-0	0	0	0	
144	1580482313.208631439	0.00240508	-0.895078	2.13238	-2.79044	-1.56956	-2.62332	0	0	-0	0	0	0	0	0	-0	0	0	0	
145	1580482313.216645168	0.00240508	-0.895066	2.13236	-2.79043	-1.56956	-2.6233	0	0	-0	0	0	0	0	0	-0	0	0	0	
146	1580482313.224684189	0.00244066	-0.895066	2.13237	-2.79039	-1.56954	-2.62329	0	0	-0	0	0	0	0	0	-0	0	0	0	
147	1580482313.232659791	0.00240508	-0.895066	2.13241	-2.79045	-1.56957	-2.62332	0	0	-0	0	0	0	0	0	-0	0	0	0	
148	1580482313.240652201	0.00240508	-0.895054	2.13241	-2.79041	-1.56952	-2.62332	0	0	-0	0	0	0	0	0	-0	0	0	0	
149	1580482313.248683349	0.00240508	-0.895066	2.13236	-2.79045	-1.56956	-2.6233	0	0	-0	0	0	0	0	0	-0	0	0	0	
150	1580482313.256789850	0.0023931	-0.895089	2.13241	-2.79041	-1.56955	-2.62331	0	0	-0	0	0	0	0	0	-0	0	0	0	
151	1580482313.264659933	0.00236913	-0.895066	2.13237	-2.79044	-1.56951	-2.6233	0	0	-0	0	0	0	0	0	-0	0	0	0	
152	1580482313.272697811	0.0023931	-0.895066	2.13232	-2.79043	-1.56952	-2.6233	0	0	-0	0	0	0	0	0	-0	0	0	0	
153	1580482313.280699697	0.00240508	-0.895078	2.13237	-2.79043	-1.56955	-2.62327	0	0	-0	0	0	0	0	0	-0	0	0	0	
154	1580482313.288805110	0.00238112	-0.895078	2.13236	-2.79043	-1.56956	-2.6233	0	0	-0	0	0	0	0	0	-0	0	0	0	
155	1580482313.296695874	0.0023931	-0.895066	2.1324	-2.79043	-1.56955	-2.6233	0	0	-0	0	0	0	0	0	-0	0	0	0	
156	1580482313.304693915	0.00238112	-0.895054	2.13235	-2.79043	-1.56956	-2.62329	0	0	-0	0	0	0	0	0	-0	0	0	0	
157	1580482313.312696033	0.0023931	-0.895078	2.13241	-2.79044	-1.56951	-2.62331	0	0	-0	0	0	0	0	0	-0	0	0	0	
158	1580482313.320715294	0.00238112	-0.895102	2.13236	-2.79043	-1.56954	-2.62331	0	0	-0	0	0	0	0	0	-0	0	0	0	
159	1580482313.328702917	0.00242905	-0.895089	2.1324	-2.79043	-1.56954	-2.62329	0	0	-0	0	0	0	0	0	-0	0	0	0	
160	1580482313.336694921	0.0023931	-0.895102	2.13236	-2.79043	-1.56951	-2.62332	0	0	-0	0	0	0	0	0	-0	0	0	0	
161	1580482313.344653297	0.00240508	-0.895054	2.13241	-2.7904	-1.56951	-2.62332	0	0	-0	0	0	0	0	0	-0	0	0	0	
162	1580482313.352709569	0.00240508	-0.895042	2.13237	-2.79045	-1.56956	-2.62326	0	0	-0	0	0	0	0	0	-0	0	0	0	
163	1580482313.360714938	0.00240508	-0.895066	2.1324	-2.79045	-1.56951	-2.62327	0	0	-0	0	0	0	0	0	-0	0	0	0	
164	1580482313.368646437	0.00242905	-0.895078	2.13237	-2.79044	-1.56956	-2.62327	0	0	-0	0	0	0	0	0	-0	0	0	0	
165	1580482313.376684587	0.0023931	-0.895066	2.13238	-2.79043	-1.56951	-2.62327	0	0	-0	0	0	0	0	0	-0	0	0	0	
166	1580482313.384731033	0.00236913	-0.895042	2.13241	-2.79044	-1.56955	-2.62329	0	0	-0	0	0	0	0	0	-0	0	0	0	
167	1580482313.392724573	0.0023931	-0.895054	2.13237	-2.79044	-1.56955	-2.62329	0	0	-0	0	0	0	0	0	-0	0	0	0	
168	1580482313.400692009	0.00242905	-0.895078	2.13236	-2.79043	-1.56958	-2.6233	0	0	-0	0	0	0	0	0	-0	0	0	0	
169	1580482313.408694450	0.0023931	-0.895089	2.13237	-2.79045	-1.5695	-2.62329	0	0	-0	0	0	0	0	0	-0	0	0	0	
170	1580482313.416784929	0.0023931	-0.89503	2.13235	-2.79043	-1.56954	-2.62325	0	0	-0	0	0	0	0	0	-0	0	0	0	
171	1580482313.424700423	0.00238112	-0.895054	2.13235	-2.79043	-1.56955	-2.62325	0	0	-0	0	0	0	0	0	-0	0	0	0	
172	1580482313.432650634	0.0023931	-0.89503	2.13237	-2.79044	-1.56955	-2.62329	0	0	-0	0	0	0	0	0	-0	0	0	0	
173	1580482313.440675429	0.00238112	-0.895102	2.13235	-2.79041	-1.56955	-2.62329	0	0	-0	0	0	0	0	0	-0	0	0	0	
174	1580482313.448735808	0.0023931	-0.895054	2.13238	-2.7904	-1.56955	-2.6233	0	0	-0	0	0	0	0	0	-0	0	0	0	
175	1580482313.456696229	0.00236913	-0.895078	2.13238	-2.79043	-1.56954	-2.6233	0	0	-0	0	0	0	0	0	-0	0	0	0	
176	1580482313.464669581	0.00241707	-0.895066	2.13232	-2.79043	-1.56955	-2.62333	0	0	-0	0	0	0	0	0	-0	0	0	0	
177	1580482313.472692064	0.00236913	-0.895089	2.13236	-2.79043	-1.56954	-2.6233	0	0	-0	0	0	0	0	0	-0	0	0	0	
178	1580482313.480695830	0.00241707	-0.895042	2.13236	-2.7904	-1.56954	-2.62326	0	0	-0	0	0	0	0	0	-0	0	0	0	
179	1580482313.488686054	0.00236913	-0.895078	2.13238	-2.79043	-1.56958	-2.6233	0	0	-0	0	0	0	0	0	-0	0	0	0	
180	1580482313.496698293	0.00240508	-0.895078	2.13238	-2.7904	-1.56952	-2.62331	0	0	-0	0	0	0	0	0	-0	0	0	0	
181	1580482313.504698201	0.00236913	-0.895066	2.13241	-2.79041	-1.56956	-2.62326	0	0	-0	0	0	0	0	0	-0	0	0	0	
182	1580482313.512683327	0.0023931	-0.895089	2.13238	-2.79043	-1.56955	-2.62327	0	0	-0	0	0	0	0	0	-0	0	0	0	
183	1580482313.520692263	0.00235715	-0.895089	2.13236	-2.79041	-1.56956	-2.62329	0	0	-0	0	0	0	0	0	-0	0	0	0	
184	1580482313.528641433	0.0023931	-0.895102	2.13237	-2.79044	-1.56956	-2.6233	0	0	-0	0	0	0	0	0	-0	0	0	0	
185	1580482313.536710936	0.0023931	-0.895066	2.13238	-2.79043	-1.56957	-2.62332	0	0	-0	0	0	0	0	0	-0	0	0	0	
186	1580482313.544681444	0.00238112	-0.895078	2.1324	-2.79043	-1.56955	-2.62327	0	0	-0	0	0	0	0	0	-0	0	0	0	
187	1580482313.552690947	0.00238112	-0.895078	2.13235	-2.79044	-1.56955	-2.62326	0	0	-0	0	0	0	0	0	-0	0	0	0	
188	1580482313.560679731	0.00240508	-0.895078	2.13238	-2.79041	-1.56954	-2.6233	0	0	-0	0	0	0	0	0	-0	0	0	0	
189	1580482313.568710228	0.0023931	-0.895102	2.13235	-2.7904	-1.56955	-2.62326	0	0	-0	0	0	0	0	0	-0	0	0	0	
190	1580482313.576681053	0.00244066	-0.895089	2.13236	-2.79043	-1.56954	-2.62327	0	0	-0	0	0	0	0	0	-0	0	0	0	
191	1580482313.584673172	0.00238112	-0.895102	2.13236	-2.79043	-1.56955	-2.6233	0	0	-0	0	0	0	0	0	-0	0	0	0	
192	1580482313.592698303	0.00238112	-0.895078	2.1324	-2.79041	-1.56949	-2.62329	0	0	-0	0	0	0	0	0	-0	0	0	0	
193	1580482313.600698883	0.0023931	-0.895089	2.13236	-2.79043	-1.56951	-2.62331	0	0	-0	0	0	0	0	0	-0	0	0	0	
194	1580482313.608670697	0.00242905	-0.895042	2.13236	-2.79044	-1.56957	-2.6233	0	0	-0	0	0	0	0	0	-0	0	0	0	
195	1580482313.616658540	0.00236913	-0.895089	2.13237	-2.79044	-1.56955	-2.62327	0	0	-0	0	0	0	0	0	-0	0	0	0	
196	1580482313.624699566	0.00238112	-0.895102	2.13237	-2.79041	-1.56956	-2.6233	0	0	-0	0	0	0	0	0	-0	0	0	0	
197	1580482313.632718532	0.0023931	-0.895078	2.13237	-2.79044	-1.56954	-2.62331	0	0	-0	0	0	0	0	0	-0	0	0	0	
198	1580482313.640771648	0.00241707	-0.895078	2.13237	-2.79043	-1.56955	-2.6233	0	0	-0	0	0	0	0	0	-0	0	0	0	
199	1580482313.648700852	0.00242905	-0.895078	2.13237	-2.79041	-1.56955	-2.62326	0	0	-0	0	0	0	0	0	-0	0	0	0	
200	1580482313.656692138	0.00238112	-0.895089	2.13236	-2.79044	-1.56955	-2.62329	0	0	-0	0	0	0	0	0	-0	0	0	0	
201	1580482313.664664272	0.0023931	-0.895066	2.13235	-2.79041	-1.56951	-2.6233	0	0	-0	0	0	0	0	0	-0	0	0	0	
202	1580482313.672746302	0.00240508	-0.895078	2.1324	-2.79046	-1.56952	-2.62329	0	0	-0	0	0	0	0	0	-0	0	0	0	
203	1580482313.680712444	0.00240508	-0.895054	2.13238	-2.79044	-1.56955	-2.6233	0	0	-0	0	0	0	0	0	-0	0	0	0	
204	1580482313.688689233	0.00241707	-0.895078	2.13236	-2.79043	-1.56955	-2.6233	0	0	-0	0	0	0	0	0	-0	0	0	0	
205	1580482313.696658112	0.00240508	-0.895078	2.13236	-2.79044	-1.56951	-2.6233	0	0	-0	0	0	0	0	0	-0	0	0	0	
206	1580482313.704727674	0.00238112	-0.895089	2.13236	-2.79041	-1.56956	-2.62326	0	0	-0	0	0	0	0	0	-0	0	0	0	
207	1580482313.712720577	0.00240508	-0.895078	2.13237	-2.79044	-1.56954	-2.62327	0	0	-0	0	0	0	0	0	-0	0	0	0	
208	1580482313.720700473	0.00236913	-0.895102	2.13236	-2.79044	-1.56951	-2.62327	0	0	-0	0	0	0	0	0	-0	0	0	0	
209	1580482313.728711343	0.00240508	-0.895078	2.13234	-2.79041	-1.56957	-2.62331	0	0	-0	0	0	0	0	0	-0	0	0	0	
210	1580482313.736772646	0.00244066	-0.895102	2.13237	-2.79043	-1.56956	-2.62329	0	0	-0	0	0	0	0	0	-0	0	0	0	
211	1580482313.744705714	0.0023931	-0.895089	2.13241	-2.79044	-1.56956	-2.62327	0	0	-0	0	0	0	0	0	-0	0	0	0	
212	1580482313.752714929	0.00236913	-0.895066	2.13237	-2.79044	-1.56954	-2.62332	0	0	-0	0	0	0	0	0	-0	0	0	0	
213	1580482313.760664645	0.00236913	-0.895078	2.13234	-2.79045	-1.56954	-2.62329	0	0	-0	0	0	0	0	0	-0	0	0	0	
214	1580482313.768741176	0.00238112	-0.895102	2.13236	-2.79041	-1.56956	-2.62331	0	0	-0	0	0	0	0	0	-0	0	0	0	
215	1580482313.776657117	0.00240508	-0.895078	2.13238	-2.79041	-1.56954	-2.62329	0	0	-0	0	0	0	0	0	-0	0	0	0	
216	1580482313.784701067	0.00241707	-0.895054	2.13236	-2.79041	-1.56957	-2.6233	0	0	-0	0	0	0	0	0	-0	0	0	0	
217	1580482313.792717524	0.00241707	-0.895078	2.13236	-2.79044	-1.56954	-2.6233	0	0	-0	0	0	0	0	0	-0	0	0	0	
218	1580482313.800723340	0.0023931	-0.895042	2.13242	-2.7904	-1.56954	-2.6233	0	0	-0	0	0	0	0	0	-0	0	0	0	
219	1580482313.808693825	0.0023931	-0.895054	2.13241	-2.79043	-1.56954	-2.62331	0	0	-0	0	0	0	0	0	-0	0	0	0	
220	1580482313.816705817	0.00238112	-0.895078	2.13238	-2.79041	-1.56954	-2.62329	0	0	-0	0	0	0	0	0	-0	0	0	0	
221	1580482313.824697833	0.0023931	-0.895042	2.13237	-2.79043	-1.56957	-2.62329	0	0	-0	0	0	0	0	0	-0	0	0	0	
222	1580482313.832728586	0.0023931	-0.895102	2.13238	-2.79043	-1.56952	-2.6233	0	0	-0	0	0	0	0	0	-0	0	0	0	
223	1580482313.840694830	0.00238112	-0.895102	2.13235	-2.7904	-1.56955	-2.6233	0	0	-0	0	0	0	0	0	-0	0	0	0	
224	1580482313.848694502	0.00240508	-0.895054	2.1324	-2.7904	-1.56955	-2.6233	0	0	-0	0	0	0	0	0	-0	0	0	0	
225	1580482313.856709474	0.0023931	-0.895078	2.1324	-2.79044	-1.56955	-2.6233	0	0	-0	0	0	0	0	0	-0	0	0	0	
226	1580482313.864753916	0.00238112	-0.895078	2.13235	-2.79044	-1.56954	-2.62329	0	0	-0	0	0	0	0	0	-0	0	0	0	
227	1580482313.872697005	0.0023931	-0.895089	2.13236	-2.79043	-1.56955	-2.62332	0	0	-0	0	0	0	0	0	-0	0	0	0	
228	1580482313.880644390	0.0023931	-0.895089	2.13237	-2.79041	-1.56951	-2.62326	0	0	-0	0	0	0	0	0	-0	0	0	0	
229	1580482313.888721450	0.0023931	-0.895089	2.1324	-2.79044	-1.56954	-2.62327	0	0	-0	0	0	0	0	0	-0	0	0	0	
230	1580482313.896640708	0.00240508	-0.895066	2.13235	-2.79043	-1.56954	-2.62329	0	0	-0	0	0	0	0	0	-0	0	0	0	
231	1580482313.904734008	0.00240508	-0.895102	2.13242	-2.7904	-1.56955	-2.6233	0	0	-0	0	0	0	0	0	-0	0	0	0	
232	1580482313.912731457	0.00241707	-0.895078	2.13236	-2.79041	-1.56957	-2.62331	0	0	-0	0	0	0	0	0	-0	0	0	0	
233	1580482313.920713289	0.00238112	-0.895089	2.13236	-2.79043	-1.56952	-2.62333	0	0	-0	0	0	0	0	0	-0	0	0	0	
234	1580482313.928755437	0.00236913	-0.895102	2.13236	-2.79043	-1.56955	-2.62326	0	0	-0	0	0	0	0	0	-0	0	0	0	
235	1580482313.936727501	0.00240508	-0.895078	2.1324	-2.79043	-1.56956	-2.62333	0	0	-0	0	0	0	0	0	-0	0	0	0	
236	1580482313.944745180	0.0023931	-0.895114	2.1324	-2.79043	-1.56952	-2.62333	0	0	-0	0	0	0	0	0	-0	0	0	0	
237	1580482313.952718885	0.00238112	-0.895078	2.13236	-2.79044	-1.56951	-2.62329	0	0	-0	0	0	0	0	0	-0	0	0	0	
238	1580482313.960739638	0.00240508	-0.895114	2.13237	-2.79045	-1.56951	-2.62327	0	0	-0	0	0	0	0	0	-0	0	0	0	
239	1580482313.968735228	0.00240508	-0.895066	2.13238	-2.79045	-1.56952	-2.6233	0	0	-0	0	0	0	0	0	-0	0	0	0	
240	1580482313.976723518	0.00238112	-0.895066	2.13238	-2.79044	-1.56954	-2.62331	0	0	-0	0	0	0	0	0	-0	0	0	0	
241	1580482313.984724607	0.00238112	-0.895102	2.13236	-2.79043	-1.56956	-2.62326	0	0	-0	0	0	0	0	0	-0	0	0	0	
242	1580482313.984724607	0.00238112	-0.895102	2.13236	-2.79043	-1.56956	-2.62326	0	0	-0	0	0	0	0	0	-0	0	0	0	
243	1580482314.000729446	0.00240508	-0.895054	2.13236	-2.79045	-1.56955	-2.62327	0	0	-0	0	0	0	0	0	-0	0	0	0	
244	1580482314.008744491	0.00238112	-0.895089	2.13231	-2.79044	-1.56952	-2.62329	0	0	-0	0	0	0	0	0	-0	0	0	0	
245	1580482314.016716033	0.00240508	-0.895078	2.13236	-2.79046	-1.56954	-2.62327	0	0	-0	0	0	0	0	0	-0	0	0	0	
246	1580482314.024708189	0.00242905	-0.895054	2.13237	-2.79045	-1.56954	-2.6233	0	0	-0	0	0	0	0	0	-0	0	0	0	
247	1580482314.032718305	0.00238112	-0.895078	2.13237	-2.79043	-1.56955	-2.62327	0	0	-0	0	0	0	0	0	-0	0	0	0	
248	1580482314.040740511	0.00240508	-0.895126	2.13234	-2.79043	-1.56952	-2.62331	0	0	-0	0	0	0	0	0	-0	0	0	0	
249	1580482314.048640736	0.00238112	-0.895102	2.13237	-2.79043	-1.56951	-2.62331	0	0	-0	0	0	0	0	0	-0	0	0	0	
250	1580482314.056771625	0.00241707	-0.895089	2.13236	-2.79041	-1.56954	-2.62331	0	0	-0	0	0	0	0	0	-0	0	0	0	
251	1580482314.064724312	0.00242905	-0.895042	2.13234	-2.79041	-1.56952	-2.6233	0	0	-0	0	0	0	0	0	-0	0	0	0	
252	1580482314.072721496	0.0023931	-0.895102	2.1324	-2.7904	-1.56954	-2.62332	0	0	-0	0	0	0	0	0	-0	0	0	0	
253	1580482314.080746149	0.00240508	-0.895102	2.1324	-2.79044	-1.56954	-2.62331	0	0	-0	0	0	0	0	0	-0	0	0	0	
254	1580482314.088750370	0.00238112	-0.895078	2.13238	-2.79044	-1.56954	-2.62331	0	0	-0	0	0	0	0	0	-0	0	0	0	
255	1580482314.096684131	0.00240508	-0.895066	2.13231	-2.79043	-1.56952	-2.62327	0	0	-0	0	0	0	0	0	-0	0	0	0	
256	1580482314.104691543	0.00241707	-0.895078	2.13232	-2.79043	-1.56952	-2.62332	0	0	-0	0	0	0	0	0	-0	0	0	0	
257	1580482314.112696231	0.00240508	-0.895102	2.13238	-2.79043	-1.56952	-2.62326	0	0	-0	0	0	0	0	0	-0	0	0	0	
258	1580482314.120713037	0.00240508	-0.895078	2.13237	-2.79043	-1.56956	-2.62329	0	0	-0	0	0	0	0	0	-0	0	0	0	
259	1580482314.120713037	0.00240508	-0.895078	2.13237	-2.79043	-1.56956	-2.62329	0	0	-0	0	0	0	0	0	-0	0	0	0	
260	1580482314.136720031	0.00238112	-0.895054	2.13237	-2.79045	-1.56952	-2.6233	0	0	-0	0	0	0	0	0	-0	0	0	0	
261	1580482314.144715116	0.0023931	-0.895078	2.13236	-2.79041	-1.56952	-2.62331	0	0	-0	0	0	0	0	0	-0	0	0	0	
262	1580482314.152727437	0.00241707	-0.895066	2.13236	-2.79043	-1.56954	-2.6233	0	0	-0	0	0	0	0	0	-0	0	0	0	
263	1580482314.160731138	0.00236913	-0.895066	2.1324	-2.7904	-1.56951	-2.62327	0	0	-0	0	0	0	0	0	-0	0	0	0	
264	1580482314.168702084	0.00234516	-0.895089	2.13235	-2.79044	-1.56954	-2.62325	0	0	-0	0	0	0	0	0	-0	0	0	0	
265	1580482314.176702304	0.0023931	-0.895089	2.13238	-2.79045	-1.56955	-2.6233	0	0	-0	0	0	0	0	0	-0	0	0	0	
266	1580482314.184718978	0.00240508	-0.895078	2.13238	-2.79043	-1.56951	-2.62329	0	0	-0	0	0	0	0	0	-0	0	0	0	
267	1580482314.192663023	0.00236913	-0.895042	2.13241	-2.79044	-1.56952	-2.6233	0	0	-0	0	0	0	0	0	-0	0	0	0	
268	1580482314.200703473	0.00238112	-0.895054	2.13236	-2.79041	-1.56949	-2.62327	0	0	-0	0	0	0	0	0	-0	0	0	0	
269	1580482314.208682534	0.0023931	-0.895102	2.13235	-2.79044	-1.56954	-2.62332	0	0	-0	0	0	0	0	0	-0	0	0	0	
270	1580482314.208682534	0.0023931	-0.895102	2.13235	-2.79044	-1.56954	-2.62332	0	0	-0	0	0	0	0	0	-0	0	0	0	
271	1580482314.224672444	0.0023931	-0.895078	2.1324	-2.79043	-1.56955	-2.62332	0	0	-0	0	0	0	0	0	-0	0	0	0	
272	1580482314.232650512	0.00236913	-0.895089	2.13237	-2.79043	-1.56951	-2.6233	0	0	-0	0	0	0	0	0	-0	0	0	0	
273	1580482314.240651152	0.00240508	-0.895066	2.13237	-2.79044	-1.56955	-2.62331	0	0	-0	0	0	0	0	0	-0	0	0	0	
274	1580482314.248658227	0.00240508	-0.895102	2.13238	-2.79043	-1.56952	-2.62326	0	0	-0	0	0	0	0	0	-0	0	0	0	
275	1580482314.256649027	0.0023931	-0.895054	2.13235	-2.7904	-1.56954	-2.62327	0	0	-0	0	0	0	0	0	-0	0	0	0	
276	1580482314.264659323	0.00240508	-0.895078	2.13235	-2.79045	-1.56954	-2.6233	0	0	-0	0	0	0	0	0	-0	0	0	0	
277	1580482314.272614669	0.00242905	-0.895102	2.13235	-2.79045	-1.56951	-2.62331	0	0	-0	0	0	0	0	0	-0	0	0	0	
278	1580482314.280663758	0.00238112	-0.895078	2.13237	-2.79044	-1.56952	-2.62331	0	0	-0	0	0	0	0	0	-0	0	0	0	
279	1580482314.288678805	0.00238112	-0.895054	2.13236	-2.79043	-1.56954	-2.62331	0	0	-0	0	0	0	0	0	-0	0	0	0	
280	1580482314.296665066	0.0023931	-0.895078	2.13231	-2.79043	-1.56955	-2.6233	0	0	-0	0	0	0	0	0	-0	0	0	0	
281	1580482314.304675941	0.00235715	-0.895078	2.13237	-2.79041	-1.56955	-2.6233	0	0	-0	0	0	0	0	0	-0	0	0	0	
282	1580482314.312676530	0.0023931	-0.895078	2.13236	-2.79041	-1.56954	-2.62331	0	0	-0	0	0	0	0	0	-0	0	0	0	
283	1580482314.320655417	0.00236913	-0.895089	2.13236	-2.79044	-1.56952	-2.6233	0	0	-0	0	0	0	0	0	-0	0	0	0	
284	1580482314.328683304	0.00236913	-0.895078	2.13235	-2.79041	-1.56955	-2.62325	0	0	-0	0	0	0	0	0	-0	0	0	0	
285	1580482314.336684798	0.00241707	-0.895078	2.13235	-2.79045	-1.56952	-2.62332	0	0	-0	0	0	0	0	0	-0	0	0	0	
286	1580482314.344697292	0.00238112	-0.895089	2.13236	-2.79043	-1.56952	-2.62332	0	0	-0	0	0	0	0	0	-0	0	0	0	
287	1580482314.352682656	0.0023931	-0.895018	2.13231	-2.79043	-1.56952	-2.6233	0	0	-0	0	0	0	0	0	-0	0	0	0	
288	1580482314.360684998	0.0023931	-0.895066	2.13236	-2.79041	-1.56952	-2.62332	0	0	-0	0	0	0	0	0	-0	0	0	0	
289	1580482314.368643243	0.00238112	-0.895102	2.13235	-2.79043	-1.56952	-2.6233	0	0	-0	0	0	0	0	0	-0	0	0	0	
290	1580482314.376716050	0.00238112	-0.895102	2.13234	-2.79045	-1.56957	-2.6233	0	0	-0	0	0	0	0	0	-0	0	0	0	
291	1580482314.384724332	0.00241707	-0.895054	2.13237	-2.79043	-1.56951	-2.62331	0	0	-0	0	0	0	0	0	-0	0	0	0	
292	1580482314.392744819	0.00241707	-0.895078	2.13237	-2.79044	-1.56955	-2.62331	0	0	-0	0	0	0	0	0	-0	0	0	0	
293	1580482314.400686750	0.0023931	-0.895042	2.13237	-2.7904	-1.56954	-2.62332	0	0	-0	0	0	0	0	0	-0	0	0	0	
294	1580482314.408764084	0.00241707	-0.895078	2.13241	-2.7904	-1.56954	-2.62331	0	0	-0	0	0	0	0	0	-0	0	0	0	
295	1580482314.416703809	0.00238112	-0.895078	2.13237	-2.7904	-1.56956	-2.6233	0	0	-0	0	0	0	0	0	-0	0	0	0	
296	1580482314.424700075	0.00244066	-0.895066	2.13238	-2.79044	-1.56954	-2.6233	0	0	-0	0	0	0	0	0	-0	0	0	0	
297	1580482314.432713376	0.0023931	-0.895102	2.13236	-2.79043	-1.56952	-2.62329	0	0	-0	0	0	0	0	0	-0	0	0	0	
298	1580482314.440711428	0.00240508	-0.895078	2.13235	-2.79043	-1.56952	-2.62327	0	0	-0	0	0	0	0	0	-0	0	0	0	
299	1580482314.448694558	0.00240508	-0.895066	2.13236	-2.79043	-1.56955	-2.62329	0	0	-0	0	0	0	0	0	-0	0	0	0	
300	1580482314.456691119	0.00238112	-0.895066	2.13241	-2.79045	-1.56952	-2.62327	0	0	-0	0	0	0	0	0	-0	0	0	0	
301	1580482314.464691125	0.0023931	-0.895042	2.13237	-2.79044	-1.56951	-2.62326	0	0	-0	0	0	0	0	0	-0	0	0	0	
302	1580482314.472731841	0.00240508	-0.895102	2.13235	-2.79043	-1.56956	-2.6233	0	0	-0	0	0	0	0	0	-0	0	0	0	
303	1580482314.480693218	0.00240508	-0.895102	2.1324	-2.79043	-1.56952	-2.62336	0	0	-0	0	0	0	0	0	-0	0	0	0	
304	1580482314.488693889	0.00240508	-0.895089	2.13236	-2.79043	-1.56954	-2.62331	0	0	-0	0	0	0	0	0	-0	0	0	0	
305	1580482314.496699272	0.00238112	-0.895089	2.13236	-2.79043	-1.56954	-2.6233	0	0	-0	0	0	0	0	0	-0	0	0	0	
306	1580482314.504661202	0.0023931	-0.895089	2.13235	-2.79041	-1.56957	-2.6233	0	0	-0	0	0	0	0	0	-0	0	0	0	
307	1580482314.512671876	0.00240508	-0.895102	2.13231	-2.79043	-1.56952	-2.62333	0	0	-0	0	0	0	0	0	-0	0	0	0	
308	1580482314.520689307	0.0023931	-0.895102	2.13236	-2.79043	-1.56955	-2.62329	0	0	-0	0	0	0	0	0	-0	0	0	0	
309	1580482314.528695866	0.0023931	-0.895089	2.13236	-2.7904	-1.56952	-2.62326	0	0	-0	0	0	0	0	0	-0	0	0	0	
310	1580482314.536724070	0.00240508	-0.895078	2.13237	-2.79043	-1.56954	-2.62332	0	0	-0	0	0	0	0	0	-0	0	0	0	
311	1580482314.544690622	0.00242905	-0.895054	2.13237	-2.79045	-1.56954	-2.62325	0	0	-0	0	0	0	0	0	-0	0	0	0	
312	1580482314.552694142	0.00241707	-0.895089	2.13236	-2.79045	-1.56955	-2.62332	0	0	-0	0	0	0	0	0	-0	0	0	0	
313	1580482314.560671150	0.0023931	-0.895089	2.13236	-2.79044	-1.56955	-2.6233	0	0	-0	0	0	0	0	0	-0	0	0	0	
314	1580482314.568710436	0.00240508	-0.895054	2.13237	-2.79041	-1.56951	-2.62329	0	0	-0	0	0	0	0	0	-0	0	0	0	
315	1580482314.576690709	0.0023931	-0.895078	2.13237	-2.79044	-1.56957	-2.62331	0	0	-0	0	0	0	0	0	-0	0	0	0	
316	1580482314.584697799	0.00238112	-0.895089	2.13235	-2.79045	-1.56955	-2.62332	0	0	-0	0	0	0	0	0	-0	0	0	0	
317	1580482314.592657791	0.00235715	-0.895066	2.13236	-2.79039	-1.56951	-2.6233	0	0	-0	0	0	0	0	0	-0	0	0	0	
318	1580482314.600722657	0.0023931	-0.895089	2.1324	-2.7904	-1.56955	-2.6233	0	0	-0	0	0	0	0	0	-0	0	0	0	
319	1580482314.608686639	0.00240508	-0.895042	2.13236	-2.79044	-1.56954	-2.62327	0	0	-0	0	0	0	0	0	-0	0	0	0	
320	1580482314.616687905	0.00235715	-0.895078	2.13236	-2.79041	-1.56951	-2.62333	0	0	-0	0	0	0	0	0	-0	0	0	0	
321	1580482314.624649999	0.00240508	-0.895126	2.13241	-2.79043	-1.56955	-2.6233	0	0	-0	0	0	0	0	0	-0	0	0	0	
322	1580482314.632681978	0.00238112	-0.895078	2.13235	-2.7904	-1.56951	-2.6233	0	0	-0	0	0	0	0	0	-0	0	0	0	
323	1580482314.640664368	0.0023931	-0.895089	2.13238	-2.79044	-1.56956	-2.6233	0	0	-0	0	0	0	0	0	-0	0	0	0	
324	1580482314.648689817	0.00240508	-0.895078	2.13238	-2.7904	-1.56954	-2.6233	0	0	-0	0	0	0	0	0	-0	0	0	0	
325	1580482314.656662754	0.00240508	-0.895089	2.13238	-2.79044	-1.56954	-2.6233	0	0	-0	0	0	0	0	0	-0	0	0	0	
326	1580482314.664701299	0.00238112	-0.895114	2.13234	-2.79043	-1.56951	-2.62331	0	0	-0	0	0	0	0	0	-0	0	0	0	
327	1580482314.672696079	0.0023931	-0.895102	2.13236	-2.79045	-1.5695	-2.6233	0	0	-0	0	0	0	0	0	-0	0	0	0	
328	1580482314.680692849	0.0023931	-0.895078	2.13237	-2.79041	-1.56952	-2.62326	0	0	-0	0	0	0	0	0	-0	0	0	0	
329	1580482314.688698289	0.0023931	-0.895102	2.13237	-2.79043	-1.56954	-2.62331	0	0	-0	0	0	0	0	0	-0	0	0	0	
330	1580482314.696703522	0.00238112	-0.895054	2.13234	-2.79043	-1.56956	-2.6233	0	0	-0	0	0	0	0	0	-0	0	0	0	
331	1580482314.704716829	0.00238112	-0.895078	2.13238	-2.79043	-1.56956	-2.62326	0	0	-0	0	0	0	0	0	-0	0	0	0	
332	1580482314.712686226	0.00238112	-0.895102	2.13235	-2.79044	-1.56958	-2.62327	0	0	-0	0	0	0	0	0	-0	0	0	0	
333	1580482314.720700430	0.0023931	-0.895066	2.13238	-2.79043	-1.56958	-2.6233	0	0	-0	0	0	0	0	0	-0	0	0	0	
334	1580482314.728743254	0.0023931	-0.895066	2.13237	-2.79043	-1.56952	-2.62327	0	0	-0	0	0	0	0	0	-0	0	0	0	
335	1580482314.736639349	0.00240508	-0.895102	2.13238	-2.79043	-1.56955	-2.62327	0	0	-0	0	0	0	0	0	-0	0	0	0	
336	1580482314.744688761	0.00238112	-0.895114	2.1324	-2.79041	-1.56955	-2.62327	0	0	-0	0	0	0	0	0	-0	0	0	0	
337	1580482314.752697871	0.00241707	-0.895066	2.13241	-2.79046	-1.56951	-2.6233	0	0	-0	0	0	0	0	0	-0	0	0	0	
338	1580482314.760705095	0.00240508	-0.895089	2.13238	-2.79044	-1.56955	-2.62332	0	0	-0	0	0	0	0	0	-0	0	0	0	
339	1580482314.768665559	0.00241707	-0.895102	2.13237	-2.79043	-1.56952	-2.6233	0	0	-0	0	0	0	0	0	-0	0	0	0	
340	1580482314.776692975	0.00240508	-0.895089	2.13241	-2.79045	-1.56955	-2.62327	0	0	-0	0	0	0	0	0	-0	0	0	0	
341	1580482314.784695282	0.0023931	-0.895054	2.13231	-2.79043	-1.56951	-2.62329	0	0	-0	0	0	0	0	0	-0	0	0	0	
342	1580482314.792759723	0.00241707	-0.89503	2.13238	-2.79043	-1.56954	-2.62332	0	0	-0	0	0	0	0	0	-0	0	0	0	
343	1580482314.800703247	0.00242905	-0.895114	2.1324	-2.79043	-1.56952	-2.6233	0	0	-0	0	0	0	0	0	-0	0	0	0	
344	1580482314.808682330	0.00238112	-0.895078	2.13236	-2.79043	-1.56954	-2.62329	0	0	-0	0	0	0	0	0	-0	0	0	0	
345	1580482314.816703667	0.00238112	-0.895078	2.13238	-2.79041	-1.56952	-2.62329	0	0	-0	0	0	0	0	0	-0	0	0	0	
346	1580482314.824798014	0.00240508	-0.895089	2.13236	-2.7904	-1.56958	-2.62331	0	0	-0	0	0	0	0	0	-0	0	0	0	
347	1580482314.832702176	0.00241707	-0.895114	2.13235	-2.79043	-1.56954	-2.62331	0	0	-0	0	0	0	0	0	-0	0	0	0	
348	1580482314.840702584	0.00240508	-0.895089	2.13238	-2.79044	-1.56955	-2.62329	0	0	-0	0	0	0	0	0	-0	0	0	0	
349	1580482314.848712331	0.0023931	-0.895054	2.13236	-2.79044	-1.56954	-2.62331	0	0	-0	0	0	0	0	0	-0	0	0	0	
350	1580482314.856696541	0.00238112	-0.895054	2.1324	-2.79043	-1.56951	-2.62332	0	0	-0	0	0	0	0	0	-0	0	0	0	
351	1580482314.864685728	0.00242905	-0.895078	2.1324	-2.7904	-1.56957	-2.6233	0	0	-0	0	0	0	0	0	-0	0	0	0	
352	1580482314.872707469	0.00238112	-0.895054	2.1324	-2.79043	-1.56957	-2.62333	0	0	-0	0	0	0	0	0	-0	0	0	0	
353	1580482314.880708562	0.00236913	-0.895089	2.13238	-2.79044	-1.56957	-2.62331	0	0	-0	0	0	0	0	0	-0	0	0	0	
354	1580482314.888713462	0.0023931	-0.895089	2.13232	-2.79045	-1.56955	-2.62329	0	0	-0	0	0	0	0	0	-0	0	0	0	
355	1580482314.896704843	0.00241707	-0.895089	2.13237	-2.79041	-1.56954	-2.62327	0	0	-0	0	0	0	0	0	-0	0	0	0	
356	1580482314.904694244	0.00240508	-0.895078	2.13242	-2.79043	-1.56955	-2.6233	0	0	-0	0	0	0	0	0	-0	0	0	0	
357	1580482314.912645339	0.00241707	-0.895054	2.13237	-2.79044	-1.56958	-2.62331	0	0	-0	0	0	0	0	0	-0	0	0	0	
358	1580482314.920786648	0.00240508	-0.895078	2.13237	-2.7904	-1.56955	-2.62326	0	0	-0	0	0	0	0	0	-0	0	0	0	
359	1580482314.928652682	0.00240508	-0.895042	2.13241	-2.79041	-1.56954	-2.62332	0	0	-0	0	0	0	0	0	-0	0	0	0	
360	1580482314.936699906	0.00240508	-0.895078	2.13242	-2.79045	-1.56955	-2.62327	0	0	-0	0	0	0	0	0	-0	0	0	0	
361	1580482314.944707648	0.00240508	-0.895066	2.13238	-2.79041	-1.56955	-2.62329	0	0	-0	0	0	0	0	0	-0	0	0	0	
362	1580482314.952767796	0.00238112	-0.895078	2.13238	-2.79043	-1.56956	-2.62329	0	0	-0	0	0	0	0	0	-0	0	0	0	
363	1580482314.960713017	0.00241707	-0.89503	2.13236	-2.79043	-1.56956	-2.62329	0	0	-0	0	0	0	0	0	-0	0	0	0	
364	1580482314.968667298	0.00241707	-0.895066	2.13241	-2.7904	-1.56956	-2.62327	0	0	-0	0	0	0	0	0	-0	0	0	0	
365	1580482314.976705547	0.0023931	-0.895066	2.13235	-2.79043	-1.56955	-2.6233	0	0	-0	0	0	0	0	0	-0	0	0	0	
366	1580482314.984769069	0.00236913	-0.895042	2.13235	-2.79041	-1.56955	-2.62332	0	0	-0	0	0	0	0	0	-0	0	0	0	
367	1580482314.992683674	0.0023931	-0.895078	2.1324	-2.79043	-1.56954	-2.6233	0	0	-0	0	0	0	0	0	-0	0	0	0	
368	1580482315.000713861	0.00241707	-0.895089	2.13238	-2.79043	-1.56954	-2.6233	0	0	-0	0	0	0	0	0	-0	0	0	0	
369	1580482315.008682616	0.00240508	-0.895102	2.13237	-2.79041	-1.56952	-2.62329	0	0	-0	0	0	0	0	0	-0	0	0	0	
370	1580482315.016740830	0.0023931	-0.895089	2.13234	-2.7904	-1.56955	-2.62331	0	0	-0	0	0	0	0	0	-0	0	0	0	
371	1580482315.024718367	0.00240508	-0.895089	2.13237	-2.79045	-1.56954	-2.62333	0	0	-0	0	0	0	0	0	-0	0	0	0	
372	1580482315.032692837	0.00236913	-0.895078	2.13236	-2.79043	-1.56951	-2.62329	0	0	-0	0	0	0	0	0	-0	0	0	0	
373	1580482315.040694266	0.00238112	-0.895078	2.13238	-2.79044	-1.56955	-2.62329	0	0	-0	0	0	0	0	0	-0	0	0	0	
374	1580482315.048756416	0.00238112	-0.895078	2.13237	-2.7904	-1.5695	-2.62327	0	0	-0	0	0	0	0	0	-0	0	0	0	
375	1580482315.056708072	0.00240508	-0.895066	2.1324	-2.79041	-1.56957	-2.62327	0	0	-0	0	0	0	0	0	-0	0	0	0	
376	1580482315.064714412	0.00242905	-0.895054	2.13237	-2.79043	-1.56954	-2.62331	0	0	-0	0	0	0	0	0	-0	0	0	0	
377	1580482315.072726429	0.0023931	-0.895078	2.1324	-2.79045	-1.56952	-2.6233	0	0	-0	0	0	0	0	0	-0	0	0	0	
378	1580482315.080749336	0.00236913	-0.895114	2.1324	-2.79043	-1.56952	-2.62329	0	0	-0	0	0	0	0	0	-0	0	0	0	
379	1580482315.088709161	0.00238112	-0.895042	2.13235	-2.79043	-1.56952	-2.62331	0	0	-0	0	0	0	0	0	-0	0	0	0	
380	1580482315.096710269	0.00241707	-0.895078	2.13237	-2.79045	-1.56952	-2.62327	0	0	-0	0	0	0	0	0	-0	0	0	0	
381	1580482315.104678693	0.00238112	-0.895054	2.13237	-2.79044	-1.56951	-2.62331	0	0	-0	0	0	0	0	0	-0	0	0	0	
382	1580482315.112684609	0.00240508	-0.895042	2.13237	-2.79044	-1.56955	-2.62329	0	0	-0	0	0	0	0	0	-0	0	0	0	
383	1580482315.120691143	0.0023931	-0.895102	2.13236	-2.79044	-1.56952	-2.62329	0	0	-0	0	0	0	0	0	-0	0	0	0	
384	1580482315.128717592	0.0023931	-0.895054	2.13238	-2.79043	-1.56955	-2.62327	0	0	-0	0	0	0	0	0	-0	0	0	0	
385	1580482315.136666484	0.0023931	-0.895066	2.13236	-2.79045	-1.56955	-2.62326	0	0	-0	0	0	0	0	0	-0	0	0	0	
386	1580482315.144725575	0.0023931	-0.895114	2.13237	-2.7904	-1.56955	-2.6233	0	0	-0	0	0	0	0	0	-0	0	0	0	
387	1580482315.152729275	0.00241707	-0.895042	2.13236	-2.7904	-1.56955	-2.62331	0	0	-0	0	0	0	0	0	-0	0	0	0	
388	1580482315.160729951	0.0023931	-0.895078	2.13237	-2.7904	-1.56954	-2.62329	0	0	-0	0	0	0	0	0	-0	0	0	0	
389	1580482315.168715468	0.00240508	-0.895102	2.13236	-2.79044	-1.56954	-2.62331	0	0	-0	0	0	0	0	0	-0	0	0	0	
390	1580482315.176760369	0.0023931	-0.895066	2.13237	-2.79044	-1.56954	-2.62329	0	0	-0	0	0	0	0	0	-0	0	0	0	
391	1580482315.184730646	0.00238112	-0.895078	2.13238	-2.79043	-1.56952	-2.62329	0	0	-0	0	0	0	0	0	-0	0	0	0	
392	1580482315.192709311	0.00240508	-0.895066	2.13237	-2.79043	-1.56954	-2.62331	0	0	-0	0	0	0	0	0	-0	0	0	0	
393	1580482315.200721967	0.0023931	-0.895102	2.13236	-2.79044	-1.56954	-2.6233	0	0	-0	0	0	0	0	0	-0	0	0	0	
394	1580482315.208784921	0.0023931	-0.895054	2.1324	-2.79043	-1.56954	-2.62332	0	0	-0	0	0	0	0	0	-0	0	0	0	
395	1580482315.216736538	0.00238112	-0.895066	2.13234	-2.79043	-1.56956	-2.62327	0	0	-0	0	0	0	0	0	-0	0	0	0	
396	1580482315.224744350	0.00242905	-0.895089	2.1324	-2.79045	-1.56956	-2.62327	0	0	-0	0	0	0	0	0	-0	0	0	0	
397	1580482315.232738070	0.0023931	-0.895054	2.13235	-2.79043	-1.56957	-2.62327	0	0	-0	0	0	0	0	0	-0	0	0	0	
398	1580482315.240748931	0.00240508	-0.895042	2.13236	-2.79043	-1.56952	-2.62326	0	0	-0	0	0	0	0	0	-0	0	0	0	
399	1580482315.248742710	0.0023931	-0.895078	2.13236	-2.79041	-1.56957	-2.62333	0	0	-0	0	0	0	0	0	-0	0	0	0	
400	1580482315.256757870	0.00241707	-0.895089	2.13235	-2.79041	-1.56955	-2.62327	0	0	-0	0	0	0	0	0	-0	0	0	0	
401	1580482315.264696114	0.00240508	-0.895066	2.1324	-2.79044	-1.56956	-2.62332	0	0	-0	0	0	0	0	0	-0	0	0	0	
402	1580482315.272752410	0.00241707	-0.895066	2.13235	-2.79044	-1.56955	-2.62327	0	0	-0	0	0	0	0	0	-0	0	0	0	
403	1580482315.280744838	0.00241707	-0.895054	2.13236	-2.79044	-1.56954	-2.6233	0	0	-0	0	0	0	0	0	-0	0	0	0	
404	1580482315.288727943	0.00238112	-0.895066	2.13237	-2.79041	-1.56954	-2.62326	0	0	-0	0	0	0	0	0	-0	0	0	0	
405	1580482315.296723097	0.00240508	-0.895042	2.13237	-2.79041	-1.56951	-2.62329	0	0	-0	0	0	0	0	0	-0	0	0	0	
406	1580482315.304730141	0.00241707	-0.895042	2.1324	-2.7904	-1.56956	-2.6233	0	0	-0	0	0	0	0	0	-0	0	0	0	
407	1580482315.312716315	0.00240508	-0.895078	2.13238	-2.79043	-1.56954	-2.62325	0	0	-0	0	0	0	0	0	-0	0	0	0	
408	1580482315.320728104	0.00241707	-0.895089	2.13238	-2.79046	-1.56952	-2.6233	0	0	-0	0	0	0	0	0	-0	0	0	0	
409	1580482315.328730839	0.0023931	-0.895078	2.13234	-2.79043	-1.56952	-2.62332	0	0	-0	0	0	0	0	0	-0	0	0	0	
410	1580482315.336744486	0.00238112	-0.895078	2.13237	-2.79043	-1.56952	-2.6233	0	0	-0	0	0	0	0	0	-0	0	0	0	
411	1580482315.344685515	0.00240508	-0.895042	2.13237	-2.79043	-1.56952	-2.62329	0	0	-0	0	0	0	0	0	-0	0	0	0	
412	1580482315.352718932	0.0023931	-0.895102	2.1324	-2.79043	-1.56952	-2.6233	0	0	-0	0	0	0	0	0	-0	0	0	0	
413	1580482315.360714014	0.00241707	-0.895102	2.13236	-2.79044	-1.56955	-2.62329	0	0	-0	0	0	0	0	0	-0	0	0	0	
414	1580482315.368708426	0.00238112	-0.895089	2.13238	-2.79045	-1.56956	-2.62329	0	0	-0	0	0	0	0	0	-0	0	0	0	
415	1580482315.376683127	0.00242905	-0.895078	2.13237	-2.79044	-1.56956	-2.62325	0	0	-0	0	0	0	0	0	-0	0	0	0	
416	1580482315.384703374	0.00240508	-0.895078	2.13237	-2.79043	-1.56955	-2.62327	0	0	-0	0	0	0	0	0	-0	0	0	0	
417	1580482315.392712340	0.00238112	-0.895066	2.13237	-2.79043	-1.56956	-2.62329	0	0	-0	0	0	0	0	0	-0	0	0	0	
418	1580482315.400739555	0.00240508	-0.895066	2.13236	-2.79044	-1.56956	-2.62327	0	0	-0	0	0	0	0	0	-0	0	0	0	
419	1580482315.408687961	0.00240508	-0.895066	2.13236	-2.79043	-1.56956	-2.62329	0	0	-0	0	0	0	0	0	-0	0	0	0	
420	1580482315.416690435	0.00240508	-0.895078	2.13235	-2.79045	-1.56955	-2.6233	0	0	-0	0	0	0	0	0	-0	0	0	0	
421	1580482315.424672947	0.0023931	-0.895042	2.1324	-2.79041	-1.56956	-2.62331	0	0	-0	0	0	0	0	0	-0	0	0	0	
422	1580482315.432709458	0.00238112	-0.895066	2.13234	-2.79041	-1.56954	-2.62332	0	0	-0	0	0	0	0	0	-0	0	0	0	
423	1580482315.440694255	0.0023931	-0.895054	2.13237	-2.79041	-1.56951	-2.62332	0	0	-0	0	0	0	0	0	-0	0	0	0	
424	1580482315.448702062	0.0023931	-0.895089	2.13232	-2.79041	-1.56951	-2.62326	0	0	-0	0	0	0	0	0	-0	0	0	0	
425	1580482315.456664332	0.0023931	-0.895078	2.13237	-2.79041	-1.56956	-2.6233	0	0	-0	0	0	0	0	0	-0	0	0	0	
426	1580482315.464737772	0.00241707	-0.895089	2.13235	-2.79043	-1.56952	-2.62329	0	0	-0	0	0	0	0	0	-0	0	0	0	
427	1580482315.472648526	0.00236913	-0.895078	2.13235	-2.7904	-1.56952	-2.62327	0	0	-0	0	0	0	0	0	-0	0	0	0	
428	1580482315.480689733	0.0023931	-0.895126	2.1324	-2.79044	-1.56955	-2.62331	0	0	-0	0	0	0	0	0	-0	0	0	0	
429	1580482315.488702327	0.0023931	-0.895089	2.13237	-2.79044	-1.56956	-2.62331	0	0	-0	0	0	0	0	0	-0	0	0	0	
430	1580482315.496771739	0.00240508	-0.895089	2.13234	-2.7904	-1.56954	-2.62329	0	0	-0	0	0	0	0	0	-0	0	0	0	
431	1580482315.504690428	0.00240508	-0.895066	2.13237	-2.79043	-1.56952	-2.62329	0	0	-0	0	0	0	0	0	-0	0	0	0	
432	1580482315.512691451	0.0023931	-0.895089	2.1324	-2.79044	-1.56957	-2.62332	0	0	-0	0	0	0	0	0	-0	0	0	0	
433	1580482315.520687795	0.00238112	-0.895066	2.13238	-2.79041	-1.56956	-2.62331	0	0	-0	0	0	0	0	0	-0	0	0	0	
434	1580482315.528720194	0.00241707	-0.895066	2.13236	-2.79043	-1.56954	-2.6233	0	0	-0	0	0	0	0	0	-0	0	0	0	
435	1580482315.536731752	0.0023931	-0.895078	2.13235	-2.79043	-1.56951	-2.6233	0	0	-0	0	0	0	0	0	-0	0	0	0	
436	1580482315.544708861	0.0023931	-0.895078	2.13237	-2.79043	-1.56952	-2.62329	0	0	-0	0	0	0	0	0	-0	0	0	0	
437	1580482315.552702750	0.0023931	-0.895089	2.13237	-2.79043	-1.56957	-2.62329	0	0	-0	0	0	0	0	0	-0	0	0	0	
438	1580482315.560719329	0.00242905	-0.895089	2.13236	-2.79043	-1.56956	-2.62332	0	0	-0	0	0	0	0	0	-0	0	0	0	
439	1580482315.568698165	0.00244066	-0.895102	2.13237	-2.79043	-1.56955	-2.62327	0	0	-0	0	0	0	0	0	-0	0	0	0	
440	1580482315.576684269	0.00240508	-0.895078	2.13238	-2.79044	-1.56951	-2.62329	0	0	-0	0	0	0	0	0	-0	0	0	0	
441	1580482315.584702625	0.0023931	-0.895054	2.13236	-2.79044	-1.56952	-2.62326	0	0	-0	0	0	0	0	0	-0	0	0	0	
442	1580482315.592711675	0.0023931	-0.895066	2.1324	-2.79043	-1.56954	-2.62327	0	0	-0	0	0	0	0	0	-0	0	0	0	
443	1580482315.600695683	0.0023931	-0.895078	2.13236	-2.79041	-1.56955	-2.62327	0	0	-0	0	0	0	0	0	-0	0	0	0	
444	1580482315.608691547	0.00241707	-0.895054	2.13235	-2.79041	-1.56954	-2.62327	0	0	-0	0	0	0	0	0	-0	0	0	0	
445	1580482315.616676225	0.00242905	-0.895114	2.1324	-2.79043	-1.56956	-2.62327	0	0	-0	0	0	0	0	0	-0	0	0	0	
446	1580482315.624727284	0.00238112	-0.89503	2.13231	-2.79041	-1.56955	-2.62335	0	0	-0	0	0	0	0	0	-0	0	0	0	
447	1580482315.632699023	0.00240508	-0.895042	2.13236	-2.79044	-1.56952	-2.62327	0	0	-0	0	0	0	0	0	-0	0	0	0	
448	1580482315.640694769	0.00238112	-0.895102	2.13238	-2.79044	-1.56954	-2.62327	0	0	-0	0	0	0	0	0	-0	0	0	0	
449	1580482315.648697540	0.00238112	-0.895054	2.13241	-2.79043	-1.56956	-2.62331	0	0	-0	0	0	0	0	0	-0	0	0	0	
450	1580482315.656657420	0.0023931	-0.895078	2.13236	-2.79044	-1.56952	-2.62327	0	0	-0	0	0	0	0	0	-0	0	0	0	
451	1580482315.664690482	0.00238112	-0.895054	2.13236	-2.79043	-1.56954	-2.6233	0	0	-0	0	0	0	0	0	-0	0	0	0	
452	1580482315.672688769	0.00240508	-0.895066	2.13238	-2.79043	-1.56952	-2.6233	0	0	-0	0	0	0	0	0	-0	0	0	0	
453	1580482315.680690277	0.00240508	-0.895089	2.13241	-2.79041	-1.56952	-2.62335	0	0	-0	0	0	0	0	0	-0	0	0	0	
454	1580482315.688669319	0.00242905	-0.895066	2.13235	-2.79043	-1.56954	-2.62325	0	0	-0	0	0	0	0	0	-0	0	0	0	
455	1580482315.696686443	0.0023931	-0.895089	2.13234	-2.79043	-1.56951	-2.62331	0	0	-0	0	0	0	0	0	-0	0	0	0	
456	1580482315.704703574	0.00241707	-0.895066	2.13236	-2.79045	-1.56952	-2.62331	0	0	-0	0	0	0	0	0	-0	0	0	0	
457	1580482315.712704236	0.00240508	-0.895078	2.13237	-2.79043	-1.56957	-2.62327	0	0	-0	0	0	0	0	0	-0	0	0	0	
458	1580482315.720673290	0.00238112	-0.895089	2.13236	-2.79043	-1.56957	-2.62332	0	0	-0	0	0	0	0	0	-0	0	0	0	
459	1580482315.728690814	0.00240508	-0.895066	2.13241	-2.79041	-1.56952	-2.62331	0	0	-0	0	0	0	0	0	-0	0	0	0	
460	1580482315.736697979	0.00238112	-0.895042	2.13236	-2.79045	-1.56955	-2.62329	0	0	-0	0	0	0	0	0	-0	0	0	0	
461	1580482315.744690036	0.0023931	-0.895078	2.13234	-2.7904	-1.56954	-2.62327	0	0	-0	0	0	0	0	0	-0	0	0	0	
462	1580482315.752712015	0.00240508	-0.895054	2.13236	-2.79043	-1.56952	-2.62329	0	0	-0	0	0	0	0	0	-0	0	0	0	
463	1580482315.760691990	0.00240508	-0.895089	2.13236	-2.79044	-1.56954	-2.6233	0	0	-0	0	0	0	0	0	-0	0	0	0	
464	1580482315.768690072	0.00240508	-0.895089	2.13238	-2.79041	-1.56954	-2.62329	0	0	-0	0	0	0	0	0	-0	0	0	0	
465	1580482315.776703253	0.00241707	-0.895054	2.13235	-2.7904	-1.56954	-2.62332	0	0	-0	0	0	0	0	0	-0	0	0	0	
466	1580482315.784688627	0.00240508	-0.895042	2.13235	-2.7904	-1.56954	-2.62331	0	0	-0	0	0	0	0	0	-0	0	0	0	
467	1580482315.792684886	0.00236913	-0.895114	2.13236	-2.79043	-1.56954	-2.6233	0	0	-0	0	0	0	0	0	-0	0	0	0	
468	1580482315.800698204	0.0023931	-0.895066	2.13236	-2.79045	-1.56954	-2.6233	0	0	-0	0	0	0	0	0	-0	0	0	0	
469	1580482315.808700609	0.00240508	-0.895126	2.13234	-2.7904	-1.56955	-2.62332	0	0	-0	0	0	0	0	0	-0	0	0	0	
470	1580482315.816718765	0.00238112	-0.895054	2.13238	-2.79044	-1.56955	-2.62329	0	0	-0	0	0	0	0	0	-0	0	0	0	
471	1580482315.824672066	0.00240508	-0.895089	2.1324	-2.79043	-1.56956	-2.62331	0	0	-0	0	0	0	0	0	-0	0	0	0	
472	1580482315.832695909	0.0023931	-0.895078	2.13234	-2.79045	-1.56951	-2.62327	0	0	-0	0	0	0	0	0	-0	0	0	0	
473	1580482315.840702809	0.00238112	-0.895078	2.13237	-2.79043	-1.56951	-2.62331	0	0	-0	0	0	0	0	0	-0	0	0	0	
474	1580482315.848662208	0.00238112	-0.895102	2.13237	-2.79044	-1.56956	-2.6233	0	0	-0	0	0	0	0	0	-0	0	0	0	
475	1580482315.856705361	0.0023931	-0.895078	2.1324	-2.79045	-1.56952	-2.6233	0	0	-0	0	0	0	0	0	-0	0	0	0	
476	1580482315.864701002	0.0023931	-0.895054	2.1324	-2.79043	-1.56954	-2.62332	0	0	-0	0	0	0	0	0	-0	0	0	0	
477	1580482315.872711280	0.00241707	-0.895066	2.13237	-2.79043	-1.56952	-2.62326	0	0	-0	0	0	0	0	0	-0	0	0	0	
478	1580482315.880723842	0.00241707	-0.895066	2.13235	-2.79043	-1.56954	-2.6233	0	0	-0	0	0	0	0	0	-0	0	0	0	
479	1580482315.888715296	0.00238112	-0.895018	2.1324	-2.79043	-1.56955	-2.62329	0	0	-0	0	0	0	0	0	-0	0	0	0	
480	1580482315.896699804	0.00241707	-0.895114	2.1324	-2.79041	-1.56952	-2.62329	0	0	-0	0	0	0	0	0	-0	0	0	0	
481	1580482315.904726159	0.0023931	-0.895078	2.13237	-2.79043	-1.56956	-2.6233	0	0	-0	0	0	0	0	0	-0	0	0	0	
482	1580482315.912712576	0.00240508	-0.895078	2.13238	-2.79043	-1.56951	-2.62331	0	0	-0	0	0	0	0	0	-0	0	0	0	
483	1580482315.920689216	0.00240508	-0.895078	2.13238	-2.79043	-1.56955	-2.6233	0	0	-0	0	0	0	0	0	-0	0	0	0	
484	1580482315.928691459	0.00238112	-0.895042	2.13236	-2.79041	-1.56954	-2.62329	0	0	-0	0	0	0	0	0	-0	0	0	0	
485	1580482315.936709149	0.00240508	-0.895042	2.13237	-2.79043	-1.56955	-2.62332	0	0	-0	0	0	0	0	0	-0	0	0	0	
486	1580482315.944708882	0.00240508	-0.895102	2.13236	-2.79045	-1.56957	-2.62329	0	0	-0	0	0	0	0	0	-0	0	0	0	
487	1580482315.952691456	0.0023931	-0.895089	2.13237	-2.79045	-1.56955	-2.62332	0	0	-0	0	0	0	0	0	-0	0	0	0	
488	1580482315.960673796	0.0023931	-0.895102	2.13237	-2.79043	-1.56956	-2.62329	0	0	-0	0	0	0	0	0	-0	0	0	0	
489	1580482315.968691500	0.00238112	-0.895089	2.13235	-2.79043	-1.56952	-2.62329	0	0	-0	0	0	0	0	0	-0	0	0	0	
490	1580482315.976741560	0.00242905	-0.895078	2.13237	-2.7904	-1.56956	-2.62327	0	0	-0	0	0	0	0	0	-0	0	0	0	
491	1580482315.984683162	0.00240508	-0.895089	2.1324	-2.79043	-1.56954	-2.62331	0	0	-0	0	0	0	0	0	-0	0	0	0	
492	1580482315.992639202	0.00236913	-0.895089	2.13235	-2.79044	-1.56956	-2.62332	0	0	-0	0	0	0	0	0	-0	0	0	0	
493	1580482316.000696627	0.00238112	-0.895089	2.13237	-2.79043	-1.56951	-2.6233	0	0	-0	0	0	0	0	0	-0	0	0	0	
494	1580482316.008764862	0.00240508	-0.895078	2.13236	-2.7904	-1.56951	-2.62329	0	0	-0	0	0	0	0	0	-0	0	0	0	
495	1580482316.016662720	0.00236913	-0.895102	2.1324	-2.79044	-1.56954	-2.62329	0	0	-0	0	0	0	0	0	-0	0	0	0	
496	1580482316.024692800	0.00240508	-0.895054	2.13236	-2.79045	-1.56952	-2.62332	0	0	-0	0	0	0	0	0	-0	0	0	0	
497	1580482316.032671013	0.00241707	-0.895102	2.13237	-2.79043	-1.56954	-2.62327	0	0	-0	0	0	0	0	0	-0	0	0	0	
498	1580482316.040687202	0.0023931	-0.895078	2.13238	-2.79041	-1.56955	-2.62325	0	0	-0	0	0	0	0	0	-0	0	0	0	
499	1580482316.048726486	0.00240508	-0.895078	2.1324	-2.79041	-1.56954	-2.62327	0	0	-0	0	0	0	0	0	-0	0	0	0	
500	1580482316.056698681	0.00238112	-0.895078	2.13237	-2.79045	-1.56954	-2.6233	0	0	-0	0	0	0	0	0	-0	0	0	0	
501	1580482316.064693196	0.0023931	-0.895018	2.13236	-2.79041	-1.56952	-2.62327	0	0	-0	0	0	0	0	0	-0	0	0	0	
502	1580482316.072749871	0.00240508	-0.895114	2.13234	-2.79043	-1.56954	-2.62326	0	0	-0	0	0	0	0	0	-0	0	0	0	
503	1580482316.080708732	0.00241707	-0.895078	2.13236	-2.79041	-1.56954	-2.62327	0	0	-0	0	0	0	0	0	-0	0	0	0	
504	1580482316.088689231	0.00240508	-0.895042	2.13236	-2.79041	-1.56954	-2.62332	0	0	-0	0	0	0	0	0	-0	0	0	0	
505	1580482316.096711192	0.00240508	-0.895054	2.13241	-2.79045	-1.56954	-2.62327	0	0	-0	0	0	0	0	0	-0	0	0	0	
506	1580482316.104666889	0.00238112	-0.895102	2.1324	-2.7904	-1.56954	-2.62327	0	0	-0	0	0	0	0	0	-0	0	0	0	
507	1580482316.112675474	0.00241707	-0.895114	2.13238	-2.79041	-1.56951	-2.6233	0	0	-0	0	0	0	0	0	-0	0	0	0	
508	1580482316.120691673	0.00238112	-0.895089	2.13236	-2.7904	-1.56956	-2.62333	0	0	-0	0	0	0	0	0	-0	0	0	0	
509	1580482316.128679161	0.00240508	-0.895078	2.13238	-2.79041	-1.56954	-2.62329	0	0	-0	0	0	0	0	0	-0	0	0	0	
510	1580482316.136730289	0.00242905	-0.895078	2.13237	-2.79043	-1.56952	-2.62326	0	0	-0	0	0	0	0	0	-0	0	0	0	
511	1580482316.144693485	0.00241707	-0.895054	2.13236	-2.79043	-1.56954	-2.6233	0	0	-0	0	0	0	0	0	-0	0	0	0	
512	1580482316.152694337	0.00240508	-0.895089	2.13235	-2.79041	-1.56952	-2.6233	0	0	-0	0	0	0	0	0	-0	0	0	0	
513	1580482316.160693597	0.0023931	-0.895054	2.13237	-2.79043	-1.56954	-2.62329	0	0	-0	0	0	0	0	0	-0	0	0	0	
514	1580482316.168691621	0.00244066	-0.895066	2.13236	-2.79043	-1.56955	-2.6233	0	0	-0	0	0	0	0	0	-0	0	0	0	
515	1580482316.176647149	0.00238112	-0.895078	2.13235	-2.7904	-1.56955	-2.62331	0	0	-0	0	0	0	0	0	-0	0	0	0	
516	1580482316.184620500	0.0023931	-0.895078	2.13231	-2.79044	-1.56955	-2.6233	0	0	-0	0	0	0	0	0	-0	0	0	0	
517	1580482316.192646719	0.00244066	-0.895089	2.13242	-2.79041	-1.56955	-2.6233	0	0	-0	0	0	0	0	0	-0	0	0	0	
518	1580482316.200744059	0.00241707	-0.895042	2.13235	-2.79044	-1.56955	-2.62331	0	0	-0	0	0	0	0	0	-0	0	0	0	
519	1580482316.208698309	0.00244066	-0.895066	2.13234	-2.79043	-1.56957	-2.62329	0	0	-0	0	0	0	0	0	-0	0	0	0	
520	1580482316.216668113	0.00242905	-0.895114	2.13236	-2.79044	-1.56951	-2.62329	0	0	-0	0	0	0	0	0	-0	0	0	0	
521	1580482316.224701657	0.0023931	-0.895089	2.13238	-2.79041	-1.56957	-2.62327	0	0	-0	0	0	0	0	0	-0	0	0	0	
522	1580482316.232702868	0.00238112	-0.895054	2.13238	-2.7904	-1.56952	-2.62331	0	0	-0	0	0	0	0	0	-0	0	0	0	
523	1580482316.240715557	0.00242905	-0.895078	2.13238	-2.79044	-1.56956	-2.62329	0	0	-0	0	0	0	0	0	-0	0	0	0	
524	1580482316.248693037	0.00238112	-0.895042	2.1324	-2.79044	-1.56955	-2.6233	0	0	-0	0	0	0	0	0	-0	0	0	0	
525	1580482316.256694696	0.0023931	-0.895078	2.13238	-2.79041	-1.56954	-2.62329	0	0	-0	0	0	0	0	0	-0	0	0	0	
526	1580482316.264722940	0.00240508	-0.895066	2.13237	-2.79043	-1.56955	-2.62331	0	0	-0	0	0	0	0	0	-0	0	0	0	
527	1580482316.272678659	0.0023931	-0.895078	2.13234	-2.79043	-1.56954	-2.6233	0	0	-0	0	0	0	0	0	-0	0	0	0	
528	1580482316.280653000	0.00238112	-0.89503	2.13236	-2.79041	-1.56955	-2.62327	0	0	-0	0	0	0	0	0	-0	0	0	0	
529	1580482316.288689575	0.00241707	-0.895042	2.13241	-2.79041	-1.56954	-2.62326	0	0	-0	0	0	0	0	0	-0	0	0	0	
530	1580482316.296722587	0.0023931	-0.895054	2.13238	-2.79041	-1.56955	-2.62329	0	0	-0	0	0	0	0	0	-0	0	0	0	
531	1580482316.304723583	0.00238112	-0.895078	2.13237	-2.79041	-1.56955	-2.62331	0	0	-0	0	0	0	0	0	-0	0	0	0	
532	1580482316.312721736	0.0023931	-0.895078	2.13237	-2.7904	-1.56955	-2.62329	0	0	-0	0	0	0	0	0	-0	0	0	0	
533	1580482316.320732483	0.0023931	-0.895078	2.13236	-2.79044	-1.56952	-2.6233	0	0	-0	0	0	0	0	0	-0	0	0	0	
534	1580482316.328724125	0.0023931	-0.895054	2.13236	-2.7904	-1.56952	-2.62329	0	0	-0	0	0	0	0	0	-0	0	0	0	
535	1580482316.336732275	0.0023931	-0.895102	2.13237	-2.79043	-1.56954	-2.62331	0	0	-0	0	0	0	0	0	-0	0	0	0	
536	1580482316.344658743	0.00240508	-0.895078	2.13236	-2.79043	-1.56955	-2.62327	0	0	-0	0	0	0	0	0	-0	0	0	0	
537	1580482316.352703771	0.0023931	-0.895138	2.13237	-2.79043	-1.56954	-2.62329	0	0	-0	0	0	0	0	0	-0	0	0	0	
538	1580482316.360664817	0.00238112	-0.895089	2.1324	-2.7904	-1.5695	-2.62329	0	0	-0	0	0	0	0	0	-0	0	0	0	
539	1580482316.368687242	0.00238112	-0.895089	2.1324	-2.79043	-1.56955	-2.6233	0	0	-0	0	0	0	0	0	-0	0	0	0	
540	1580482316.376667868	0.00238112	-0.895066	2.13235	-2.79043	-1.56952	-2.62329	0	0	-0	0	0	0	0	0	-0	0	0	0	
541	1580482316.384683953	0.00240508	-0.895089	2.13235	-2.79044	-1.56954	-2.62331	0	0	-0	0	0	0	0	0	-0	0	0	0	
542	1580482316.392683729	0.0023931	-0.895066	2.13238	-2.7904	-1.56957	-2.62329	0	0	-0	0	0	0	0	0	-0	0	0	0	
543	1580482316.400700232	0.00240508	-0.895114	2.13236	-2.79045	-1.56956	-2.62332	0	0	-0	0	0	0	0	0	-0	0	0	0	
544	1580482316.408665361	0.00236913	-0.895102	2.13238	-2.79041	-1.56957	-2.62327	0	0	-0	0	0	0	0	0	-0	0	0	0	
545	1580482316.416681098	0.0023931	-0.895089	2.13237	-2.7904	-1.56954	-2.62331	0	0	-0	0	0	0	0	0	-0	0	0	0	
546	1580482316.424633417	0.00242905	-0.895054	2.13238	-2.79041	-1.56954	-2.62326	0	0	-0	0	0	0	0	0	-0	0	0	0	
547	1580482316.432685725	0.00240508	-0.895089	2.13238	-2.79041	-1.56955	-2.6233	0	0	-0	0	0	0	0	0	-0	0	0	0	
548	1580482316.440721388	0.00235715	-0.89515	2.13234	-2.79041	-1.56952	-2.62327	0	0	-0	0	0	0	0	0	-0	0	0	0	
549	1580482316.448718541	0.0023931	-0.895054	2.13238	-2.79045	-1.56952	-2.62332	0	0	-0	0	0	0	0	0	-0	0	0	0	
550	1580482316.456690514	0.0023931	-0.895089	2.1324	-2.79043	-1.56949	-2.6233	0	0	-0	0	0	0	0	0	-0	0	0	0	
551	1580482316.464730554	0.0023931	-0.895066	2.1324	-2.79044	-1.56954	-2.6233	0	0	-0	0	0	0	0	0	-0	0	0	0	
552	1580482316.472699363	0.00240508	-0.895066	2.13237	-2.79043	-1.56955	-2.62331	0	0	-0	0	0	0	0	0	-0	0	0	0	
553	1580482316.480721158	0.00240508	-0.895078	2.13241	-2.79044	-1.56955	-2.62331	0	0	-0	0	0	0	0	0	-0	0	0	0	
554	1580482316.488742374	0.0023931	-0.895078	2.13237	-2.79044	-1.56954	-2.62327	0	0	-0	0	0	0	0	0	-0	0	0	0	
555	1580482316.496737269	0.00242905	-0.895078	2.13241	-2.7904	-1.56951	-2.62331	0	0	-0	0	0	0	0	0	-0	0	0	0	
556	1580482316.504757203	0.00242905	-0.895054	2.13237	-2.79044	-1.56955	-2.62331	0	0	-0	0	0	0	0	0	-0	0	0	0	
557	1580482316.512726538	0.00240508	-0.89503	2.1324	-2.7904	-1.56951	-2.62331	0	0	-0	0	0	0	0	0	-0	0	0	0	
558	1580482316.520767129	0.00238112	-0.895054	2.13243	-2.79045	-1.56955	-2.62326	0	0	-0	0	0	0	0	0	-0	0	0	0	
559	1580482316.528759057	0.00238112	-0.895078	2.13235	-2.79041	-1.56956	-2.62326	0	0	-0	0	0	0	0	0	-0	0	0	0	
560	1580482316.536725051	0.00240508	-0.895078	2.13237	-2.79045	-1.56952	-2.6233	0	0	-0	0	0	0	0	0	-0	0	0	0	
561	1580482316.544726880	0.00240508	-0.895066	2.1324	-2.79043	-1.56958	-2.62326	0	0	-0	0	0	0	0	0	-0	0	0	0	
562	1580482316.552709625	0.00238112	-0.895089	2.13236	-2.79043	-1.56952	-2.62327	0	0	-0	0	0	0	0	0	-0	0	0	0	
563	1580482316.560732590	0.0023931	-0.895102	2.13236	-2.79041	-1.56951	-2.62332	0	0	-0	0	0	0	0	0	-0	0	0	0	
564	1580482316.568724167	0.0023931	-0.895042	2.13236	-2.79045	-1.56954	-2.62332	0	0	-0	0	0	0	0	0	-0	0	0	0	
565	1580482316.576703859	0.00234516	-0.895089	2.1324	-2.79043	-1.56954	-2.62329	0	0	-0	0	0	0	0	0	-0	0	0	0	
566	1580482316.584741946	0.00240508	-0.895089	2.1324	-2.7904	-1.56952	-2.62329	0	0	-0	0	0	0	0	0	-0	0	0	0	
567	1580482316.592717822	0.00240508	-0.895078	2.13237	-2.79041	-1.56954	-2.62329	0	0	-0	0	0	0	0	0	-0	0	0	0	
568	1580482316.600676247	0.00241707	-0.895102	2.13237	-2.79043	-1.56956	-2.62327	0	0	-0	0	0	0	0	0	-0	0	0	0	
569	1580482316.608720310	0.00238112	-0.895078	2.13237	-2.79043	-1.56955	-2.6233	0	0	-0	0	0	0	0	0	-0	0	0	0	
570	1580482316.616719726	0.00240508	-0.895078	2.13238	-2.7904	-1.56954	-2.62327	0	0	-0	0	0	0	0	0	-0	0	0	0	
571	1580482316.624678892	0.0023931	-0.895102	2.13236	-2.79041	-1.56951	-2.6233	0	0	-0	0	0	0	0	0	-0	0	0	0	
572	1580482316.632703831	0.00240508	-0.895114	2.1324	-2.79045	-1.56951	-2.62326	0	0	-0	0	0	0	0	0	-0	0	0	0	
573	1580482316.640703743	0.00236913	-0.895066	2.1324	-2.79045	-1.56956	-2.6233	0	0	-0	0	0	0	0	0	-0	0	0	0	
574	1580482316.648689706	0.0023931	-0.895054	2.13235	-2.79044	-1.56949	-2.62327	0	0	-0	0	0	0	0	0	-0	0	0	0	
575	1580482316.656693549	0.00240508	-0.895042	2.13236	-2.79044	-1.56955	-2.62329	0	0	-0	0	0	0	0	0	-0	0	0	0	
576	1580482316.664695489	0.00238112	-0.895054	2.13237	-2.79044	-1.56954	-2.62333	0	0	-0	0	0	0	0	0	-0	0	0	0	
577	1580482316.672696941	0.00238112	-0.895078	2.13236	-2.79043	-1.56954	-2.6233	0	0	-0	0	0	0	0	0	-0	0	0	0	
578	1580482316.680708031	0.0023931	-0.895102	2.13234	-2.79043	-1.56951	-2.62332	0	0	-0	0	0	0	0	0	-0	0	0	0	
579	1580482316.688692741	0.00238112	-0.895089	2.13237	-2.79041	-1.56954	-2.62332	0	0	-0	0	0	0	0	0	-0	0	0	0	
580	1580482316.696673562	0.0023931	-0.895102	2.13235	-2.79043	-1.56956	-2.62327	0	0	-0	0	0	0	0	0	-0	0	0	0	
581	1580482316.704702754	0.00241707	-0.895078	2.1324	-2.79039	-1.56956	-2.62326	0	0	-0	0	0	0	0	0	-0	0	0	0	
582	1580482316.712735845	0.00238112	-0.895078	2.13236	-2.79045	-1.56951	-2.6233	0	0	-0	0	0	0	0	0	-0	0	0	0	
583	1580482316.720673148	0.00238112	-0.895054	2.13238	-2.79045	-1.56954	-2.6233	0	0	-0	0	0	0	0	0	-0	0	0	0	
584	1580482316.728687830	0.00241707	-0.895066	2.13241	-2.79043	-1.56954	-2.6233	0	0	-0	0	0	0	0	0	-0	0	0	0	
585	1580482316.736707742	0.0023931	-0.895102	2.13237	-2.79043	-1.56954	-2.62327	0	0	-0	0	0	0	0	0	-0	0	0	0	
586	1580482316.744685404	0.00240508	-0.895054	2.13237	-2.79044	-1.56954	-2.62331	0	0	-0	0	0	0	0	0	-0	0	0	0	
587	1580482316.752690693	0.00241707	-0.895078	2.13236	-2.79045	-1.56955	-2.62326	0	0	-0	0	0	0	0	0	-0	0	0	0	
588	1580482316.760700960	0.00240508	-0.895042	2.1324	-2.79044	-1.56955	-2.62329	0	0	-0	0	0	0	0	0	-0	0	0	0	
589	1580482316.768713623	0.00235715	-0.895078	2.13237	-2.79041	-1.56956	-2.62327	0	0	-0	0	0	0	0	0	-0	0	0	0	
590	1580482316.776712725	0.00236913	-0.895042	2.13234	-2.7904	-1.56954	-2.62331	0	0	-0	0	0	0	0	0	-0	0	0	0	
591	1580482316.784688398	0.0023931	-0.895089	2.13238	-2.79045	-1.56955	-2.6233	0	0	-0	0	0	0	0	0	-0	0	0	0	
592	1580482316.792671862	0.00238112	-0.89503	2.1324	-2.79043	-1.56954	-2.6233	0	0	-0	0	0	0	0	0	-0	0	0	0	
593	1580482316.800657560	0.00241707	-0.895089	2.13234	-2.79041	-1.56956	-2.62329	0	0	-0	0	0	0	0	0	-0	0	0	0	
594	1580482316.808727282	0.00238112	-0.895078	2.13238	-2.79041	-1.56954	-2.62329	0	0	-0	0	0	0	0	0	-0	0	0	0	
595	1580482316.816659872	0.00240508	-0.895066	2.13238	-2.7904	-1.56954	-2.62332	0	0	-0	0	0	0	0	0	-0	0	0	0	
596	1580482316.824673959	0.0023931	-0.895102	2.13238	-2.79041	-1.56949	-2.62332	0	0	-0	0	0	0	0	0	-0	0	0	0	
597	1580482316.832725644	0.00238112	-0.895078	2.13235	-2.79043	-1.56955	-2.62327	0	0	-0	0	0	0	0	0	-0	0	0	0	
598	1580482316.840740510	0.00240508	-0.895114	2.1324	-2.79043	-1.56954	-2.6233	0	0	-0	0	0	0	0	0	-0	0	0	0	
599	1580482316.848713848	0.0023931	-0.895066	2.13237	-2.79044	-1.56952	-2.62331	0	0	-0	0	0	0	0	0	-0	0	0	0	
600	1580482316.856692691	0.00236913	-0.895054	2.13238	-2.79043	-1.56951	-2.6233	0	0	-0	0	0	0	0	0	-0	0	0	0	
601	1580482316.864675444	0.00236913	-0.895089	2.13238	-2.79041	-1.56954	-2.62329	0	0	-0	0	0	0	0	0	-0	0	0	0	
602	1580482316.872728668	0.0023931	-0.895078	2.13238	-2.79044	-1.56954	-2.62331	0	0	-0	0	0	0	0	0	-0	0	0	0	
603	1580482316.880702218	0.00238112	-0.895089	2.1324	-2.79043	-1.56955	-2.6233	0	0	-0	0	0	0	0	0	-0	0	0	0	
604	1580482316.888676045	0.00238112	-0.895078	2.13236	-2.7904	-1.56957	-2.62329	0	0	-0	0	0	0	0	0	-0	0	0	0	
605	1580482316.896714624	0.00240508	-0.89503	2.13237	-2.79043	-1.56954	-2.62332	0	0	-0	0	0	0	0	0	-0	0	0	0	
606	1580482316.904775254	0.00240508	-0.895054	2.13237	-2.7904	-1.56954	-2.62329	0	0	-0	0	0	0	0	0	-0	0	0	0	
607	1580482316.912676064	0.0023931	-0.895054	2.13236	-2.79041	-1.56954	-2.6233	0	0	-0	0	0	0	0	0	-0	0	0	0	
608	1580482316.920689734	0.0023931	-0.895089	2.13236	-2.79043	-1.56954	-2.62329	0	0	-0	0	0	0	0	0	-0	0	0	0	
609	1580482316.928695740	0.00244066	-0.895054	2.13238	-2.79041	-1.56952	-2.62329	0	0	-0	0	0	0	0	0	-0	0	0	0	
610	1580482316.936718068	0.00238112	-0.895138	2.13236	-2.79043	-1.56951	-2.62329	0	0	-0	0	0	0	0	0	-0	0	0	0	
611	1580482316.944688100	0.00240508	-0.895054	2.13241	-2.79043	-1.56956	-2.62329	0	0	-0	0	0	0	0	0	-0	0	0	0	
612	1580482316.952689730	0.00238112	-0.895078	2.13238	-2.79044	-1.56952	-2.6233	0	0	-0	0	0	0	0	0	-0	0	0	0	
613	1580482316.960689184	0.0023931	-0.895078	2.13238	-2.79044	-1.56952	-2.62329	0	0	-0	0	0	0	0	0	-0	0	0	0	
614	1580482316.968764178	0.0023931	-0.895066	2.13232	-2.79041	-1.56954	-2.62329	0	0	-0	0	0	0	0	0	-0	0	0	0	
615	1580482316.976696981	0.0023931	-0.895054	2.13236	-2.79043	-1.56951	-2.62331	0	0	-0	0	0	0	0	0	-0	0	0	0	
616	1580482316.984649410	0.00241707	-0.895066	2.13234	-2.79041	-1.56956	-2.62332	0	0	-0	0	0	0	0	0	-0	0	0	0	
617	1580482316.992636592	0.00235715	-0.895114	2.13234	-2.79044	-1.56955	-2.62326	0	0	-0	0	0	0	0	0	-0	0	0	0	
618	1580482317.000725450	0.0023931	-0.895054	2.13238	-2.7904	-1.56955	-2.62332	0	0	-0	0	0	0	0	0	-0	0	0	0	
619	1580482317.008697278	0.00238112	-0.895089	2.13236	-2.79043	-1.56956	-2.62327	0	0	-0	0	0	0	0	0	-0	0	0	0	
620	1580482317.016703648	0.00238112	-0.895089	2.13237	-2.79043	-1.56954	-2.62329	0	0	-0	0	0	0	0	0	-0	0	0	0	
621	1580482317.024694079	0.00240508	-0.895078	2.1324	-2.79043	-1.5695	-2.62329	0	0	-0	0	0	0	0	0	-0	0	0	0	
622	1580482317.032737059	0.00236913	-0.895066	2.13235	-2.79043	-1.56956	-2.6233	0	0	-0	0	0	0	0	0	-0	0	0	0	
623	1580482317.040698663	0.00236913	-0.895089	2.13237	-2.79044	-1.56954	-2.62332	0	0	-0	0	0	0	0	0	-0	0	0	0	
624	1580482317.048647630	0.00238112	-0.895066	2.13237	-2.7904	-1.56951	-2.62332	0	0	-0	0	0	0	0	0	-0	0	0	0	
625	1580482317.056698873	0.00240508	-0.895054	2.13237	-2.79041	-1.56951	-2.62329	0	0	-0	0	0	0	0	0	-0	0	0	0	
626	1580482317.064674433	0.00236913	-0.895078	2.13237	-2.7904	-1.56954	-2.62325	0	0	-0	0	0	0	0	0	-0	0	0	0	
627	1580482317.072693625	0.0023931	-0.895078	2.13238	-2.79041	-1.56951	-2.62329	0	0	-0	0	0	0	0	0	-0	0	0	0	
628	1580482317.080699907	0.00244066	-0.895102	2.13238	-2.79043	-1.56954	-2.62327	0	0	-0	0	0	0	0	0	-0	0	0	0	
629	1580482317.088693634	0.00240508	-0.895066	2.13238	-2.79043	-1.56957	-2.62326	0	0	-0	0	0	0	0	0	-0	0	0	0	
630	1580482317.096723022	0.00238112	-0.895102	2.13238	-2.79041	-1.56951	-2.62329	0	0	-0	0	0	0	0	0	-0	0	0	0	
631	1580482317.104708875	0.00240508	-0.895089	2.13242	-2.79043	-1.56955	-2.62327	0	0	-0	0	0	0	0	0	-0	0	0	0	
632	1580482317.112720493	0.00240508	-0.895114	2.13236	-2.79043	-1.5695	-2.62331	0	0	-0	0	0	0	0	0	-0	0	0	0	
633	1580482317.120712161	0.0023931	-0.895054	2.13236	-2.79041	-1.56957	-2.62329	0	0	-0	0	0	0	0	0	-0	0	0	0	
634	1580482317.128706604	0.00241707	-0.895089	2.13236	-2.79044	-1.56955	-2.62327	0	0	-0	0	0	0	0	0	-0	0	0	0	
635	1580482317.136702813	0.00241707	-0.895078	2.13238	-2.79045	-1.56952	-2.6233	0	0	-0	0	0	0	0	0	-0	0	0	0	
636	1580482317.144706352	0.00241707	-0.895089	2.13235	-2.7904	-1.56958	-2.62329	0	0	-0	0	0	0	0	0	-0	0	0	0	
637	1580482317.152666954	0.00240508	-0.895066	2.13234	-2.79044	-1.56952	-2.62327	0	0	-0	0	0	0	0	0	-0	0	0	0	
638	1580482317.160788837	0.0023931	-0.895054	2.13236	-2.79043	-1.56951	-2.6233	0	0	-0	0	0	0	0	0	-0	0	0	0	
639	1580482317.168664377	0.0023931	-0.895102	2.13237	-2.79043	-1.56956	-2.62331	0	0	-0	0	0	0	0	0	-0	0	0	0	
640	1580482317.176698808	0.00240508	-0.895078	2.13242	-2.79041	-1.56954	-2.62327	0	0	-0	0	0	0	0	0	-0	0	0	0	
641	1580482317.184696757	0.00241707	-0.895066	2.13236	-2.79043	-1.56954	-2.62331	0	0	-0	0	0	0	0	0	-0	0	0	0	
642	1580482317.192776439	0.0023931	-0.895066	2.13238	-2.79044	-1.56954	-2.62333	0	0	-0	0	0	0	0	0	-0	0	0	0	
643	1580482317.200973456	0.00240508	-0.895066	2.13238	-2.7904	-1.56951	-2.62327	0	0	-0	0	0	0	0	0	-0	0	0	0	
644	1580482317.208704284	0.00241707	-0.895042	2.13235	-2.79044	-1.56952	-2.62329	0	0	-0	0	0	0	0	0	-0	0	0	0	
645	1580482317.216708199	0.00241707	-0.895066	2.13236	-2.7904	-1.56954	-2.62326	0	0	-0	0	0	0	0	0	-0	0	0	0	
646	1580482317.224741608	0.00238112	-0.895066	2.13238	-2.79044	-1.56955	-2.6233	0	0	-0	0	0	0	0	0	-0	0	0	0	
647	1580482317.232707647	0.00241707	-0.895066	2.13241	-2.79043	-1.56954	-2.62329	0	0	-0	0	0	0	0	0	-0	0	0	0	
648	1580482317.240708382	0.0023931	-0.895042	2.13237	-2.79043	-1.56954	-2.62329	0	0	-0	0	0	0	0	0	-0	0	0	0	
649	1580482317.248722070	0.00236913	-0.895078	2.13242	-2.79043	-1.56954	-2.62331	0	0	-0	0	0	0	0	0	-0	0	0	0	
650	1580482317.256785598	0.00238112	-0.895078	2.13238	-2.79043	-1.5695	-2.6233	0	0	-0	0	0	0	0	0	-0	0	0	0	
651	1580482317.264691769	0.00240508	-0.895042	2.13235	-2.79045	-1.56954	-2.6233	0	0	-0	0	0	0	0	0	-0	0	0	0	
652	1580482317.272671606	0.00241707	-0.895054	2.13235	-2.79043	-1.56955	-2.62327	0	0	-0	0	0	0	0	0	-0	0	0	0	
653	1580482317.280643085	0.00240508	-0.895078	2.13238	-2.79043	-1.56952	-2.62331	0	0	-0	0	0	0	0	0	-0	0	0	0	
654	1580482317.288659310	0.0023931	-0.895078	2.1324	-2.79043	-1.56954	-2.62329	0	0	-0	0	0	0	0	0	-0	0	0	0	
655	1580482317.296672846	0.00241707	-0.895066	2.13236	-2.79044	-1.5695	-2.62331	0	0	-0	0	0	0	0	0	-0	0	0	0	
656	1580482317.304604442	0.00241707	-0.895089	2.1324	-2.79043	-1.56955	-2.62331	0	0	-0	0	0	0	0	0	-0	0	0	0	
657	1580482317.312666639	0.00240508	-0.895066	2.13238	-2.79041	-1.56951	-2.6233	0	0	-0	0	0	0	0	0	-0	0	0	0	
658	1580482317.320617706	0.0023931	-0.895089	2.13235	-2.79045	-1.5695	-2.6233	0	0	-0	0	0	0	0	0	-0	0	0	0	
659	1580482317.328681431	0.00242905	-0.895054	2.13235	-2.79044	-1.56954	-2.6233	0	0	-0	0	0	0	0	0	-0	0	0	0	
660	1580482317.336667492	0.00238112	-0.895078	2.13237	-2.79041	-1.56956	-2.62331	0	0	-0	0	0	0	0	0	-0	0	0	0	
661	1580482317.344603821	0.0023931	-0.895102	2.13237	-2.79043	-1.56956	-2.62331	0	0	-0	0	0	0	0	0	-0	0	0	0	
662	1580482317.352669378	0.0023931	-0.895066	2.13235	-2.79043	-1.56952	-2.62329	0	0	-0	0	0	0	0	0	-0	0	0	0	
663	1580482317.360674756	0.00240508	-0.895102	2.13235	-2.79044	-1.56955	-2.6233	0	0	-0	0	0	0	0	0	-0	0	0	0	
664	1580482317.368678436	0.00238112	-0.895078	2.13236	-2.7904	-1.56956	-2.6233	0	0	-0	0	0	0	0	0	-0	0	0	0	
665	1580482317.376697684	0.00240508	-0.895066	2.1324	-2.79043	-1.56951	-2.6233	0	0	-0	0	0	0	0	0	-0	0	0	0	
666	1580482317.384730105	0.00241707	-0.895089	2.13237	-2.79043	-1.56956	-2.62331	0	0	-0	0	0	0	0	0	-0	0	0	0	
667	1580482317.392672834	0.0023931	-0.895042	2.13237	-2.79044	-1.56958	-2.6233	0	0	-0	0	0	0	0	0	-0	0	0	0	
668	1580482317.400707678	0.0023931	-0.895054	2.13236	-2.79043	-1.56955	-2.62329	0	0	-0	0	0	0	0	0	-0	0	0	0	
669	1580482317.408695816	0.00241707	-0.895078	2.13238	-2.79041	-1.56952	-2.62329	0	0	-0	0	0	0	0	0	-0	0	0	0	
670	1580482317.416685706	0.00236913	-0.895078	2.13235	-2.79041	-1.56954	-2.62332	0	0	-0	0	0	0	0	0	-0	0	0	0	
671	1580482317.416685706	0.00236913	-0.895078	2.13235	-2.79041	-1.56954	-2.62332	0	0	-0	0	0	0	0	0	-0	0	0	0	
672	1580482317.432693460	0.00240508	-0.895042	2.13237	-2.79044	-1.56954	-2.6233	0	0	-0	0	0	0	0	0	-0	0	0	0	
673	1580482317.440700523	0.00238112	-0.895078	2.13235	-2.79043	-1.56954	-2.62329	0	0	-0	0	0	0	0	0	-0	0	0	0	
674	1580482317.448722527	0.0023931	-0.89503	2.1324	-2.79041	-1.56956	-2.62327	0	0	-0	0	0	0	0	0	-0	0	0	0	
675	1580482317.456697562	0.00238112	-0.895078	2.13237	-2.79043	-1.56952	-2.62327	0	0	-0	0	0	0	0	0	-0	0	0	0	
676	1580482317.464666396	0.0023931	-0.895078	2.13238	-2.79043	-1.56952	-2.6233	0	0	-0	0	0	0	0	0	-0	0	0	0	
677	1580482317.472773092	0.00238112	-0.895042	2.13238	-2.79044	-1.56951	-2.62327	0	0	-0	0	0	0	0	0	-0	0	0	0	
678	1580482317.480749696	0.00240508	-0.895042	2.13236	-2.79043	-1.56952	-2.62329	0	0	-0	0	0	0	0	0	-0	0	0	0	
679	1580482317.488714507	0.00241707	-0.895089	2.13235	-2.79043	-1.56952	-2.62329	0	0	-0	0	0	0	0	0	-0	0	0	0	
680	1580482317.496692168	0.00240508	-0.895066	2.13234	-2.79043	-1.56955	-2.62331	0	0	-0	0	0	0	0	0	-0	0	0	0	
681	1580482317.504709705	0.00240508	-0.89503	2.13235	-2.79041	-1.56954	-2.62325	0	0	-0	0	0	0	0	0	-0	0	0	0	
682	1580482317.512767605	0.00240508	-0.895078	2.13236	-2.79045	-1.56954	-2.62333	0	0	-0	0	0	0	0	0	-0	0	0	0	
683	1580482317.520725008	0.00238112	-0.895078	2.13236	-2.79043	-1.56952	-2.62335	0	0	-0	0	0	0	0	0	-0	0	0	0	
684	1580482317.528700175	0.00238112	-0.895102	2.13237	-2.7904	-1.56951	-2.6233	0	0	-0	0	0	0	0	0	-0	0	0	0	
685	1580482317.536637955	0.00238112	-0.895078	2.13238	-2.79041	-1.5696	-2.62329	0	0	-0	0	0	0	0	0	-0	0	0	0	
686	1580482317.544763305	0.0023931	-0.895078	2.13238	-2.79043	-1.5695	-2.62332	0	0	-0	0	0	0	0	0	-0	0	0	0	
687	1580482317.552708234	0.00241707	-0.895054	2.13238	-2.79045	-1.56954	-2.6233	0	0	-0	0	0	0	0	0	-0	0	0	0	
688	1580482317.560698012	0.00240508	-0.895066	2.13238	-2.79041	-1.56955	-2.62327	0	0	-0	0	0	0	0	0	-0	0	0	0	
689	1580482317.568688693	0.00242905	-0.895078	2.13237	-2.79039	-1.56951	-2.62329	0	0	-0	0	0	0	0	0	-0	0	0	0	
690	1580482317.576692151	0.00236913	-0.895078	2.13235	-2.79041	-1.56952	-2.62327	0	0	-0	0	0	0	0	0	-0	0	0	0	
691	1580482317.584707943	0.00240508	-0.895042	2.13236	-2.79041	-1.56952	-2.6233	0	0	-0	0	0	0	0	0	-0	0	0	0	
692	1580482317.592720624	0.00241707	-0.895089	2.13232	-2.79043	-1.56955	-2.62331	0	0	-0	0	0	0	0	0	-0	0	0	0	
693	1580482317.600744644	0.00240508	-0.89503	2.13236	-2.79043	-1.56952	-2.62329	0	0	-0	0	0	0	0	0	-0	0	0	0	
694	1580482317.608686314	0.0023931	-0.895114	2.13237	-2.7904	-1.56954	-2.6233	0	0	-0	0	0	0	0	0	-0	0	0	0	
695	1580482317.616673200	0.00238112	-0.895066	2.13236	-2.79041	-1.56955	-2.62331	0	0	-0	0	0	0	0	0	-0	0	0	0	
696	1580482317.624706313	0.00236913	-0.895089	2.13236	-2.79043	-1.56951	-2.62327	0	0	-0	0	0	0	0	0	-0	0	0	0	
697	1580482317.632720637	0.00242905	-0.895102	2.1324	-2.79043	-1.56954	-2.62329	0	0	-0	0	0	0	0	0	-0	0	0	0	
698	1580482317.640667803	0.00238112	-0.895078	2.13241	-2.79043	-1.56954	-2.6233	0	0	-0	0	0	0	0	0	-0	0	0	0	
699	1580482317.648692048	0.0023931	-0.895078	2.13235	-2.79041	-1.56952	-2.62329	0	0	-0	0	0	0	0	0	-0	0	0	0	
700	1580482317.656691275	0.00240508	-0.895066	2.13237	-2.79041	-1.56954	-2.62331	0	0	-0	0	0	0	0	0	-0	0	0	0	
701	1580482317.664695393	0.00242905	-0.895078	2.13237	-2.79044	-1.56955	-2.62329	0	0	-0	0	0	0	0	0	-0	0	0	0	
702	1580482317.672672499	0.00238112	-0.895054	2.13237	-2.79041	-1.56952	-2.6233	0	0	-0	0	0	0	0	0	-0	0	0	0	
703	1580482317.680672674	0.00241707	-0.895066	2.13238	-2.79041	-1.56954	-2.62327	0	0	-0	0	0	0	0	0	-0	0	0	0	
704	1580482317.688673864	0.00240508	-0.895078	2.13236	-2.79044	-1.56955	-2.62331	0	0	-0	0	0	0	0	0	-0	0	0	0	
705	1580482317.696701690	0.00236913	-0.895066	2.13238	-2.79043	-1.56954	-2.62327	0	0	-0	0	0	0	0	0	-0	0	0	0	
706	1580482317.704771130	0.00241707	-0.895102	2.13238	-2.79041	-1.56952	-2.62331	0	0	-0	0	0	0	0	0	-0	0	0	0	
707	1580482317.712704628	0.00240508	-0.895054	2.13235	-2.79041	-1.56952	-2.6233	0	0	-0	0	0	0	0	0	-0	0	0	0	
708	1580482317.720700940	0.00238112	-0.895078	2.13236	-2.7904	-1.56954	-2.62332	0	0	-0	0	0	0	0	0	-0	0	0	0	
709	1580482317.728683534	0.00241707	-0.895078	2.13238	-2.79043	-1.56955	-2.62331	0	0	-0	0	0	0	0	0	-0	0	0	0	
710	1580482317.736706612	0.0023931	-0.895089	2.13236	-2.79044	-1.56954	-2.62335	0	0	-0	0	0	0	0	0	-0	0	0	0	
711	1580482317.744690890	0.00241707	-0.895089	2.13238	-2.79044	-1.56956	-2.62331	0	0	-0	0	0	0	0	0	-0	0	0	0	
712	1580482317.752690151	0.0023931	-0.895018	2.13234	-2.79041	-1.56955	-2.6233	0	0	-0	0	0	0	0	0	-0	0	0	0	
713	1580482317.760691186	0.00242905	-0.895066	2.13238	-2.79041	-1.56951	-2.6233	0	0	-0	0	0	0	0	0	-0	0	0	0	
714	1580482317.768721599	0.0023931	-0.895042	2.13237	-2.79044	-1.56954	-2.6233	0	0	-0	0	0	0	0	0	-0	0	0	0	
715	1580482317.776690390	0.00241707	-0.895102	2.13242	-2.79043	-1.56957	-2.6233	0	0	-0	0	0	0	0	0	-0	0	0	0	
716	1580482317.784686948	0.00240508	-0.895042	2.13236	-2.7904	-1.56955	-2.62329	0	0	-0	0	0	0	0	0	-0	0	0	0	
717	1580482317.792673561	0.00241707	-0.895078	2.13237	-2.79043	-1.56956	-2.62332	0	0	-0	0	0	0	0	0	-0	0	0	0	
718	1580482317.801004802	0.00240508	-0.895066	2.13238	-2.79044	-1.56952	-2.62331	0	0	-0	0	0	0	0	0	-0	0	0	0	
719	1580482317.808694027	0.0023931	-0.895078	2.13238	-2.7904	-1.56952	-2.62332	0	0	-0	0	0	0	0	0	-0	0	0	0	
720	1580482317.816692342	0.00241707	-0.895066	2.13238	-2.79041	-1.56952	-2.6233	0	0	-0	0	0	0	0	0	-0	0	0	0	
721	1580482317.824701456	0.0023931	-0.895054	2.13236	-2.79043	-1.56955	-2.62331	0	0	-0	0	0	0	0	0	-0	0	0	0	
722	1580482317.832711426	0.00241707	-0.895042	2.13238	-2.79043	-1.56956	-2.62331	0	0	-0	0	0	0	0	0	-0	0	0	0	
723	1580482317.840692500	0.00238112	-0.895102	2.1324	-2.79044	-1.56954	-2.62329	0	0	-0	0	0	0	0	0	-0	0	0	0	
724	1580482317.848703409	0.00240508	-0.895066	2.13236	-2.79041	-1.56955	-2.62329	0	0	-0	0	0	0	0	0	-0	0	0	0	
725	1580482317.856705249	0.00240508	-0.895078	2.13234	-2.79043	-1.56954	-2.62331	0	0	-0	0	0	0	0	0	-0	0	0	0	
726	1580482317.864679159	0.00241707	-0.895078	2.13232	-2.79044	-1.56954	-2.62327	0	0	-0	0	0	0	0	0	-0	0	0	0	
727	1580482317.872691081	0.00238112	-0.895066	2.13235	-2.79043	-1.56957	-2.62327	0	0	-0	0	0	0	0	0	-0	0	0	0	
728	1580482317.880701384	0.00240508	-0.895102	2.13238	-2.79044	-1.56954	-2.62327	0	0	-0	0	0	0	0	0	-0	0	0	0	
729	1580482317.888704794	0.0023931	-0.895054	2.13236	-2.79041	-1.56955	-2.62329	0	0	-0	0	0	0	0	0	-0	0	0	0	
730	1580482317.896673929	0.00240508	-0.895078	2.13236	-2.7904	-1.56954	-2.62332	0	0	-0	0	0	0	0	0	-0	0	0	0	
731	1580482317.904703058	0.00240508	-0.895066	2.1324	-2.79044	-1.56956	-2.62329	0	0	-0	0	0	0	0	0	-0	0	0	0	
732	1580482317.912700934	0.00240508	-0.895078	2.13238	-2.7904	-1.56956	-2.62327	0	0	-0	0	0	0	0	0	-0	0	0	0	
733	1580482317.920699813	0.0023931	-0.895114	2.13234	-2.79044	-1.56955	-2.6233	0	0	-0	0	0	0	0	0	-0	0	0	0	
734	1580482317.928723835	0.00241707	-0.895089	2.13235	-2.79044	-1.5695	-2.62329	0	0	-0	0	0	0	0	0	-0	0	0	0	
735	1580482317.936682868	0.00240508	-0.895042	2.13236	-2.79046	-1.56958	-2.62329	0	0	-0	0	0	0	0	0	-0	0	0	0	
736	1580482317.944692104	0.00236913	-0.895102	2.13237	-2.79045	-1.56951	-2.62333	0	0	-0	0	0	0	0	0	-0	0	0	0	
737	1580482317.952691030	0.0023931	-0.895114	2.13238	-2.79044	-1.56955	-2.62329	0	0	-0	0	0	0	0	0	-0	0	0	0	
738	1580482317.960681532	0.00241707	-0.895089	2.13236	-2.79043	-1.56954	-2.62329	0	0	-0	0	0	0	0	0	-0	0	0	0	
739	1580482317.968692245	0.00240508	-0.895066	2.1324	-2.79041	-1.56952	-2.6233	0	0	-0	0	0	0	0	0	-0	0	0	0	
740	1580482317.976677531	0.0023931	-0.895078	2.13237	-2.79045	-1.56956	-2.62331	0	0	-0	0	0	0	0	0	-0	0	0	0	
741	1580482317.984692585	0.0023931	-0.895102	2.13236	-2.79041	-1.56956	-2.62331	0	0	-0	0	0	0	0	0	-0	0	0	0	
742	1580482317.992711679	0.00238112	-0.895066	2.13238	-2.79041	-1.56952	-2.62329	0	0	-0	0	0	0	0	0	-0	0	0	0	
743	1580482317.992711679	0.00238112	-0.895066	2.13238	-2.79041	-1.56952	-2.62329	0	0	-0	0	0	0	0	0	-0	0	0	0	
744	1580482318.008671181	0.00238112	-0.895078	2.1324	-2.79044	-1.56952	-2.6233	0	0	-0	0	0	0	0	0	-0	0	0	0	
745	1580482318.016646958	0.00238112	-0.895102	2.1324	-2.7904	-1.56955	-2.62326	0	0	-0	0	0	0	0	0	-0	0	0	0	
746	1580482318.024709967	0.00241707	-0.895089	2.13232	-2.79044	-1.56954	-2.62331	0	0	-0	0	0	0	0	0	-0	0	0	0	
747	1580482318.032692540	0.0023931	-0.895089	2.13232	-2.79043	-1.56955	-2.6233	0	0	-0	0	0	0	0	0	-0	0	0	0	
748	1580482318.040692724	0.0023931	-0.895054	2.13236	-2.79043	-1.56952	-2.6233	0	0	-0	0	0	0	0	0	-0	0	0	0	
749	1580482318.048691401	0.00241707	-0.895089	2.13236	-2.79043	-1.56955	-2.62329	0	0	-0	0	0	0	0	0	-0	0	0	0	
750	1580482318.056722063	0.00238112	-0.895078	2.13242	-2.7904	-1.56954	-2.62326	0	0	-0	0	0	0	0	0	-0	0	0	0	
751	1580482318.064706496	0.00241707	-0.895102	2.13234	-2.79043	-1.56956	-2.62329	0	0	-0	0	0	0	0	0	-0	0	0	0	
752	1580482318.072658700	0.00240508	-0.895078	2.13238	-2.79045	-1.56954	-2.62327	0	0	-0	0	0	0	0	0	-0	0	0	0	
753	1580482318.080707752	0.0023931	-0.895078	2.13235	-2.79043	-1.56955	-2.62329	0	0	-0	0	0	0	0	0	-0	0	0	0	
754	1580482318.088737431	0.00240508	-0.895078	2.13238	-2.79044	-1.56955	-2.6233	0	0	-0	0	0	0	0	0	-0	0	0	0	
755	1580482318.096680058	0.00240508	-0.895066	2.13241	-2.79043	-1.56952	-2.6233	0	0	-0	0	0	0	0	0	-0	0	0	0	
756	1580482318.104661634	0.0023931	-0.895089	2.13238	-2.79043	-1.56954	-2.62327	0	0	-0	0	0	0	0	0	-0	0	0	0	
757	1580482318.112737517	0.00241707	-0.895066	2.13236	-2.79041	-1.56954	-2.6233	0	0	-0	0	0	0	0	0	-0	0	0	0	
758	1580482318.120735532	0.0023931	-0.895114	2.13238	-2.7904	-1.56951	-2.6233	0	0	-0	0	0	0	0	0	-0	0	0	0	
759	1580482318.128656435	0.00240508	-0.895054	2.13236	-2.79043	-1.56954	-2.6233	0	0	-0	0	0	0	0	0	-0	0	0	0	
760	1580482318.136704888	0.00242905	-0.895078	2.13241	-2.79044	-1.56952	-2.62327	0	0	-0	0	0	0	0	0	-0	0	0	0	
761	1580482318.144672686	0.00241707	-0.895054	2.13238	-2.79043	-1.56951	-2.6233	0	0	-0	0	0	0	0	0	-0	0	0	0	
762	1580482318.152735982	0.00241707	-0.895066	2.13237	-2.79041	-1.56955	-2.6233	0	0	-0	0	0	0	0	0	-0	0	0	0	
763	1580482318.160684644	0.0023931	-0.895054	2.13236	-2.79043	-1.56955	-2.62329	0	0	-0	0	0	0	0	0	-0	0	0	0	
764	1580482318.168697205	0.00240508	-0.895078	2.13236	-2.79043	-1.56955	-2.62329	0	0	-0	0	0	0	0	0	-0	0	0	0	
765	1580482318.176693657	0.0023931	-0.895078	2.13237	-2.79045	-1.56952	-2.62327	0	0	-0	0	0	0	0	0	-0	0	0	0	
766	1580482318.184724059	0.00236913	-0.895078	2.13238	-2.79043	-1.56956	-2.6233	0	0	-0	0	0	0	0	0	-0	0	0	0	
767	1580482318.192682806	0.00241707	-0.895089	2.13241	-2.79044	-1.56951	-2.6233	0	0	-0	0	0	0	0	0	-0	0	0	0	
768	1580482318.200702881	0.00236913	-0.895114	2.13237	-2.79043	-1.56954	-2.6233	0	0	-0	0	0	0	0	0	-0	0	0	0	
769	1580482318.208716849	0.00238112	-0.895078	2.13236	-2.79043	-1.56956	-2.6233	0	0	-0	0	0	0	0	0	-0	0	0	0	
770	1580482318.216783149	0.00238112	-0.895078	2.13238	-2.79043	-1.56954	-2.62331	0	0	-0	0	0	0	0	0	-0	0	0	0	
771	1580482318.224707300	0.0023931	-0.895042	2.13238	-2.79043	-1.56955	-2.62329	0	0	-0	0	0	0	0	0	-0	0	0	0	
772	1580482318.232696623	0.00240508	-0.895066	2.13237	-2.79044	-1.56956	-2.62327	0	0	-0	0	0	0	0	0	-0	0	0	0	
773	1580482318.240688577	0.0023931	-0.895089	2.13238	-2.79041	-1.56958	-2.62326	0	0	-0	0	0	0	0	0	-0	0	0	0	
774	1580482318.248765416	0.00240508	-0.89503	2.13235	-2.7904	-1.56955	-2.6233	0	0	-0	0	0	0	0	0	-0	0	0	0	
775	1580482318.256706355	0.00241707	-0.895102	2.13237	-2.79043	-1.56957	-2.62329	0	0	-0	0	0	0	0	0	-0	0	0	0	
776	1580482318.264710887	0.00238112	-0.895054	2.13234	-2.79046	-1.56951	-2.6233	0	0	-0	0	0	0	0	0	-0	0	0	0	
777	1580482318.272743327	0.00236913	-0.895089	2.13236	-2.79041	-1.56955	-2.62327	0	0	-0	0	0	0	0	0	-0	0	0	0	
778	1580482318.280725701	0.00238112	-0.895054	2.13237	-2.79039	-1.56954	-2.62327	0	0	-0	0	0	0	0	0	-0	0	0	0	
779	1580482318.288715084	0.00240508	-0.895054	2.1324	-2.79039	-1.56958	-2.62327	0	0	-0	0	0	0	0	0	-0	0	0	0	
780	1580482318.296699973	0.00241707	-0.895054	2.13237	-2.79038	-1.56952	-2.6233	0	0	-0	0	0	0	0	0	-0	0	0	0	
781	1580482318.304697270	0.0023931	-0.895066	2.13236	-2.79043	-1.56955	-2.62332	0	0	-0	0	0	0	0	0	-0	0	0	0	
782	1580482318.312742923	0.00240508	-0.895042	2.13236	-2.79044	-1.56951	-2.62329	0	0	-0	0	0	0	0	0	-0	0	0	0	
783	1580482318.320702563	0.0023931	-0.895066	2.1324	-2.79043	-1.56956	-2.62327	0	0	-0	0	0	0	0	0	-0	0	0	0	
784	1580482318.328703657	0.00240508	-0.895066	2.13236	-2.79043	-1.56954	-2.62332	0	0	-0	0	0	0	0	0	-0	0	0	0	
785	1580482318.336668354	0.0023931	-0.895089	2.13236	-2.79045	-1.56955	-2.62327	0	0	-0	0	0	0	0	0	-0	0	0	0	
786	1580482318.344720247	0.00240508	-0.895042	2.13234	-2.79045	-1.56954	-2.6233	0	0	-0	0	0	0	0	0	-0	0	0	0	
787	1580482318.352690826	0.00235715	-0.895066	2.13237	-2.79044	-1.56951	-2.62327	0	0	-0	0	0	0	0	0	-0	0	0	0	
788	1580482318.360703601	0.00240508	-0.895078	2.13237	-2.79043	-1.56954	-2.62327	0	0	-0	0	0	0	0	0	-0	0	0	0	
789	1580482318.368702024	0.00242905	-0.895102	2.13237	-2.79043	-1.56952	-2.62326	0	0	-0	0	0	0	0	0	-0	0	0	0	
790	1580482318.376706501	0.0023931	-0.895054	2.13234	-2.79041	-1.56954	-2.6233	0	0	-0	0	0	0	0	0	-0	0	0	0	
791	1580482318.384682457	0.0023931	-0.895078	2.13238	-2.79043	-1.56951	-2.62329	0	0	-0	0	0	0	0	0	-0	0	0	0	
792	1580482318.392692430	0.00240508	-0.895078	2.13235	-2.79041	-1.56955	-2.62332	0	0	-0	0	0	0	0	0	-0	0	0	0	
793	1580482318.400706350	0.0023931	-0.895102	2.13241	-2.79044	-1.56955	-2.62329	0	0	-0	0	0	0	0	0	-0	0	0	0	
794	1580482318.408723857	0.00241707	-0.895054	2.13237	-2.79041	-1.56951	-2.62331	0	0	-0	0	0	0	0	0	-0	0	0	0	
795	1580482318.416709144	0.00238112	-0.895066	2.1324	-2.79045	-1.56952	-2.62331	0	0	-0	0	0	0	0	0	-0	0	0	0	
796	1580482318.424695846	0.0023931	-0.89503	2.13236	-2.79043	-1.56951	-2.62326	0	0	-0	0	0	0	0	0	-0	0	0	0	
797	1580482318.432694550	0.00238112	-0.895078	2.13238	-2.79043	-1.56955	-2.6233	0	0	-0	0	0	0	0	0	-0	0	0	0	
798	1580482318.440711729	0.00241707	-0.895102	2.13236	-2.79045	-1.56954	-2.62327	0	0	-0	0	0	0	0	0	-0	0	0	0	
799	1580482318.448703101	0.00236913	-0.895066	2.13238	-2.79041	-1.56954	-2.6233	0	0	-0	0	0	0	0	0	-0	0	0	0	
800	1580482318.456667625	0.0023931	-0.895066	2.13236	-2.7904	-1.56954	-2.62329	0	0	-0	0	0	0	0	0	-0	0	0	0	
801	1580482318.464694364	0.00240508	-0.895078	2.13234	-2.79043	-1.56956	-2.62325	0	0	-0	0	0	0	0	0	-0	0	0	0	
802	1580482318.472730955	0.0023931	-0.895078	2.13237	-2.79044	-1.56957	-2.6233	0	0	-0	0	0	0	0	0	-0	0	0	0	
803	1580482318.480714162	0.00236913	-0.895042	2.13237	-2.79043	-1.56955	-2.62327	0	0	-0	0	0	0	0	0	-0	0	0	0	
804	1580482318.488689230	0.00240508	-0.895054	2.13236	-2.79043	-1.56951	-2.6233	0	0	-0	0	0	0	0	0	-0	0	0	0	
805	1580482318.496700317	0.00238112	-0.895078	2.13236	-2.79043	-1.56954	-2.62329	0	0	-0	0	0	0	0	0	-0	0	0	0	
806	1580482318.504728816	0.0023931	-0.895066	2.13237	-2.79043	-1.56954	-2.62327	0	0	-0	0	0	0	0	0	-0	0	0	0	
807	1580482318.512722686	0.00240508	-0.895078	2.13241	-2.79043	-1.56952	-2.6233	0	0	-0	0	0	0	0	0	-0	0	0	0	
808	1580482318.520707827	0.00242905	-0.895078	2.1324	-2.79044	-1.56951	-2.6233	0	0	-0	0	0	0	0	0	-0	0	0	0	
809	1580482318.528652363	0.00240508	-0.895042	2.13236	-2.79045	-1.56952	-2.6233	0	0	-0	0	0	0	0	0	-0	0	0	0	
810	1580482318.536769154	0.00240508	-0.895078	2.13238	-2.79043	-1.56952	-2.6233	0	0	-0	0	0	0	0	0	-0	0	0	0	
811	1580482318.544693855	0.00240508	-0.89503	2.13237	-2.79044	-1.56955	-2.62329	0	0	-0	0	0	0	0	0	-0	0	0	0	
812	1580482318.552698849	0.0023931	-0.895078	2.13236	-2.79041	-1.5695	-2.6233	0	0	-0	0	0	0	0	0	-0	0	0	0	
813	1580482318.560687010	0.00240508	-0.895078	2.13238	-2.79041	-1.56952	-2.6233	0	0	-0	0	0	0	0	0	-0	0	0	0	
814	1580482318.568810924	0.0023931	-0.895054	2.13237	-2.79044	-1.56951	-2.62327	0	0	-0	0	0	0	0	0	-0	0	0	0	
815	1580482318.576697432	0.00240508	-0.895054	2.13236	-2.79046	-1.56956	-2.6233	0	0	-0	0	0	0	0	0	-0	0	0	0	
816	1580482318.584695483	0.00238112	-0.895078	2.13237	-2.79043	-1.56951	-2.62333	0	0	-0	0	0	0	0	0	-0	0	0	0	
817	1580482318.592697886	0.00238112	-0.895089	2.13236	-2.79046	-1.56956	-2.62329	0	0	-0	0	0	0	0	0	-0	0	0	0	
818	1580482318.600752611	0.00238112	-0.895102	2.13237	-2.79045	-1.56952	-2.62327	0	0	-0	0	0	0	0	0	-0	0	0	0	
819	1580482318.608700742	0.00242905	-0.895066	2.13237	-2.79046	-1.56956	-2.6233	0	0	-0	0	0	0	0	0	-0	0	0	0	
820	1580482318.616740733	0.0023931	-0.895054	2.13236	-2.79043	-1.56954	-2.6233	0	0	-0	0	0	0	0	0	-0	0	0	0	
821	1580482318.624653238	0.00235715	-0.895018	2.1324	-2.79044	-1.56956	-2.62332	0	0	-0	0	0	0	0	0	-0	0	0	0	
822	1580482318.632725990	0.00238112	-0.895102	2.13241	-2.79043	-1.56952	-2.6233	0	0	-0	0	0	0	0	0	-0	0	0	0	
823	1580482318.640679232	0.00238112	-0.895102	2.13237	-2.79043	-1.56955	-2.6233	0	0	-0	0	0	0	0	0	-0	0	0	0	
824	1580482318.648666694	0.00240508	-0.895114	2.1324	-2.79043	-1.56955	-2.62327	0	0	-0	0	0	0	0	0	-0	0	0	0	
825	1580482318.656700109	0.00238112	-0.895054	2.13237	-2.79043	-1.56957	-2.62327	0	0	-0	0	0	0	0	0	-0	0	0	0	
826	1580482318.664729665	0.00238112	-0.895018	2.13236	-2.7904	-1.56952	-2.62331	0	0	-0	0	0	0	0	0	-0	0	0	0	
827	1580482318.672695602	0.00240508	-0.895078	2.13237	-2.79041	-1.56954	-2.62335	0	0	-0	0	0	0	0	0	-0	0	0	0	
828	1580482318.680693110	0.00240508	-0.895078	2.1324	-2.79041	-1.56955	-2.62332	0	0	-0	0	0	0	0	0	-0	0	0	0	
829	1580482318.688699497	0.00241707	-0.895102	2.13235	-2.79045	-1.56954	-2.62327	0	0	-0	0	0	0	0	0	-0	0	0	0	
830	1580482318.696700278	0.0023931	-0.895042	2.13236	-2.7904	-1.56957	-2.62331	0	0	-0	0	0	0	0	0	-0	0	0	0	
831	1580482318.704699510	0.00241707	-0.895054	2.13236	-2.79041	-1.56956	-2.6233	0	0	-0	0	0	0	0	0	-0	0	0	0	
832	1580482318.712688822	0.00236913	-0.895054	2.13237	-2.79043	-1.56954	-2.6233	0	0	-0	0	0	0	0	0	-0	0	0	0	
833	1580482318.720661222	0.0023931	-0.895078	2.13234	-2.79043	-1.56954	-2.62329	0	0	-0	0	0	0	0	0	-0	0	0	0	
834	1580482318.728728495	0.00238112	-0.895066	2.1324	-2.79043	-1.56955	-2.62331	0	0	-0	0	0	0	0	0	-0	0	0	0	
835	1580482318.736701663	0.00240508	-0.895066	2.13236	-2.79044	-1.56956	-2.62329	0	0	-0	0	0	0	0	0	-0	0	0	0	
836	1580482318.744675070	0.0023931	-0.895078	2.13236	-2.79043	-1.56956	-2.6233	0	0	-0	0	0	0	0	0	-0	0	0	0	
837	1580482318.752698565	0.0023931	-0.895018	2.13234	-2.79044	-1.56955	-2.62329	0	0	-0	0	0	0	0	0	-0	0	0	0	
838	1580482318.760722993	0.00242905	-0.895102	2.13236	-2.79044	-1.56955	-2.62327	0	0	-0	0	0	0	0	0	-0	0	0	0	
839	1580482318.768693263	0.00241707	-0.895054	2.13238	-2.79044	-1.56955	-2.6233	0	0	-0	0	0	0	0	0	-0	0	0	0	
840	1580482318.776693033	0.00242905	-0.895054	2.13237	-2.79044	-1.56954	-2.62329	0	0	-0	0	0	0	0	0	-0	0	0	0	
841	1580482318.784703706	0.00241707	-0.895078	2.13236	-2.79043	-1.56957	-2.62325	0	0	-0	0	0	0	0	0	-0	0	0	0	
842	1580482318.792712731	0.00236913	-0.895078	2.1324	-2.79043	-1.56952	-2.62332	0	0	-0	0	0	0	0	0	-0	0	0	0	
843	1580482318.800715921	0.00238112	-0.895102	2.13241	-2.79041	-1.56952	-2.62333	0	0	-0	0	0	0	0	0	-0	0	0	0	
844	1580482318.808694147	0.00236913	-0.895054	2.13237	-2.79045	-1.56952	-2.62331	0	0	-0	0	0	0	0	0	-0	0	0	0	
845	1580482318.816707696	0.0023931	-0.895078	2.13237	-2.79043	-1.56956	-2.62327	0	0	-0	0	0	0	0	0	-0	0	0	0	
846	1580482318.824721652	0.00238112	-0.895078	2.13242	-2.79044	-1.56956	-2.62329	0	0	-0	0	0	0	0	0	-0	0	0	0	
847	1580482318.832701977	0.00238112	-0.895054	2.13234	-2.79044	-1.56954	-2.62332	0	0	-0	0	0	0	0	0	-0	0	0	0	
848	1580482318.840653687	0.00240508	-0.895114	2.13236	-2.7904	-1.56954	-2.62325	0	0	-0	0	0	0	0	0	-0	0	0	0	
849	1580482318.848695799	0.00240508	-0.895066	2.13236	-2.79043	-1.56952	-2.62331	0	0	-0	0	0	0	0	0	-0	0	0	0	
850	1580482318.856712061	0.00241707	-0.895066	2.13238	-2.79043	-1.56954	-2.62331	0	0	-0	0	0	0	0	0	-0	0	0	0	
851	1580482318.864655447	0.0023931	-0.895078	2.13236	-2.79043	-1.5695	-2.6233	0	0	-0	0	0	0	0	0	-0	0	0	0	
852	1580482318.872697614	0.0023931	-0.895066	2.13236	-2.79043	-1.56956	-2.62331	0	0	-0	0	0	0	0	0	-0	0	0	0	
853	1580482318.880699304	0.00241707	-0.895078	2.1324	-2.79044	-1.56952	-2.62331	0	0	-0	0	0	0	0	0	-0	0	0	0	
854	1580482318.888662298	0.00241707	-0.895102	2.13236	-2.79041	-1.56952	-2.6233	0	0	-0	0	0	0	0	0	-0	0	0	0	
855	1580482318.896690528	0.00242905	-0.895089	2.13235	-2.79041	-1.56954	-2.62329	0	0	-0	0	0	0	0	0	-0	0	0	0	
856	1580482318.904716437	0.0023931	-0.895089	2.13234	-2.79043	-1.56955	-2.6233	0	0	-0	0	0	0	0	0	-0	0	0	0	
857	1580482318.912696768	0.00240508	-0.895078	2.13236	-2.79043	-1.5695	-2.62326	0	0	-0	0	0	0	0	0	-0	0	0	0	
858	1580482318.920658783	0.0023931	-0.895102	2.13241	-2.79044	-1.56951	-2.62331	0	0	-0	0	0	0	0	0	-0	0	0	0	
859	1580482318.928642964	0.00240508	-0.895078	2.13237	-2.79045	-1.56954	-2.62327	0	0	-0	0	0	0	0	0	-0	0	0	0	
860	1580482318.936705844	0.00241707	-0.895018	2.13235	-2.79044	-1.56954	-2.62335	0	0	-0	0	0	0	0	0	-0	0	0	0	
861	1580482318.944675938	0.00240508	-0.895078	2.13234	-2.79041	-1.56956	-2.6233	0	0	-0	0	0	0	0	0	-0	0	0	0	
862	1580482318.952686522	0.00240508	-0.895054	2.13235	-2.79043	-1.56954	-2.62329	0	0	-0	0	0	0	0	0	-0	0	0	0	
863	1580482318.960692334	0.0023931	-0.895078	2.13236	-2.79044	-1.56951	-2.62329	0	0	-0	0	0	0	0	0	-0	0	0	0	
864	1580482318.968712766	0.0023931	-0.895066	2.13236	-2.79043	-1.56951	-2.6233	0	0	-0	0	0	0	0	0	-0	0	0	0	
865	1580482318.976699473	0.0023931	-0.895054	2.13237	-2.7904	-1.56956	-2.6233	0	0	-0	0	0	0	0	0	-0	0	0	0	
866	1580482318.984746533	0.00238112	-0.895066	2.13238	-2.79044	-1.56954	-2.62329	0	0	-0	0	0	0	0	0	-0	0	0	0	
867	1580482318.992699189	0.00236913	-0.895066	2.13237	-2.79044	-1.56954	-2.6233	0	0	-0	0	0	0	0	0	-0	0	0	0	
868	1580482319.000707213	0.00236913	-0.895078	2.13237	-2.79046	-1.56955	-2.62327	0	0	-0	0	0	0	0	0	-0	0	0	0	
869	1580482319.008707111	0.00240508	-0.895054	2.13236	-2.79043	-1.56955	-2.62327	0	0	-0	0	0	0	0	0	-0	0	0	0	
870	1580482319.016718210	0.00240508	-0.895089	2.13236	-2.79044	-1.56952	-2.62332	0	0	-0	0	0	0	0	0	-0	0	0	0	
871	1580482319.024692642	0.0023931	-0.895066	2.13236	-2.7904	-1.56951	-2.62327	0	0	-0	0	0	0	0	0	-0	0	0	0	
872	1580482319.032697273	0.00241707	-0.895114	2.13236	-2.79043	-1.56954	-2.62325	0	0	-0	0	0	0	0	0	-0	0	0	0	
873	1580482319.040700891	0.0023931	-0.895078	2.13236	-2.79045	-1.56951	-2.6233	0	0	-0	0	0	0	0	0	-0	0	0	0	
874	1580482319.048706211	0.0023931	-0.895054	2.13242	-2.79043	-1.56956	-2.62331	0	0	-0	0	0	0	0	0	-0	0	0	0	
875	1580482319.056693509	0.00242905	-0.895066	2.13241	-2.7904	-1.56956	-2.6233	0	0	-0	0	0	0	0	0	-0	0	0	0	
876	1580482319.064664430	0.0023931	-0.895078	2.13237	-2.79044	-1.56954	-2.62335	0	0	-0	0	0	0	0	0	-0	0	0	0	
877	1580482319.072696696	0.0023931	-0.895066	2.13236	-2.79043	-1.56956	-2.6233	0	0	-0	0	0	0	0	0	-0	0	0	0	
878	1580482319.080738585	0.00242905	-0.895126	2.13234	-2.7904	-1.56958	-2.62329	0	0	-0	0	0	0	0	0	-0	0	0	0	
879	1580482319.088705940	0.00238112	-0.895078	2.13242	-2.7904	-1.56952	-2.62329	0	0	-0	0	0	0	0	0	-0	0	0	0	
880	1580482319.096701130	0.00236913	-0.895054	2.1324	-2.79043	-1.56954	-2.6233	0	0	-0	0	0	0	0	0	-0	0	0	0	
881	1580482319.104674894	0.00238112	-0.895102	2.13236	-2.79043	-1.56955	-2.62327	0	0	-0	0	0	0	0	0	-0	0	0	0	
882	1580482319.112693524	0.00241707	-0.895089	2.13237	-2.79044	-1.56952	-2.62329	0	0	-0	0	0	0	0	0	-0	0	0	0	
883	1580482319.120715698	0.00238112	-0.895042	2.13236	-2.79044	-1.56955	-2.62327	0	0	-0	0	0	0	0	0	-0	0	0	0	
884	1580482319.128650765	0.00238112	-0.895078	2.13238	-2.79045	-1.56951	-2.62331	0	0	-0	0	0	0	0	0	-0	0	0	0	
885	1580482319.136691209	0.00240508	-0.895102	2.13237	-2.79043	-1.56956	-2.62331	0	0	-0	0	0	0	0	0	-0	0	0	0	
886	1580482319.144690779	0.00240508	-0.895089	2.13236	-2.79041	-1.56955	-2.6233	0	0	-0	0	0	0	0	0	-0	0	0	0	
887	1580482319.152706187	0.00236913	-0.895089	2.13238	-2.79041	-1.56956	-2.6233	0	0	-0	0	0	0	0	0	-0	0	0	0	
888	1580482319.160697124	0.0023931	-0.895054	2.13238	-2.79044	-1.56955	-2.62332	0	0	-0	0	0	0	0	0	-0	0	0	0	
889	1580482319.168691730	0.0023931	-0.895054	2.13238	-2.79044	-1.56954	-2.62333	0	0	-0	0	0	0	0	0	-0	0	0	0	
890	1580482319.176701413	0.0023931	-0.895114	2.13237	-2.79041	-1.56955	-2.6233	0	0	-0	0	0	0	0	0	-0	0	0	0	
891	1580482319.184703331	0.00238112	-0.895078	2.13237	-2.79043	-1.56955	-2.62327	0	0	-0	0	0	0	0	0	-0	0	0	0	
892	1580482319.192704297	0.00238112	-0.895089	2.13237	-2.79041	-1.56954	-2.6233	0	0	-0	0	0	0	0	0	-0	0	0	0	
893	1580482319.200699901	0.0023931	-0.895042	2.13236	-2.79043	-1.56952	-2.62332	0	0	-0	0	0	0	0	0	-0	0	0	0	
894	1580482319.208708267	0.00238112	-0.895066	2.13236	-2.79043	-1.56955	-2.6233	0	0	-0	0	0	0	0	0	-0	0	0	0	
895	1580482319.216699057	0.0023931	-0.895126	2.13237	-2.79044	-1.56952	-2.62329	0	0	-0	0	0	0	0	0	-0	0	0	0	
896	1580482319.224700549	0.00238112	-0.895054	2.13236	-2.79043	-1.56955	-2.62327	0	0	-0	0	0	0	0	0	-0	0	0	0	
897	1580482319.232698389	0.0023931	-0.895089	2.13237	-2.79041	-1.56952	-2.6233	0	0	-0	0	0	0	0	0	-0	0	0	0	
898	1580482319.240673351	0.00236913	-0.895066	2.13236	-2.79043	-1.56955	-2.6233	0	0	-0	0	0	0	0	0	-0	0	0	0	
899	1580482319.248650349	0.00241707	-0.89503	2.13236	-2.79043	-1.56955	-2.62327	0	0	-0	0	0	0	0	0	-0	0	0	0	
900	1580482319.256695224	0.00238112	-0.895114	2.13236	-2.79041	-1.56954	-2.62331	0	0	-0	0	0	0	0	0	-0	0	0	0	
901	1580482319.264697448	0.0023931	-0.895066	2.13235	-2.79043	-1.56956	-2.62332	0	0	-0	0	0	0	0	0	-0	0	0	0	
902	1580482319.272699304	0.0023931	-0.895089	2.13237	-2.79043	-1.56954	-2.62329	0	0	-0	0	0	0	0	0	-0	0	0	0	
903	1580482319.280691472	0.00238112	-0.895066	2.13238	-2.7904	-1.56954	-2.62329	0	0	-0	0	0	0	0	0	-0	0	0	0	
904	1580482319.288667847	0.00242905	-0.895089	2.13236	-2.79041	-1.56956	-2.62332	0	0	-0	0	0	0	0	0	-0	0	0	0	
905	1580482319.296702980	0.0023931	-0.895078	2.13235	-2.79045	-1.56955	-2.6233	0	0	-0	0	0	0	0	0	-0	0	0	0	
906	1580482319.304659403	0.00238112	-0.895066	2.13235	-2.79043	-1.56952	-2.62333	0	0	-0	0	0	0	0	0	-0	0	0	0	
907	1580482319.312708169	0.0023931	-0.895102	2.13236	-2.79041	-1.56955	-2.62327	0	0	-0	0	0	0	0	0	-0	0	0	0	
908	1580482319.320704124	0.00236913	-0.895054	2.13235	-2.7904	-1.56956	-2.62329	0	0	-0	0	0	0	0	0	-0	0	0	0	
909	1580482319.328704924	0.00241707	-0.895054	2.13236	-2.79043	-1.56955	-2.62331	0	0	-0	0	0	0	0	0	-0	0	0	0	
910	1580482319.336723442	0.00238112	-0.895078	2.13232	-2.79044	-1.56952	-2.62331	0	0	-0	0	0	0	0	0	-0	0	0	0	
911	1580482319.344691467	0.00241707	-0.895078	2.13237	-2.79045	-1.56952	-2.6233	0	0	-0	0	0	0	0	0	-0	0	0	0	
912	1580482319.352733606	0.00241707	-0.895042	2.13237	-2.79044	-1.56956	-2.62329	0	0	-0	0	0	0	0	0	-0	0	0	0	
913	1580482319.360704370	0.00233318	-0.895054	2.13237	-2.79043	-1.56954	-2.62331	0	0	-0	0	0	0	0	0	-0	0	0	0	
914	1580482319.368738508	0.00236913	-0.895078	2.13235	-2.79045	-1.56952	-2.62333	0	0	-0	0	0	0	0	0	-0	0	0	0	
915	1580482319.376654136	0.00238112	-0.895078	2.13232	-2.79043	-1.56956	-2.62327	0	0	-0	0	0	0	0	0	-0	0	0	0	
916	1580482319.384673973	0.0023931	-0.895078	2.13236	-2.79043	-1.56954	-2.62327	0	0	-0	0	0	0	0	0	-0	0	0	0	
917	1580482319.392692795	0.00242905	-0.895054	2.13237	-2.79043	-1.56955	-2.6233	0	0	-0	0	0	0	0	0	-0	0	0	0	
918	1580482319.400693499	0.0023931	-0.895089	2.13238	-2.7904	-1.56955	-2.6233	0	0	-0	0	0	0	0	0	-0	0	0	0	
919	1580482319.408710003	0.0023931	-0.895078	2.13236	-2.79043	-1.56956	-2.6233	0	0	-0	0	0	0	0	0	-0	0	0	0	
920	1580482319.416689162	0.00241707	-0.895078	2.13238	-2.79044	-1.56954	-2.62332	0	0	-0	0	0	0	0	0	-0	0	0	0	
921	1580482319.424755926	0.0023931	-0.895078	2.13236	-2.79043	-1.56955	-2.62329	0	0	-0	0	0	0	0	0	-0	0	0	0	
922	1580482319.432665838	0.00236913	-0.895089	2.13237	-2.79041	-1.56958	-2.62325	0	0	-0	0	0	0	0	0	-0	0	0	0	
923	1580482319.440687195	0.00236913	-0.895089	2.13236	-2.79043	-1.56956	-2.62331	0	0	-0	0	0	0	0	0	-0	0	0	0	
924	1580482319.448702636	0.00241707	-0.895054	2.13237	-2.79043	-1.56955	-2.62331	0	0	-0	0	0	0	0	0	-0	0	0	0	
925	1580482319.456697348	0.00240508	-0.895078	2.13234	-2.79043	-1.56951	-2.62329	0	0	-0	0	0	0	0	0	-0	0	0	0	
926	1580482319.464773280	0.00236913	-0.895114	2.13237	-2.79043	-1.56954	-2.62329	0	0	-0	0	0	0	0	0	-0	0	0	0	
927	1580482319.472697172	0.00234516	-0.895066	2.13235	-2.79041	-1.56957	-2.62331	0	0	-0	0	0	0	0	0	-0	0	0	0	
928	1580482319.480697790	0.00240508	-0.895078	2.13241	-2.79041	-1.56952	-2.62327	0	0	-0	0	0	0	0	0	-0	0	0	0	
929	1580482319.488695876	0.00240508	-0.895042	2.13237	-2.7904	-1.56951	-2.62327	0	0	-0	0	0	0	0	0	-0	0	0	0	
930	1580482319.496744798	0.00240508	-0.895102	2.13241	-2.79043	-1.56954	-2.62331	0	0	-0	0	0	0	0	0	-0	0	0	0	
931	1580482319.504660421	0.00242905	-0.895078	2.13235	-2.79043	-1.56952	-2.62331	0	0	-0	0	0	0	0	0	-0	0	0	0	
932	1580482319.512653861	0.00236913	-0.895066	2.13236	-2.79043	-1.56954	-2.62332	0	0	-0	0	0	0	0	0	-0	0	0	0	
933	1580482319.520655328	0.00238112	-0.895089	2.13237	-2.79043	-1.56952	-2.62329	0	0	-0	0	0	0	0	0	-0	0	0	0	
934	1580482319.528729237	0.00240508	-0.895089	2.13238	-2.79041	-1.56952	-2.62327	0	0	-0	0	0	0	0	0	-0	0	0	0	
935	1580482319.536686495	0.00238112	-0.895078	2.13241	-2.79043	-1.56952	-2.62331	0	0	-0	0	0	0	0	0	-0	0	0	0	
936	1580482319.544695441	0.00240508	-0.895042	2.13237	-2.79043	-1.56955	-2.62332	0	0	-0	0	0	0	0	0	-0	0	0	0	
937	1580482319.552689736	0.00236913	-0.895078	2.13238	-2.79044	-1.56955	-2.62327	0	0	-0	0	0	0	0	0	-0	0	0	0	
938	1580482319.560706822	0.00238112	-0.895054	2.13235	-2.79043	-1.56951	-2.62331	0	0	-0	0	0	0	0	0	-0	0	0	0	
939	1580482319.568704364	0.00241707	-0.895054	2.13236	-2.79043	-1.56952	-2.62327	0	0	-0	0	0	0	0	0	-0	0	0	0	
940	1580482319.576663466	0.00241707	-0.895089	2.13236	-2.79043	-1.56955	-2.62333	0	0	-0	0	0	0	0	0	-0	0	0	0	
941	1580482319.584688241	0.00236913	-0.895078	2.1324	-2.79043	-1.56956	-2.62336	0	0	-0	0	0	0	0	0	-0	0	0	0	
942	1580482319.592752379	0.0023931	-0.895054	2.1324	-2.7904	-1.56954	-2.62329	0	0	-0	0	0	0	0	0	-0	0	0	0	
943	1580482319.592752379	0.0023931	-0.895054	2.1324	-2.7904	-1.56954	-2.62329	0	0	-0	0	0	0	0	0	-0	0	0	0	
944	1580482319.608710189	0.00235715	-0.895078	2.13237	-2.79041	-1.56952	-2.62331	0	0	-0	0	0	0	0	0	-0	0	0	0	
945	1580482319.616653725	0.00240508	-0.895078	2.13238	-2.79044	-1.56952	-2.62332	0	0	-0	0	0	0	0	0	-0	0	0	0	
946	1580482319.624698563	0.00241707	-0.895042	2.13235	-2.79043	-1.56954	-2.62333	0	0	-0	0	0	0	0	0	-0	0	0	0	
947	1580482319.632697782	0.0023931	-0.895078	2.13238	-2.79044	-1.56954	-2.62329	0	0	-0	0	0	0	0	0	-0	0	0	0	
948	1580482319.640707227	0.00242905	-0.895089	2.13237	-2.79043	-1.56954	-2.62329	0	0	-0	0	0	0	0	0	-0	0	0	0	
949	1580482319.648708255	0.0023931	-0.895078	2.13235	-2.79044	-1.56952	-2.6233	0	0	-0	0	0	0	0	0	-0	0	0	0	
950	1580482319.656684908	0.00240508	-0.895102	2.13237	-2.79043	-1.56954	-2.62327	0	0	-0	0	0	0	0	0	-0	0	0	0	
951	1580482319.664686021	0.00236913	-0.895066	2.13238	-2.79043	-1.56954	-2.62329	0	0	-0	0	0	0	0	0	-0	0	0	0	
952	1580482319.672700632	0.00240508	-0.895066	2.13236	-2.79043	-1.56955	-2.62331	0	0	-0	0	0	0	0	0	-0	0	0	0	
953	1580482319.680700476	0.00242905	-0.895066	2.13238	-2.79043	-1.56954	-2.6233	0	0	-0	0	0	0	0	0	-0	0	0	0	
954	1580482319.688699700	0.00238112	-0.895078	2.13241	-2.7904	-1.56954	-2.62331	0	0	-0	0	0	0	0	0	-0	0	0	0	
955	1580482319.696694433	0.0023931	-0.895078	2.13235	-2.79041	-1.56958	-2.62329	0	0	-0	0	0	0	0	0	-0	0	0	0	
956	1580482319.704663353	0.00238112	-0.895042	2.13236	-2.79044	-1.56952	-2.62333	0	0	-0	0	0	0	0	0	-0	0	0	0	
957	1580482319.712701139	0.0023931	-0.895078	2.13236	-2.79043	-1.56954	-2.62329	0	0	-0	0	0	0	0	0	-0	0	0	0	
