terrinbabu/Matlab/log_filtering/UR10_35_KF/ijt_3kg_lift_drop.txt
seq	time	q0	q1	q2	q3	q4	q5	Dq0	Dq1	Dq2	Dq3	Dq4	Dq5	eff0	eff1	eff2	eff3	eff4	eff5	DDq0	DDq1	DDq2	DDq3	DDq4	DDq5	
26	1580482312.264698709	0.00240508	-0.895042	2.13238	-2.79043	-1.56952	-2.62333	0	0	-0	0	0	0	0	-61.6889	-15.0672	-2.79943	0.406885	-0.0039249	0	0	0	0	0	0	
27	1580482312.272698587	0.00238112	-0.895066	2.1324	-2.79044	-1.56951	-2.62331	0	0	-0	0	0	0	0	-61.688	-15.0677	-2.79947	0.4069	-0.00391772	0	0	0	0	0	0	
28	1580482312.280673643	0.0023931	-0.895054	2.13236	-2.79044	-1.56956	-2.62327	0	0	-0	0	0	0	0	-61.6896	-15.0686	-2.7995	0.40686	-0.00391924	0	0	0	0	0	0	
29	1580482312.288668234	0.00238112	-0.895089	2.13235	-2.79041	-1.56954	-2.62331	0	0	-0	0	0	0	0	-61.6893	-15.0703	-2.79953	0.406878	-0.00391022	0	0	0	0	0	0	
30	1580482312.296674280	0.00238112	-0.895078	2.13235	-2.79043	-1.56954	-2.62332	0	0	-0	0	0	0	0	-61.6895	-15.0698	-2.79952	0.406876	-0.00391007	0	0	0	0	0	0	
31	1580482312.304669129	0.00241707	-0.895066	2.13237	-2.79043	-1.56952	-2.62331	0	0	-0	0	0	0	0	-61.6889	-15.0685	-2.79948	0.406889	-0.00391668	0	0	0	0	0	0	
32	1580482312.312672740	0.0023931	-0.895054	2.13235	-2.79044	-1.56952	-2.62327	0	0	-0	0	0	0	0	-61.69	-15.069	-2.79952	0.406894	-0.00391125	0	0	0	0	0	0	
33	1580482312.320693813	0.00238112	-0.895066	2.13235	-2.79043	-1.56952	-2.62327	0	0	-0	0	0	0	0	-61.6898	-15.0694	-2.79952	0.406894	-0.00391125	0	0	0	0	0	0	
34	1580482312.328723097	0.0023931	-0.895078	2.13241	-2.79044	-1.56952	-2.6233	0	0	-0	0	0	0	0	-61.6874	-15.0677	-2.79947	0.40689	-0.00391948	0	0	0	0	0	0	
35	1580482312.336690503	0.00236913	-0.895102	2.13236	-2.79045	-1.56956	-2.62325	0	0	-0	0	0	0	0	-61.6886	-15.0703	-2.79959	0.406864	-0.00390538	0	0	0	0	0	0	
36	1580482312.344690082	0.0023931	-0.895066	2.13236	-2.7904	-1.56954	-2.62327	0	0	-0	0	0	0	0	-61.6893	-15.0689	-2.79947	0.406883	-0.00392137	0	0	0	0	0	0	
37	1580482312.352676028	0.0023931	-0.895042	2.13242	-2.79043	-1.56955	-2.6233	0	0	-0	0	0	0	0	-61.6876	-15.0659	-2.79939	0.406868	-0.00393684	0	0	0	0	0	0	
38	1580482312.360752229	0.0023931	-0.895089	2.13238	-2.79041	-1.56952	-2.62332	0	0	-0	0	0	0	0	-61.688	-15.069	-2.79948	0.406887	-0.00391676	0	0	0	0	0	0	
39	1580482312.368744982	0.00240508	-0.895078	2.13238	-2.79041	-1.56955	-2.62327	0	0	-0	0	0	0	0	-61.6882	-15.0685	-2.79947	0.406871	-0.00392309	0	0	0	0	0	0	
40	1580482312.376709651	0.00240508	-0.895089	2.13235	-2.79043	-1.56956	-2.6233	0	0	-0	0	0	0	0	-61.6893	-15.0703	-2.79954	0.406857	-0.00391088	0	0	0	0	0	0	
41	1580482312.384704023	0.00233318	-0.895102	2.13241	-2.79041	-1.56952	-2.62327	0	0	-0	0	0	0	0	-61.6868	-15.0685	-2.79947	0.406894	-0.00391954	0	0	0	0	0	0	
42	1580482312.392839386	0.00241707	-0.895066	2.13232	-2.79043	-1.56957	-2.6233	0	0	-0	0	0	0	0	-61.6906	-15.0703	-2.79954	0.406846	-0.0039126	0	0	0	0	0	0	
43	1580482312.400720091	0.00236913	-0.895089	2.13234	-2.79045	-1.56954	-2.62327	0	0	-0	0	0	0	0	-61.6898	-15.0708	-2.79959	0.406883	-0.00389915	0	0	0	0	0	0	
44	1580482312.408666070	0.00240508	-0.895078	2.13234	-2.79043	-1.56957	-2.62331	0	0	-0	0	0	0	0	-61.69	-15.0703	-2.79954	0.406844	-0.00391257	0	0	0	0	0	0	
45	1580482312.416684190	0.0023931	-0.895066	2.13234	-2.79046	-1.56952	-2.62326	0	0	-0	0	0	0	0	-61.6903	-15.0699	-2.79958	0.406896	-0.00390023	0	0	0	0	0	0	
46	1580482312.424724936	0.00238112	-0.895066	2.13236	-2.7904	-1.56954	-2.62329	0	0	-0	0	0	0	0	-61.6893	-15.0689	-2.79947	0.406881	-0.00392134	0	0	0	0	0	0	
47	1580482312.432687319	0.0023931	-0.895102	2.13234	-2.79043	-1.56955	-2.62331	0	0	-0	0	0	0	0	-61.6895	-15.0712	-2.79957	0.406867	-0.00390342	0	0	0	0	0	0	
48	1580482312.440703785	0.00240508	-0.895054	2.13238	-2.7904	-1.56955	-2.62326	0	0	-0	0	0	0	0	-61.6887	-15.0676	-2.79943	0.406873	-0.00393142	0	0	0	0	0	0	
49	1580482312.448669259	0.0023931	-0.895078	2.1324	-2.79041	-1.56956	-2.62329	0	0	-0	0	0	0	0	-61.6878	-15.0681	-2.79946	0.406858	-0.00392761	0	0	0	0	0	0	
50	1580482312.456703361	0.00236913	-0.895089	2.13234	-2.79041	-1.56954	-2.62332	0	0	-0	0	0	0	0	-61.6897	-15.0707	-2.79954	0.406876	-0.00390742	0	0	0	0	0	0	
51	1580482312.464674097	0.00240508	-0.895089	2.13237	-2.79041	-1.56952	-2.62335	0	0	-0	0	0	0	0	-61.6884	-15.0694	-2.79949	0.406883	-0.00391392	0	0	0	0	0	0	
52	1580482312.472698684	0.0023931	-0.895078	2.13232	-2.79041	-1.56952	-2.62327	0	0	-0	0	0	0	0	-61.6904	-15.0707	-2.79955	0.406894	-0.00390584	0	0	0	0	0	0	
53	1580482312.480707801	0.00236913	-0.895054	2.13238	-2.79043	-1.56954	-2.62327	0	0	-0	0	0	0	0	-61.6887	-15.0677	-2.79946	0.406882	-0.00392403	0	0	0	0	0	0	
54	1580482312.488697156	0.00241707	-0.895042	2.13238	-2.79043	-1.56955	-2.62331	0	0	-0	0	0	0	0	-61.6889	-15.0672	-2.79944	0.406866	-0.00392841	0	0	0	0	0	0	
55	1580482312.496700436	0.00235715	-0.895066	2.13237	-2.79043	-1.56952	-2.62331	0	0	-0	0	0	0	0	-61.6889	-15.0685	-2.79948	0.406889	-0.00391668	0	0	0	0	0	0	
56	1580482312.504702265	0.00241707	-0.895066	2.13231	-2.79041	-1.56955	-2.62327	0	0	-0	0	0	0	0	-61.6911	-15.0707	-2.79955	0.406872	-0.00390916	0	0	0	0	0	0	
57	1580482312.512668834	0.00241707	-0.895102	2.13237	-2.79044	-1.56955	-2.62333	0	0	-0	0	0	0	0	-61.6882	-15.0699	-2.79954	0.406863	-0.00390888	0	0	0	0	0	0	
58	1580482312.520875975	0.0023931	-0.895102	2.13242	-2.79045	-1.56954	-2.62329	0	0	-0	0	0	0	0	-61.6864	-15.0681	-2.7995	0.406881	-0.0039157	0	0	0	0	0	0	
59	1580482312.528714288	0.00241707	-0.895054	2.13236	-2.79043	-1.56954	-2.62329	0	0	-0	0	0	0	0	-61.6896	-15.0685	-2.79949	0.406881	-0.00391847	0	0	0	0	0	0	
60	1580482312.536702887	0.0023931	-0.895114	2.1324	-2.79043	-1.56954	-2.62325	0	0	-0	0	0	0	0	-61.687	-15.0694	-2.79953	0.406886	-0.00391293	0	0	0	0	0	0	
61	1580482312.544738767	0.0023931	-0.895066	2.13234	-2.79043	-1.56951	-2.62332	0	0	-0	0	0	0	0	-61.6902	-15.0698	-2.79952	0.406898	-0.00390663	0	0	0	0	0	0	
62	1580482312.552695875	0.0023931	-0.895114	2.13237	-2.79043	-1.56955	-2.62332	0	0	-0	0	0	0	0	-61.6879	-15.0703	-2.79954	0.406865	-0.00390892	0	0	0	0	0	0	
63	1580482312.560682220	0.0023931	-0.895089	2.13238	-2.7904	-1.56955	-2.62327	0	0	-0	0	0	0	0	-61.6879	-15.0689	-2.79947	0.406871	-0.00392309	0	0	0	0	0	0	
64	1580482312.568700053	0.00240508	-0.895078	2.13238	-2.79041	-1.56952	-2.62331	0	0	-0	0	0	0	0	-61.6882	-15.0685	-2.79947	0.406888	-0.00391955	0	0	0	0	0	0	
65	1580482312.576700157	0.00241707	-0.895102	2.13238	-2.79041	-1.56957	-2.62326	0	0	-0	0	0	0	0	-61.6877	-15.0694	-2.79951	0.406851	-0.003921	0	0	0	0	0	0	
66	1580482312.584728268	0.00242905	-0.895102	2.13238	-2.79041	-1.56955	-2.6233	0	0	-0	0	0	0	0	-61.6877	-15.0694	-2.7995	0.406868	-0.00391739	0	0	0	0	0	0	
67	1580482312.592704480	0.0023931	-0.895066	2.13236	-2.79043	-1.56952	-2.6233	0	0	-0	0	0	0	0	-61.6893	-15.069	-2.7995	0.40689	-0.00391395	0	0	0	0	0	0	
68	1580482312.600690589	0.00235715	-0.895042	2.13236	-2.79044	-1.56955	-2.62327	0	0	-0	0	0	0	0	-61.6898	-15.0681	-2.79949	0.406872	-0.00392022	0	0	0	0	0	0	
69	1580482312.608707753	0.00240508	-0.895089	2.13236	-2.79041	-1.56956	-2.62332	0	0	-0	0	0	0	0	-61.6888	-15.0698	-2.79951	0.406853	-0.00391645	0	0	0	0	0	0	
70	1580482312.616716150	0.00240508	-0.895042	2.13236	-2.79043	-1.56954	-2.62331	0	0	-0	0	0	0	0	-61.6898	-15.0681	-2.79947	0.406877	-0.00392116	0	0	0	0	0	0	
71	1580482312.624675396	0.00242905	-0.895078	2.1324	-2.79043	-1.56954	-2.62327	0	0	-0	0	0	0	0	-61.6878	-15.0681	-2.79947	0.406883	-0.00392126	0	0	0	0	0	0	
72	1580482312.632702998	0.0023931	-0.895066	2.1324	-2.79043	-1.56954	-2.62331	0	0	-0	0	0	0	0	-61.688	-15.0677	-2.79945	0.406877	-0.00392392	0	0	0	0	0	0	
73	1580482312.640693961	0.0023931	-0.895042	2.13242	-2.79045	-1.56955	-2.6233	0	0	-0	0	0	0	0	-61.6877	-15.0659	-2.79942	0.406868	-0.00393132	0	0	0	0	0	0	
74	1580482312.648770535	0.00238112	-0.895089	2.13238	-2.79041	-1.56955	-2.62329	0	0	-0	0	0	0	0	-61.688	-15.069	-2.79949	0.40687	-0.00392029	0	0	0	0	0	0	
75	1580482312.656677487	0.00238112	-0.895102	2.13237	-2.79043	-1.56955	-2.62333	0	0	-0	0	0	0	0	-61.6881	-15.0699	-2.79952	0.406863	-0.00391165	0	0	0	0	0	0	
76	1580482312.664701318	0.0023931	-0.895054	2.13238	-2.79045	-1.56951	-2.6233	0	0	-0	0	0	0	0	-61.6887	-15.0677	-2.79948	0.406901	-0.00391499	0	0	0	0	0	0	
77	1580482312.672632952	0.0023931	-0.895089	2.13236	-2.79041	-1.56951	-2.62329	0	0	-0	0	0	0	0	-61.6888	-15.0698	-2.79952	0.406903	-0.00390961	0	0	0	0	0	0	
78	1580482312.680634881	0.0023931	-0.895054	2.13235	-2.79044	-1.56956	-2.6233	0	0	-0	0	0	0	0	-61.69	-15.069	-2.79951	0.406857	-0.00391641	0	0	0	0	0	0	
79	1580482312.688609534	0.00242905	-0.895042	2.13236	-2.79043	-1.56952	-2.62327	0	0	-0	0	0	0	0	-61.6898	-15.0681	-2.79947	0.406894	-0.00391954	0	0	0	0	0	0	
80	1580482312.696663641	0.00238112	-0.895066	2.13237	-2.79045	-1.56952	-2.62331	0	0	-0	0	0	0	0	-61.6889	-15.0686	-2.79951	0.406889	-0.00391115	0	0	0	0	0	0	
81	1580482312.704655356	0.00244066	-0.895089	2.13237	-2.79044	-1.56952	-2.62331	0	0	-0	0	0	0	0	-61.6884	-15.0694	-2.79953	0.406889	-0.00390839	0	0	0	0	0	0	
82	1580482312.712663524	0.0023931	-0.895042	2.13238	-2.79043	-1.56952	-2.62327	0	0	-0	0	0	0	0	-61.689	-15.0672	-2.79945	0.406893	-0.00392507	0	0	0	0	0	0	
83	1580482312.720656039	0.00238112	-0.895078	2.13236	-2.79044	-1.56955	-2.62331	0	0	-0	0	0	0	0	-61.6891	-15.0694	-2.79953	0.406867	-0.00391183	0	0	0	0	0	0	
84	1580482312.728670151	0.0023931	-0.895114	2.13237	-2.79041	-1.56956	-2.62329	0	0	-0	0	0	0	0	-61.6879	-15.0703	-2.79953	0.406859	-0.00391368	0	0	0	0	0	0	
85	1580482312.736669218	0.00238112	-0.895054	2.13234	-2.79043	-1.56955	-2.6233	0	0	-0	0	0	0	0	-61.6905	-15.0694	-2.79951	0.406868	-0.00391462	0	0	0	0	0	0	
86	1580482312.744680719	0.0023931	-0.895102	2.13237	-2.79043	-1.56955	-2.6233	0	0	-0	0	0	0	0	-61.6882	-15.0699	-2.79953	0.406868	-0.00391175	0	0	0	0	0	0	
87	1580482312.752671866	0.00238112	-0.895066	2.13235	-2.79044	-1.56955	-2.62327	0	0	-0	0	0	0	0	-61.6898	-15.0694	-2.79953	0.406872	-0.00391193	0	0	0	0	0	0	
88	1580482312.760692777	0.00241707	-0.895102	2.13238	-2.79043	-1.56954	-2.62325	0	0	-0	0	0	0	0	-61.6877	-15.0694	-2.79953	0.406886	-0.00391293	0	0	0	0	0	0	
89	1580482312.768696427	0.0023931	-0.895066	2.13238	-2.79043	-1.56954	-2.62325	0	0	-0	0	0	0	0	-61.6885	-15.0681	-2.79948	0.406886	-0.00392133	0	0	0	0	0	0	
90	1580482312.776734609	0.0023931	-0.895078	2.13238	-2.79043	-1.56954	-2.62329	0	0	-0	0	0	0	0	-61.6882	-15.0685	-2.79949	0.406881	-0.00391847	0	0	0	0	0	0	
91	1580482312.784677623	0.00240508	-0.895054	2.13235	-2.79045	-1.56957	-2.6233	0	0	-0	0	0	0	0	-61.69	-15.069	-2.79953	0.406846	-0.00391537	0	0	0	0	0	0	
92	1580482312.792705848	0.0023931	-0.895066	2.13235	-2.79045	-1.56956	-2.62331	0	0	-0	0	0	0	0	-61.6898	-15.0694	-2.79954	0.406855	-0.00391085	0	0	0	0	0	0	
93	1580482312.800708230	0.00236913	-0.895078	2.13237	-2.79044	-1.56952	-2.62327	0	0	-0	0	0	0	0	-61.6887	-15.069	-2.79952	0.406894	-0.00391125	0	0	0	0	0	0	
94	1580482312.808771909	0.00238112	-0.895078	2.13236	-2.79044	-1.56955	-2.62332	0	0	-0	0	0	0	0	-61.6891	-15.0694	-2.79952	0.406865	-0.00391179	0	0	0	0	0	0	
95	1580482312.816725517	0.00236913	-0.895066	2.13235	-2.79043	-1.56952	-2.62329	0	0	-0	0	0	0	0	-61.6898	-15.0694	-2.79952	0.406892	-0.00391122	0	0	0	0	0	0	
96	1580482312.824693723	0.00241707	-0.895078	2.13234	-2.79043	-1.56954	-2.62332	0	0	-0	0	0	0	0	-61.69	-15.0703	-2.79954	0.406876	-0.00390731	0	0	0	0	0	0	
97	1580482312.832698707	0.00240508	-0.895066	2.13235	-2.79044	-1.56955	-2.6233	0	0	-0	0	0	0	0	-61.6898	-15.0694	-2.79953	0.406868	-0.00391186	0	0	0	0	0	0	
98	1580482312.840762177	0.00240508	-0.895054	2.13237	-2.79043	-1.56955	-2.62331	0	0	-0	0	0	0	0	-61.6891	-15.0681	-2.79947	0.406866	-0.00392288	0	0	0	0	0	0	
99	1580482312.848732871	0.00241707	-0.895078	2.13241	-2.79041	-1.56954	-2.62329	0	0	-0	0	0	0	0	-61.6873	-15.0676	-2.79944	0.406881	-0.00392687	0	0	0	0	0	0	
100	1580482312.856708142	0.00240508	-0.895054	2.13238	-2.79044	-1.56956	-2.62333	0	0	-0	0	0	0	0	-61.6887	-15.0677	-2.79946	0.406851	-0.0039246	0	0	0	0	0	0	
101	1580482312.864726677	0.00242905	-0.895102	2.13236	-2.79043	-1.56951	-2.62329	0	0	-0	0	0	0	0	-61.6886	-15.0703	-2.79955	0.406903	-0.00390386	0	0	0	0	0	0	
102	1580482312.872731961	0.0023931	-0.895089	2.13236	-2.79041	-1.56956	-2.6233	0	0	-0	0	0	0	0	-61.6888	-15.0698	-2.79951	0.406857	-0.00391652	0	0	0	0	0	0	
103	1580482312.880693935	0.00236913	-0.895066	2.13237	-2.79044	-1.56954	-2.6233	0	0	-0	0	0	0	0	-61.6889	-15.0685	-2.7995	0.406879	-0.00391567	0	0	0	0	0	0	
104	1580482312.888694372	0.00241707	-0.895089	2.13238	-2.79041	-1.56952	-2.62331	0	0	-0	0	0	0	0	-61.688	-15.069	-2.79948	0.406889	-0.00391679	0	0	0	0	0	0	
105	1580482312.896708740	0.00241707	-0.895042	2.13235	-2.79044	-1.56952	-2.62329	0	0	-0	0	0	0	0	-61.6903	-15.0686	-2.7995	0.406892	-0.00391398	0	0	0	0	0	0	
106	1580482312.904684436	0.00240508	-0.895102	2.13236	-2.79043	-1.5695	-2.6233	0	0	-0	0	0	0	0	-61.6886	-15.0703	-2.79954	0.406913	-0.00390211	0	0	0	0	0	0	
107	1580482312.912688464	0.00236913	-0.895089	2.13241	-2.79043	-1.56955	-2.62331	0	0	-0	0	0	0	0	-61.6871	-15.0681	-2.79947	0.406866	-0.00392288	0	0	0	0	0	0	
108	1580482312.920702847	0.0023931	-0.895114	2.13238	-2.79045	-1.56955	-2.62327	0	0	-0	0	0	0	0	-61.6875	-15.0699	-2.79956	0.406872	-0.00390629	0	0	0	0	0	0	
109	1580482312.928670524	0.00240508	-0.895078	2.1324	-2.79043	-1.56951	-2.6233	0	0	-0	0	0	0	0	-61.6878	-15.0681	-2.79947	0.406901	-0.00391776	0	0	0	0	0	0	
110	1580482312.936729910	0.00241707	-0.89503	2.1324	-2.79043	-1.56954	-2.6233	0	0	-0	0	0	0	0	-61.6888	-15.0664	-2.79941	0.406879	-0.00393225	0	0	0	0	0	0	
111	1580482312.944689241	0.00238112	-0.895114	2.13235	-2.79043	-1.56955	-2.62327	0	0	-0	0	0	0	0	-61.6888	-15.0712	-2.79958	0.406872	-0.00390353	0	0	0	0	0	0	
112	1580482312.952668093	0.00241707	-0.895054	2.13237	-2.79045	-1.56957	-2.62332	0	0	-0	0	0	0	0	-61.6892	-15.0681	-2.79949	0.406842	-0.00392083	0	0	0	0	0	0	
113	1580482312.960689528	0.00238112	-0.895102	2.13237	-2.79041	-1.56952	-2.62331	0	0	-0	0	0	0	0	-61.6881	-15.0698	-2.79951	0.406889	-0.00391115	0	0	0	0	0	0	
114	1580482312.968734166	0.00238112	-0.895066	2.13237	-2.79045	-1.56952	-2.62332	0	0	-0	0	0	0	0	-61.6889	-15.0686	-2.79951	0.406887	-0.00391112	0	0	0	0	0	0	
115	1580482312.976688587	0.00240508	-0.895078	2.13234	-2.7904	-1.56952	-2.62331	0	0	-0	0	0	0	0	-61.6899	-15.0702	-2.79951	0.406889	-0.00391126	0	0	0	0	0	0	
116	1580482312.984686360	0.00238112	-0.895089	2.13234	-2.79045	-1.56957	-2.6233	0	0	-0	0	0	0	0	-61.6897	-15.0707	-2.79959	0.406846	-0.00390431	0	0	0	0	0	0	
117	1580482312.992692097	0.00240508	-0.895078	2.13241	-2.79041	-1.56952	-2.62326	0	0	-0	0	0	0	0	-61.6873	-15.0677	-2.79945	0.406895	-0.00392522	0	0	0	0	0	0	
118	1580482313.000707668	0.00240508	-0.895066	2.13235	-2.79043	-1.56955	-2.62331	0	0	-0	0	0	0	0	-61.6898	-15.0694	-2.79951	0.406867	-0.00391459	0	0	0	0	0	0	
119	1580482313.008639282	0.00241707	-0.895102	2.13236	-2.79043	-1.56958	-2.62332	0	0	-0	0	0	0	0	-61.6886	-15.0703	-2.79954	0.406831	-0.00391414	0	0	0	0	0	0	
120	1580482313.016677810	0.00242905	-0.895102	2.13235	-2.79044	-1.56952	-2.62331	0	0	-0	0	0	0	0	-61.689	-15.0707	-2.79957	0.406889	-0.00389999	0	0	0	0	0	0	
121	1580482313.024668292	0.0023931	-0.895066	2.13236	-2.79041	-1.56952	-2.62329	0	0	-0	0	0	0	0	-61.6893	-15.069	-2.79949	0.406892	-0.00391686	0	0	0	0	0	0	
122	1580482313.032686817	0.0023931	-0.895066	2.13235	-2.79043	-1.56954	-2.6233	0	0	-0	0	0	0	0	-61.6898	-15.0694	-2.79951	0.406879	-0.0039129	0	0	0	0	0	0	
123	1580482313.040689021	0.0023931	-0.895066	2.13236	-2.7904	-1.56954	-2.62327	0	0	-0	0	0	0	0	-61.6893	-15.0689	-2.79947	0.406883	-0.00392137	0	0	0	0	0	0	
124	1580482313.048665529	0.00238112	-0.895078	2.13235	-2.79043	-1.56951	-2.62331	0	0	-0	0	0	0	0	-61.6895	-15.0698	-2.79953	0.4069	-0.00390667	0	0	0	0	0	0	
125	1580482313.056699240	0.00240508	-0.895089	2.13238	-2.7904	-1.56951	-2.62332	0	0	-0	0	0	0	0	-61.6879	-15.0689	-2.79946	0.406898	-0.0039178	0	0	0	0	0	0	
126	1580482313.064656700	0.00240508	-0.895042	2.13238	-2.79039	-1.56952	-2.62332	0	0	-0	0	0	0	0	-61.6889	-15.0672	-2.79939	0.406886	-0.00393334	0	0	0	0	0	0	
127	1580482313.072696004	0.00240508	-0.895089	2.13237	-2.79043	-1.56955	-2.62327	0	0	-0	0	0	0	0	-61.6884	-15.0694	-2.79952	0.406872	-0.00391469	0	0	0	0	0	0	
128	1580482313.080668153	0.00238112	-0.895066	2.13238	-2.79043	-1.56955	-2.62331	0	0	-0	0	0	0	0	-61.6885	-15.0681	-2.79947	0.406866	-0.00392288	0	0	0	0	0	0	
129	1580482313.088691222	0.00240508	-0.895054	2.13238	-2.79045	-1.56951	-2.62331	0	0	-0	0	0	0	0	-61.6887	-15.0677	-2.79948	0.4069	-0.00391496	0	0	0	0	0	0	
130	1580482313.096683347	0.00241707	-0.895066	2.13237	-2.7904	-1.56952	-2.62331	0	0	-0	0	0	0	0	-61.6889	-15.0685	-2.79945	0.406888	-0.00392232	0	0	0	0	0	0	
131	1580482313.104696346	0.0023931	-0.895078	2.13236	-2.79041	-1.56954	-2.62329	0	0	-0	0	0	0	0	-61.6891	-15.0694	-2.7995	0.406881	-0.00391581	0	0	0	0	0	0	
132	1580482313.112659715	0.00238112	-0.895066	2.13236	-2.79043	-1.56955	-2.6233	0	0	-0	0	0	0	0	-61.6893	-15.069	-2.7995	0.406868	-0.00391739	0	0	0	0	0	0	
133	1580482313.120632920	0.00241707	-0.895078	2.1324	-2.79046	-1.56955	-2.62327	0	0	-0	0	0	0	0	-61.6878	-15.0681	-2.79952	0.406872	-0.00391469	0	0	0	0	0	0	
134	1580482313.128692844	0.00242905	-0.895089	2.13241	-2.79044	-1.56951	-2.6233	0	0	-0	0	0	0	0	-61.6871	-15.0681	-2.79948	0.406901	-0.00391499	0	0	0	0	0	0	
135	1580482313.136659107	0.00238112	-0.895054	2.13236	-2.79043	-1.56954	-2.62327	0	0	-0	0	0	0	0	-61.6896	-15.0685	-2.79949	0.406883	-0.0039185	0	0	0	0	0	0	
136	1580482313.144618925	0.00236913	-0.895078	2.13237	-2.79043	-1.56955	-2.62326	0	0	-0	0	0	0	0	-61.6887	-15.069	-2.79951	0.406873	-0.00391749	0	0	0	0	0	0	
137	1580482313.152618455	0.00236913	-0.895066	2.13236	-2.79041	-1.56955	-2.62329	0	0	-0	0	0	0	0	-61.6893	-15.069	-2.79949	0.40687	-0.00392029	0	0	0	0	0	0	
138	1580482313.160694382	0.0023931	-0.895066	2.13237	-2.79043	-1.56951	-2.62329	0	0	-0	0	0	0	0	-61.6889	-15.0685	-2.79949	0.406903	-0.00391503	0	0	0	0	0	0	
139	1580482313.168670557	0.00240508	-0.895102	2.13241	-2.79045	-1.56956	-2.62331	0	0	-0	0	0	0	0	-61.6869	-15.0686	-2.79951	0.406855	-0.00391627	0	0	0	0	0	0	
140	1580482313.176659833	0.00238112	-0.895054	2.13236	-2.79043	-1.56955	-2.62332	0	0	-0	0	0	0	0	-61.6896	-15.0685	-2.79948	0.406865	-0.00392008	0	0	0	0	0	0	
141	1580482313.184634037	0.00238112	-0.895078	2.13241	-2.79043	-1.56951	-2.62329	0	0	-0	0	0	0	0	-61.6873	-15.0677	-2.79946	0.406903	-0.00392055	0	0	0	0	0	0	
142	1580482313.193269056	0.00240508	-0.895042	2.13237	-2.79044	-1.56954	-2.6233	0	0	-0	0	0	0	0	-61.6894	-15.0677	-2.79947	0.406879	-0.0039212	0	0	0	0	0	0	
143	1580482313.200665726	0.00238112	-0.895078	2.13234	-2.79043	-1.56955	-2.62331	0	0	-0	0	0	0	0	-61.69	-15.0703	-2.79954	0.406867	-0.00390906	0	0	0	0	0	0	
144	1580482313.208631439	0.00240508	-0.895078	2.13238	-2.79044	-1.56956	-2.62332	0	0	-0	0	0	0	0	-61.6882	-15.0685	-2.79949	0.406853	-0.00391911	0	0	0	0	0	0	
145	1580482313.216645168	0.00240508	-0.895066	2.13236	-2.79043	-1.56956	-2.6233	0	0	-0	0	0	0	0	-61.6893	-15.069	-2.7995	0.406857	-0.00391917	0	0	0	0	0	0	
146	1580482313.224684189	0.00244066	-0.895066	2.13237	-2.79039	-1.56954	-2.62329	0	0	-0	0	0	0	0	-61.6889	-15.0685	-2.79944	0.406881	-0.00392687	0	0	0	0	0	0	
147	1580482313.232659791	0.00240508	-0.895066	2.13241	-2.79045	-1.56957	-2.62332	0	0	-0	0	0	0	0	-61.6876	-15.0672	-2.79946	0.406842	-0.00392635	0	0	0	0	0	0	
148	1580482313.240652201	0.00240508	-0.895054	2.13241	-2.79041	-1.56952	-2.62332	0	0	-0	0	0	0	0	-61.6878	-15.0668	-2.7994	0.406886	-0.00393057	0	0	0	0	0	0	
149	1580482313.248683349	0.00240508	-0.895066	2.13236	-2.79045	-1.56956	-2.6233	0	0	-0	0	0	0	0	-61.6894	-15.069	-2.79953	0.406857	-0.00391365	0	0	0	0	0	0	
150	1580482313.256789850	0.0023931	-0.895089	2.13241	-2.79041	-1.56955	-2.62331	0	0	-0	0	0	0	0	-61.6871	-15.0681	-2.79945	0.406866	-0.00392575	0	0	0	0	0	0	
151	1580482313.264659933	0.00236913	-0.895066	2.13237	-2.79044	-1.56951	-2.6233	0	0	-0	0	0	0	0	-61.6889	-15.0685	-2.7995	0.406901	-0.00391223	0	0	0	0	0	0	
152	1580482313.272697811	0.0023931	-0.895066	2.13232	-2.79043	-1.56952	-2.6233	0	0	-0	0	0	0	0	-61.6906	-15.0703	-2.79954	0.406891	-0.00390566	0	0	0	0	0	0	
153	1580482313.280699697	0.00240508	-0.895078	2.13237	-2.79043	-1.56955	-2.62327	0	0	-0	0	0	0	0	-61.6887	-15.069	-2.7995	0.406872	-0.00391746	0	0	0	0	0	0	
154	1580482313.288805110	0.00238112	-0.895078	2.13236	-2.79043	-1.56956	-2.6233	0	0	-0	0	0	0	0	-61.6891	-15.0694	-2.79951	0.406857	-0.00391641	0	0	0	0	0	0	
155	1580482313.296695874	0.0023931	-0.895066	2.1324	-2.79043	-1.56955	-2.6233	0	0	-0	0	0	0	0	-61.688	-15.0677	-2.79945	0.406868	-0.00392568	0	0	0	0	0	0	
156	1580482313.304693915	0.00238112	-0.895054	2.13235	-2.79043	-1.56956	-2.62329	0	0	-0	0	0	0	0	-61.69	-15.069	-2.7995	0.406858	-0.00391921	0	0	0	0	0	0	
157	1580482313.312696033	0.0023931	-0.895078	2.13241	-2.79044	-1.56951	-2.62331	0	0	-0	0	0	0	0	-61.6874	-15.0677	-2.79947	0.4069	-0.00391772	0	0	0	0	0	0	
158	1580482313.320715294	0.00238112	-0.895102	2.13236	-2.79043	-1.56954	-2.62331	0	0	-0	0	0	0	0	-61.6886	-15.0703	-2.79954	0.406878	-0.00390723	0	0	0	0	0	0	
159	1580482313.328702917	0.00242905	-0.895089	2.1324	-2.79043	-1.56954	-2.62329	0	0	-0	0	0	0	0	-61.6875	-15.0685	-2.79949	0.406881	-0.00391847	0	0	0	0	0	0	
160	1580482313.336694921	0.0023931	-0.895102	2.13236	-2.79043	-1.56951	-2.62332	0	0	-0	0	0	0	0	-61.6886	-15.0703	-2.79954	0.406898	-0.00390376	0	0	0	0	0	0	
161	1580482313.344653297	0.00240508	-0.895054	2.13241	-2.7904	-1.56951	-2.62332	0	0	-0	0	0	0	0	-61.6878	-15.0668	-2.79939	0.406897	-0.00393162	0	0	0	0	0	0	
162	1580482313.352709569	0.00240508	-0.895042	2.13237	-2.79045	-1.56956	-2.62326	0	0	-0	0	0	0	0	-61.6894	-15.0677	-2.79949	0.406862	-0.00392204	0	0	0	0	0	0	
163	1580482313.360714938	0.00240508	-0.895066	2.1324	-2.79045	-1.56951	-2.62327	0	0	-0	0	0	0	0	-61.6881	-15.0677	-2.79949	0.406905	-0.00391506	0	0	0	0	0	0	
164	1580482313.368646437	0.00242905	-0.895078	2.13237	-2.79044	-1.56956	-2.62327	0	0	-0	0	0	0	0	-61.6887	-15.069	-2.79952	0.40686	-0.00391648	0	0	0	0	0	0	
165	1580482313.376684587	0.0023931	-0.895066	2.13238	-2.79043	-1.56951	-2.62327	0	0	-0	0	0	0	0	-61.6885	-15.0681	-2.79947	0.406905	-0.00391783	0	0	0	0	0	0	
166	1580482313.384731033	0.00236913	-0.895042	2.13241	-2.79044	-1.56955	-2.62329	0	0	-0	0	0	0	0	-61.6881	-15.0664	-2.79943	0.406869	-0.00393124	0	0	0	0	0	0	
167	1580482313.392724573	0.0023931	-0.895054	2.13237	-2.79044	-1.56955	-2.62329	0	0	-0	0	0	0	0	-61.6892	-15.0681	-2.79949	0.40687	-0.00392018	0	0	0	0	0	0	
168	1580482313.400692009	0.00242905	-0.895078	2.13236	-2.79043	-1.56958	-2.6233	0	0	-0	0	0	0	0	-61.6891	-15.0694	-2.79951	0.406835	-0.00391985	0	0	0	0	0	0	
169	1580482313.408694450	0.0023931	-0.895089	2.13237	-2.79045	-1.5695	-2.62329	0	0	-0	0	0	0	0	-61.6884	-15.0694	-2.79955	0.406915	-0.00390225	0	0	0	0	0	0	
170	1580482313.416784929	0.0023931	-0.89503	2.13235	-2.79043	-1.56954	-2.62325	0	0	-0	0	0	0	0	-61.6905	-15.0681	-2.79948	0.406886	-0.00392133	0	0	0	0	0	0	
171	1580482313.424700423	0.00238112	-0.895054	2.13235	-2.79043	-1.56955	-2.62325	0	0	-0	0	0	0	0	-61.69	-15.069	-2.79951	0.406875	-0.00391752	0	0	0	0	0	0	
172	1580482313.432650634	0.0023931	-0.89503	2.13237	-2.79044	-1.56955	-2.62329	0	0	-0	0	0	0	0	-61.6897	-15.0672	-2.79946	0.40687	-0.00392571	0	0	0	0	0	0	
173	1580482313.440675429	0.00238112	-0.895102	2.13235	-2.79041	-1.56955	-2.62329	0	0	-0	0	0	0	0	-61.689	-15.0707	-2.79955	0.40687	-0.00390913	0	0	0	0	0	0	
174	1580482313.448735808	0.0023931	-0.895054	2.13238	-2.7904	-1.56955	-2.6233	0	0	-0	0	0	0	0	-61.6887	-15.0676	-2.79942	0.406868	-0.00393132	0	0	0	0	0	0	
175	1580482313.456696229	0.00236913	-0.895078	2.13238	-2.79043	-1.56954	-2.6233	0	0	-0	0	0	0	0	-61.6882	-15.0685	-2.79948	0.406879	-0.00391843	0	0	0	0	0	0	
176	1580482313.464669581	0.00241707	-0.895066	2.13232	-2.79043	-1.56955	-2.62333	0	0	-0	0	0	0	0	-61.6906	-15.0703	-2.79954	0.406863	-0.00390899	0	0	0	0	0	0	
177	1580482313.472692064	0.00236913	-0.895089	2.13236	-2.79043	-1.56954	-2.6233	0	0	-0	0	0	0	0	-61.6888	-15.0698	-2.79953	0.406879	-0.00391014	0	0	0	0	0	0	
178	1580482313.480695830	0.00241707	-0.895042	2.13236	-2.7904	-1.56954	-2.62326	0	0	-0	0	0	0	0	-61.6898	-15.0681	-2.79945	0.406884	-0.00392694	0	0	0	0	0	0	
179	1580482313.488686054	0.00236913	-0.895078	2.13238	-2.79043	-1.56958	-2.6233	0	0	-0	0	0	0	0	-61.6882	-15.0685	-2.79948	0.406834	-0.00392538	0	0	0	0	0	0	
180	1580482313.496698293	0.00240508	-0.895078	2.13238	-2.7904	-1.56952	-2.62331	0	0	-0	0	0	0	0	-61.6882	-15.0685	-2.79945	0.406888	-0.00392232	0	0	0	0	0	0	
181	1580482313.504698201	0.00236913	-0.895066	2.13241	-2.79041	-1.56956	-2.62326	0	0	-0	0	0	0	0	-61.6876	-15.0672	-2.79943	0.406861	-0.00393321	0	0	0	0	0	0	
182	1580482313.512683327	0.0023931	-0.895089	2.13238	-2.79043	-1.56955	-2.62327	0	0	-0	0	0	0	0	-61.688	-15.069	-2.7995	0.406872	-0.00391746	0	0	0	0	0	0	
183	1580482313.520692263	0.00235715	-0.895089	2.13236	-2.79041	-1.56956	-2.62329	0	0	-0	0	0	0	0	-61.6888	-15.0698	-2.79952	0.406858	-0.00391656	0	0	0	0	0	0	
184	1580482313.528641433	0.0023931	-0.895102	2.13237	-2.79044	-1.56956	-2.6233	0	0	-0	0	0	0	0	-61.6882	-15.0699	-2.79954	0.406857	-0.00391077	0	0	0	0	0	0	
185	1580482313.536710936	0.0023931	-0.895066	2.13238	-2.79043	-1.56957	-2.62332	0	0	-0	0	0	0	0	-61.6885	-15.0681	-2.79946	0.406842	-0.00392635	0	0	0	0	0	0	
186	1580482313.544681444	0.00238112	-0.895078	2.1324	-2.79043	-1.56955	-2.62327	0	0	-0	0	0	0	0	-61.6878	-15.0681	-2.79947	0.406871	-0.00392298	0	0	0	0	0	0	
187	1580482313.552690947	0.00238112	-0.895078	2.13235	-2.79044	-1.56955	-2.62326	0	0	-0	0	0	0	0	-61.6896	-15.0699	-2.79955	0.406874	-0.0039092	0	0	0	0	0	0	
188	1580482313.560679731	0.00240508	-0.895078	2.13238	-2.79041	-1.56954	-2.6233	0	0	-0	0	0	0	0	-61.6882	-15.0685	-2.79947	0.406879	-0.00392131	0	0	0	0	0	0	
189	1580482313.568710228	0.0023931	-0.895102	2.13235	-2.7904	-1.56955	-2.62326	0	0	-0	0	0	0	0	-61.689	-15.0707	-2.79954	0.406874	-0.00391196	0	0	0	0	0	0	
190	1580482313.576681053	0.00244066	-0.895089	2.13236	-2.79043	-1.56954	-2.62327	0	0	-0	0	0	0	0	-61.6889	-15.0698	-2.79953	0.406883	-0.00391021	0	0	0	0	0	0	
191	1580482313.584673172	0.00238112	-0.895102	2.13236	-2.79043	-1.56955	-2.6233	0	0	-0	0	0	0	0	-61.6886	-15.0703	-2.79954	0.406868	-0.00390899	0	0	0	0	0	0	
192	1580482313.592698303	0.00238112	-0.895078	2.1324	-2.79041	-1.56949	-2.62329	0	0	-0	0	0	0	0	-61.6878	-15.0681	-2.79946	0.406925	-0.00391723	0	0	0	0	0	0	
193	1580482313.600698883	0.0023931	-0.895089	2.13236	-2.79043	-1.56951	-2.62331	0	0	-0	0	0	0	0	-61.6888	-15.0698	-2.79953	0.4069	-0.00390667	0	0	0	0	0	0	
194	1580482313.608670697	0.00242905	-0.895042	2.13236	-2.79044	-1.56957	-2.6233	0	0	-0	0	0	0	0	-61.6898	-15.0681	-2.79948	0.406845	-0.00392366	0	0	0	0	0	0	
195	1580482313.616658540	0.00236913	-0.895089	2.13237	-2.79044	-1.56955	-2.62327	0	0	-0	0	0	0	0	-61.6884	-15.0694	-2.79953	0.406872	-0.00391193	0	0	0	0	0	0	
196	1580482313.624699566	0.00238112	-0.895102	2.13237	-2.79041	-1.56956	-2.6233	0	0	-0	0	0	0	0	-61.6881	-15.0698	-2.79951	0.406857	-0.00391641	0	0	0	0	0	0	
197	1580482313.632718532	0.0023931	-0.895078	2.13237	-2.79044	-1.56954	-2.62331	0	0	-0	0	0	0	0	-61.6887	-15.069	-2.79951	0.406878	-0.00391287	0	0	0	0	0	0	
198	1580482313.640771648	0.00241707	-0.895078	2.13237	-2.79043	-1.56955	-2.6233	0	0	-0	0	0	0	0	-61.6887	-15.069	-2.7995	0.406868	-0.00391739	0	0	0	0	0	0	
199	1580482313.648700852	0.00242905	-0.895078	2.13237	-2.79041	-1.56955	-2.62326	0	0	-0	0	0	0	0	-61.6886	-15.069	-2.79949	0.406873	-0.00392036	0	0	0	0	0	0	
200	1580482313.656692138	0.00238112	-0.895089	2.13236	-2.79044	-1.56955	-2.62329	0	0	-0	0	0	0	0	-61.6889	-15.0699	-2.79955	0.40687	-0.00390913	0	0	0	0	0	0	
201	1580482313.664664272	0.0023931	-0.895066	2.13235	-2.79041	-1.56951	-2.6233	0	0	-0	0	0	0	0	-61.6898	-15.0694	-2.7995	0.406901	-0.00391234	0	0	0	0	0	0	
202	1580482313.672746302	0.00240508	-0.895078	2.1324	-2.79046	-1.56952	-2.62329	0	0	-0	0	0	0	0	-61.6878	-15.0681	-2.79952	0.406892	-0.00391122	0	0	0	0	0	0	
203	1580482313.680712444	0.00240508	-0.895054	2.13238	-2.79044	-1.56955	-2.6233	0	0	-0	0	0	0	0	-61.6887	-15.0677	-2.79947	0.406868	-0.00392291	0	0	0	0	0	0	
204	1580482313.688689233	0.00241707	-0.895078	2.13236	-2.79043	-1.56955	-2.6233	0	0	-0	0	0	0	0	-61.6891	-15.0694	-2.79951	0.406868	-0.00391462	0	0	0	0	0	0	
205	1580482313.696658112	0.00240508	-0.895078	2.13236	-2.79044	-1.56951	-2.6233	0	0	-0	0	0	0	0	-61.6891	-15.0694	-2.79953	0.406902	-0.0039067	0	0	0	0	0	0	
206	1580482313.704727674	0.00238112	-0.895089	2.13236	-2.79041	-1.56956	-2.62326	0	0	-0	0	0	0	0	-61.6888	-15.0698	-2.79952	0.406862	-0.00391663	0	0	0	0	0	0	
207	1580482313.712720577	0.00240508	-0.895078	2.13237	-2.79044	-1.56954	-2.62327	0	0	-0	0	0	0	0	-61.6887	-15.069	-2.79952	0.406883	-0.00391297	0	0	0	0	0	0	
208	1580482313.720700473	0.00236913	-0.895102	2.13236	-2.79044	-1.56951	-2.62327	0	0	-0	0	0	0	0	-61.6886	-15.0703	-2.79957	0.406905	-0.00390113	0	0	0	0	0	0	
209	1580482313.728711343	0.00240508	-0.895078	2.13234	-2.79041	-1.56957	-2.62331	0	0	-0	0	0	0	0	-61.6899	-15.0703	-2.79953	0.406844	-0.00391544	0	0	0	0	0	0	
210	1580482313.736772646	0.00244066	-0.895102	2.13237	-2.79043	-1.56956	-2.62329	0	0	-0	0	0	0	0	-61.6882	-15.0699	-2.79953	0.406859	-0.00391357	0	0	0	0	0	0	
211	1580482313.744705714	0.0023931	-0.895089	2.13241	-2.79044	-1.56956	-2.62327	0	0	-0	0	0	0	0	-61.6871	-15.0681	-2.79949	0.40686	-0.00392201	0	0	0	0	0	0	
212	1580482313.752714929	0.00236913	-0.895066	2.13237	-2.79044	-1.56954	-2.62332	0	0	-0	0	0	0	0	-61.6889	-15.0685	-2.79949	0.406876	-0.0039156	0	0	0	0	0	0	
213	1580482313.760664645	0.00236913	-0.895078	2.13234	-2.79045	-1.56954	-2.62329	0	0	-0	0	0	0	0	-61.69	-15.0703	-2.79958	0.406881	-0.00390188	0	0	0	0	0	0	
214	1580482313.768741176	0.00238112	-0.895102	2.13236	-2.79041	-1.56956	-2.62331	0	0	-0	0	0	0	0	-61.6886	-15.0703	-2.79953	0.406855	-0.00391361	0	0	0	0	0	0	
215	1580482313.776657117	0.00240508	-0.895078	2.13238	-2.79041	-1.56954	-2.62329	0	0	-0	0	0	0	0	-61.6882	-15.0685	-2.79947	0.406881	-0.00392134	0	0	0	0	0	0	
216	1580482313.784701067	0.00241707	-0.895054	2.13236	-2.79041	-1.56957	-2.6233	0	0	-0	0	0	0	0	-61.6896	-15.0685	-2.79947	0.406845	-0.00392653	0	0	0	0	0	0	
217	1580482313.792717524	0.00241707	-0.895078	2.13236	-2.79044	-1.56954	-2.6233	0	0	-0	0	0	0	0	-61.6891	-15.0694	-2.79953	0.406879	-0.00391014	0	0	0	0	0	0	
218	1580482313.800723340	0.0023931	-0.895042	2.13242	-2.7904	-1.56954	-2.6233	0	0	-0	0	0	0	0	-61.6876	-15.0659	-2.79936	0.406878	-0.00394076	0	0	0	0	0	0	
219	1580482313.808693825	0.0023931	-0.895054	2.13241	-2.79043	-1.56954	-2.62331	0	0	-0	0	0	0	0	-61.6878	-15.0668	-2.79942	0.406877	-0.00392945	0	0	0	0	0	0	
220	1580482313.816705817	0.00238112	-0.895078	2.13238	-2.79041	-1.56954	-2.62329	0	0	-0	0	0	0	0	-61.6882	-15.0685	-2.79947	0.406881	-0.00392134	0	0	0	0	0	0	
221	1580482313.824697833	0.0023931	-0.895042	2.13237	-2.79043	-1.56957	-2.62329	0	0	-0	0	0	0	0	-61.6894	-15.0677	-2.79946	0.406847	-0.00392922	0	0	0	0	0	0	
222	1580482313.832728586	0.0023931	-0.895102	2.13238	-2.79043	-1.56952	-2.6233	0	0	-0	0	0	0	0	-61.6877	-15.0694	-2.79951	0.40689	-0.00391107	0	0	0	0	0	0	
223	1580482313.840694830	0.00238112	-0.895102	2.13235	-2.7904	-1.56955	-2.6233	0	0	-0	0	0	0	0	-61.689	-15.0707	-2.79953	0.406868	-0.00391186	0	0	0	0	0	0	
224	1580482313.848694502	0.00240508	-0.895054	2.1324	-2.7904	-1.56955	-2.6233	0	0	-0	0	0	0	0	-61.6882	-15.0672	-2.79941	0.406868	-0.00393408	0	0	0	0	0	0	
225	1580482313.856709474	0.0023931	-0.895078	2.1324	-2.79044	-1.56955	-2.6233	0	0	-0	0	0	0	0	-61.6878	-15.0681	-2.79948	0.406868	-0.00392015	0	0	0	0	0	0	
226	1580482313.864753916	0.00238112	-0.895078	2.13235	-2.79044	-1.56954	-2.62329	0	0	-0	0	0	0	0	-61.6895	-15.0699	-2.79955	0.406881	-0.00390741	0	0	0	0	0	0	
227	1580482313.872697005	0.0023931	-0.895089	2.13236	-2.79043	-1.56955	-2.62332	0	0	-0	0	0	0	0	-61.6888	-15.0698	-2.79952	0.406865	-0.00391179	0	0	0	0	0	0	
228	1580482313.880644390	0.0023931	-0.895089	2.13237	-2.79041	-1.56951	-2.62326	0	0	-0	0	0	0	0	-61.6884	-15.0694	-2.79951	0.406907	-0.00391244	0	0	0	0	0	0	
229	1580482313.888721450	0.0023931	-0.895089	2.1324	-2.79044	-1.56954	-2.62327	0	0	-0	0	0	0	0	-61.6876	-15.0686	-2.7995	0.406883	-0.00391574	0	0	0	0	0	0	
230	1580482313.896640708	0.00240508	-0.895066	2.13235	-2.79043	-1.56954	-2.62329	0	0	-0	0	0	0	0	-61.6898	-15.0694	-2.79952	0.406881	-0.00391294	0	0	0	0	0	0	
231	1580482313.904734008	0.00240508	-0.895102	2.13242	-2.7904	-1.56955	-2.6233	0	0	-0	0	0	0	0	-61.6864	-15.0681	-2.79944	0.406868	-0.00392855	0	0	0	0	0	0	
232	1580482313.912731457	0.00241707	-0.895078	2.13236	-2.79041	-1.56957	-2.62331	0	0	-0	0	0	0	0	-61.6891	-15.0694	-2.7995	0.406844	-0.00392097	0	0	0	0	0	0	
233	1580482313.920713289	0.00238112	-0.895089	2.13236	-2.79043	-1.56952	-2.62333	0	0	-0	0	0	0	0	-61.6888	-15.0698	-2.79952	0.406885	-0.00390832	0	0	0	0	0	0	
234	1580482313.928755437	0.00236913	-0.895102	2.13236	-2.79043	-1.56955	-2.62326	0	0	-0	0	0	0	0	-61.6886	-15.0703	-2.79955	0.406874	-0.00390909	0	0	0	0	0	0	
235	1580482313.936727501	0.00240508	-0.895078	2.1324	-2.79043	-1.56956	-2.62333	0	0	-0	0	0	0	0	-61.6878	-15.0681	-2.79946	0.406851	-0.0039246	0	0	0	0	0	0	
236	1580482313.944745180	0.0023931	-0.895114	2.1324	-2.79043	-1.56952	-2.62333	0	0	-0	0	0	0	0	-61.687	-15.0694	-2.79951	0.406885	-0.00391097	0	0	0	0	0	0	
237	1580482313.952718885	0.00238112	-0.895078	2.13236	-2.79044	-1.56951	-2.62329	0	0	-0	0	0	0	0	-61.6891	-15.0694	-2.79953	0.406903	-0.00390674	0	0	0	0	0	0	
238	1580482313.960739638	0.00240508	-0.895114	2.13237	-2.79045	-1.56951	-2.62327	0	0	-0	0	0	0	0	-61.6879	-15.0703	-2.79958	0.406905	-0.00389837	0	0	0	0	0	0	
239	1580482313.968735228	0.00240508	-0.895066	2.13238	-2.79045	-1.56952	-2.6233	0	0	-0	0	0	0	0	-61.6885	-15.0681	-2.7995	0.40689	-0.00391395	0	0	0	0	0	0	
240	1580482313.976723518	0.00238112	-0.895066	2.13238	-2.79044	-1.56954	-2.62331	0	0	-0	0	0	0	0	-61.6885	-15.0681	-2.79948	0.406877	-0.0039184	0	0	0	0	0	0	
241	1580482313.984724607	0.00238112	-0.895102	2.13236	-2.79043	-1.56956	-2.62326	0	0	-0	0	0	0	0	-61.6886	-15.0703	-2.79955	0.406862	-0.00391088	0	0	0	0	0	0	
242	1580482313.984724607	0.00238112	-0.895102	2.13236	-2.79043	-1.56956	-2.62326	0	0	-0	0	0	0	0	-61.6886	-15.0703	-2.79955	0.406862	-0.00391088	0	0	0	0	0	0	
243	1580482314.000729446	0.00240508	-0.895054	2.13236	-2.79045	-1.56955	-2.62327	0	0	-0	0	0	0	0	-61.6896	-15.0686	-2.79952	0.406872	-0.00391469	0	0	0	0	0	0	
244	1580482314.008744491	0.00238112	-0.895089	2.13231	-2.79044	-1.56952	-2.62329	0	0	-0	0	0	0	0	-61.6906	-15.0716	-2.79961	0.406893	-0.00389453	0	0	0	0	0	0	
245	1580482314.016716033	0.00240508	-0.895078	2.13236	-2.79046	-1.56954	-2.62327	0	0	-0	0	0	0	0	-61.6891	-15.0695	-2.79956	0.406883	-0.00390468	0	0	0	0	0	0	
246	1580482314.024708189	0.00242905	-0.895054	2.13237	-2.79045	-1.56954	-2.6233	0	0	-0	0	0	0	0	-61.6892	-15.0681	-2.7995	0.406879	-0.00391567	0	0	0	0	0	0	
247	1580482314.032718305	0.00238112	-0.895078	2.13237	-2.79043	-1.56955	-2.62327	0	0	-0	0	0	0	0	-61.6887	-15.069	-2.7995	0.406872	-0.00391746	0	0	0	0	0	0	
248	1580482314.040740511	0.00240508	-0.895126	2.13234	-2.79043	-1.56952	-2.62331	0	0	-0	0	0	0	0	-61.689	-15.072	-2.7996	0.406889	-0.00389446	0	0	0	0	0	0	
249	1580482314.048640736	0.00238112	-0.895102	2.13237	-2.79043	-1.56951	-2.62331	0	0	-0	0	0	0	0	-61.6882	-15.0699	-2.79953	0.4069	-0.00390656	0	0	0	0	0	0	
250	1580482314.056771625	0.00241707	-0.895089	2.13236	-2.79041	-1.56954	-2.62331	0	0	-0	0	0	0	0	-61.6888	-15.0698	-2.79951	0.406878	-0.00391298	0	0	0	0	0	0	
251	1580482314.064724312	0.00242905	-0.895042	2.13234	-2.79041	-1.56952	-2.6233	0	0	-0	0	0	0	0	-61.6907	-15.069	-2.79948	0.40689	-0.00391682	0	0	0	0	0	0	
252	1580482314.072721496	0.0023931	-0.895102	2.1324	-2.7904	-1.56954	-2.62332	0	0	-0	0	0	0	0	-61.6872	-15.069	-2.79946	0.406876	-0.00392113	0	0	0	0	0	0	
253	1580482314.080746149	0.00240508	-0.895102	2.1324	-2.79044	-1.56954	-2.62331	0	0	-0	0	0	0	0	-61.6873	-15.069	-2.79951	0.406878	-0.00391276	0	0	0	0	0	0	
254	1580482314.088750370	0.00238112	-0.895078	2.13238	-2.79044	-1.56954	-2.62331	0	0	-0	0	0	0	0	-61.6882	-15.0685	-2.7995	0.406878	-0.00391563	0	0	0	0	0	0	
255	1580482314.096684131	0.00240508	-0.895066	2.13231	-2.79043	-1.56952	-2.62327	0	0	-0	0	0	0	0	-61.6911	-15.0707	-2.79956	0.406894	-0.00390285	0	0	0	0	0	0	
256	1580482314.104691543	0.00241707	-0.895078	2.13232	-2.79043	-1.56952	-2.62332	0	0	-0	0	0	0	0	-61.6904	-15.0707	-2.79955	0.406887	-0.00390283	0	0	0	0	0	0	
257	1580482314.112696231	0.00240508	-0.895102	2.13238	-2.79043	-1.56952	-2.62326	0	0	-0	0	0	0	0	-61.6877	-15.0694	-2.79952	0.406896	-0.00391118	0	0	0	0	0	0	
258	1580482314.120713037	0.00240508	-0.895078	2.13237	-2.79043	-1.56956	-2.62329	0	0	-0	0	0	0	0	-61.6887	-15.069	-2.7995	0.406858	-0.00391921	0	0	0	0	0	0	
259	1580482314.120713037	0.00240508	-0.895078	2.13237	-2.79043	-1.56956	-2.62329	0	0	-0	0	0	0	0	-61.6887	-15.069	-2.7995	0.406858	-0.00391921	0	0	0	0	0	0	
260	1580482314.136720031	0.00238112	-0.895054	2.13237	-2.79045	-1.56952	-2.6233	0	0	-0	0	0	0	0	-61.6892	-15.0681	-2.7995	0.40689	-0.00391395	0	0	0	0	0	0	
261	1580482314.144715116	0.0023931	-0.895078	2.13236	-2.79041	-1.56952	-2.62331	0	0	-0	0	0	0	0	-61.6891	-15.0694	-2.7995	0.406889	-0.00391403	0	0	0	0	0	0	
262	1580482314.152727437	0.00241707	-0.895066	2.13236	-2.79043	-1.56954	-2.6233	0	0	-0	0	0	0	0	-61.6893	-15.069	-2.7995	0.406879	-0.00391567	0	0	0	0	0	0	
263	1580482314.160731138	0.00236913	-0.895066	2.1324	-2.7904	-1.56951	-2.62327	0	0	-0	0	0	0	0	-61.688	-15.0676	-2.79943	0.406904	-0.00392623	0	0	0	0	0	0	
264	1580482314.168702084	0.00234516	-0.895089	2.13235	-2.79044	-1.56954	-2.62325	0	0	-0	0	0	0	0	-61.6893	-15.0703	-2.79957	0.406887	-0.00390475	0	0	0	0	0	0	
265	1580482314.176702304	0.0023931	-0.895089	2.13238	-2.79045	-1.56955	-2.6233	0	0	-0	0	0	0	0	-61.688	-15.069	-2.79953	0.406868	-0.00391186	0	0	0	0	0	0	
266	1580482314.184718978	0.00240508	-0.895078	2.13238	-2.79043	-1.56951	-2.62329	0	0	-0	0	0	0	0	-61.6882	-15.0685	-2.79949	0.406903	-0.00391503	0	0	0	0	0	0	
267	1580482314.192663023	0.00236913	-0.895042	2.13241	-2.79044	-1.56952	-2.6233	0	0	-0	0	0	0	0	-61.6881	-15.0664	-2.79942	0.40689	-0.00392777	0	0	0	0	0	0	
268	1580482314.200703473	0.00238112	-0.895054	2.13236	-2.79041	-1.56949	-2.62327	0	0	-0	0	0	0	0	-61.6896	-15.0685	-2.79947	0.406927	-0.0039145	0	0	0	0	0	0	
269	1580482314.208682534	0.0023931	-0.895102	2.13235	-2.79044	-1.56954	-2.62332	0	0	-0	0	0	0	0	-61.689	-15.0707	-2.79957	0.406876	-0.00390167	0	0	0	0	0	0	
270	1580482314.208682534	0.0023931	-0.895102	2.13235	-2.79044	-1.56954	-2.62332	0	0	-0	0	0	0	0	-61.689	-15.0707	-2.79957	0.406876	-0.00390167	0	0	0	0	0	0	
271	1580482314.224672444	0.0023931	-0.895078	2.1324	-2.79043	-1.56955	-2.62332	0	0	-0	0	0	0	0	-61.6878	-15.0681	-2.79946	0.406865	-0.00392285	0	0	0	0	0	0	
272	1580482314.232650512	0.00236913	-0.895089	2.13237	-2.79043	-1.56951	-2.6233	0	0	-0	0	0	0	0	-61.6884	-15.0694	-2.79951	0.406902	-0.00390947	0	0	0	0	0	0	
273	1580482314.240651152	0.00240508	-0.895066	2.13237	-2.79044	-1.56955	-2.62331	0	0	-0	0	0	0	0	-61.6889	-15.0685	-2.7995	0.406866	-0.00391735	0	0	0	0	0	0	
274	1580482314.248658227	0.00240508	-0.895102	2.13238	-2.79043	-1.56952	-2.62326	0	0	-0	0	0	0	0	-61.6877	-15.0694	-2.79952	0.406896	-0.00391118	0	0	0	0	0	0	
275	1580482314.256649027	0.0023931	-0.895054	2.13235	-2.7904	-1.56954	-2.62327	0	0	-0	0	0	0	0	-61.69	-15.0689	-2.79947	0.406883	-0.00392137	0	0	0	0	0	0	
276	1580482314.264659323	0.00240508	-0.895078	2.13235	-2.79045	-1.56954	-2.6233	0	0	-0	0	0	0	0	-61.6896	-15.0699	-2.79956	0.40688	-0.00390461	0	0	0	0	0	0	
277	1580482314.272614669	0.00242905	-0.895102	2.13235	-2.79045	-1.56951	-2.62331	0	0	-0	0	0	0	0	-61.6891	-15.0708	-2.79959	0.4069	-0.0038955	0	0	0	0	0	0	
278	1580482314.280663758	0.00238112	-0.895078	2.13237	-2.79044	-1.56952	-2.62331	0	0	-0	0	0	0	0	-61.6887	-15.069	-2.79951	0.406889	-0.00391115	0	0	0	0	0	0	
279	1580482314.288678805	0.00238112	-0.895054	2.13236	-2.79043	-1.56954	-2.62331	0	0	-0	0	0	0	0	-61.6896	-15.0685	-2.79948	0.406877	-0.0039184	0	0	0	0	0	0	
280	1580482314.296665066	0.0023931	-0.895078	2.13231	-2.79043	-1.56955	-2.6233	0	0	-0	0	0	0	0	-61.6909	-15.0712	-2.79957	0.406869	-0.00390346	0	0	0	0	0	0	
281	1580482314.304675941	0.00235715	-0.895078	2.13237	-2.79041	-1.56955	-2.6233	0	0	-0	0	0	0	0	-61.6886	-15.069	-2.79948	0.406868	-0.00392026	0	0	0	0	0	0	
282	1580482314.312676530	0.0023931	-0.895078	2.13236	-2.79041	-1.56954	-2.62331	0	0	-0	0	0	0	0	-61.6891	-15.0694	-2.7995	0.406878	-0.00391574	0	0	0	0	0	0	
283	1580482314.320655417	0.00236913	-0.895089	2.13236	-2.79044	-1.56952	-2.6233	0	0	-0	0	0	0	0	-61.6889	-15.0699	-2.79954	0.406891	-0.00390566	0	0	0	0	0	0	
284	1580482314.328683304	0.00236913	-0.895078	2.13235	-2.79041	-1.56955	-2.62325	0	0	-0	0	0	0	0	-61.6895	-15.0698	-2.79952	0.406875	-0.00391487	0	0	0	0	0	0	
285	1580482314.336684798	0.00241707	-0.895078	2.13235	-2.79045	-1.56952	-2.62332	0	0	-0	0	0	0	0	-61.6896	-15.0699	-2.79955	0.406887	-0.00390283	0	0	0	0	0	0	
286	1580482314.344697292	0.00238112	-0.895089	2.13236	-2.79043	-1.56952	-2.62332	0	0	-0	0	0	0	0	-61.6888	-15.0698	-2.79952	0.406887	-0.00390835	0	0	0	0	0	0	
287	1580482314.352682656	0.0023931	-0.895018	2.13231	-2.79043	-1.56952	-2.6233	0	0	-0	0	0	0	0	-61.6921	-15.069	-2.7995	0.40689	-0.00391384	0	0	0	0	0	0	
288	1580482314.360684998	0.0023931	-0.895066	2.13236	-2.79041	-1.56952	-2.62332	0	0	-0	0	0	0	0	-61.6893	-15.069	-2.79948	0.406887	-0.00391676	0	0	0	0	0	0	
289	1580482314.368643243	0.00238112	-0.895102	2.13235	-2.79043	-1.56952	-2.6233	0	0	-0	0	0	0	0	-61.689	-15.0707	-2.79956	0.406891	-0.00390278	0	0	0	0	0	0	
290	1580482314.376716050	0.00238112	-0.895102	2.13234	-2.79045	-1.56957	-2.6233	0	0	-0	0	0	0	0	-61.6895	-15.0712	-2.7996	0.406846	-0.00390144	0	0	0	0	0	0	
291	1580482314.384724332	0.00241707	-0.895054	2.13237	-2.79043	-1.56951	-2.62331	0	0	-0	0	0	0	0	-61.6891	-15.0681	-2.79947	0.4069	-0.00391772	0	0	0	0	0	0	
292	1580482314.392744819	0.00241707	-0.895078	2.13237	-2.79044	-1.56955	-2.62331	0	0	-0	0	0	0	0	-61.6887	-15.069	-2.79951	0.406867	-0.00391459	0	0	0	0	0	0	
293	1580482314.400686750	0.0023931	-0.895042	2.13237	-2.7904	-1.56954	-2.62332	0	0	-0	0	0	0	0	-61.6894	-15.0676	-2.79942	0.406875	-0.00392953	0	0	0	0	0	0	
294	1580482314.408764084	0.00241707	-0.895078	2.13241	-2.7904	-1.56954	-2.62331	0	0	-0	0	0	0	0	-61.6873	-15.0676	-2.79942	0.406877	-0.00392956	0	0	0	0	0	0	
295	1580482314.416703809	0.00238112	-0.895078	2.13237	-2.7904	-1.56956	-2.6233	0	0	-0	0	0	0	0	-61.6886	-15.0689	-2.79947	0.406856	-0.00392481	0	0	0	0	0	0	
296	1580482314.424700075	0.00244066	-0.895066	2.13238	-2.79044	-1.56954	-2.6233	0	0	-0	0	0	0	0	-61.6885	-15.0681	-2.79948	0.406879	-0.00391843	0	0	0	0	0	0	
297	1580482314.432713376	0.0023931	-0.895102	2.13236	-2.79043	-1.56952	-2.62329	0	0	-0	0	0	0	0	-61.6886	-15.0703	-2.79955	0.406892	-0.00390558	0	0	0	0	0	0	
298	1580482314.440711428	0.00240508	-0.895078	2.13235	-2.79043	-1.56952	-2.62327	0	0	-0	0	0	0	0	-61.6895	-15.0698	-2.79953	0.406894	-0.00390849	0	0	0	0	0	0	
299	1580482314.448694558	0.00240508	-0.895066	2.13236	-2.79043	-1.56955	-2.62329	0	0	-0	0	0	0	0	-61.6893	-15.069	-2.7995	0.40687	-0.00391742	0	0	0	0	0	0	
300	1580482314.456691119	0.00238112	-0.895066	2.13241	-2.79045	-1.56952	-2.62327	0	0	-0	0	0	0	0	-61.6876	-15.0673	-2.79947	0.406894	-0.00391954	0	0	0	0	0	0	
301	1580482314.464691125	0.0023931	-0.895042	2.13237	-2.79044	-1.56951	-2.62326	0	0	-0	0	0	0	0	-61.6894	-15.0677	-2.79948	0.406907	-0.00391786	0	0	0	0	0	0	
302	1580482314.472731841	0.00240508	-0.895102	2.13235	-2.79043	-1.56956	-2.6233	0	0	-0	0	0	0	0	-61.689	-15.0707	-2.79956	0.406857	-0.00390801	0	0	0	0	0	0	
303	1580482314.480693218	0.00240508	-0.895102	2.1324	-2.79043	-1.56952	-2.62336	0	0	-0	0	0	0	0	-61.6873	-15.069	-2.79949	0.406882	-0.00391367	0	0	0	0	0	0	
304	1580482314.488693889	0.00240508	-0.895089	2.13236	-2.79043	-1.56954	-2.62331	0	0	-0	0	0	0	0	-61.6888	-15.0698	-2.79953	0.406878	-0.00391011	0	0	0	0	0	0	
305	1580482314.496699272	0.00238112	-0.895089	2.13236	-2.79043	-1.56954	-2.6233	0	0	-0	0	0	0	0	-61.6888	-15.0698	-2.79953	0.406879	-0.00391014	0	0	0	0	0	0	
306	1580482314.504661202	0.0023931	-0.895089	2.13235	-2.79041	-1.56957	-2.6233	0	0	-0	0	0	0	0	-61.6893	-15.0703	-2.79953	0.406846	-0.00391548	0	0	0	0	0	0	
307	1580482314.512671876	0.00240508	-0.895102	2.13231	-2.79043	-1.56952	-2.62333	0	0	-0	0	0	0	0	-61.6903	-15.0721	-2.7996	0.406886	-0.00389428	0	0	0	0	0	0	
308	1580482314.520689307	0.0023931	-0.895102	2.13236	-2.79043	-1.56955	-2.62329	0	0	-0	0	0	0	0	-61.6886	-15.0703	-2.79955	0.40687	-0.00390902	0	0	0	0	0	0	
309	1580482314.528695866	0.0023931	-0.895089	2.13236	-2.7904	-1.56952	-2.62326	0	0	-0	0	0	0	0	-61.6888	-15.0698	-2.79951	0.406896	-0.00391416	0	0	0	0	0	0	
310	1580482314.536724070	0.00240508	-0.895078	2.13237	-2.79043	-1.56954	-2.62332	0	0	-0	0	0	0	0	-61.6886	-15.069	-2.79949	0.406876	-0.0039156	0	0	0	0	0	0	
311	1580482314.544690622	0.00242905	-0.895054	2.13237	-2.79045	-1.56954	-2.62325	0	0	-0	0	0	0	0	-61.6892	-15.0681	-2.79951	0.406886	-0.00391581	0	0	0	0	0	0	
312	1580482314.552694142	0.00241707	-0.895089	2.13236	-2.79045	-1.56955	-2.62332	0	0	-0	0	0	0	0	-61.6889	-15.0699	-2.79955	0.406865	-0.00390626	0	0	0	0	0	0	
313	1580482314.560671150	0.0023931	-0.895089	2.13236	-2.79044	-1.56955	-2.6233	0	0	-0	0	0	0	0	-61.6889	-15.0699	-2.79954	0.406868	-0.0039091	0	0	0	0	0	0	
314	1580482314.568710436	0.00240508	-0.895054	2.13237	-2.79041	-1.56951	-2.62329	0	0	-0	0	0	0	0	-61.6891	-15.0681	-2.79946	0.406903	-0.00392067	0	0	0	0	0	0	
315	1580482314.576690709	0.0023931	-0.895078	2.13237	-2.79044	-1.56957	-2.62331	0	0	-0	0	0	0	0	-61.6887	-15.069	-2.79951	0.406844	-0.0039181	0	0	0	0	0	0	
316	1580482314.584697799	0.00238112	-0.895089	2.13235	-2.79045	-1.56955	-2.62332	0	0	-0	0	0	0	0	-61.6893	-15.0703	-2.79957	0.406865	-0.0039035	0	0	0	0	0	0	
317	1580482314.592657791	0.00235715	-0.895066	2.13236	-2.79039	-1.56951	-2.6233	0	0	-0	0	0	0	0	-61.6893	-15.0689	-2.79945	0.406901	-0.00392063	0	0	0	0	0	0	
318	1580482314.600722657	0.0023931	-0.895089	2.1324	-2.7904	-1.56955	-2.6233	0	0	-0	0	0	0	0	-61.6875	-15.0685	-2.79945	0.406868	-0.00392579	0	0	0	0	0	0	
319	1580482314.608686639	0.00240508	-0.895042	2.13236	-2.79044	-1.56954	-2.62327	0	0	-0	0	0	0	0	-61.6898	-15.0681	-2.79949	0.406883	-0.0039185	0	0	0	0	0	0	
320	1580482314.616687905	0.00235715	-0.895078	2.13236	-2.79041	-1.56951	-2.62333	0	0	-0	0	0	0	0	-61.6891	-15.0694	-2.79949	0.406896	-0.00391224	0	0	0	0	0	0	
321	1580482314.624649999	0.00240508	-0.895126	2.13241	-2.79043	-1.56955	-2.6233	0	0	-0	0	0	0	0	-61.6864	-15.0694	-2.79951	0.406868	-0.00391451	0	0	0	0	0	0	
322	1580482314.632681978	0.00238112	-0.895078	2.13235	-2.7904	-1.56951	-2.6233	0	0	-0	0	0	0	0	-61.6895	-15.0698	-2.7995	0.406901	-0.00391234	0	0	0	0	0	0	
323	1580482314.640664368	0.0023931	-0.895089	2.13238	-2.79044	-1.56956	-2.6233	0	0	-0	0	0	0	0	-61.688	-15.069	-2.79951	0.406857	-0.00391641	0	0	0	0	0	0	
324	1580482314.648689817	0.00240508	-0.895078	2.13238	-2.7904	-1.56954	-2.6233	0	0	-0	0	0	0	0	-61.6882	-15.0685	-2.79945	0.406879	-0.00392407	0	0	0	0	0	0	
325	1580482314.656662754	0.00240508	-0.895089	2.13238	-2.79044	-1.56954	-2.6233	0	0	-0	0	0	0	0	-61.688	-15.069	-2.79951	0.406879	-0.0039129	0	0	0	0	0	0	
326	1580482314.664701299	0.00238112	-0.895114	2.13234	-2.79043	-1.56951	-2.62331	0	0	-0	0	0	0	0	-61.6892	-15.0716	-2.79959	0.4069	-0.0038955	0	0	0	0	0	0	
327	1580482314.672696079	0.0023931	-0.895102	2.13236	-2.79045	-1.5695	-2.6233	0	0	-0	0	0	0	0	-61.6886	-15.0703	-2.79957	0.406913	-0.00389658	0	0	0	0	0	0	
328	1580482314.680692849	0.0023931	-0.895078	2.13237	-2.79041	-1.56952	-2.62326	0	0	-0	0	0	0	0	-61.6886	-15.069	-2.79949	0.406896	-0.00391693	0	0	0	0	0	0	
329	1580482314.688698289	0.0023931	-0.895102	2.13237	-2.79043	-1.56954	-2.62331	0	0	-0	0	0	0	0	-61.6882	-15.0699	-2.79953	0.406878	-0.00391	0	0	0	0	0	0	
330	1580482314.696703522	0.00238112	-0.895054	2.13234	-2.79043	-1.56956	-2.6233	0	0	-0	0	0	0	0	-61.6905	-15.0694	-2.79951	0.406857	-0.00391641	0	0	0	0	0	0	
331	1580482314.704716829	0.00238112	-0.895078	2.13238	-2.79043	-1.56956	-2.62326	0	0	-0	0	0	0	0	-61.6882	-15.0685	-2.79949	0.406862	-0.00392204	0	0	0	0	0	0	
332	1580482314.712686226	0.00238112	-0.895102	2.13235	-2.79044	-1.56958	-2.62327	0	0	-0	0	0	0	0	-61.689	-15.0708	-2.79958	0.406838	-0.00390875	0	0	0	0	0	0	
333	1580482314.720700430	0.0023931	-0.895066	2.13238	-2.79043	-1.56958	-2.6233	0	0	-0	0	0	0	0	-61.6885	-15.0681	-2.79947	0.406834	-0.00392814	0	0	0	0	0	0	
334	1580482314.728743254	0.0023931	-0.895066	2.13237	-2.79043	-1.56952	-2.62327	0	0	-0	0	0	0	0	-61.6889	-15.0685	-2.79949	0.406894	-0.00391678	0	0	0	0	0	0	
335	1580482314.736639349	0.00240508	-0.895102	2.13238	-2.79043	-1.56955	-2.62327	0	0	-0	0	0	0	0	-61.6877	-15.0694	-2.79952	0.406872	-0.00391458	0	0	0	0	0	0	
336	1580482314.744688761	0.00238112	-0.895114	2.1324	-2.79041	-1.56955	-2.62327	0	0	-0	0	0	0	0	-61.687	-15.0694	-2.7995	0.406872	-0.00391746	0	0	0	0	0	0	
337	1580482314.752697871	0.00241707	-0.895066	2.13241	-2.79046	-1.56951	-2.6233	0	0	-0	0	0	0	0	-61.6876	-15.0673	-2.79948	0.406901	-0.00391499	0	0	0	0	0	0	
338	1580482314.760705095	0.00240508	-0.895089	2.13238	-2.79044	-1.56955	-2.62332	0	0	-0	0	0	0	0	-61.688	-15.069	-2.79951	0.406865	-0.00391456	0	0	0	0	0	0	
339	1580482314.768665559	0.00241707	-0.895102	2.13237	-2.79043	-1.56952	-2.6233	0	0	-0	0	0	0	0	-61.6882	-15.0699	-2.79953	0.406891	-0.00390831	0	0	0	0	0	0	
340	1580482314.776692975	0.00240508	-0.895089	2.13241	-2.79045	-1.56955	-2.62327	0	0	-0	0	0	0	0	-61.6871	-15.0681	-2.7995	0.406872	-0.00391746	0	0	0	0	0	0	
341	1580482314.784695282	0.0023931	-0.895054	2.13231	-2.79043	-1.56951	-2.62329	0	0	-0	0	0	0	0	-61.6913	-15.0703	-2.79955	0.406903	-0.00390386	0	0	0	0	0	0	
342	1580482314.792759723	0.00241707	-0.89503	2.13238	-2.79043	-1.56954	-2.62332	0	0	-0	0	0	0	0	-61.6892	-15.0668	-2.79942	0.406875	-0.00392942	0	0	0	0	0	0	
343	1580482314.800703247	0.00242905	-0.895114	2.1324	-2.79043	-1.56952	-2.6233	0	0	-0	0	0	0	0	-61.687	-15.0694	-2.79951	0.40689	-0.00391107	0	0	0	0	0	0	
344	1580482314.808682330	0.00238112	-0.895078	2.13236	-2.79043	-1.56954	-2.62329	0	0	-0	0	0	0	0	-61.6891	-15.0694	-2.79952	0.406881	-0.00391294	0	0	0	0	0	0	
345	1580482314.816703667	0.00238112	-0.895078	2.13238	-2.79041	-1.56952	-2.62329	0	0	-0	0	0	0	0	-61.6882	-15.0685	-2.79947	0.406892	-0.00391962	0	0	0	0	0	0	
346	1580482314.824798014	0.00240508	-0.895089	2.13236	-2.7904	-1.56958	-2.62331	0	0	-0	0	0	0	0	-61.6888	-15.0698	-2.7995	0.406833	-0.00392269	0	0	0	0	0	0	
347	1580482314.832702176	0.00241707	-0.895114	2.13235	-2.79043	-1.56954	-2.62331	0	0	-0	0	0	0	0	-61.6888	-15.0712	-2.79957	0.406878	-0.00390171	0	0	0	0	0	0	
348	1580482314.840702584	0.00240508	-0.895089	2.13238	-2.79044	-1.56955	-2.62329	0	0	-0	0	0	0	0	-61.688	-15.069	-2.79952	0.40687	-0.00391466	0	0	0	0	0	0	
349	1580482314.848712331	0.0023931	-0.895054	2.13236	-2.79044	-1.56954	-2.62331	0	0	-0	0	0	0	0	-61.6896	-15.0685	-2.7995	0.406878	-0.00391563	0	0	0	0	0	0	
350	1580482314.856696541	0.00238112	-0.895054	2.1324	-2.79043	-1.56951	-2.62332	0	0	-0	0	0	0	0	-61.6883	-15.0672	-2.79943	0.406898	-0.00392322	0	0	0	0	0	0	
351	1580482314.864685728	0.00242905	-0.895078	2.1324	-2.7904	-1.56957	-2.6233	0	0	-0	0	0	0	0	-61.6878	-15.0681	-2.79944	0.406845	-0.00393206	0	0	0	0	0	0	
352	1580482314.872707469	0.00238112	-0.895054	2.1324	-2.79043	-1.56957	-2.62333	0	0	-0	0	0	0	0	-61.6883	-15.0672	-2.79943	0.40684	-0.00393185	0	0	0	0	0	0	
353	1580482314.880708562	0.00236913	-0.895089	2.13238	-2.79044	-1.56957	-2.62331	0	0	-0	0	0	0	0	-61.688	-15.069	-2.79951	0.406844	-0.0039181	0	0	0	0	0	0	
354	1580482314.888713462	0.0023931	-0.895089	2.13232	-2.79045	-1.56955	-2.62329	0	0	-0	0	0	0	0	-61.6902	-15.0712	-2.79961	0.40687	-0.00389807	0	0	0	0	0	0	
355	1580482314.896704843	0.00241707	-0.895089	2.13237	-2.79041	-1.56954	-2.62327	0	0	-0	0	0	0	0	-61.6884	-15.0694	-2.7995	0.406883	-0.00391585	0	0	0	0	0	0	
356	1580482314.904694244	0.00240508	-0.895078	2.13242	-2.79043	-1.56955	-2.6233	0	0	-0	0	0	0	0	-61.6869	-15.0672	-2.79944	0.406868	-0.00392855	0	0	0	0	0	0	
357	1580482314.912645339	0.00241707	-0.895054	2.13237	-2.79044	-1.56958	-2.62331	0	0	-0	0	0	0	0	-61.6892	-15.0681	-2.79948	0.406833	-0.00392534	0	0	0	0	0	0	
358	1580482314.920786648	0.00240508	-0.895078	2.13237	-2.7904	-1.56955	-2.62326	0	0	-0	0	0	0	0	-61.6886	-15.0689	-2.79948	0.406873	-0.00392313	0	0	0	0	0	0	
359	1580482314.928652682	0.00240508	-0.895042	2.13241	-2.79041	-1.56954	-2.62332	0	0	-0	0	0	0	0	-61.6881	-15.0663	-2.79939	0.406875	-0.00393506	0	0	0	0	0	0	
360	1580482314.936699906	0.00240508	-0.895078	2.13242	-2.79045	-1.56955	-2.62327	0	0	-0	0	0	0	0	-61.6869	-15.0672	-2.79947	0.406871	-0.00392309	0	0	0	0	0	0	
361	1580482314.944707648	0.00240508	-0.895066	2.13238	-2.79041	-1.56955	-2.62329	0	0	-0	0	0	0	0	-61.6884	-15.0681	-2.79946	0.40687	-0.00392582	0	0	0	0	0	0	
362	1580482314.952767796	0.00238112	-0.895078	2.13238	-2.79043	-1.56956	-2.62329	0	0	-0	0	0	0	0	-61.6882	-15.0685	-2.79949	0.406858	-0.00392197	0	0	0	0	0	0	
363	1580482314.960713017	0.00241707	-0.89503	2.13236	-2.79043	-1.56956	-2.62329	0	0	-0	0	0	0	0	-61.6901	-15.0677	-2.79946	0.406858	-0.0039275	0	0	0	0	0	0	
364	1580482314.968667298	0.00241707	-0.895066	2.13241	-2.7904	-1.56956	-2.62327	0	0	-0	0	0	0	0	-61.6876	-15.0672	-2.79941	0.40686	-0.00393594	0	0	0	0	0	0	
365	1580482314.976705547	0.0023931	-0.895066	2.13235	-2.79043	-1.56955	-2.6233	0	0	-0	0	0	0	0	-61.6898	-15.0694	-2.79951	0.406868	-0.00391462	0	0	0	0	0	0	
366	1580482314.984769069	0.00236913	-0.895042	2.13235	-2.79041	-1.56955	-2.62332	0	0	-0	0	0	0	0	-61.6902	-15.0685	-2.79946	0.406865	-0.00392296	0	0	0	0	0	0	
367	1580482314.992683674	0.0023931	-0.895078	2.1324	-2.79043	-1.56954	-2.6233	0	0	-0	0	0	0	0	-61.6878	-15.0681	-2.79947	0.406879	-0.0039212	0	0	0	0	0	0	
368	1580482315.000713861	0.00241707	-0.895089	2.13238	-2.79043	-1.56954	-2.6233	0	0	-0	0	0	0	0	-61.688	-15.069	-2.7995	0.406879	-0.00391567	0	0	0	0	0	0	
369	1580482315.008682616	0.00240508	-0.895102	2.13237	-2.79041	-1.56952	-2.62329	0	0	-0	0	0	0	0	-61.6881	-15.0698	-2.79952	0.406892	-0.00391122	0	0	0	0	0	0	
370	1580482315.016740830	0.0023931	-0.895089	2.13234	-2.7904	-1.56955	-2.62331	0	0	-0	0	0	0	0	-61.6897	-15.0707	-2.79953	0.406867	-0.00391194	0	0	0	0	0	0	
371	1580482315.024718367	0.00240508	-0.895089	2.13237	-2.79045	-1.56954	-2.62333	0	0	-0	0	0	0	0	-61.6884	-15.0694	-2.79954	0.406874	-0.00390727	0	0	0	0	0	0	
372	1580482315.032692837	0.00236913	-0.895078	2.13236	-2.79043	-1.56951	-2.62329	0	0	-0	0	0	0	0	-61.6891	-15.0694	-2.79952	0.406903	-0.0039095	0	0	0	0	0	0	
373	1580482315.040694266	0.00238112	-0.895078	2.13238	-2.79044	-1.56955	-2.62329	0	0	-0	0	0	0	0	-61.6882	-15.0686	-2.7995	0.40687	-0.00391742	0	0	0	0	0	0	
374	1580482315.048756416	0.00238112	-0.895078	2.13237	-2.7904	-1.5695	-2.62327	0	0	-0	0	0	0	0	-61.6886	-15.0689	-2.79947	0.406916	-0.00391622	0	0	0	0	0	0	
375	1580482315.056708072	0.00240508	-0.895066	2.1324	-2.79041	-1.56957	-2.62327	0	0	-0	0	0	0	0	-61.688	-15.0677	-2.79944	0.406849	-0.00393213	0	0	0	0	0	0	
376	1580482315.064714412	0.00242905	-0.895054	2.13237	-2.79043	-1.56954	-2.62331	0	0	-0	0	0	0	0	-61.6891	-15.0681	-2.79947	0.406877	-0.00392116	0	0	0	0	0	0	
377	1580482315.072726429	0.0023931	-0.895078	2.1324	-2.79045	-1.56952	-2.6233	0	0	-0	0	0	0	0	-61.6878	-15.0681	-2.7995	0.40689	-0.00391395	0	0	0	0	0	0	
378	1580482315.080749336	0.00236913	-0.895114	2.1324	-2.79043	-1.56952	-2.62329	0	0	-0	0	0	0	0	-61.687	-15.0694	-2.79952	0.406892	-0.00391111	0	0	0	0	0	0	
379	1580482315.088709161	0.00238112	-0.895042	2.13235	-2.79043	-1.56952	-2.62331	0	0	-0	0	0	0	0	-61.6903	-15.0685	-2.79948	0.406889	-0.00391668	0	0	0	0	0	0	
380	1580482315.096710269	0.00241707	-0.895078	2.13237	-2.79045	-1.56952	-2.62327	0	0	-0	0	0	0	0	-61.6887	-15.069	-2.79953	0.406894	-0.00390849	0	0	0	0	0	0	
381	1580482315.104678693	0.00238112	-0.895054	2.13237	-2.79044	-1.56951	-2.62331	0	0	-0	0	0	0	0	-61.6892	-15.0681	-2.79948	0.4069	-0.00391496	0	0	0	0	0	0	
382	1580482315.112684609	0.00240508	-0.895042	2.13237	-2.79044	-1.56955	-2.62329	0	0	-0	0	0	0	0	-61.6894	-15.0677	-2.79947	0.40687	-0.00392295	0	0	0	0	0	0	
383	1580482315.120691143	0.0023931	-0.895102	2.13236	-2.79044	-1.56952	-2.62329	0	0	-0	0	0	0	0	-61.6886	-15.0703	-2.79956	0.406892	-0.00390282	0	0	0	0	0	0	
384	1580482315.128717592	0.0023931	-0.895054	2.13238	-2.79043	-1.56955	-2.62327	0	0	-0	0	0	0	0	-61.6887	-15.0677	-2.79946	0.406871	-0.00392575	0	0	0	0	0	0	
385	1580482315.136666484	0.0023931	-0.895066	2.13236	-2.79045	-1.56955	-2.62326	0	0	-0	0	0	0	0	-61.6894	-15.069	-2.79954	0.406874	-0.00391196	0	0	0	0	0	0	
386	1580482315.144725575	0.0023931	-0.895114	2.13237	-2.7904	-1.56955	-2.6233	0	0	-0	0	0	0	0	-61.6879	-15.0703	-2.79951	0.406868	-0.00391462	0	0	0	0	0	0	
387	1580482315.152729275	0.00241707	-0.895042	2.13236	-2.7904	-1.56955	-2.62331	0	0	-0	0	0	0	0	-61.6898	-15.0681	-2.79944	0.406866	-0.00392852	0	0	0	0	0	0	
388	1580482315.160729951	0.0023931	-0.895078	2.13237	-2.7904	-1.56954	-2.62329	0	0	-0	0	0	0	0	-61.6886	-15.0689	-2.79947	0.406881	-0.00392134	0	0	0	0	0	0	
389	1580482315.168715468	0.00240508	-0.895102	2.13236	-2.79044	-1.56954	-2.62331	0	0	-0	0	0	0	0	-61.6886	-15.0703	-2.79956	0.406878	-0.00390447	0	0	0	0	0	0	
390	1580482315.176760369	0.0023931	-0.895066	2.13237	-2.79044	-1.56954	-2.62329	0	0	-0	0	0	0	0	-61.6889	-15.0686	-2.7995	0.406881	-0.0039157	0	0	0	0	0	0	
391	1580482315.184730646	0.00238112	-0.895078	2.13238	-2.79043	-1.56952	-2.62329	0	0	-0	0	0	0	0	-61.6882	-15.0685	-2.79949	0.406892	-0.00391675	0	0	0	0	0	0	
392	1580482315.192709311	0.00240508	-0.895066	2.13237	-2.79043	-1.56954	-2.62331	0	0	-0	0	0	0	0	-61.6889	-15.0685	-2.79948	0.406877	-0.0039184	0	0	0	0	0	0	
393	1580482315.200721967	0.0023931	-0.895102	2.13236	-2.79044	-1.56954	-2.6233	0	0	-0	0	0	0	0	-61.6886	-15.0703	-2.79956	0.40688	-0.0039045	0	0	0	0	0	0	
394	1580482315.208784921	0.0023931	-0.895054	2.1324	-2.79043	-1.56954	-2.62332	0	0	-0	0	0	0	0	-61.6883	-15.0672	-2.79943	0.406875	-0.00392665	0	0	0	0	0	0	
395	1580482315.216736538	0.00238112	-0.895066	2.13234	-2.79043	-1.56956	-2.62327	0	0	-0	0	0	0	0	-61.6902	-15.0698	-2.79953	0.40686	-0.00391372	0	0	0	0	0	0	
396	1580482315.224744350	0.00242905	-0.895089	2.1324	-2.79045	-1.56956	-2.62327	0	0	-0	0	0	0	0	-61.6876	-15.0686	-2.79952	0.40686	-0.00391648	0	0	0	0	0	0	
397	1580482315.232738070	0.0023931	-0.895054	2.13235	-2.79043	-1.56957	-2.62327	0	0	-0	0	0	0	0	-61.69	-15.069	-2.7995	0.406849	-0.00392096	0	0	0	0	0	0	
398	1580482315.240748931	0.00240508	-0.895042	2.13236	-2.79043	-1.56952	-2.62326	0	0	-0	0	0	0	0	-61.6898	-15.0681	-2.79948	0.406895	-0.00391958	0	0	0	0	0	0	
399	1580482315.248742710	0.0023931	-0.895078	2.13236	-2.79041	-1.56957	-2.62333	0	0	-0	0	0	0	0	-61.6891	-15.0694	-2.79949	0.40684	-0.0039209	0	0	0	0	0	0	
400	1580482315.256757870	0.00241707	-0.895089	2.13235	-2.79041	-1.56955	-2.62327	0	0	-0	0	0	0	0	-61.6893	-15.0703	-2.79953	0.406872	-0.00391204	0	0	0	0	0	0	
401	1580482315.264696114	0.00240508	-0.895066	2.1324	-2.79044	-1.56956	-2.62332	0	0	-0	0	0	0	0	-61.688	-15.0677	-2.79946	0.406853	-0.00392463	0	0	0	0	0	0	
402	1580482315.272752410	0.00241707	-0.895066	2.13235	-2.79044	-1.56955	-2.62327	0	0	-0	0	0	0	0	-61.6898	-15.0694	-2.79953	0.406872	-0.00391193	0	0	0	0	0	0	
403	1580482315.280744838	0.00241707	-0.895054	2.13236	-2.79044	-1.56954	-2.6233	0	0	-0	0	0	0	0	-61.6896	-15.0685	-2.7995	0.406879	-0.00391567	0	0	0	0	0	0	
404	1580482315.288727943	0.00238112	-0.895066	2.13237	-2.79041	-1.56954	-2.62326	0	0	-0	0	0	0	0	-61.6889	-15.0685	-2.79948	0.406884	-0.00392141	0	0	0	0	0	0	
405	1580482315.296723097	0.00240508	-0.895042	2.13237	-2.79041	-1.56951	-2.62329	0	0	-0	0	0	0	0	-61.6894	-15.0676	-2.79944	0.406903	-0.00392343	0	0	0	0	0	0	
406	1580482315.304730141	0.00241707	-0.895042	2.1324	-2.7904	-1.56956	-2.6233	0	0	-0	0	0	0	0	-61.6885	-15.0668	-2.79939	0.406856	-0.00393863	0	0	0	0	0	0	
407	1580482315.312716315	0.00240508	-0.895078	2.13238	-2.79043	-1.56954	-2.62325	0	0	-0	0	0	0	0	-61.6882	-15.0685	-2.7995	0.406886	-0.00391857	0	0	0	0	0	0	
408	1580482315.320728104	0.00241707	-0.895089	2.13238	-2.79046	-1.56952	-2.6233	0	0	-0	0	0	0	0	-61.688	-15.069	-2.79954	0.406891	-0.00390566	0	0	0	0	0	0	
409	1580482315.328730839	0.0023931	-0.895078	2.13234	-2.79043	-1.56952	-2.62332	0	0	-0	0	0	0	0	-61.69	-15.0703	-2.79954	0.406887	-0.00390559	0	0	0	0	0	0	
410	1580482315.336744486	0.00238112	-0.895078	2.13237	-2.79043	-1.56952	-2.6233	0	0	-0	0	0	0	0	-61.6887	-15.069	-2.7995	0.40689	-0.00391395	0	0	0	0	0	0	
411	1580482315.344685515	0.00240508	-0.895042	2.13237	-2.79043	-1.56952	-2.62329	0	0	-0	0	0	0	0	-61.6894	-15.0677	-2.79946	0.406892	-0.00392227	0	0	0	0	0	0	
412	1580482315.352718932	0.0023931	-0.895102	2.1324	-2.79043	-1.56952	-2.6233	0	0	-0	0	0	0	0	-61.6873	-15.069	-2.7995	0.40689	-0.00391384	0	0	0	0	0	0	
413	1580482315.360714014	0.00241707	-0.895102	2.13236	-2.79044	-1.56955	-2.62329	0	0	-0	0	0	0	0	-61.6886	-15.0703	-2.79956	0.40687	-0.00390626	0	0	0	0	0	0	
414	1580482315.368708426	0.00238112	-0.895089	2.13238	-2.79045	-1.56956	-2.62329	0	0	-0	0	0	0	0	-61.688	-15.069	-2.79953	0.406859	-0.00391368	0	0	0	0	0	0	
415	1580482315.376683127	0.00242905	-0.895078	2.13237	-2.79044	-1.56956	-2.62325	0	0	-0	0	0	0	0	-61.6887	-15.069	-2.79952	0.406864	-0.00391655	0	0	0	0	0	0	
416	1580482315.384703374	0.00240508	-0.895078	2.13237	-2.79043	-1.56955	-2.62327	0	0	-0	0	0	0	0	-61.6887	-15.069	-2.7995	0.406872	-0.00391746	0	0	0	0	0	0	
417	1580482315.392712340	0.00238112	-0.895066	2.13237	-2.79043	-1.56956	-2.62329	0	0	-0	0	0	0	0	-61.6889	-15.0685	-2.79949	0.406858	-0.00392197	0	0	0	0	0	0	
418	1580482315.400739555	0.00240508	-0.895066	2.13236	-2.79044	-1.56956	-2.62327	0	0	-0	0	0	0	0	-61.6894	-15.069	-2.79952	0.40686	-0.00391648	0	0	0	0	0	0	
419	1580482315.408687961	0.00240508	-0.895066	2.13236	-2.79043	-1.56956	-2.62329	0	0	-0	0	0	0	0	-61.6893	-15.069	-2.7995	0.406858	-0.00391921	0	0	0	0	0	0	
420	1580482315.416690435	0.00240508	-0.895078	2.13235	-2.79045	-1.56955	-2.6233	0	0	-0	0	0	0	0	-61.6896	-15.0699	-2.79956	0.406869	-0.00390633	0	0	0	0	0	0	
421	1580482315.424672947	0.0023931	-0.895042	2.1324	-2.79041	-1.56956	-2.62331	0	0	-0	0	0	0	0	-61.6885	-15.0668	-2.79941	0.406854	-0.00393583	0	0	0	0	0	0	
422	1580482315.432709458	0.00238112	-0.895066	2.13234	-2.79041	-1.56954	-2.62332	0	0	-0	0	0	0	0	-61.6902	-15.0698	-2.79951	0.406876	-0.00391295	0	0	0	0	0	0	
423	1580482315.440694255	0.0023931	-0.895054	2.13237	-2.79041	-1.56951	-2.62332	0	0	-0	0	0	0	0	-61.6891	-15.0681	-2.79945	0.406898	-0.00392056	0	0	0	0	0	0	
424	1580482315.448702062	0.0023931	-0.895089	2.13232	-2.79041	-1.56951	-2.62326	0	0	-0	0	0	0	0	-61.6901	-15.0711	-2.79957	0.406907	-0.00390139	0	0	0	0	0	0	
425	1580482315.456664332	0.0023931	-0.895078	2.13237	-2.79041	-1.56956	-2.6233	0	0	-0	0	0	0	0	-61.6886	-15.069	-2.79948	0.406857	-0.00392205	0	0	0	0	0	0	
426	1580482315.464737772	0.00241707	-0.895089	2.13235	-2.79043	-1.56952	-2.62329	0	0	-0	0	0	0	0	-61.6893	-15.0703	-2.79955	0.406892	-0.00390569	0	0	0	0	0	0	
427	1580482315.472648526	0.00236913	-0.895078	2.13235	-2.7904	-1.56952	-2.62327	0	0	-0	0	0	0	0	-61.6895	-15.0698	-2.7995	0.406894	-0.00391413	0	0	0	0	0	0	
428	1580482315.480689733	0.0023931	-0.895126	2.1324	-2.79044	-1.56955	-2.62331	0	0	-0	0	0	0	0	-61.6868	-15.0699	-2.79954	0.406867	-0.00390895	0	0	0	0	0	0	
429	1580482315.488702327	0.0023931	-0.895089	2.13237	-2.79044	-1.56956	-2.62331	0	0	-0	0	0	0	0	-61.6884	-15.0694	-2.79953	0.406855	-0.00391361	0	0	0	0	0	0	
430	1580482315.496771739	0.00240508	-0.895089	2.13234	-2.7904	-1.56954	-2.62329	0	0	-0	0	0	0	0	-61.6897	-15.0707	-2.79953	0.406881	-0.00391028	0	0	0	0	0	0	
431	1580482315.504690428	0.00240508	-0.895066	2.13237	-2.79043	-1.56952	-2.62329	0	0	-0	0	0	0	0	-61.6889	-15.0685	-2.79949	0.406892	-0.00391675	0	0	0	0	0	0	
432	1580482315.512691451	0.0023931	-0.895089	2.1324	-2.79044	-1.56957	-2.62332	0	0	-0	0	0	0	0	-61.6875	-15.0685	-2.79949	0.406842	-0.00392083	0	0	0	0	0	0	
433	1580482315.520687795	0.00238112	-0.895066	2.13238	-2.79041	-1.56956	-2.62331	0	0	-0	0	0	0	0	-61.6884	-15.0681	-2.79945	0.406855	-0.00392754	0	0	0	0	0	0	
434	1580482315.528720194	0.00241707	-0.895066	2.13236	-2.79043	-1.56954	-2.6233	0	0	-0	0	0	0	0	-61.6893	-15.069	-2.7995	0.406879	-0.00391567	0	0	0	0	0	0	
435	1580482315.536731752	0.0023931	-0.895078	2.13235	-2.79043	-1.56951	-2.6233	0	0	-0	0	0	0	0	-61.6895	-15.0698	-2.79953	0.406902	-0.0039067	0	0	0	0	0	0	
436	1580482315.544708861	0.0023931	-0.895078	2.13237	-2.79043	-1.56952	-2.62329	0	0	-0	0	0	0	0	-61.6887	-15.069	-2.7995	0.406892	-0.00391398	0	0	0	0	0	0	
437	1580482315.552702750	0.0023931	-0.895089	2.13237	-2.79043	-1.56957	-2.62329	0	0	-0	0	0	0	0	-61.6884	-15.0694	-2.79952	0.406847	-0.00391816	0	0	0	0	0	0	
438	1580482315.560719329	0.00242905	-0.895089	2.13236	-2.79043	-1.56956	-2.62332	0	0	-0	0	0	0	0	-61.6888	-15.0698	-2.79952	0.406853	-0.00391358	0	0	0	0	0	0	
439	1580482315.568698165	0.00244066	-0.895102	2.13237	-2.79043	-1.56955	-2.62327	0	0	-0	0	0	0	0	-61.6882	-15.0699	-2.79953	0.406872	-0.00391182	0	0	0	0	0	0	
440	1580482315.576684269	0.00240508	-0.895078	2.13238	-2.79044	-1.56951	-2.62329	0	0	-0	0	0	0	0	-61.6882	-15.0686	-2.7995	0.406903	-0.00391226	0	0	0	0	0	0	
441	1580482315.584702625	0.0023931	-0.895054	2.13236	-2.79044	-1.56952	-2.62326	0	0	-0	0	0	0	0	-61.6896	-15.0686	-2.79951	0.406896	-0.00391405	0	0	0	0	0	0	
442	1580482315.592711675	0.0023931	-0.895066	2.1324	-2.79043	-1.56954	-2.62327	0	0	-0	0	0	0	0	-61.688	-15.0677	-2.79946	0.406882	-0.00392403	0	0	0	0	0	0	
443	1580482315.600695683	0.0023931	-0.895078	2.13236	-2.79041	-1.56955	-2.62327	0	0	-0	0	0	0	0	-61.6891	-15.0694	-2.7995	0.406872	-0.00391757	0	0	0	0	0	0	
444	1580482315.608691547	0.00241707	-0.895054	2.13235	-2.79041	-1.56954	-2.62327	0	0	-0	0	0	0	0	-61.69	-15.069	-2.79949	0.406883	-0.00391861	0	0	0	0	0	0	
445	1580482315.616676225	0.00242905	-0.895114	2.1324	-2.79043	-1.56956	-2.62327	0	0	-0	0	0	0	0	-61.687	-15.0694	-2.79952	0.40686	-0.00391637	0	0	0	0	0	0	
446	1580482315.624727284	0.00238112	-0.89503	2.13231	-2.79041	-1.56955	-2.62335	0	0	-0	0	0	0	0	-61.6918	-15.0694	-2.79949	0.406861	-0.00391725	0	0	0	0	0	0	
447	1580482315.632699023	0.00240508	-0.895042	2.13236	-2.79044	-1.56952	-2.62327	0	0	-0	0	0	0	0	-61.6898	-15.0681	-2.79949	0.406894	-0.00391678	0	0	0	0	0	0	
448	1580482315.640694769	0.00238112	-0.895102	2.13238	-2.79044	-1.56954	-2.62327	0	0	-0	0	0	0	0	-61.6877	-15.0694	-2.79954	0.406883	-0.0039101	0	0	0	0	0	0	
449	1580482315.648697540	0.00238112	-0.895054	2.13241	-2.79043	-1.56956	-2.62331	0	0	-0	0	0	0	0	-61.6878	-15.0668	-2.79942	0.406854	-0.00393296	0	0	0	0	0	0	
450	1580482315.656657420	0.0023931	-0.895078	2.13236	-2.79044	-1.56952	-2.62327	0	0	-0	0	0	0	0	-61.6891	-15.0694	-2.79953	0.406894	-0.00390849	0	0	0	0	0	0	
451	1580482315.664690482	0.00238112	-0.895054	2.13236	-2.79043	-1.56954	-2.6233	0	0	-0	0	0	0	0	-61.6896	-15.0685	-2.79948	0.406879	-0.00391843	0	0	0	0	0	0	
452	1580482315.672688769	0.00240508	-0.895066	2.13238	-2.79043	-1.56952	-2.6233	0	0	-0	0	0	0	0	-61.6885	-15.0681	-2.79947	0.40689	-0.00391948	0	0	0	0	0	0	
453	1580482315.680690277	0.00240508	-0.895089	2.13241	-2.79041	-1.56952	-2.62335	0	0	-0	0	0	0	0	-61.6871	-15.0681	-2.79944	0.406883	-0.00392221	0	0	0	0	0	0	
454	1580482315.688669319	0.00242905	-0.895066	2.13235	-2.79043	-1.56954	-2.62325	0	0	-0	0	0	0	0	-61.6898	-15.0694	-2.79953	0.406886	-0.00391304	0	0	0	0	0	0	
455	1580482315.696686443	0.0023931	-0.895089	2.13234	-2.79043	-1.56951	-2.62331	0	0	-0	0	0	0	0	-61.6897	-15.0707	-2.79956	0.4069	-0.00390114	0	0	0	0	0	0	
456	1580482315.704703574	0.00241707	-0.895066	2.13236	-2.79045	-1.56952	-2.62331	0	0	-0	0	0	0	0	-61.6894	-15.069	-2.79953	0.406889	-0.00390839	0	0	0	0	0	0	
457	1580482315.712704236	0.00240508	-0.895078	2.13237	-2.79043	-1.56957	-2.62327	0	0	-0	0	0	0	0	-61.6887	-15.069	-2.7995	0.406849	-0.00392096	0	0	0	0	0	0	
458	1580482315.720673290	0.00238112	-0.895089	2.13236	-2.79043	-1.56957	-2.62332	0	0	-0	0	0	0	0	-61.6888	-15.0698	-2.79952	0.406842	-0.0039153	0	0	0	0	0	0	
459	1580482315.728690814	0.00240508	-0.895066	2.13241	-2.79041	-1.56952	-2.62331	0	0	-0	0	0	0	0	-61.6876	-15.0672	-2.79942	0.406888	-0.00392784	0	0	0	0	0	0	
460	1580482315.736697979	0.00238112	-0.895042	2.13236	-2.79045	-1.56955	-2.62329	0	0	-0	0	0	0	0	-61.6899	-15.0681	-2.7995	0.40687	-0.00391742	0	0	0	0	0	0	
461	1580482315.744690036	0.0023931	-0.895078	2.13234	-2.7904	-1.56954	-2.62327	0	0	-0	0	0	0	0	-61.6899	-15.0703	-2.79952	0.406883	-0.00391308	0	0	0	0	0	0	
462	1580482315.752712015	0.00240508	-0.895054	2.13236	-2.79043	-1.56952	-2.62329	0	0	-0	0	0	0	0	-61.6896	-15.0685	-2.79949	0.406892	-0.00391675	0	0	0	0	0	0	
463	1580482315.760691990	0.00240508	-0.895089	2.13236	-2.79044	-1.56954	-2.6233	0	0	-0	0	0	0	0	-61.6889	-15.0699	-2.79954	0.40688	-0.00390738	0	0	0	0	0	0	
464	1580482315.768690072	0.00240508	-0.895089	2.13238	-2.79041	-1.56954	-2.62329	0	0	-0	0	0	0	0	-61.688	-15.069	-2.79949	0.406881	-0.00391858	0	0	0	0	0	0	
465	1580482315.776703253	0.00241707	-0.895054	2.13235	-2.7904	-1.56954	-2.62332	0	0	-0	0	0	0	0	-61.69	-15.0689	-2.79946	0.406876	-0.00392124	0	0	0	0	0	0	
466	1580482315.784688627	0.00240508	-0.895042	2.13235	-2.7904	-1.56954	-2.62331	0	0	-0	0	0	0	0	-61.6902	-15.0685	-2.79945	0.406877	-0.00392404	0	0	0	0	0	0	
467	1580482315.792684886	0.00236913	-0.895114	2.13236	-2.79043	-1.56954	-2.6233	0	0	-0	0	0	0	0	-61.6883	-15.0707	-2.79956	0.40688	-0.0039045	0	0	0	0	0	0	
468	1580482315.800698204	0.0023931	-0.895066	2.13236	-2.79045	-1.56954	-2.6233	0	0	-0	0	0	0	0	-61.6894	-15.069	-2.79953	0.406879	-0.00391014	0	0	0	0	0	0	
469	1580482315.808700609	0.00240508	-0.895126	2.13234	-2.7904	-1.56955	-2.62332	0	0	-0	0	0	0	0	-61.6889	-15.072	-2.79957	0.406865	-0.0039035	0	0	0	0	0	0	
470	1580482315.816718765	0.00238112	-0.895054	2.13238	-2.79044	-1.56955	-2.62329	0	0	-0	0	0	0	0	-61.6887	-15.0677	-2.79947	0.40687	-0.00392295	0	0	0	0	0	0	
471	1580482315.824672066	0.00240508	-0.895089	2.1324	-2.79043	-1.56956	-2.62331	0	0	-0	0	0	0	0	-61.6875	-15.0685	-2.79948	0.406855	-0.0039219	0	0	0	0	0	0	
472	1580482315.832695909	0.0023931	-0.895078	2.13234	-2.79045	-1.56951	-2.62327	0	0	-0	0	0	0	0	-61.69	-15.0703	-2.79958	0.406905	-0.00389848	0	0	0	0	0	0	
473	1580482315.840702809	0.00238112	-0.895078	2.13237	-2.79043	-1.56951	-2.62331	0	0	-0	0	0	0	0	-61.6887	-15.069	-2.7995	0.4069	-0.0039122	0	0	0	0	0	0	
474	1580482315.848662208	0.00238112	-0.895102	2.13237	-2.79044	-1.56956	-2.6233	0	0	-0	0	0	0	0	-61.6882	-15.0699	-2.79954	0.406857	-0.00391077	0	0	0	0	0	0	
475	1580482315.856705361	0.0023931	-0.895078	2.1324	-2.79045	-1.56952	-2.6233	0	0	-0	0	0	0	0	-61.6878	-15.0681	-2.7995	0.40689	-0.00391395	0	0	0	0	0	0	
476	1580482315.864701002	0.0023931	-0.895054	2.1324	-2.79043	-1.56954	-2.62332	0	0	-0	0	0	0	0	-61.6883	-15.0672	-2.79943	0.406875	-0.00392665	0	0	0	0	0	0	
477	1580482315.872711280	0.00241707	-0.895066	2.13237	-2.79043	-1.56952	-2.62326	0	0	-0	0	0	0	0	-61.6889	-15.0685	-2.79949	0.406896	-0.00391682	0	0	0	0	0	0	
478	1580482315.880723842	0.00241707	-0.895066	2.13235	-2.79043	-1.56954	-2.6233	0	0	-0	0	0	0	0	-61.6898	-15.0694	-2.79951	0.406879	-0.0039129	0	0	0	0	0	0	
479	1580482315.888715296	0.00238112	-0.895018	2.1324	-2.79043	-1.56955	-2.62329	0	0	-0	0	0	0	0	-61.689	-15.0659	-2.7994	0.406869	-0.00393677	0	0	0	0	0	0	
480	1580482315.896699804	0.00241707	-0.895114	2.1324	-2.79041	-1.56952	-2.62329	0	0	-0	0	0	0	0	-61.687	-15.0694	-2.7995	0.406892	-0.00391398	0	0	0	0	0	0	
481	1580482315.904726159	0.0023931	-0.895078	2.13237	-2.79043	-1.56956	-2.6233	0	0	-0	0	0	0	0	-61.6887	-15.069	-2.7995	0.406857	-0.00391917	0	0	0	0	0	0	
482	1580482315.912712576	0.00240508	-0.895078	2.13238	-2.79043	-1.56951	-2.62331	0	0	-0	0	0	0	0	-61.6882	-15.0685	-2.79948	0.4069	-0.00391496	0	0	0	0	0	0	
483	1580482315.920689216	0.00240508	-0.895078	2.13238	-2.79043	-1.56955	-2.6233	0	0	-0	0	0	0	0	-61.6882	-15.0685	-2.79948	0.406868	-0.00392015	0	0	0	0	0	0	
484	1580482315.928691459	0.00238112	-0.895042	2.13236	-2.79041	-1.56954	-2.62329	0	0	-0	0	0	0	0	-61.6898	-15.0681	-2.79946	0.406881	-0.0039241	0	0	0	0	0	0	
485	1580482315.936709149	0.00240508	-0.895042	2.13237	-2.79043	-1.56955	-2.62332	0	0	-0	0	0	0	0	-61.6894	-15.0677	-2.79945	0.406864	-0.00392561	0	0	0	0	0	0	
486	1580482315.944708882	0.00240508	-0.895102	2.13236	-2.79045	-1.56957	-2.62329	0	0	-0	0	0	0	0	-61.6886	-15.0703	-2.79958	0.406848	-0.003907	0	0	0	0	0	0	
487	1580482315.952691456	0.0023931	-0.895089	2.13237	-2.79045	-1.56955	-2.62332	0	0	-0	0	0	0	0	-61.6884	-15.0694	-2.79954	0.406865	-0.00390903	0	0	0	0	0	0	
488	1580482315.960673796	0.0023931	-0.895102	2.13237	-2.79043	-1.56956	-2.62329	0	0	-0	0	0	0	0	-61.6882	-15.0699	-2.79953	0.406859	-0.00391357	0	0	0	0	0	0	
489	1580482315.968691500	0.00238112	-0.895089	2.13235	-2.79043	-1.56952	-2.62329	0	0	-0	0	0	0	0	-61.6893	-15.0703	-2.79955	0.406892	-0.00390569	0	0	0	0	0	0	
490	1580482315.976741560	0.00242905	-0.895078	2.13237	-2.7904	-1.56956	-2.62327	0	0	-0	0	0	0	0	-61.6886	-15.0689	-2.79947	0.40686	-0.00392488	0	0	0	0	0	0	
491	1580482315.984683162	0.00240508	-0.895089	2.1324	-2.79043	-1.56954	-2.62331	0	0	-0	0	0	0	0	-61.6875	-15.0685	-2.79948	0.406877	-0.0039184	0	0	0	0	0	0	
492	1580482315.992639202	0.00236913	-0.895089	2.13235	-2.79044	-1.56956	-2.62332	0	0	-0	0	0	0	0	-61.6893	-15.0703	-2.79955	0.406854	-0.00390805	0	0	0	0	0	0	
493	1580482316.000696627	0.00238112	-0.895089	2.13237	-2.79043	-1.56951	-2.6233	0	0	-0	0	0	0	0	-61.6884	-15.0694	-2.79951	0.406902	-0.00390947	0	0	0	0	0	0	
494	1580482316.008764862	0.00240508	-0.895078	2.13236	-2.7904	-1.56951	-2.62329	0	0	-0	0	0	0	0	-61.6891	-15.0694	-2.79949	0.406903	-0.00391514	0	0	0	0	0	0	
495	1580482316.016662720	0.00236913	-0.895102	2.1324	-2.79044	-1.56954	-2.62329	0	0	-0	0	0	0	0	-61.6873	-15.069	-2.79952	0.406881	-0.00391283	0	0	0	0	0	0	
496	1580482316.024692800	0.00240508	-0.895054	2.13236	-2.79045	-1.56952	-2.62332	0	0	-0	0	0	0	0	-61.6896	-15.0686	-2.79951	0.406887	-0.00391112	0	0	0	0	0	0	
497	1580482316.032671013	0.00241707	-0.895102	2.13237	-2.79043	-1.56954	-2.62327	0	0	-0	0	0	0	0	-61.6882	-15.0699	-2.79954	0.406883	-0.0039101	0	0	0	0	0	0	
498	1580482316.040687202	0.0023931	-0.895078	2.13238	-2.79041	-1.56955	-2.62325	0	0	-0	0	0	0	0	-61.6882	-15.0685	-2.79948	0.406875	-0.00392316	0	0	0	0	0	0	
499	1580482316.048726486	0.00240508	-0.895078	2.1324	-2.79041	-1.56954	-2.62327	0	0	-0	0	0	0	0	-61.6878	-15.0681	-2.79946	0.406882	-0.00392414	0	0	0	0	0	0	
500	1580482316.056698681	0.00238112	-0.895078	2.13237	-2.79045	-1.56954	-2.6233	0	0	-0	0	0	0	0	-61.6887	-15.069	-2.79953	0.406879	-0.00391014	0	0	0	0	0	0	
501	1580482316.064693196	0.0023931	-0.895018	2.13236	-2.79041	-1.56952	-2.62327	0	0	-0	0	0	0	0	-61.6903	-15.0672	-2.79943	0.406893	-0.00392795	0	0	0	0	0	0	
502	1580482316.072749871	0.00240508	-0.895114	2.13234	-2.79043	-1.56954	-2.62326	0	0	-0	0	0	0	0	-61.6892	-15.0716	-2.7996	0.406885	-0.00389908	0	0	0	0	0	0	
503	1580482316.080708732	0.00241707	-0.895078	2.13236	-2.79041	-1.56954	-2.62327	0	0	-0	0	0	0	0	-61.6891	-15.0694	-2.7995	0.406883	-0.00391585	0	0	0	0	0	0	
504	1580482316.088689231	0.00240508	-0.895042	2.13236	-2.79041	-1.56954	-2.62332	0	0	-0	0	0	0	0	-61.6898	-15.0681	-2.79945	0.406876	-0.003924	0	0	0	0	0	0	
505	1580482316.096711192	0.00240508	-0.895054	2.13241	-2.79045	-1.56954	-2.62327	0	0	-0	0	0	0	0	-61.6879	-15.0668	-2.79946	0.406882	-0.00392403	0	0	0	0	0	0	
506	1580482316.104666889	0.00238112	-0.895102	2.1324	-2.7904	-1.56954	-2.62327	0	0	-0	0	0	0	0	-61.6873	-15.069	-2.79947	0.406883	-0.00392126	0	0	0	0	0	0	
507	1580482316.112675474	0.00241707	-0.895114	2.13238	-2.79041	-1.56951	-2.6233	0	0	-0	0	0	0	0	-61.6875	-15.0698	-2.79951	0.406902	-0.00390947	0	0	0	0	0	0	
508	1580482316.120691673	0.00238112	-0.895089	2.13236	-2.7904	-1.56956	-2.62333	0	0	-0	0	0	0	0	-61.6888	-15.0698	-2.79949	0.406851	-0.00391918	0	0	0	0	0	0	
509	1580482316.128679161	0.00240508	-0.895078	2.13238	-2.79041	-1.56954	-2.62329	0	0	-0	0	0	0	0	-61.6882	-15.0685	-2.79947	0.406881	-0.00392134	0	0	0	0	0	0	
510	1580482316.136730289	0.00242905	-0.895078	2.13237	-2.79043	-1.56952	-2.62326	0	0	-0	0	0	0	0	-61.6887	-15.069	-2.79951	0.406896	-0.00391405	0	0	0	0	0	0	
511	1580482316.144693485	0.00241707	-0.895054	2.13236	-2.79043	-1.56954	-2.6233	0	0	-0	0	0	0	0	-61.6896	-15.0685	-2.79948	0.406879	-0.00391843	0	0	0	0	0	0	
512	1580482316.152694337	0.00240508	-0.895089	2.13235	-2.79041	-1.56952	-2.6233	0	0	-0	0	0	0	0	-61.6893	-15.0703	-2.79953	0.406891	-0.00390853	0	0	0	0	0	0	
513	1580482316.160693597	0.0023931	-0.895054	2.13237	-2.79043	-1.56954	-2.62329	0	0	-0	0	0	0	0	-61.6891	-15.0681	-2.79947	0.406881	-0.00392123	0	0	0	0	0	0	
514	1580482316.168691621	0.00244066	-0.895066	2.13236	-2.79043	-1.56955	-2.6233	0	0	-0	0	0	0	0	-61.6893	-15.069	-2.7995	0.406868	-0.00391739	0	0	0	0	0	0	
515	1580482316.176647149	0.00238112	-0.895078	2.13235	-2.7904	-1.56955	-2.62331	0	0	-0	0	0	0	0	-61.6895	-15.0698	-2.7995	0.406866	-0.00391746	0	0	0	0	0	0	
516	1580482316.184620500	0.0023931	-0.895078	2.13231	-2.79044	-1.56955	-2.6233	0	0	-0	0	0	0	0	-61.6909	-15.0712	-2.79959	0.406869	-0.00390069	0	0	0	0	0	0	
517	1580482316.192646719	0.00244066	-0.895089	2.13242	-2.79041	-1.56955	-2.6233	0	0	-0	0	0	0	0	-61.6866	-15.0676	-2.79944	0.406868	-0.00392866	0	0	0	0	0	0	
518	1580482316.200744059	0.00241707	-0.895042	2.13235	-2.79044	-1.56955	-2.62331	0	0	-0	0	0	0	0	-61.6903	-15.0685	-2.7995	0.406866	-0.00391735	0	0	0	0	0	0	
519	1580482316.208698309	0.00244066	-0.895066	2.13234	-2.79043	-1.56957	-2.62329	0	0	-0	0	0	0	0	-61.6902	-15.0698	-2.79953	0.406847	-0.0039154	0	0	0	0	0	0	
520	1580482316.216668113	0.00242905	-0.895114	2.13236	-2.79044	-1.56951	-2.62329	0	0	-0	0	0	0	0	-61.6884	-15.0708	-2.79958	0.406904	-0.00389833	0	0	0	0	0	0	
521	1580482316.224701657	0.0023931	-0.895089	2.13238	-2.79041	-1.56957	-2.62327	0	0	-0	0	0	0	0	-61.688	-15.069	-2.79949	0.406849	-0.00392384	0	0	0	0	0	0	
522	1580482316.232702868	0.00238112	-0.895054	2.13238	-2.7904	-1.56952	-2.62331	0	0	-0	0	0	0	0	-61.6887	-15.0676	-2.79942	0.406888	-0.00392784	0	0	0	0	0	0	
523	1580482316.240715557	0.00242905	-0.895078	2.13238	-2.79044	-1.56956	-2.62329	0	0	-0	0	0	0	0	-61.6882	-15.0686	-2.7995	0.406858	-0.00391921	0	0	0	0	0	0	
524	1580482316.248693037	0.00238112	-0.895042	2.1324	-2.79044	-1.56955	-2.6233	0	0	-0	0	0	0	0	-61.6885	-15.0668	-2.79944	0.406868	-0.00392844	0	0	0	0	0	0	
525	1580482316.256694696	0.0023931	-0.895078	2.13238	-2.79041	-1.56954	-2.62329	0	0	-0	0	0	0	0	-61.6882	-15.0685	-2.79947	0.406881	-0.00392134	0	0	0	0	0	0	
526	1580482316.264722940	0.00240508	-0.895066	2.13237	-2.79043	-1.56955	-2.62331	0	0	-0	0	0	0	0	-61.6889	-15.0685	-2.79948	0.406866	-0.00392012	0	0	0	0	0	0	
527	1580482316.272678659	0.0023931	-0.895078	2.13234	-2.79043	-1.56954	-2.6233	0	0	-0	0	0	0	0	-61.69	-15.0703	-2.79954	0.40688	-0.00390738	0	0	0	0	0	0	
528	1580482316.280653000	0.00238112	-0.89503	2.13236	-2.79041	-1.56955	-2.62327	0	0	-0	0	0	0	0	-61.6901	-15.0677	-2.79944	0.406871	-0.00392862	0	0	0	0	0	0	
529	1580482316.288689575	0.00241707	-0.895042	2.13241	-2.79041	-1.56954	-2.62326	0	0	-0	0	0	0	0	-61.6881	-15.0663	-2.7994	0.406884	-0.00393523	0	0	0	0	0	0	
530	1580482316.296722587	0.0023931	-0.895054	2.13238	-2.79041	-1.56955	-2.62329	0	0	-0	0	0	0	0	-61.6887	-15.0676	-2.79944	0.40687	-0.00392859	0	0	0	0	0	0	
531	1580482316.304723583	0.00238112	-0.895078	2.13237	-2.79041	-1.56955	-2.62331	0	0	-0	0	0	0	0	-61.6886	-15.069	-2.79948	0.406866	-0.00392023	0	0	0	0	0	0	
532	1580482316.312721736	0.0023931	-0.895078	2.13237	-2.7904	-1.56955	-2.62329	0	0	-0	0	0	0	0	-61.6886	-15.0689	-2.79947	0.40687	-0.00392306	0	0	0	0	0	0	
533	1580482316.320732483	0.0023931	-0.895078	2.13236	-2.79044	-1.56952	-2.6233	0	0	-0	0	0	0	0	-61.6891	-15.0694	-2.79953	0.406891	-0.00390842	0	0	0	0	0	0	
534	1580482316.328724125	0.0023931	-0.895054	2.13236	-2.7904	-1.56952	-2.62329	0	0	-0	0	0	0	0	-61.6896	-15.0685	-2.79946	0.406892	-0.00392238	0	0	0	0	0	0	
535	1580482316.336732275	0.0023931	-0.895102	2.13237	-2.79043	-1.56954	-2.62331	0	0	-0	0	0	0	0	-61.6882	-15.0699	-2.79953	0.406878	-0.00391	0	0	0	0	0	0	
536	1580482316.344658743	0.00240508	-0.895078	2.13236	-2.79043	-1.56955	-2.62327	0	0	-0	0	0	0	0	-61.6891	-15.0694	-2.79952	0.406872	-0.00391469	0	0	0	0	0	0	
537	1580482316.352703771	0.0023931	-0.895138	2.13237	-2.79043	-1.56954	-2.62329	0	0	-0	0	0	0	0	-61.6874	-15.0712	-2.79958	0.406881	-0.00390177	0	0	0	0	0	0	
538	1580482316.360664817	0.00238112	-0.895089	2.1324	-2.7904	-1.5695	-2.62329	0	0	-0	0	0	0	0	-61.6875	-15.0685	-2.79946	0.406914	-0.00391895	0	0	0	0	0	0	
539	1580482316.368687242	0.00238112	-0.895089	2.1324	-2.79043	-1.56955	-2.6233	0	0	-0	0	0	0	0	-61.6875	-15.0685	-2.79948	0.406868	-0.00392015	0	0	0	0	0	0	
540	1580482316.376667868	0.00238112	-0.895066	2.13235	-2.79043	-1.56952	-2.62329	0	0	-0	0	0	0	0	-61.6898	-15.0694	-2.79952	0.406892	-0.00391122	0	0	0	0	0	0	
541	1580482316.384683953	0.00240508	-0.895089	2.13235	-2.79044	-1.56954	-2.62331	0	0	-0	0	0	0	0	-61.6893	-15.0703	-2.79956	0.406878	-0.00390458	0	0	0	0	0	0	
542	1580482316.392683729	0.0023931	-0.895066	2.13238	-2.7904	-1.56957	-2.62329	0	0	-0	0	0	0	0	-61.6884	-15.0681	-2.79944	0.406847	-0.00393209	0	0	0	0	0	0	
543	1580482316.400700232	0.00240508	-0.895114	2.13236	-2.79045	-1.56956	-2.62332	0	0	-0	0	0	0	0	-61.6884	-15.0708	-2.79958	0.406854	-0.00390241	0	0	0	0	0	0	
544	1580482316.408665361	0.00236913	-0.895102	2.13238	-2.79041	-1.56957	-2.62327	0	0	-0	0	0	0	0	-61.6877	-15.0694	-2.7995	0.406849	-0.00392096	0	0	0	0	0	0	
545	1580482316.416681098	0.0023931	-0.895089	2.13237	-2.7904	-1.56954	-2.62331	0	0	-0	0	0	0	0	-61.6884	-15.0694	-2.79948	0.406877	-0.00391851	0	0	0	0	0	0	
546	1580482316.424633417	0.00242905	-0.895054	2.13238	-2.79041	-1.56954	-2.62326	0	0	-0	0	0	0	0	-61.6887	-15.0677	-2.79945	0.406884	-0.00392694	0	0	0	0	0	0	
547	1580482316.432685725	0.00240508	-0.895089	2.13238	-2.79041	-1.56955	-2.6233	0	0	-0	0	0	0	0	-61.688	-15.069	-2.79948	0.406868	-0.00392026	0	0	0	0	0	0	
548	1580482316.440721388	0.00235715	-0.89515	2.13234	-2.79041	-1.56952	-2.62327	0	0	-0	0	0	0	0	-61.6885	-15.0729	-2.79962	0.406895	-0.00389191	0	0	0	0	0	0	
549	1580482316.448718541	0.0023931	-0.895054	2.13238	-2.79045	-1.56952	-2.62332	0	0	-0	0	0	0	0	-61.6887	-15.0677	-2.79948	0.406887	-0.00391664	0	0	0	0	0	0	
550	1580482316.456690514	0.0023931	-0.895089	2.1324	-2.79043	-1.56949	-2.6233	0	0	-0	0	0	0	0	-61.6875	-15.0685	-2.79948	0.406924	-0.00391156	0	0	0	0	0	0	
551	1580482316.464730554	0.0023931	-0.895066	2.1324	-2.79044	-1.56954	-2.6233	0	0	-0	0	0	0	0	-61.688	-15.0677	-2.79947	0.406879	-0.0039212	0	0	0	0	0	0	
552	1580482316.472699363	0.00240508	-0.895066	2.13237	-2.79043	-1.56955	-2.62331	0	0	-0	0	0	0	0	-61.6889	-15.0685	-2.79948	0.406866	-0.00392012	0	0	0	0	0	0	
553	1580482316.480721158	0.00240508	-0.895078	2.13241	-2.79044	-1.56955	-2.62331	0	0	-0	0	0	0	0	-61.6874	-15.0677	-2.79947	0.406866	-0.00392288	0	0	0	0	0	0	
554	1580482316.488742374	0.0023931	-0.895078	2.13237	-2.79044	-1.56954	-2.62327	0	0	-0	0	0	0	0	-61.6887	-15.069	-2.79952	0.406883	-0.00391297	0	0	0	0	0	0	
555	1580482316.496737269	0.00242905	-0.895078	2.13241	-2.7904	-1.56951	-2.62331	0	0	-0	0	0	0	0	-61.6873	-15.0676	-2.79942	0.406899	-0.00392612	0	0	0	0	0	0	
556	1580482316.504757203	0.00242905	-0.895054	2.13237	-2.79044	-1.56955	-2.62331	0	0	-0	0	0	0	0	-61.6892	-15.0681	-2.79948	0.406866	-0.00392012	0	0	0	0	0	0	
557	1580482316.512726538	0.00240508	-0.89503	2.1324	-2.7904	-1.56951	-2.62331	0	0	-0	0	0	0	0	-61.6887	-15.0663	-2.79938	0.406899	-0.00393442	0	0	0	0	0	0	
558	1580482316.520767129	0.00238112	-0.895054	2.13243	-2.79045	-1.56955	-2.62326	0	0	-0	0	0	0	0	-61.687	-15.0659	-2.79943	0.406873	-0.00393142	0	0	0	0	0	0	
559	1580482316.528759057	0.00238112	-0.895078	2.13235	-2.79041	-1.56956	-2.62326	0	0	-0	0	0	0	0	-61.6895	-15.0698	-2.79952	0.406862	-0.00391663	0	0	0	0	0	0	
560	1580482316.536725051	0.00240508	-0.895078	2.13237	-2.79045	-1.56952	-2.6233	0	0	-0	0	0	0	0	-61.6887	-15.069	-2.79953	0.406891	-0.00390842	0	0	0	0	0	0	
561	1580482316.544726880	0.00240508	-0.895066	2.1324	-2.79043	-1.56958	-2.62326	0	0	-0	0	0	0	0	-61.688	-15.0677	-2.79946	0.406839	-0.00393101	0	0	0	0	0	0	
562	1580482316.552709625	0.00238112	-0.895089	2.13236	-2.79043	-1.56952	-2.62327	0	0	-0	0	0	0	0	-61.6889	-15.0698	-2.79953	0.406894	-0.00390849	0	0	0	0	0	0	
563	1580482316.560732590	0.0023931	-0.895102	2.13236	-2.79041	-1.56951	-2.62332	0	0	-0	0	0	0	0	-61.6886	-15.0703	-2.79952	0.406898	-0.00390663	0	0	0	0	0	0	
564	1580482316.568724167	0.0023931	-0.895042	2.13236	-2.79045	-1.56954	-2.62332	0	0	-0	0	0	0	0	-61.6898	-15.0681	-2.79949	0.406876	-0.0039156	0	0	0	0	0	0	
565	1580482316.576703859	0.00234516	-0.895089	2.1324	-2.79043	-1.56954	-2.62329	0	0	-0	0	0	0	0	-61.6875	-15.0685	-2.79949	0.406881	-0.00391847	0	0	0	0	0	0	
566	1580482316.584741946	0.00240508	-0.895089	2.1324	-2.7904	-1.56952	-2.62329	0	0	-0	0	0	0	0	-61.6875	-15.0685	-2.79946	0.406892	-0.00392238	0	0	0	0	0	0	
567	1580482316.592717822	0.00240508	-0.895078	2.13237	-2.79041	-1.56954	-2.62329	0	0	-0	0	0	0	0	-61.6886	-15.069	-2.79949	0.406881	-0.00391858	0	0	0	0	0	0	
568	1580482316.600676247	0.00241707	-0.895102	2.13237	-2.79043	-1.56956	-2.62327	0	0	-0	0	0	0	0	-61.6882	-15.0699	-2.79953	0.40686	-0.00391361	0	0	0	0	0	0	
569	1580482316.608720310	0.00238112	-0.895078	2.13237	-2.79043	-1.56955	-2.6233	0	0	-0	0	0	0	0	-61.6887	-15.069	-2.7995	0.406868	-0.00391739	0	0	0	0	0	0	
570	1580482316.616719726	0.00240508	-0.895078	2.13238	-2.7904	-1.56954	-2.62327	0	0	-0	0	0	0	0	-61.6882	-15.0685	-2.79946	0.406882	-0.00392414	0	0	0	0	0	0	
571	1580482316.624678892	0.0023931	-0.895102	2.13236	-2.79041	-1.56951	-2.6233	0	0	-0	0	0	0	0	-61.6886	-15.0703	-2.79953	0.406902	-0.0039067	0	0	0	0	0	0	
572	1580482316.632703831	0.00240508	-0.895114	2.1324	-2.79045	-1.56951	-2.62326	0	0	-0	0	0	0	0	-61.6871	-15.0695	-2.79955	0.406907	-0.00390393	0	0	0	0	0	0	
573	1580482316.640703743	0.00236913	-0.895066	2.1324	-2.79045	-1.56956	-2.6233	0	0	-0	0	0	0	0	-61.6881	-15.0677	-2.79948	0.406857	-0.00392194	0	0	0	0	0	0	
574	1580482316.648689706	0.0023931	-0.895054	2.13235	-2.79044	-1.56949	-2.62327	0	0	-0	0	0	0	0	-61.69	-15.069	-2.79952	0.406927	-0.0039061	0	0	0	0	0	0	
575	1580482316.656693549	0.00240508	-0.895042	2.13236	-2.79044	-1.56955	-2.62329	0	0	-0	0	0	0	0	-61.6898	-15.0681	-2.79949	0.40687	-0.00392018	0	0	0	0	0	0	
576	1580482316.664695489	0.00238112	-0.895054	2.13237	-2.79044	-1.56954	-2.62333	0	0	-0	0	0	0	0	-61.6892	-15.0681	-2.79948	0.406874	-0.00391833	0	0	0	0	0	0	
577	1580482316.672696941	0.00238112	-0.895078	2.13236	-2.79043	-1.56954	-2.6233	0	0	-0	0	0	0	0	-61.6891	-15.0694	-2.79951	0.406879	-0.0039129	0	0	0	0	0	0	
578	1580482316.680708031	0.0023931	-0.895102	2.13234	-2.79043	-1.56951	-2.62332	0	0	-0	0	0	0	0	-61.6895	-15.0712	-2.79957	0.406898	-0.00389823	0	0	0	0	0	0	
579	1580482316.688692741	0.00238112	-0.895089	2.13237	-2.79041	-1.56954	-2.62332	0	0	-0	0	0	0	0	-61.6884	-15.0694	-2.79949	0.406876	-0.00391571	0	0	0	0	0	0	
580	1580482316.696673562	0.0023931	-0.895102	2.13235	-2.79043	-1.56956	-2.62327	0	0	-0	0	0	0	0	-61.689	-15.0707	-2.79956	0.40686	-0.00390808	0	0	0	0	0	0	
581	1580482316.704702754	0.00241707	-0.895078	2.1324	-2.79039	-1.56956	-2.62326	0	0	-0	0	0	0	0	-61.6877	-15.0681	-2.79943	0.406861	-0.00393321	0	0	0	0	0	0	
582	1580482316.712735845	0.00238112	-0.895078	2.13236	-2.79045	-1.56951	-2.6233	0	0	-0	0	0	0	0	-61.6891	-15.0694	-2.79954	0.406902	-0.00390394	0	0	0	0	0	0	
583	1580482316.720673148	0.00238112	-0.895054	2.13238	-2.79045	-1.56954	-2.6233	0	0	-0	0	0	0	0	-61.6887	-15.0677	-2.79948	0.406879	-0.00391843	0	0	0	0	0	0	
584	1580482316.728687830	0.00241707	-0.895066	2.13241	-2.79043	-1.56954	-2.6233	0	0	-0	0	0	0	0	-61.6876	-15.0672	-2.79944	0.406879	-0.00392672	0	0	0	0	0	0	
585	1580482316.736707742	0.0023931	-0.895102	2.13237	-2.79043	-1.56954	-2.62327	0	0	-0	0	0	0	0	-61.6882	-15.0699	-2.79954	0.406883	-0.0039101	0	0	0	0	0	0	
586	1580482316.744685404	0.00240508	-0.895054	2.13237	-2.79044	-1.56954	-2.62331	0	0	-0	0	0	0	0	-61.6892	-15.0681	-2.79948	0.406877	-0.0039184	0	0	0	0	0	0	
587	1580482316.752690693	0.00241707	-0.895078	2.13236	-2.79045	-1.56955	-2.62326	0	0	-0	0	0	0	0	-61.6891	-15.0694	-2.79955	0.406874	-0.0039092	0	0	0	0	0	0	
588	1580482316.760700960	0.00240508	-0.895042	2.1324	-2.79044	-1.56955	-2.62329	0	0	-0	0	0	0	0	-61.6885	-15.0668	-2.79944	0.40687	-0.00392848	0	0	0	0	0	0	
589	1580482316.768713623	0.00235715	-0.895078	2.13237	-2.79041	-1.56956	-2.62327	0	0	-0	0	0	0	0	-61.6886	-15.069	-2.79949	0.40686	-0.00392212	0	0	0	0	0	0	
590	1580482316.776712725	0.00236913	-0.895042	2.13234	-2.7904	-1.56954	-2.62331	0	0	-0	0	0	0	0	-61.6907	-15.0689	-2.79947	0.406877	-0.00392127	0	0	0	0	0	0	
591	1580482316.784688398	0.0023931	-0.895089	2.13238	-2.79045	-1.56955	-2.6233	0	0	-0	0	0	0	0	-61.688	-15.069	-2.79953	0.406868	-0.00391186	0	0	0	0	0	0	
592	1580482316.792671862	0.00238112	-0.89503	2.1324	-2.79043	-1.56954	-2.6233	0	0	-0	0	0	0	0	-61.6888	-15.0664	-2.79941	0.406879	-0.00393225	0	0	0	0	0	0	
593	1580482316.800657560	0.00241707	-0.895089	2.13234	-2.79041	-1.56956	-2.62329	0	0	-0	0	0	0	0	-61.6897	-15.0707	-2.79955	0.406859	-0.00391103	0	0	0	0	0	0	
594	1580482316.808727282	0.00238112	-0.895078	2.13238	-2.79041	-1.56954	-2.62329	0	0	-0	0	0	0	0	-61.6882	-15.0685	-2.79947	0.406881	-0.00392134	0	0	0	0	0	0	
595	1580482316.816659872	0.00240508	-0.895066	2.13238	-2.7904	-1.56954	-2.62332	0	0	-0	0	0	0	0	-61.6884	-15.0681	-2.79943	0.406875	-0.00392677	0	0	0	0	0	0	
596	1580482316.824673959	0.0023931	-0.895102	2.13238	-2.79041	-1.56949	-2.62332	0	0	-0	0	0	0	0	-61.6877	-15.0694	-2.79949	0.40692	-0.00390872	0	0	0	0	0	0	
597	1580482316.832725644	0.00238112	-0.895078	2.13235	-2.79043	-1.56955	-2.62327	0	0	-0	0	0	0	0	-61.6895	-15.0698	-2.79953	0.406872	-0.00391193	0	0	0	0	0	0	
598	1580482316.840740510	0.00240508	-0.895114	2.1324	-2.79043	-1.56954	-2.6233	0	0	-0	0	0	0	0	-61.687	-15.0694	-2.79951	0.406879	-0.00391279	0	0	0	0	0	0	
599	1580482316.848713848	0.0023931	-0.895066	2.13237	-2.79044	-1.56952	-2.62331	0	0	-0	0	0	0	0	-61.6889	-15.0685	-2.7995	0.406889	-0.00391391	0	0	0	0	0	0	
600	1580482316.856692691	0.00236913	-0.895054	2.13238	-2.79043	-1.56951	-2.6233	0	0	-0	0	0	0	0	-61.6887	-15.0677	-2.79945	0.406901	-0.00392052	0	0	0	0	0	0	
601	1580482316.864675444	0.00236913	-0.895089	2.13238	-2.79041	-1.56954	-2.62329	0	0	-0	0	0	0	0	-61.688	-15.069	-2.79949	0.406881	-0.00391858	0	0	0	0	0	0	
602	1580482316.872728668	0.0023931	-0.895078	2.13238	-2.79044	-1.56954	-2.62331	0	0	-0	0	0	0	0	-61.6882	-15.0685	-2.7995	0.406878	-0.00391563	0	0	0	0	0	0	
603	1580482316.880702218	0.00238112	-0.895089	2.1324	-2.79043	-1.56955	-2.6233	0	0	-0	0	0	0	0	-61.6875	-15.0685	-2.79948	0.406868	-0.00392015	0	0	0	0	0	0	
604	1580482316.888676045	0.00238112	-0.895078	2.13236	-2.7904	-1.56957	-2.62329	0	0	-0	0	0	0	0	-61.6891	-15.0694	-2.79949	0.406847	-0.0039238	0	0	0	0	0	0	
605	1580482316.896714624	0.00240508	-0.89503	2.13237	-2.79043	-1.56954	-2.62332	0	0	-0	0	0	0	0	-61.6896	-15.0672	-2.79943	0.406875	-0.00392665	0	0	0	0	0	0	
606	1580482316.904775254	0.00240508	-0.895054	2.13237	-2.7904	-1.56954	-2.62329	0	0	-0	0	0	0	0	-61.6891	-15.0681	-2.79944	0.406881	-0.00392687	0	0	0	0	0	0	
607	1580482316.912676064	0.0023931	-0.895054	2.13236	-2.79041	-1.56954	-2.6233	0	0	-0	0	0	0	0	-61.6896	-15.0685	-2.79947	0.406879	-0.00392131	0	0	0	0	0	0	
608	1580482316.920689734	0.0023931	-0.895089	2.13236	-2.79043	-1.56954	-2.62329	0	0	-0	0	0	0	0	-61.6888	-15.0698	-2.79953	0.406881	-0.00391017	0	0	0	0	0	0	
609	1580482316.928695740	0.00244066	-0.895054	2.13238	-2.79041	-1.56952	-2.62329	0	0	-0	0	0	0	0	-61.6887	-15.0676	-2.79944	0.406892	-0.00392515	0	0	0	0	0	0	
610	1580482316.936718068	0.00238112	-0.895138	2.13236	-2.79043	-1.56951	-2.62329	0	0	-0	0	0	0	0	-61.6879	-15.0716	-2.79959	0.406904	-0.00389557	0	0	0	0	0	0	
611	1580482316.944688100	0.00240508	-0.895054	2.13241	-2.79043	-1.56956	-2.62329	0	0	-0	0	0	0	0	-61.6878	-15.0668	-2.79943	0.406858	-0.00393303	0	0	0	0	0	0	
612	1580482316.952689730	0.00238112	-0.895078	2.13238	-2.79044	-1.56952	-2.6233	0	0	-0	0	0	0	0	-61.6882	-15.0685	-2.7995	0.40689	-0.00391395	0	0	0	0	0	0	
613	1580482316.960689184	0.0023931	-0.895078	2.13238	-2.79044	-1.56952	-2.62329	0	0	-0	0	0	0	0	-61.6882	-15.0686	-2.7995	0.406892	-0.00391398	0	0	0	0	0	0	
614	1580482316.968764178	0.0023931	-0.895066	2.13232	-2.79041	-1.56954	-2.62329	0	0	-0	0	0	0	0	-61.6906	-15.0703	-2.79953	0.406881	-0.00391028	0	0	0	0	0	0	
615	1580482316.976696981	0.0023931	-0.895054	2.13236	-2.79043	-1.56951	-2.62331	0	0	-0	0	0	0	0	-61.6896	-15.0685	-2.79948	0.4069	-0.00391496	0	0	0	0	0	0	
616	1580482316.984649410	0.00241707	-0.895066	2.13234	-2.79041	-1.56956	-2.62332	0	0	-0	0	0	0	0	-61.6902	-15.0698	-2.79951	0.406853	-0.00391645	0	0	0	0	0	0	
617	1580482316.992636592	0.00235715	-0.895114	2.13234	-2.79044	-1.56955	-2.62326	0	0	-0	0	0	0	0	-61.6892	-15.0716	-2.79961	0.406874	-0.00389803	0	0	0	0	0	0	
618	1580482317.000725450	0.0023931	-0.895054	2.13238	-2.7904	-1.56955	-2.62332	0	0	-0	0	0	0	0	-61.6887	-15.0676	-2.79942	0.406864	-0.00393125	0	0	0	0	0	0	
619	1580482317.008697278	0.00238112	-0.895089	2.13236	-2.79043	-1.56956	-2.62327	0	0	-0	0	0	0	0	-61.6889	-15.0698	-2.79953	0.40686	-0.00391372	0	0	0	0	0	0	
620	1580482317.016703648	0.00238112	-0.895089	2.13237	-2.79043	-1.56954	-2.62329	0	0	-0	0	0	0	0	-61.6884	-15.0694	-2.79952	0.406881	-0.00391294	0	0	0	0	0	0	
621	1580482317.024694079	0.00240508	-0.895078	2.1324	-2.79043	-1.5695	-2.62329	0	0	-0	0	0	0	0	-61.6878	-15.0681	-2.79947	0.406914	-0.00391607	0	0	0	0	0	0	
622	1580482317.032737059	0.00236913	-0.895066	2.13235	-2.79043	-1.56956	-2.6233	0	0	-0	0	0	0	0	-61.6898	-15.0694	-2.79951	0.406857	-0.00391641	0	0	0	0	0	0	
623	1580482317.040698663	0.00236913	-0.895089	2.13237	-2.79044	-1.56954	-2.62332	0	0	-0	0	0	0	0	-61.6884	-15.0694	-2.79952	0.406876	-0.00391007	0	0	0	0	0	0	
624	1580482317.048647630	0.00238112	-0.895066	2.13237	-2.7904	-1.56951	-2.62332	0	0	-0	0	0	0	0	-61.6889	-15.0685	-2.79945	0.406898	-0.00392056	0	0	0	0	0	0	
625	1580482317.056698873	0.00240508	-0.895054	2.13237	-2.79041	-1.56951	-2.62329	0	0	-0	0	0	0	0	-61.6891	-15.0681	-2.79946	0.406903	-0.00392067	0	0	0	0	0	0	
626	1580482317.064674433	0.00236913	-0.895078	2.13237	-2.7904	-1.56954	-2.62325	0	0	-0	0	0	0	0	-61.6886	-15.069	-2.79948	0.406886	-0.00392144	0	0	0	0	0	0	
627	1580482317.072693625	0.0023931	-0.895078	2.13238	-2.79041	-1.56951	-2.62329	0	0	-0	0	0	0	0	-61.6882	-15.0685	-2.79947	0.406903	-0.0039179	0	0	0	0	0	0	
628	1580482317.080699907	0.00244066	-0.895102	2.13238	-2.79043	-1.56954	-2.62327	0	0	-0	0	0	0	0	-61.6877	-15.0694	-2.79952	0.406883	-0.00391286	0	0	0	0	0	0	
629	1580482317.088693634	0.00240508	-0.895066	2.13238	-2.79043	-1.56957	-2.62326	0	0	-0	0	0	0	0	-61.6885	-15.0681	-2.79948	0.406851	-0.00392652	0	0	0	0	0	0	
630	1580482317.096723022	0.00238112	-0.895102	2.13238	-2.79041	-1.56951	-2.62329	0	0	-0	0	0	0	0	-61.6877	-15.0694	-2.7995	0.406903	-0.00391226	0	0	0	0	0	0	
631	1580482317.104708875	0.00240508	-0.895089	2.13242	-2.79043	-1.56955	-2.62327	0	0	-0	0	0	0	0	-61.6867	-15.0676	-2.79946	0.406871	-0.00392586	0	0	0	0	0	0	
632	1580482317.112720493	0.00240508	-0.895114	2.13236	-2.79043	-1.5695	-2.62331	0	0	-0	0	0	0	0	-61.6883	-15.0707	-2.79956	0.406911	-0.00389931	0	0	0	0	0	0	
633	1580482317.120712161	0.0023931	-0.895054	2.13236	-2.79041	-1.56957	-2.62329	0	0	-0	0	0	0	0	-61.6896	-15.0685	-2.79947	0.406847	-0.00392657	0	0	0	0	0	0	
634	1580482317.128706604	0.00241707	-0.895089	2.13236	-2.79044	-1.56955	-2.62327	0	0	-0	0	0	0	0	-61.6889	-15.0699	-2.79955	0.406872	-0.00390916	0	0	0	0	0	0	
635	1580482317.136702813	0.00241707	-0.895078	2.13238	-2.79045	-1.56952	-2.6233	0	0	-0	0	0	0	0	-61.6882	-15.0686	-2.79951	0.40689	-0.00391119	0	0	0	0	0	0	
636	1580482317.144706352	0.00241707	-0.895089	2.13235	-2.7904	-1.56958	-2.62329	0	0	-0	0	0	0	0	-61.6893	-15.0703	-2.79952	0.406836	-0.00391999	0	0	0	0	0	0	
637	1580482317.152666954	0.00240508	-0.895066	2.13234	-2.79044	-1.56952	-2.62327	0	0	-0	0	0	0	0	-61.6902	-15.0699	-2.79955	0.406894	-0.00390573	0	0	0	0	0	0	
638	1580482317.160788837	0.0023931	-0.895054	2.13236	-2.79043	-1.56951	-2.6233	0	0	-0	0	0	0	0	-61.6896	-15.0685	-2.79948	0.406901	-0.00391499	0	0	0	0	0	0	
639	1580482317.168664377	0.0023931	-0.895102	2.13237	-2.79043	-1.56956	-2.62331	0	0	-0	0	0	0	0	-61.6882	-15.0699	-2.79953	0.406855	-0.0039135	0	0	0	0	0	0	
640	1580482317.176698808	0.00240508	-0.895078	2.13242	-2.79041	-1.56954	-2.62327	0	0	-0	0	0	0	0	-61.6869	-15.0672	-2.79943	0.406882	-0.00392978	0	0	0	0	0	0	
641	1580482317.184696757	0.00241707	-0.895066	2.13236	-2.79043	-1.56954	-2.62331	0	0	-0	0	0	0	0	-61.6893	-15.069	-2.7995	0.406878	-0.00391563	0	0	0	0	0	0	
642	1580482317.192776439	0.0023931	-0.895066	2.13238	-2.79044	-1.56954	-2.62333	0	0	-0	0	0	0	0	-61.6885	-15.0681	-2.79948	0.406874	-0.00391833	0	0	0	0	0	0	
643	1580482317.200973456	0.00240508	-0.895066	2.13238	-2.7904	-1.56951	-2.62327	0	0	-0	0	0	0	0	-61.6884	-15.0681	-2.79944	0.406905	-0.00392346	0	0	0	0	0	0	
644	1580482317.208704284	0.00241707	-0.895042	2.13235	-2.79044	-1.56952	-2.62329	0	0	-0	0	0	0	0	-61.6903	-15.0686	-2.7995	0.406892	-0.00391398	0	0	0	0	0	0	
645	1580482317.216708199	0.00241707	-0.895066	2.13236	-2.7904	-1.56954	-2.62326	0	0	-0	0	0	0	0	-61.6893	-15.0689	-2.79948	0.406884	-0.00392141	0	0	0	0	0	0	
646	1580482317.224741608	0.00238112	-0.895066	2.13238	-2.79044	-1.56955	-2.6233	0	0	-0	0	0	0	0	-61.6885	-15.0681	-2.79948	0.406868	-0.00392015	0	0	0	0	0	0	
647	1580482317.232707647	0.00241707	-0.895066	2.13241	-2.79043	-1.56954	-2.62329	0	0	-0	0	0	0	0	-61.6876	-15.0672	-2.79944	0.406881	-0.00392676	0	0	0	0	0	0	
648	1580482317.240708382	0.0023931	-0.895042	2.13237	-2.79043	-1.56954	-2.62329	0	0	-0	0	0	0	0	-61.6894	-15.0677	-2.79946	0.406881	-0.00392399	0	0	0	0	0	0	
649	1580482317.248722070	0.00236913	-0.895078	2.13242	-2.79043	-1.56954	-2.62331	0	0	-0	0	0	0	0	-61.6869	-15.0672	-2.79944	0.406877	-0.0039268	0	0	0	0	0	0	
650	1580482317.256785598	0.00238112	-0.895078	2.13238	-2.79043	-1.5695	-2.6233	0	0	-0	0	0	0	0	-61.6882	-15.0685	-2.79948	0.406912	-0.00391327	0	0	0	0	0	0	
651	1580482317.264691769	0.00240508	-0.895042	2.13235	-2.79045	-1.56954	-2.6233	0	0	-0	0	0	0	0	-61.6903	-15.0686	-2.79951	0.406879	-0.0039129	0	0	0	0	0	0	
652	1580482317.272671606	0.00241707	-0.895054	2.13235	-2.79043	-1.56955	-2.62327	0	0	-0	0	0	0	0	-61.69	-15.069	-2.7995	0.406872	-0.00391746	0	0	0	0	0	0	
653	1580482317.280643085	0.00240508	-0.895078	2.13238	-2.79043	-1.56952	-2.62331	0	0	-0	0	0	0	0	-61.6882	-15.0685	-2.79948	0.406889	-0.00391668	0	0	0	0	0	0	
654	1580482317.288659310	0.0023931	-0.895078	2.1324	-2.79043	-1.56954	-2.62329	0	0	-0	0	0	0	0	-61.6878	-15.0681	-2.79947	0.406881	-0.00392123	0	0	0	0	0	0	
655	1580482317.296672846	0.00241707	-0.895066	2.13236	-2.79044	-1.5695	-2.62331	0	0	-0	0	0	0	0	-61.6893	-15.069	-2.79951	0.406911	-0.00390771	0	0	0	0	0	0	
656	1580482317.304604442	0.00241707	-0.895089	2.1324	-2.79043	-1.56955	-2.62331	0	0	-0	0	0	0	0	-61.6875	-15.0685	-2.79948	0.406866	-0.00392012	0	0	0	0	0	0	
657	1580482317.312666639	0.00240508	-0.895066	2.13238	-2.79041	-1.56951	-2.6233	0	0	-0	0	0	0	0	-61.6884	-15.0681	-2.79945	0.406901	-0.00392063	0	0	0	0	0	0	
658	1580482317.320617706	0.0023931	-0.895089	2.13235	-2.79045	-1.5695	-2.6233	0	0	-0	0	0	0	0	-61.6893	-15.0703	-2.79957	0.406913	-0.00389669	0	0	0	0	0	0	
659	1580482317.328681431	0.00242905	-0.895054	2.13235	-2.79044	-1.56954	-2.6233	0	0	-0	0	0	0	0	-61.69	-15.069	-2.79951	0.406879	-0.0039129	0	0	0	0	0	0	
660	1580482317.336667492	0.00238112	-0.895078	2.13237	-2.79041	-1.56956	-2.62331	0	0	-0	0	0	0	0	-61.6886	-15.069	-2.79948	0.406855	-0.00392202	0	0	0	0	0	0	
661	1580482317.344603821	0.0023931	-0.895102	2.13237	-2.79043	-1.56956	-2.62331	0	0	-0	0	0	0	0	-61.6882	-15.0699	-2.79953	0.406855	-0.0039135	0	0	0	0	0	0	
662	1580482317.352669378	0.0023931	-0.895066	2.13235	-2.79043	-1.56952	-2.62329	0	0	-0	0	0	0	0	-61.6898	-15.0694	-2.79952	0.406892	-0.00391122	0	0	0	0	0	0	
663	1580482317.360674756	0.00240508	-0.895102	2.13235	-2.79044	-1.56955	-2.6233	0	0	-0	0	0	0	0	-61.689	-15.0707	-2.79957	0.406869	-0.00390346	0	0	0	0	0	0	
664	1580482317.368678436	0.00238112	-0.895078	2.13236	-2.7904	-1.56956	-2.6233	0	0	-0	0	0	0	0	-61.6891	-15.0694	-2.79948	0.406857	-0.00392205	0	0	0	0	0	0	
665	1580482317.376697684	0.00240508	-0.895066	2.1324	-2.79043	-1.56951	-2.6233	0	0	-0	0	0	0	0	-61.688	-15.0677	-2.79945	0.406901	-0.00392052	0	0	0	0	0	0	
666	1580482317.384730105	0.00241707	-0.895089	2.13237	-2.79043	-1.56956	-2.62331	0	0	-0	0	0	0	0	-61.6884	-15.0694	-2.79951	0.406855	-0.00391638	0	0	0	0	0	0	
667	1580482317.392672834	0.0023931	-0.895042	2.13237	-2.79044	-1.56958	-2.6233	0	0	-0	0	0	0	0	-61.6894	-15.0677	-2.79947	0.406834	-0.00392814	0	0	0	0	0	0	
