terrinbabu/Matlab/log_filtering/UR10_35_KF/ijt_0kg_sinjall_v5_1.txt
seq	time	q0	q1	q2	q3	q4	q5	Dq0	Dq1	Dq2	Dq3	Dq4	Dq5	eff0	eff1	eff2	eff3	eff4	eff5	DDq0	DDq1	DDq2	DDq3	DDq4	DDq5	
23	1573229628.430737674	-1.24629	-2.11682	-1.72894	-1.57718	0.594504	0.726131	0.0163625	0.0174107	0.017449	0.0188296	0.0171231	0.0153206	-0.653946	68.2623	30.6634	2.37915	-0.399779	0.337001	-0.116647	0.0239685	0.239685	0.321177	0.146207	0.0239685	
24	1573229628.430737674	-1.24629	-2.11682	-1.72894	-1.57718	0.594504	0.726131	0.0163625	0.0174107	0.017449	0.0188296	0.0171231	0.0153206	-0.000602023	68.4737	30.7112	2.19937	-0.618706	0.225885	0	0	0	0	0	0	
25	1573229628.442541070	-1.24612	-2.11669	-1.72882	-1.57709	0.594684	0.726227	0.0169505	0.0169888	0.0179348	0.0179284	0.016682	0.0158	0.232632	68.5086	30.6545	2.14898	-0.668473	0.214979	0.0735032	-0.0527306	0.0607199	-0.112652	-0.0551273	0.0599212	
26	1573229628.446740102	-1.24598	-2.11654	-1.72867	-1.57695	0.594816	0.726371	0.0171295	0.0178964	0.0179859	0.0150714	0.0160301	0.017775	0.197618	68.0161	30.5165	2.22056	-0.72334	0.212209	0.0223706	0.113451	0.00639167	-0.35713	-0.0814928	0.246875	
27	1573229628.454742844	-1.24584	-2.11641	-1.72852	-1.57677	0.594948	0.726515	0.0179731	0.0175641	0.0153654	0.0177942	0.0169505	0.0161451	0.279573	68.9991	31.052	2.06854	-0.57522	0.19938	0.105461	-0.0415454	-0.327569	0.340352	0.115049	-0.203732	
28	1573229628.470704864	-1.24558	-2.11612	-1.72823	-1.57655	0.595164	0.726743	0.0172317	0.0179092	0.0165286	0.0172381	0.0159726	0.0169313	-0.299225	68.1715	30.6073	2.27494	-0.628594	0.256258	-0.092678	0.0431433	0.145409	-0.0695083	-0.122239	0.0982708	
29	1573229628.478697288	-1.2454	-2.11599	-1.72814	-1.57641	0.595283	0.726922	0.017807	0.0172701	0.0173595	0.015474	0.0151672	0.0174107	0.285403	68.5155	30.6574	2.14218	-0.714006	0.196478	0.0719053	-0.0798949	0.103863	-0.22051	-0.100667	0.0599211	
30	1573229628.486677774	-1.24528	-2.11588	-1.72799	-1.57626	0.595451	0.727054	0.016273	0.0181777	0.0159917	0.0168738	0.0175257	0.0173723	-0.495941	68.5285	31.0179	2.40762	-0.492144	0.242206	-0.191747	0.113451	-0.170975	0.17497	0.294812	-0.00479375	
31	1573229628.494669422	-1.24519	-2.11572	-1.72785	-1.57613	0.595595	0.727221	0.0178709	0.0175641	0.0178581	0.017449	0.0178325	0.0176791	0.291198	68.3212	30.5534	2.1319	-0.538296	0.281338	0.199737	-0.0766991	0.233293	0.0719053	0.0383495	0.0383495	
32	1573229628.502682455	-1.24501	-2.11558	-1.7277	-1.57598	0.595751	0.727329	0.0171167	0.0182799	0.0175641	0.0160493	0.0169697	0.0158959	-0.151528	68.1562	30.6576	2.19352	-0.697981	0.17294	-0.0942759	0.0894822	-0.0367516	-0.17497	-0.107858	-0.222906	
33	1573229628.510730166	-1.24485	-2.11538	-1.72755	-1.57587	0.595847	0.727461	0.0172062	0.0183566	0.0172829	0.0172189	0.0157425	0.0160684	-0.0529253	68.4439	30.7879	2.15135	-0.626884	0.249982	0.0111852	0.0095875	-0.0351537	0.146207	-0.153398	0.0215715	
34	1573229628.518670630	-1.24474	-2.1153	-1.72744	-1.57575	0.596003	0.727617	0.0169888	0.0173212	0.0151608	0.0160876	0.016682	0.0172956	0.325096	69.3222	31.2425	2.22035	-0.739637	0.137148	-0.0271641	-0.12943	-0.265251	-0.141414	0.117445	0.153398	
35	1573229628.526720386	-1.24459	-2.11512	-1.72731	-1.57561	0.596135	0.727736	0.0172573	0.0178453	0.0179604	0.0174299	0.0158384	0.017008	-0.337719	67.7395	30.3859	2.22526	-0.483674	0.33491	0.0335558	0.0655139	0.349939	0.167779	-0.105461	-0.0359528	
36	1573229628.534689197	-1.24448	-2.11502	-1.72713	-1.57546	0.596243	0.727892	0.0169633	0.0173595	0.0158256	0.0163369	0.0170272	0.0160109	0.239896	69.0356	31.1349	2.19555	-0.711875	0.119344	-0.0367516	-0.0607201	-0.266849	-0.13662	0.148604	-0.124636	
37	1573229628.542663337	-1.24432	-2.11486	-1.72701	-1.57531	0.596386	0.728012	0.0167204	0.0185995	0.0160045	0.0177558	0.016241	0.0160684	-0.314064	67.8963	30.6296	2.229	-0.544652	0.294068	-0.03036	0.154996	0.0223704	0.177367	-0.0982706	0.00719051	
38	1573229628.550721908	-1.24419	-2.11474	-1.72688	-1.5752	0.596471	0.728144	0.0173084	0.0170655	0.0164008	0.0155316	0.0165862	0.0160109	0.447205	68.988	30.9286	2.15417	-0.737075	0.144108	0.0735032	-0.191748	0.049535	-0.278034	0.0431433	-0.00719051	
39	1573229628.558680295	-1.24407	-2.11461	-1.72676	-1.57504	0.596651	0.728251	0.0171806	0.0179987	0.0164264	0.0172765	0.017334	0.0170655	-0.256071	68.131	30.7831	2.29788	-0.488194	0.306236	-0.0159792	0.116647	0.00319583	0.218113	0.0934768	0.131826	
40	1573229628.566716444	-1.24393	-2.11447	-1.72664	-1.5749	0.596783	0.728419	0.0173595	0.0177175	0.0167587	0.0170272	0.0172956	0.0155507	0.0568362	68.4601	30.7856	2.16318	-0.632441	0.198234	0.0223706	-0.0351537	0.0415451	-0.031159	-0.00479352	-0.189351	
41	1573229628.574659830	-1.24374	-2.11435	-1.72649	-1.57478	0.59689	0.728575	0.0160173	0.0175641	0.01456	0.0164136	0.0177558	0.0152631	-0.113829	68.9882	31.2225	2.27572	-0.71426	0.141596	-0.167779	-0.0191748	-0.274838	-0.0766988	0.0575243	-0.0359527	
42	1573229628.582719991	-1.24365	-2.11418	-1.72641	-1.57463	0.597094	0.728671	0.0167076	0.0166181	0.0183311	0.0167971	0.0158767	0.0181777	-0.081895	68.2199	30.5453	2.22522	-0.578066	0.344917	0.0862866	-0.118244	0.47138	0.0479368	-0.234891	0.36432	
43	1573229628.590661648	-1.24353	-2.11406	-1.72625	-1.57453	0.59725	0.728814	0.0168866	0.0171806	0.0155571	0.0151481	0.0167971	0.0163369	0.372374	68.5732	31.0013	2.13585	-0.730056	0.107525	0.0223704	0.0703074	-0.346744	-0.206129	0.115049	-0.230097	
44	1573229628.598708952	-1.24341	-2.11394	-1.7261	-1.57435	0.597334	0.728898	0.0154676	0.0173595	0.0177558	0.0157808	0.0176216	0.0163561	-0.659707	68.1886	30.7711	2.41912	-0.487594	0.290601	-0.177366	0.0223706	0.274838	0.0790958	0.103064	0.00239676	
45	1573229628.606701945	-1.24326	-2.11377	-1.726	-1.57426	0.597442	0.729042	0.0170783	0.0172956	0.0179987	0.0166437	0.0170847	0.0159917	0.360316	68.2707	30.7043	2.06364	-0.59774	0.251761	0.201335	-0.00798935	0.03036	0.107858	-0.0671116	-0.04554	
46	1573229628.614668894	-1.24315	-2.11364	-1.72582	-1.57409	0.597622	0.729174	0.0171039	0.0176152	0.0151353	0.0171422	0.0178517	0.0165095	0.201305	68.8019	31.1896	2.19687	-0.660114	0.183039	0.00319583	0.0399475	-0.357929	0.0623181	0.0958736	0.0647148	
47	1573229628.622655518	-1.24302	-2.11351	-1.72575	-1.57396	0.597754	0.729318	0.0177303	0.0171678	0.0189191	0.0176024	0.0161835	0.0169121	-0.166451	67.9393	30.4541	2.19267	-0.551517	0.322974	0.078297	-0.0559264	0.472978	0.0575243	-0.208525	0.0503338	
48	1573229628.630656833	-1.24287	-2.11336	-1.72561	-1.57382	0.597897	0.729449	0.0165031	0.0178325	0.0162858	0.0174107	0.0174874	0.0160684	-0.151162	68.6939	31.2054	2.29838	-0.652395	0.154999	-0.153398	0.0830905	-0.329167	-0.0239685	0.162985	-0.105461	
49	1573229628.638647054	-1.24274	-2.11323	-1.72544	-1.57365	0.598041	0.729605	0.0174235	0.0174618	0.0174874	0.0163369	0.0162027	0.0172381	0.269211	68.2914	30.7064	2.14221	-0.683861	0.238842	0.115049	-0.0463389	0.150202	-0.134223	-0.160588	0.146208	
50	1573229628.646644986	-1.24259	-2.11309	-1.72531	-1.57352	0.598185	0.729737	0.0173084	0.0181905	0.0178325	0.0180243	0.0178517	0.0190022	-0.250986	68.2039	30.9069	2.36215	-0.453664	0.317479	-0.014381	0.0910801	0.0431433	0.210922	0.206128	0.22051	
51	1573229628.654649189	-1.24243	-2.11292	-1.7252	-1.57339	0.598281	0.729892	0.0172573	0.0177686	0.017449	0.0173532	0.0167396	0.0165862	0.0957209	68.5701	30.9176	2.10498	-0.723277	0.151156	-0.00639167	-0.0527308	-0.0479368	-0.0838896	-0.139017	-0.302003	
52	1573229628.662659150	-1.24231	-2.11281	-1.72502	-1.57324	0.598425	0.730012	0.01704	0.0170655	0.0172189	0.0172573	0.01766	0.0146687	0.0246193	68.7824	31.0641	2.21214	-0.627427	0.16896	-0.0271644	-0.0878843	-0.0287623	-0.0119843	0.115049	-0.239684	
53	1573229628.670661134	-1.24216	-2.11266	-1.72491	-1.57309	0.598593	0.730156	0.0168866	0.0176408	0.014918	0.0170847	0.0176791	0.0175449	0.14112	68.6264	31.1708	2.25958	-0.687504	0.219696	-0.0191748	0.0719053	-0.287621	-0.0215715	0.00239676	0.359527	
54	1573229628.678674292	-1.24201	-2.11254	-1.72476	-1.57299	0.598689	0.730252	0.0158639	0.0175129	0.0187273	0.0169888	0.0169505	0.0153782	-0.624531	67.8929	30.559	2.31211	-0.534043	0.272722	-0.127832	-0.0159789	0.476173	-0.0119843	-0.0910801	-0.270843	
55	1573229628.686657587	-1.24188	-2.11238	-1.72463	-1.57285	0.598821	0.730407	0.0169121	0.0177047	0.0149947	0.0162602	0.0169888	0.0175449	0.681012	68.8821	31.2636	2.10742	-0.769212	0.157716	0.131028	0.0239685	-0.466586	-0.0910801	0.00479375	0.270843	
56	1573229628.694680048	-1.24176	-2.11227	-1.72443	-1.57269	0.599024	0.730563	0.0162218	0.0177942	0.0172062	0.0171039	0.0178709	0.0175449	-0.465452	68.1494	30.8139	2.37108	-0.479709	0.296239	-0.0862863	0.0111852	0.276436	0.105461	0.110255	0	
57	1573229628.702665648	-1.24163	-2.11214	-1.72435	-1.57257	0.599156	0.730707	0.0167843	0.0166181	0.0161068	0.0167012	0.0172381	0.018101	0.396781	69.0548	31.198	2.11987	-0.742474	0.166869	0.0703074	-0.147006	-0.137419	-0.0503338	-0.0790958	0.0695086	
58	1573229628.710679510	-1.24151	-2.11199	-1.72421	-1.57245	0.599229	0.73085	0.0168099	0.0167971	0.0175896	0.0166437	0.0170847	0.018216	-0.139501	68.1045	30.7736	2.25949	-0.575538	0.264134	0.00319583	0.0223706	0.185356	-0.00719051	-0.0191748	0.014381	
59	1573229628.718682567	-1.24139	-2.11187	-1.72407	-1.57225	0.599433	0.730982	0.0157744	0.0174874	0.0167587	0.0166629	0.0179284	0.016126	-0.286879	68.3202	31.0293	2.28738	-0.601147	0.186013	-0.12943	0.0862863	-0.103863	0.00239676	0.105461	-0.261256	
60	1573229628.726699958	-1.24125	-2.11168	-1.72392	-1.57213	0.59954	0.731066	0.0166693	0.0173468	0.0179604	0.0170272	0.0173915	0.0186762	0.135261	68.2652	30.848	2.22225	-0.589902	0.298634	0.111853	-0.0175769	0.150202	0.04554	-0.0671116	0.31878	
61	1573229628.734693067	-1.24114	-2.11159	-1.72382	-1.57201	0.599708	0.731246	0.0170272	0.0175769	0.0168354	0.0164136	0.0180051	0.0172381	0.222615	68.4361	31.0149	2.16759	-0.657198	0.16848	0.044741	0.0287623	-0.140615	-0.0766988	0.0766988	-0.179763	
62	1573229628.742694213	-1.24097	-2.11145	-1.72368	-1.57184	0.599888	0.731365	0.0171422	0.0177814	0.0176791	0.016682	0.0175066	0.0179092	-0.0833276	68.1893	30.8688	2.24043	-0.596553	0.265025	0.0143813	0.0255662	0.105461	0.0335558	-0.0623178	0.0838896	
63	1573229628.750671542	-1.24087	-2.11129	-1.72355	-1.57172	0.600008	0.731521	0.0172701	0.0168227	0.0143939	0.0162794	0.0183502	0.0194624	0.463961	69.412	31.5594	2.19465	-0.755529	0.132225	0.0159789	-0.119842	-0.410659	-0.0503338	0.105461	0.194144	
64	1573229628.758694378	-1.24068	-2.11114	-1.72341	-1.57158	0.60014	0.731701	0.0175641	0.0172189	0.0190853	0.0169505	0.0171039	0.0175449	-0.448349	67.3884	30.3408	2.23163	-0.471009	0.335587	0.0367516	0.0495347	0.586428	0.0838896	-0.155795	-0.239685	
65	1573229628.766693625	-1.24055	-2.111	-1.72324	-1.57147	0.600331	0.731833	0.0170911	0.0175513	0.0159023	0.0172956	0.0169121	0.0192131	0.106685	68.8572	31.3992	2.23258	-0.717787	0.183743	-0.0591222	0.0415454	-0.397876	0.0431433	-0.0239685	0.208526	
66	1573229628.774685498	-1.24041	-2.11088	-1.72315	-1.57132	0.60044	0.731965	0.0178453	0.017334	0.0185484	0.0163177	0.0171998	0.0175641	0.0588591	67.9698	30.6521	2.20237	-0.569835	0.238074	0.0942759	-0.0271644	0.330765	-0.122239	0.0359528	-0.206129	
67	1573229628.782644299	-1.24028	-2.11079	-1.72297	-1.57119	0.600547	0.73212	0.0169377	0.0170016	0.0178453	0.0176983	0.0169121	0.0175257	-0.269265	68.77	31.2671	2.27213	-0.620682	0.223713	-0.113451	-0.0415451	-0.0878843	0.172573	-0.0359528	-0.00479375	
68	1573229628.790706556	-1.24016	-2.11063	-1.72283	-1.57106	0.600691	0.732264	0.0170911	0.0168227	0.017922	0.0170464	0.0169697	0.0175066	0.10344	68.454	31.0342	2.22139	-0.653893	0.204594	0.0191748	-0.0223706	0.00958727	-0.0814926	0.00719051	-0.00239676	
69	1573229628.798699013	-1.24001	-2.1105	-1.72268	-1.57093	0.600847	0.732432	0.0169888	0.017155	0.0188935	0.0177558	0.0176983	0.0181201	-0.198208	68.1748	30.9575	2.31725	-0.524931	0.280218	-0.0127831	0.0415454	0.12144	0.0886833	0.0910801	0.0766991	
70	1573229628.806691423	-1.23986	-2.11032	-1.72252	-1.57076	0.600967	0.732552	0.0172062	0.0174746	0.0172573	0.0176408	0.0181968	0.0165095	0.180686	68.4788	31.1415	2.16751	-0.657988	0.166101	0.0271641	0.0399472	-0.204531	-0.0143813	0.0623181	-0.201335	
71	1573229628.814701850	-1.23971	-2.11019	-1.72242	-1.57063	0.601111	0.732671	0.0174362	0.0168866	0.0188296	0.0170847	0.0152056	0.0173915	0.0132691	68.3039	30.8712	2.14388	-0.728751	0.243646	0.0287623	-0.0735032	0.196541	-0.0695083	-0.373908	0.110255	
72	1573229628.822704719	-1.2396	-2.11006	-1.72227	-1.57046	0.601207	0.732827	0.0169249	0.0171934	0.018216	0.0172573	0.0165478	0.0179668	-0.120848	68.4797	31.2014	2.33745	-0.580867	0.225703	-0.063916	0.0383495	-0.0766991	0.0215715	0.167779	0.0719053	
73	1573229628.830688231	-1.23948	-2.10993	-1.7221	-1.57038	0.601339	0.732959	0.0171934	0.0169121	0.0189702	0.0168354	0.0166245	0.0176024	0.0631311	68.3712	31.0023	2.22329	-0.624822	0.219012	0.0335558	-0.0351537	0.0942759	-0.0527306	0.0095875	-0.04554	
74	1573229628.838668024	-1.23927	-2.10978	-1.72199	-1.57016	0.601507	0.733126	0.0175129	0.0169888	0.0191236	0.0173915	0.0169505	0.0179476	0.0257432	68.3465	31.0623	2.24079	-0.583329	0.247677	0.0399475	0.0095875	0.0191748	0.0695086	0.0407463	0.0431431	
75	1573229628.846665693	-1.23917	-2.10965	-1.72176	-1.57009	0.601674	0.733222	0.0176663	0.0170655	0.0190597	0.0173532	0.018101	0.0184845	0.0506855	68.4202	31.1293	2.28669	-0.584071	0.230666	0.0191748	0.00958727	-0.00798935	-0.00479375	0.143811	0.0671118	
76	1573229628.854685230	-1.23898	-2.10953	-1.72162	-1.56993	0.60177	0.733402	0.0174618	0.0172573	0.0188552	0.0186379	0.0172765	0.0173915	-0.16745	68.336	31.0897	2.1981	-0.609128	0.234585	-0.0255662	0.0239685	-0.0255664	0.160589	-0.103064	-0.13662	
77	1573229628.862678666	-1.23887	-2.10938	-1.72149	-1.56974	0.601926	0.733545	0.016746	0.017449	0.0185612	0.0167971	0.0176408	0.0172765	-0.0426954	68.4042	31.1442	2.30453	-0.694751	0.170408	-0.0894824	0.0239685	-0.0367516	-0.230097	0.04554	-0.0143813	
78	1573229628.870659311	-1.23873	-2.10923	-1.72133	-1.56962	0.602022	0.733689	0.0179092	0.0174618	0.0170528	0.0179284	0.0180051	0.0187146	0.376106	68.5966	31.25	2.16473	-0.615108	0.239468	0.145409	0.00159792	-0.188552	0.141414	0.04554	0.179763	
79	1573229628.878684741	-1.2386	-2.1091	-1.72117	-1.56946	0.60219	0.733833	0.0166948	0.0175385	0.0183183	0.0174874	0.0170655	0.0172765	-0.434701	68.1985	31.0098	2.29836	-0.641227	0.215494	-0.1518	0.00958727	0.158192	-0.0551275	-0.117445	-0.179763	
80	1573229628.886673194	-1.23847	-2.10893	-1.72109	-1.56935	0.602346	0.733977	0.0176791	0.017449	0.0178325	0.0159342	0.0174299	0.0177558	0.451369	68.4172	31.0988	2.17638	-0.693585	0.182807	0.123038	-0.0111852	-0.0607201	-0.194144	0.04554	0.0599213	
81	1573229628.894683384	-1.23832	-2.1088	-1.7209	-1.5692	0.602478	0.734108	0.0176152	0.0173212	0.0182799	0.0169505	0.0178134	0.0184461	-0.122797	68.4379	31.1736	2.29121	-0.562106	0.262783	-0.00798935	-0.0159792	0.0559264	0.127033	0.047937	0.0862863	
82	1573229628.902662609	-1.23818	-2.10866	-1.72078	-1.56909	0.602622	0.734252	0.017743	0.0176791	0.0188168	0.0158575	0.0180051	0.017775	0.0370286	68.1079	30.9874	2.2449	-0.634685	0.208618	0.0159789	0.0447412	0.0671116	-0.13662	0.0239683	-0.0838896	
83	1573229628.910706820	-1.23808	-2.10853	-1.72065	-1.5689	0.602778	0.734396	0.0176152	0.0172701	0.0194816	0.0179859	0.0169888	0.0181777	-0.229579	68.4941	31.1851	2.23576	-0.57357	0.28148	-0.0159789	-0.0511326	0.0830907	0.26605	-0.127033	0.0503338	
84	1573229628.918820026	-1.23788	-2.10839	-1.72046	-1.56877	0.602898	0.734564	0.0178325	0.0176024	0.0178964	0.0171998	0.0194049	0.0181393	0.244151	68.5447	31.3289	2.2942	-0.611372	0.174649	0.0271641	0.0415454	-0.198139	-0.0982706	0.302002	-0.00479375	
85	1573229628.926666898	-1.23774	-2.10825	-1.72031	-1.56863	0.603029	0.734684	0.0175385	0.0175129	0.0195327	0.0177942	0.0185036	0.0181777	-0.272626	68.1802	31.0192	2.27346	-0.587629	0.270741	-0.0367516	-0.0111854	0.204531	0.0743021	-0.112652	0.00479375	
86	1573229628.934676630	-1.23764	-2.10811	-1.72012	-1.56847	0.603221	0.734851	0.0180882	0.0177303	0.0179092	0.0178517	0.0180626	0.0190597	0.277049	68.5078	31.2813	2.17396	-0.689836	0.203894	0.0687095	0.0271644	-0.202933	0.00719051	-0.0551273	0.110255	
87	1573229628.942677122	-1.2375	-2.10795	-1.71999	-1.56834	0.603365	0.734971	0.0169633	0.017807	0.0168994	0.0172956	0.0190597	0.0181968	-0.183332	68.6183	31.389	2.33562	-0.651605	0.166915	-0.140615	0.00958727	-0.126234	-0.0695083	0.124636	-0.107858	
88	1573229628.950680591	-1.23734	-2.10783	-1.71988	-1.56821	0.603485	0.735127	0.0173723	0.0177942	0.0185612	0.0173723	0.0192515	0.0183502	-0.0418467	68.1056	30.9913	2.26814	-0.561135	0.267026	0.0511326	-0.00159792	0.207727	0.00958727	0.0239685	0.0191748	
89	1573229628.958732737	-1.23719	-2.10765	-1.71976	-1.56804	0.603665	0.735294	0.0189191	0.0177942	0.0165414	0.0178901	0.0185803	0.0175066	0.56119	68.5218	31.2506	2.0339	-0.698992	0.179403	0.193346	0	-0.252468	0.0647148	-0.0838896	-0.105461	
90	1573229628.966679789	-1.23705	-2.10752	-1.71962	-1.56788	0.603809	0.735414	0.0183311	0.0177303	0.0177942	0.0179668	0.0187913	0.0186762	-0.269731	68.3068	31.175	2.36334	-0.579929	0.264941	-0.0735032	-0.00798935	0.156594	0.0095875	0.0263653	0.146207	
91	1573229628.974673358	-1.23692	-2.10738	-1.71946	-1.56777	0.603941	0.73557	0.0178837	0.0189191	0.0169633	0.0173148	0.0183502	0.0189447	-0.106393	68.0077	31.1382	2.27844	-0.661916	0.216985	-0.0559264	0.148604	-0.103863	-0.0814928	-0.0551275	0.033556	
92	1573229628.982675786	-1.23678	-2.10722	-1.71933	-1.56759	0.60406	0.735713	0.018101	0.0175385	0.0170528	0.016893	0.0192323	0.0176216	0.207741	68.9409	31.4014	2.21622	-0.660172	0.158687	0.0271641	-0.172573	0.0111852	-0.0527306	0.110255	-0.165382	
93	1573229628.990698052	-1.23659	-2.10711	-1.7192	-1.56746	0.604229	0.735905	0.0185228	0.018101	0.0177303	0.0181777	0.0190789	0.0191939	-0.0916729	68.0449	31.095	2.27986	-0.53882	0.30694	0.0527306	0.0703074	0.0846887	0.160589	-0.0191748	0.196541	
94	1573229628.998698650	-1.23644	-2.10694	-1.71902	-1.56733	0.604456	0.736049	0.0184717	0.0176919	0.0170272	0.0188488	0.018657	0.0181201	0.0257359	68.6406	31.3616	2.1931	-0.659604	0.19201	-0.00639143	-0.0511326	-0.0878845	0.0838896	-0.0527306	-0.134223	
95	1573229629.006670374	-1.23631	-2.10677	-1.71891	-1.56716	0.604564	0.736192	0.0192898	0.0181138	0.0182544	0.0167204	0.0194624	0.0182544	0.24765	67.9116	30.9558	2.26067	-0.626075	0.217143	0.102265	0.0527306	0.153398	-0.26605	0.100668	0.0167778	
96	1573229629.014695140	-1.23617	-2.10665	-1.71877	-1.56702	0.604744	0.736336	0.0184333	0.018804	0.0177814	0.0186187	0.019424	0.0177942	-0.410662	68.2429	31.3089	2.31623	-0.551694	0.260182	-0.107059	0.0862866	-0.0591222	0.237287	-0.00479375	-0.0575243	
97	1573229629.022720435	-1.23604	-2.10649	-1.71865	-1.56686	0.604888	0.736492	0.0187913	0.0179859	0.0172189	0.0178901	0.0186954	0.018657	0.283643	68.7676	31.3987	2.19051	-0.735201	0.181414	0.0447412	-0.102266	-0.0703074	-0.0910801	-0.0910801	0.107858	
98	1573229629.030677590	-1.23587	-2.10633	-1.71851	-1.56671	0.605043	0.736612	0.0191108	0.0194688	0.0184461	0.0165095	0.019424	0.0183119	-0.0495749	67.4842	30.8599	2.30889	-0.563907	0.252709	0.0399472	0.185356	0.153398	-0.172573	0.0910801	-0.0431433	
99	1573229629.038688066	-1.23572	-2.10618	-1.71835	-1.56659	0.605164	0.736743	0.0192387	0.0191236	0.0186634	0.0170847	0.0183886	0.0184269	-0.0030841	68.4488	31.2785	2.20907	-0.652088	0.231237	0.0159792	-0.0431433	0.0271641	0.0719056	-0.12943	0.0143813	
100	1573229629.046673881	-1.23557	-2.10603	-1.71818	-1.56644	0.605356	0.736875	0.019277	0.0185612	0.0172189	0.0170847	0.0189255	0.0181968	0.193564	68.8475	31.542	2.22853	-0.681552	0.166833	0.00479352	-0.0703074	-0.180562	0	0.0671116	-0.0287623	
101	1573229629.054667398	-1.2354	-2.1059	-1.71807	-1.56631	0.6055	0.737055	0.0199162	0.0191108	0.0191748	0.0184078	0.0180243	0.0186762	-0.159354	67.7616	30.9484	2.24255	-0.522834	0.3227	0.0798949	0.0687095	0.244478	0.165382	-0.112652	0.0599211	
102	1573229629.062731505	-1.23523	-2.10572	-1.71784	-1.56616	0.605607	0.737199	0.0192515	0.0187401	0.0179476	0.0193473	0.018216	0.0186187	-0.112286	68.8007	31.5836	2.28612	-0.645508	0.197736	-0.0830905	-0.0463389	-0.153398	0.117445	0.0239683	-0.00719051	
103	1573229629.070666195	-1.23509	-2.10558	-1.71769	-1.56599	0.605751	0.737343	0.0193026	0.0190853	0.0187657	0.0181585	0.0172381	0.0192515	0.000957815	68.0361	31.1183	2.25811	-0.676796	0.228776	0.00639143	0.0431433	0.102266	-0.148604	-0.122239	0.0790961	
104	1573229629.078691792	-1.23496	-2.10544	-1.71762	-1.56587	0.605907	0.737546	0.0195071	0.0189191	0.0183055	0.0183502	0.0187146	0.0201143	0.108278	68.562	31.4519	2.31334	-0.589413	0.222679	0.0255664	-0.0207727	-0.0575243	0.0239685	0.184557	0.107858	
105	1573229629.086705409	-1.23478	-2.10532	-1.71742	-1.56571	0.606039	0.737654	0.0192131	0.0192898	0.0174235	0.0185036	0.018657	0.0192515	-0.0526113	68.338	31.3714	2.25077	-0.648067	0.196765	-0.0367516	0.0463389	-0.110255	0.0191748	-0.00719051	-0.107858	
106	1573229629.095022694	-1.23459	-2.10517	-1.71728	-1.56558	0.606183	0.73781	0.0205426	0.0188424	0.0203125	0.0183694	0.0178901	0.018542	0.146417	67.9311	30.9216	2.17057	-0.57829	0.270706	0.166181	-0.0559264	0.361125	-0.016778	-0.0958738	-0.0886833	
107	1573229629.102664638	-1.23444	-2.10497	-1.71714	-1.56539	0.606375	0.737941	0.0198651	0.0190086	0.0190981	0.0188296	0.0175833	0.0185036	-0.129941	68.5283	31.5099	2.28125	-0.665318	0.200166	-0.0846887	0.0207727	-0.1518	0.0575243	-0.0383495	-0.00479375	
108	1573229629.110684487	-1.23431	-2.10481	-1.71699	-1.56524	0.606507	0.738121	0.0196605	0.0188168	0.0191492	0.0190789	0.0169888	0.0192323	-0.0624816	68.4481	31.3968	2.27393	-0.651437	0.230015	-0.0255662	-0.0239685	0.00639143	0.031159	-0.0743021	0.0910801	
109	1573229629.118747273	-1.23416	-2.10468	-1.71686	-1.5651	0.60665	0.738313	0.0195966	0.0188935	0.0199801	0.0197692	0.0191364	0.0194816	-0.144939	68.287	31.3575	2.38688	-0.492931	0.261773	-0.00798958	0.0095875	0.103863	0.0862866	0.268447	0.031159	
110	1573229629.126692406	-1.23398	-2.10451	-1.71665	-1.56496	0.606782	0.738408	0.0196989	0.0183439	0.0198651	0.0177175	0.0188871	0.0191172	0.247886	68.5414	31.3912	2.22592	-0.749628	0.147675	0.0127833	-0.0687095	-0.0143813	-0.256462	-0.031159	-0.04554	
111	1573229629.134694387	-1.23383	-2.10435	-1.71655	-1.56479	0.606914	0.738576	0.0195199	0.0193537	0.0196605	0.0187146	0.0184653	0.0187529	-0.206919	67.9442	31.2554	2.2727	-0.58193	0.257158	-0.0223706	0.126234	-0.0255662	0.124636	-0.0527306	-0.04554	
112	1573229629.142701249	-1.23369	-2.1042	-1.71635	-1.56466	0.607034	0.738696	0.0196989	0.0192259	0.0222299	0.018868	0.0178901	0.0185612	-0.189489	67.9612	31.0869	2.28595	-0.56477	0.278974	0.0223706	-0.0159789	0.321177	0.0191748	-0.0719053	-0.0239685	
113	1573229629.150669230	-1.23355	-2.10401	-1.71621	-1.56448	0.607202	0.738815	0.0200696	0.0188807	0.0186634	0.0179859	0.018657	0.0185612	0.530226	69.0255	31.8065	2.18128	-0.774951	0.103995	0.0463389	-0.0431433	-0.445813	-0.110255	0.0958738	0	
114	1573229629.158673087	-1.2334	-2.10388	-1.71599	-1.56433	0.60737	0.738983	0.0200057	0.018689	0.0218081	0.0191172	0.0194624	0.0198842	-0.365707	68.026	31.1817	2.41238	-0.455895	0.335848	-0.00798958	-0.0239685	0.393083	0.141414	0.100668	0.165382	
115	1573229629.166661339	-1.2332	-2.10378	-1.71585	-1.56419	0.607562	0.739151	0.0201207	0.018868	0.018689	0.0196541	0.0198651	0.0195966	0.255681	68.7559	31.7283	2.20349	-0.698886	0.156383	0.0143813	0.0223706	-0.389887	0.0671116	0.0503336	-0.0359528	
116	1573229629.174692261	-1.23303	-2.10362	-1.71571	-1.56401	0.607682	0.739295	0.0200184	0.018395	0.0201974	0.0190981	0.0192323	0.0197308	-0.0807497	68.2915	31.3031	2.28488	-0.646471	0.230073	-0.0127833	-0.0591222	0.188552	-0.0695083	-0.0790958	0.016778	
117	1573229629.182686054	-1.2329	-2.10351	-1.71559	-1.56385	0.60791	0.739474	0.0198906	0.01975	0.0176024	0.0184653	0.0197117	0.0190789	0.124904	68.1488	31.4906	2.25174	-0.685241	0.165369	-0.0159789	0.169377	-0.324373	-0.0790961	0.0599211	-0.0814928	
118	1573229629.190728521	-1.23271	-2.10332	-1.71541	-1.56371	0.608017	0.739582	0.0193409	0.0200824	0.0195327	0.0191939	0.0183694	0.0185995	-0.424121	67.8934	31.1786	2.30506	-0.580879	0.280062	-0.0687095	0.0415454	0.241282	0.0910801	-0.167779	-0.0599211	
119	1573229629.198707445	-1.23261	-2.10315	-1.71532	-1.56358	0.608173	0.739738	0.0193537	0.0193921	0.0170911	0.0182927	0.0185612	0.0189063	0.3621	69.0112	31.8037	2.21858	-0.773474	0.123448	0.00159792	-0.0862863	-0.305198	-0.112652	0.0239685	0.0383495	
120	1573229629.206674189	-1.23241	-2.103	-1.71515	-1.56343	0.608293	0.739918	0.0203764	0.0195966	0.0204531	0.0189063	0.0180818	0.0190214	-0.0958426	67.6219	30.9562	2.26195	-0.500555	0.326334	0.127832	0.0255662	0.420247	0.0766991	-0.0599211	0.014381	
121	1573229629.214689655	-1.23224	-2.10279	-1.71497	-1.56325	0.608449	0.740097	0.0190086	0.0192642	0.0173595	0.0180243	0.0189447	0.0198842	0.015543	69.1162	32.0002	2.3619	-0.763792	0.118108	-0.170975	-0.0415454	-0.386691	-0.110255	0.107858	0.107858	
122	1573229629.222694502	-1.23208	-2.10268	-1.71482	-1.56313	0.608617	0.740217	0.0205042	0.0203125	0.0211817	0.0195966	0.0188104	0.0190022	-0.165682	67.1386	30.7585	2.24394	-0.401353	0.370551	0.186954	0.131028	0.477771	0.196541	-0.016778	-0.110255	
123	1573229629.230681463	-1.23192	-2.10249	-1.71465	-1.56297	0.608761	0.740361	0.0193921	0.0198651	0.0188424	0.0203252	0.0191748	0.0185612	-0.109676	69.0011	31.9176	2.30935	-0.695164	0.153702	-0.139017	-0.0559264	-0.292415	0.0910801	0.04554	-0.0551275	
124	1573229629.238693175	-1.2318	-2.10233	-1.71451	-1.5628	0.608929	0.740516	0.0193409	0.0190725	0.0187146	0.0207471	0.0189255	0.0185612	0.0347504	68.6924	31.6239	2.25664	-0.661508	0.202948	-0.00639167	-0.0990694	-0.0159789	0.0527306	-0.031159	0	
125	1573229629.246711448	-1.23164	-2.10217	-1.71437	-1.56262	0.609133	0.74066	0.0196733	0.0201207	0.0192387	0.0213032	0.0183119	0.0197117	-0.094298	67.7683	31.2582	2.28952	-0.579726	0.288836	0.0415454	0.131028	0.0655139	0.0695086	-0.0766991	0.143811	
126	1573229629.254750591	-1.23147	-2.10197	-1.71423	-1.56253	0.609205	0.740816	0.0193026	0.0193282	0.0196861	0.0193473	0.0180818	0.0195774	0.0829186	68.5788	31.5488	2.29212	-0.739205	0.156458	-0.0463391	-0.0990697	0.0559264	-0.244478	-0.028762	-0.0167778	
127	1573229629.262664062	-1.23129	-2.10184	-1.71407	-1.56232	0.609384	0.740996	0.019571	0.0191108	0.0185484	0.0196733	0.0194624	0.0187146	0.172067	68.5949	31.6728	2.2664	-0.617776	0.180945	0.0335558	-0.0271644	-0.142213	0.0407465	0.172573	-0.107858	
128	1573229629.270677986	-1.23116	-2.1017	-1.71391	-1.56219	0.609528	0.741127	0.0193665	0.0195327	0.0198523	0.0185803	0.0174107	0.018657	-0.13762	67.8511	31.2261	2.25234	-0.699998	0.230584	-0.0255662	0.0527308	0.162985	-0.13662	-0.256462	-0.00719051	
129	1573229629.270677986	-1.23116	-2.1017	-1.71391	-1.56219	0.609528	0.741127	0.0193665	0.0195327	0.0198523	0.0185803	0.0174107	0.018657	-0.000855174	68.3141	31.513	2.28344	-0.637146	0.216828	0	0	0	0	0	0	
130	1573229629.286686351	-1.23084	-2.1014	-1.7136	-1.56187	0.60984	0.741391	0.0187146	0.0195327	0.0184845	0.0203828	0.0180434	0.0191556	-0.191248	68.6519	31.8134	2.34428	-0.590829	0.230282	-0.0814928	0	-0.170975	0.225303	0.0790958	0.0623181	
131	1573229629.294670992	-1.23071	-2.10121	-1.71345	-1.56175	0.609984	0.741606	0.0197628	0.0189191	0.0176152	0.0194624	0.0178325	0.0189447	0.49128	68.5841	31.5985	2.15653	-0.72981	0.159973	0.131028	-0.0766991	-0.108657	-0.115048	-0.0263653	-0.0263653	
132	1573229629.302688084	-1.23054	-2.10106	-1.71335	-1.56157	0.610176	0.74175	0.0189958	0.018868	0.0195199	0.0195007	0.0196733	0.0190214	-0.372353	68.1693	31.481	2.46745	-0.506366	0.260188	-0.0958738	-0.00639167	0.238087	0.00479352	0.230097	0.00958727	
133	1573229629.310711305	-1.23041	-2.1009	-1.71322	-1.56139	0.610343	0.741882	0.0187401	0.0188296	0.0170911	0.0188488	0.0187337	0.0200568	0.206991	68.7	31.8235	2.23629	-0.786316	0.153968	-0.0319579	-0.00479375	-0.3036	-0.0814926	-0.117446	0.12943	
134	1573229629.318683812	-1.23025	-2.10077	-1.71302	-1.56127	0.610475	0.742061	0.0190853	0.0181649	0.0194816	0.0195774	0.0190405	0.0196158	-0.122262	68.2025	31.3889	2.30709	-0.536453	0.269955	0.0431433	-0.0830905	0.298807	0.0910801	0.0383495	-0.0551273	
135	1573229629.326737425	-1.23007	-2.10062	-1.71287	-1.5611	0.610631	0.742169	0.019162	0.0199034	0.0193026	0.0194624	0.0180626	0.0172573	-0.131279	67.4638	31.2172	2.21554	-0.625307	0.220315	0.00958727	0.217314	-0.0223706	-0.014381	-0.122239	-0.294812	
136	1573229629.334677318	-1.22992	-2.10047	-1.71272	-1.56095	0.610775	0.742325	0.0188168	0.0190086	0.0207471	0.0186954	0.0187529	0.0199801	-0.0654105	68.5782	31.6614	2.42641	-0.625744	0.247539	-0.0431433	-0.111853	0.180562	-0.0958738	0.0862863	0.340352	
137	1573229629.342682830	-1.22978	-2.1003	-1.71261	-1.56081	0.610967	0.742517	0.0184845	0.0192131	0.0179476	0.0196158	0.018216	0.0180818	0.0589759	68.618	31.8439	2.18963	-0.714041	0.145448	-0.0415451	0.0255664	-0.349939	0.115049	-0.0671118	-0.237288	
138	1573229629.350660942	-1.22965	-2.10014	-1.71245	-1.56065	0.611075	0.742672	0.0181649	0.0191236	0.0206065	0.0192323	0.0186762	0.0213415	-0.271144	68.0441	31.4312	2.47322	-0.548319	0.315009	-0.0399475	-0.0111854	0.332362	-0.047937	0.0575243	0.407464	
139	1573229629.358688483	-1.2295	-2.09996	-1.71228	-1.56049	0.611243	0.742828	0.0192387	0.019162	0.0187018	0.0189447	0.0190789	0.0196733	0.47733	68.4358	31.6711	2.14008	-0.695538	0.145431	0.134223	0.00479375	-0.238087	-0.0359525	0.0503338	-0.208525	
140	1573229629.366698001	-1.22934	-2.09977	-1.71207	-1.56034	0.611374	0.742984	0.0190214	0.0190214	0.0223194	0.0199418	0.0189447	0.0191556	-0.459324	67.8105	31.2644	2.37574	-0.48498	0.314938	-0.0271644	-0.0175769	0.452205	0.124636	-0.0167778	-0.0647148	
141	1573229629.374686748	-1.2292	-2.09964	-1.71195	-1.56023	0.611579	0.743116	0.0187785	0.0197372	0.0190597	0.0199993	0.0209005	0.0193665	0.171594	68.5776	31.9584	2.33521	-0.651971	0.159116	-0.03036	0.0894822	-0.407464	0.00719051	0.244478	0.0263653	
142	1573229629.382710335	-1.22905	-2.09947	-1.71178	-1.56005	0.611711	0.743295	0.0188168	0.0188807	0.0204275	0.0199801	0.0182927	0.02161	-0.0363758	68.4091	31.5702	2.25568	-0.720696	0.257465	0.00479352	-0.107059	0.170975	-0.00239676	-0.325971	0.280431	
143	1573229629.390711494	-1.22887	-2.09936	-1.7116	-1.55988	0.611903	0.743427	0.0187657	0.0184206	0.0206832	0.0205937	0.0186187	0.0196158	-0.0538023	68.4219	31.659	2.2637	-0.611292	0.19498	-0.00639143	-0.0575243	0.0319579	0.0766988	0.0407463	-0.249272	
144	1573229629.398709390	-1.22872	-2.09923	-1.71143	-1.55972	0.612046	0.743643	0.0193793	0.018868	0.0196094	0.0201718	0.0184269	0.0197117	0.256086	68.188	31.6195	2.22567	-0.682448	0.195535	0.0766991	0.0559264	-0.134223	-0.0527306	-0.0239683	0.011984	
145	1573229629.406717916	-1.22858	-2.09905	-1.7113	-1.55958	0.612178	0.743798	0.0190853	0.0186123	0.0198267	0.0209772	0.020517	0.0197884	-0.129475	68.4771	31.7854	2.40851	-0.531712	0.233408	-0.0367516	-0.0319579	0.0271644	0.100668	0.261256	0.0095875	
146	1573229629.414710187	-1.22843	-2.0989	-1.71113	-1.5594	0.612322	0.743906	0.018804	0.0186251	0.0207471	0.0204978	0.0193665	0.0198459	-0.130006	68.1096	31.5319	2.2967	-0.672369	0.225166	-0.0351537	0.00159792	0.115048	-0.0599211	-0.143811	0.00719051	
147	1573229629.422683956	-1.22825	-2.09869	-1.71099	-1.55925	0.612526	0.744098	0.0183311	0.0197244	0.0188424	0.0195774	0.0187146	0.0177558	0.00199962	68.0395	31.6531	2.23598	-0.733008	0.142246	-0.0591222	0.137419	-0.238087	-0.115049	-0.0814928	-0.261256	
148	1573229629.430718039	-1.22814	-2.09859	-1.71082	-1.5591	0.61267	0.744241	0.0182927	0.0185612	0.0205681	0.0199226	0.0172765	0.0200376	-0.0847272	68.5345	31.6831	2.31803	-0.661664	0.266912	-0.00479375	-0.145409	0.215716	0.0431431	-0.179763	0.285225	
149	1573229629.438711789	-1.22797	-2.09842	-1.71064	-1.55892	0.612826	0.744385	0.0190725	0.0186251	0.0211434	0.0193857	0.0210539	0.0209388	0.220467	68.2343	31.6799	2.42811	-0.493499	0.236791	0.0974718	0.00798958	0.0719053	-0.0671116	0.472178	0.112652	
150	1573229629.446678775	-1.22782	-2.0983	-1.71056	-1.5588	0.612946	0.744541	0.0179987	0.0182416	0.0200824	0.0206129	0.0193473	0.0191556	-0.276576	68.616	31.8875	2.24433	-0.712631	0.17543	-0.134223	-0.047937	-0.132625	0.153398	-0.213319	-0.222906	
151	1573229629.454780680	-1.22768	-2.09813	-1.71037	-1.55866	0.613137	0.744661	0.0184717	0.0190341	0.0202358	0.0204019	0.0204595	0.0201335	0.0695186	67.9202	31.573	2.35173	-0.571491	0.251485	0.0591222	0.0990697	0.0191748	-0.0263653	0.139017	0.122239	
152	1573229629.462710807	-1.22755	-2.09796	-1.71019	-1.55847	0.613257	0.744876	0.0189702	0.0193409	0.0212584	0.0218017	0.0198651	0.0205937	-0.0981922	67.9496	31.5255	2.28177	-0.557796	0.289994	0.0623178	0.0383495	0.127832	0.17497	-0.0743023	0.0575241	
153	1573229629.470697127	-1.22737	-2.09781	-1.71001	-1.5583	0.613413	0.744996	0.0186634	0.0194432	0.022818	0.0210539	0.0195583	0.0202294	-0.180007	67.9766	31.5206	2.34507	-0.627623	0.230072	-0.0383495	0.0127831	0.194944	-0.0934771	-0.0383495	-0.04554	
154	1573229629.478869734	-1.22723	-2.09768	-1.70985	-1.55813	0.613533	0.745128	0.0185995	0.0187401	0.0188807	0.0208813	0.0193857	0.0193857	0.413332	69.1533	32.2362	2.17852	-0.81755	0.0831839	-0.00798935	-0.0878843	-0.492152	-0.0215715	-0.0215715	-0.105461	
155	1573229629.486674027	-1.22707	-2.09747	-1.7097	-1.55795	0.613725	0.745332	0.018689	0.0182927	0.0208238	0.0209772	0.019309	0.0200376	-0.1173	68.1657	31.5966	2.34849	-0.588798	0.261958	0.0111852	-0.0559264	0.24288	0.0119843	-0.00958727	0.0814928	
156	1573229629.494702876	-1.22691	-2.09733	-1.70952	-1.55782	0.613905	0.745487	0.0192003	0.0194688	0.021284	0.0208238	0.0211498	0.0202485	0.0121317	67.7017	31.5277	2.37883	-0.518446	0.259207	0.063916	0.147006	0.0575243	-0.0191748	0.230097	0.0263653	
157	1573229629.502668077	-1.22679	-2.09722	-1.70939	-1.55763	0.614013	0.745655	0.0188424	0.0193282	0.0199929	0.0211881	0.0198267	0.0195774	-0.00695621	68.4961	31.8882	2.23423	-0.72947	0.175249	-0.0447412	-0.0175769	-0.161387	0.04554	-0.165382	-0.0838896	
158	1573229629.510666024	-1.2266	-2.09704	-1.70921	-1.55748	0.614192	0.745799	0.0192642	0.0185995	0.0201335	0.021284	0.020076	0.0208238	0.167843	68.5585	31.8557	2.30494	-0.647403	0.22103	0.0527306	-0.0910801	0.0175769	0.0119843	0.0311588	0.155795	
159	1573229629.518666706	-1.22652	-2.09687	-1.70904	-1.55732	0.614372	0.74599	0.0186251	0.018804	0.0209133	0.0211498	0.0210539	0.0203636	-0.249959	68.1264	31.726	2.41071	-0.580864	0.225106	-0.0798947	0.0255664	0.0974715	-0.016778	0.122239	-0.0575243	
160	1573229629.526709786	-1.2263	-2.09677	-1.70888	-1.55715	0.614492	0.74611	0.0189447	0.0199545	0.0201335	0.0191939	0.0202677	0.0196733	0.198561	67.766	31.5608	2.23847	-0.736679	0.169707	0.0399475	0.143811	-0.0974715	-0.244478	-0.0982706	-0.0862863	
161	1573229629.534691080	-1.22614	-2.0966	-1.7087	-1.55697	0.614708	0.746302	0.0194432	0.0190086	0.0189958	0.0197884	0.0213223	0.0217634	0.294742	68.8982	32.1059	2.32101	-0.648732	0.208819	0.0623178	-0.118244	-0.142213	0.0743023	0.131827	0.261256	
162	1573229629.542689283	-1.22595	-2.09644	-1.70859	-1.55684	0.614864	0.746469	0.0199673	0.0186379	0.0211306	0.0200376	0.0208621	0.0189447	-0.0580654	67.9508	31.4846	2.22742	-0.587687	0.223344	0.0655139	-0.0463389	0.266849	0.031159	-0.0575243	-0.352336	
163	1573229629.550681938	-1.22586	-2.09629	-1.70843	-1.55673	0.615032	0.746637	0.0196477	0.0201718	0.0191236	0.0201143	0.0202677	0.0214566	-0.0392416	67.9689	31.8499	2.35612	-0.678749	0.241211	-0.0399475	0.191747	-0.25087	0.00958727	-0.0743023	0.313987	
164	1573229629.558738260	-1.22571	-2.09611	-1.70826	-1.55654	0.615164	0.746781	0.0195838	0.019277	0.0199545	0.0216291	0.0206896	0.0208238	-0.133292	68.5402	31.8914	2.32469	-0.569772	0.236713	-0.00798958	-0.111853	0.103863	0.189351	0.0527306	-0.0790958	
165	1573229629.566681839	-1.22553	-2.09595	-1.70807	-1.55637	0.615332	0.746948	0.0192898	0.0195199	0.022166	0.0198267	0.0202677	0.0201143	-0.168103	67.7612	31.4878	2.3581	-0.649461	0.218273	-0.0367516	0.0303602	0.276436	-0.225303	-0.0527306	-0.0886833	
166	1573229629.574654100	-1.22537	-2.09583	-1.70792	-1.5562	0.615464	0.747128	0.0207215	0.0199673	0.0188807	0.020191	0.0204403	0.0210155	0.622457	68.4628	32.0156	2.16337	-0.712211	0.174643	0.178965	0.0559264	-0.410659	0.04554	0.0215718	0.112652	
167	1573229629.582672110	-1.22521	-2.09566	-1.70776	-1.55607	0.615655	0.747272	0.0202358	0.0194049	0.020517	0.0200568	0.0216483	0.0210347	-0.212534	68.3209	31.8201	2.4314	-0.570135	0.23287	-0.0607201	-0.0703076	0.204531	-0.016778	0.151001	0.00239676	
168	1573229629.590708391	-1.22503	-2.09552	-1.70759	-1.55588	0.615847	0.747439	0.0200696	0.0201335	0.0207343	0.0207279	0.0208813	0.0189638	-0.200938	67.8396	31.6547	2.26896	-0.614218	0.22194	-0.0207727	0.0910803	0.0271644	0.0838896	-0.0958738	-0.258859	
169	1573229629.598722559	-1.2249	-2.09533	-1.70744	-1.55572	0.616075	0.747619	0.019571	0.0196605	0.0198778	0.0211498	0.0214566	0.0201143	-0.037695	68.6787	32.1146	2.37989	-0.654705	0.203723	-0.0623181	-0.0591222	-0.107059	0.0527306	0.0719053	0.143811	
170	1573229629.606682284	-1.2247	-2.09514	-1.70729	-1.55558	0.616147	0.747799	0.0201079	0.0193537	0.0197117	0.0210731	0.0199034	0.021399	0.191286	68.3218	31.846	2.23444	-0.719251	0.219787	0.0671118	-0.0383495	-0.0207727	-0.00958727	-0.194144	0.160589	
171	1573229629.614657643	-1.22455	-2.095	-1.70713	-1.55541	0.616351	0.747931	0.0193026	0.0202613	0.0209644	0.0204595	0.0197692	0.0195966	-0.377418	67.6589	31.5963	2.38036	-0.604515	0.221498	-0.100668	0.113451	0.156594	-0.0766991	-0.0167778	-0.225303	
172	1573229629.622703461	-1.22437	-2.09487	-1.70699	-1.55523	0.616471	0.748062	0.0204019	0.0190981	0.0192515	0.0218401	0.020632	0.0199034	0.455753	68.9633	32.2032	2.21577	-0.650606	0.183975	0.137419	-0.145409	-0.214118	0.172573	0.107858	0.0383495	
173	1573229629.630679097	-1.22423	-2.09467	-1.7068	-1.5551	0.616615	0.748254	0.0194049	0.0193921	0.019635	0.0207471	0.020191	0.0199418	-0.247433	68.0992	31.8433	2.39678	-0.688418	0.198174	-0.124636	0.0367516	0.0479368	-0.13662	-0.0551273	0.00479375	
174	1573229629.638690465	-1.22409	-2.09456	-1.70665	-1.55492	0.616794	0.748422	0.0204147	0.0192642	0.0211945	0.0199801	0.01975	0.0203252	0.200672	67.9341	31.6186	2.2667	-0.637308	0.239571	0.126234	-0.0159792	0.194943	-0.0958736	-0.0551275	0.0479368	
175	1573229629.646667321	-1.22392	-2.09441	-1.70655	-1.55478	0.616986	0.748577	0.019635	0.0193793	0.019162	0.0210347	0.0214374	0.0210539	-0.104832	68.6573	32.2683	2.42651	-0.610236	0.197716	-0.0974718	0.0143813	-0.254065	0.131826	0.210922	0.0910801	
176	1573229629.654677980	-1.22377	-2.09421	-1.70637	-1.5546	0.61713	0.748733	0.0210411	0.0201463	0.0195583	0.0205745	0.0202677	0.0198459	0.294577	67.6214	31.5315	2.15961	-0.659321	0.220663	0.175769	0.0958736	0.0495347	-0.0575243	-0.146208	-0.151001	
177	1573229629.662667563	-1.22357	-2.09407	-1.7062	-1.55445	0.617298	0.748877	0.0207087	0.0196733	0.022345	0.0209197	0.0203828	0.0202677	-0.326275	68.0521	31.7301	2.42146	-0.5493	0.279909	-0.0415451	-0.059122	0.348342	0.0431433	0.014381	0.0527306	
178	1573229629.670692562	-1.22343	-2.09393	-1.70603	-1.55428	0.617466	0.749068	0.0212201	0.0207982	0.0199162	0.0214566	0.0203252	0.020517	0.215078	68.0749	31.9801	2.25418	-0.66757	0.201479	0.0639157	0.140615	-0.3036	0.0671116	-0.00719051	0.031159	
179	1573229629.678686831	-1.22323	-2.09375	-1.70585	-1.55412	0.617586	0.749212	0.020811	0.0198139	0.022166	0.0195391	0.0202677	0.0198842	-0.0796049	68.2825	31.8072	2.37338	-0.685762	0.183328	-0.0511326	-0.123038	0.28123	-0.239684	-0.00719051	-0.0790958	
180	1573229629.686680681	-1.22304	-2.09357	-1.70572	-1.55395	0.617777	0.749356	0.0212584	0.0209772	0.0198523	0.0210347	0.0204403	0.0213607	0.11636	68.099	32.0448	2.30382	-0.614981	0.245553	0.0559264	0.145409	-0.289219	0.186954	0.0215718	0.184557	
181	1573229629.694735664	-1.2229	-2.09342	-1.70554	-1.55378	0.617921	0.749535	0.0209516	0.0203636	0.0203252	0.0206704	0.0195391	0.0210731	-0.0493066	68.3883	31.9663	2.30814	-0.702547	0.191953	-0.0383495	-0.0766991	0.0591222	-0.04554	-0.112652	-0.0359525	
182	1573229629.702676351	-1.22273	-2.09322	-1.70541	-1.55364	0.618137	0.749715	0.0211562	0.0209005	0.0217953	0.021284	0.0222811	0.0213415	-0.159117	67.8506	31.8057	2.47505	-0.447314	0.281919	0.0255664	0.0671116	0.183758	0.0766991	0.342749	0.0335558	
183	1573229629.710664208	-1.22258	-2.09309	-1.70522	-1.55344	0.618282	0.749895	0.0207087	0.0203892	0.0190597	0.0213032	0.0197692	0.0211114	0.156991	68.7939	32.2852	2.18515	-0.856519	0.124948	-0.0559264	-0.0639157	-0.34195	0.00239676	-0.313987	-0.028762	
184	1573229629.718700345	-1.22238	-2.0929	-1.70505	-1.55329	0.618461	0.750039	0.0209516	0.0208749	0.0219998	0.0212456	0.0214566	0.0203444	-0.237806	67.5643	31.5895	2.4387	-0.465382	0.284918	0.03036	0.0607201	0.367516	-0.00719051	0.210922	-0.0958738	
185	1573229629.726671768	-1.2222	-2.09277	-1.70489	-1.55311	0.618617	0.750195	0.0216163	0.0204786	0.0199929	0.0211306	0.0204786	0.0216291	0.407276	68.6194	32.1899	2.21641	-0.767884	0.171058	0.0830907	-0.049535	-0.25087	-0.014381	-0.122239	0.160589	
186	1573229629.734673438	-1.22205	-2.0926	-1.70474	-1.55294	0.618773	0.750362	0.02099	0.0214246	0.0215396	0.0210922	0.0201335	0.0198842	-0.405417	67.5568	31.6726	2.37961	-0.579054	0.243569	-0.078297	0.118244	0.193345	-0.00479375	-0.0431431	-0.218113	
187	1573229629.734673438	-1.22205	-2.0926	-1.70474	-1.55294	0.618773	0.750362	0.02099	0.0214246	0.0215396	0.0210922	0.0201335	0.0198842	-0.000983615	68.2031	31.9842	2.33255	-0.647371	0.210923	0	0	0	0	0	0	
188	1573229629.750655776	-1.22173	-2.09225	-1.70438	-1.55259	0.619096	0.750733	0.0210411	0.0213096	0.0220638	0.0207663	0.0211114	0.0197308	0.00631584	68.1883	31.9806	2.3761	-0.609929	0.211018	0.00639143	-0.014381	0.0655139	-0.0407463	0.122239	-0.0191748	
189	1573229629.758693878	-1.22153	-2.09207	-1.70426	-1.55244	0.619277	0.750865	0.0223322	0.0204403	0.019277	0.0213032	0.0195583	0.0205553	0.63153	68.8538	32.3076	2.10989	-0.803669	0.151357	0.161388	-0.108657	-0.348342	0.0671116	-0.194145	0.103064	
190	1573229629.766661640	-1.22138	-2.09193	-1.70407	-1.55228	0.619504	0.751057	0.0214629	0.0218209	0.022166	0.0215716	0.0215524	0.0202677	-0.633804	67.3058	31.6399	2.57126	-0.418542	0.315182	-0.108657	0.172573	0.361125	0.0335558	0.249272	-0.0359528	
191	1573229629.774670138	-1.22121	-2.09172	-1.7039	-1.55208	0.619576	0.751177	0.0223578	0.0207599	0.0188935	0.020843	0.0205553	0.0195774	0.681723	68.9977	32.3974	2.11384	-0.861303	0.0799513	0.111853	-0.132625	-0.409062	-0.0910801	-0.124636	-0.0862863	
192	1573229629.782680095	-1.22103	-2.09156	-1.70371	-1.55193	0.619756	0.751356	0.0215908	0.0215524	0.0230353	0.0214374	0.020517	0.0216483	-0.692952	67.3504	31.5963	2.55689	-0.457918	0.372061	-0.0958738	0.0990697	0.517718	0.0743023	-0.00479375	0.258859	
193	1573229629.790734745	-1.22085	-2.09141	-1.70359	-1.55176	0.619924	0.751524	0.0222172	0.0211178	0.0192387	0.0212648	0.0208046	0.0199034	0.559266	68.8559	32.4312	2.16379	-0.788851	0.0802648	0.078297	-0.0543285	-0.474575	-0.0215718	0.0359528	-0.218113	
194	1573229629.798691008	-1.22068	-2.09121	-1.70339	-1.55161	0.620068	0.751668	0.0215908	0.0211562	0.0209772	0.0220701	0.0207663	0.0204978	-0.391772	67.9879	31.9467	2.44299	-0.559634	0.277789	-0.078297	0.00479375	0.217314	0.100668	-0.00479375	0.0743023	
195	1573229629.806673644	-1.2205	-2.09106	-1.7032	-1.55142	0.62032	0.751836	0.0213479	0.0208621	0.0211945	0.0214757	0.021399	0.0206512	-0.00735875	68.3132	32.1176	2.38823	-0.653944	0.194348	-0.0303602	-0.0367516	0.0271641	-0.0743021	0.0790958	0.0191748	
196	1573229629.814689846	-1.22035	-2.09091	-1.70306	-1.55126	0.620451	0.752015	0.0218976	0.0224984	0.0201591	0.0207663	0.0201718	0.0211689	0.143307	67.5406	31.8372	2.26691	-0.698262	0.220937	0.0687097	0.204531	-0.12943	-0.0886833	-0.153398	0.0647148	
197	1573229629.822687792	-1.22017	-2.09073	-1.70284	-1.55107	0.620607	0.752135	0.0215141	0.0210922	0.0208749	0.0203252	0.0216675	0.0205937	-0.000310576	68.7387	32.2785	2.40957	-0.639097	0.169526	-0.047937	-0.175769	0.0894824	-0.0551275	0.186954	-0.0719056	
198	1573229629.830664539	-1.22	-2.09057	-1.70271	-1.55094	0.620799	0.752339	0.0219871	0.0211945	0.0193026	0.0211498	0.0201143	0.0204019	0.183814	68.2831	32.1605	2.20452	-0.722283	0.193081	0.0591222	0.0127831	-0.196541	0.103064	-0.194144	-0.0239683	
199	1573229629.838684549	-1.2198	-2.09039	-1.70258	-1.55078	0.620955	0.752482	0.0214246	0.0219487	0.0226518	0.0198075	0.0218784	0.0198267	-0.412098	67.412	31.6819	2.53638	-0.498852	0.26788	-0.0703074	0.0942759	0.418649	-0.167779	0.22051	-0.0719053	
200	1573229629.846682397	-1.21962	-2.09021	-1.70241	-1.55059	0.621147	0.752638	0.0222172	0.0209772	0.0182416	0.0202677	0.0201718	0.0212265	0.662764	69.1701	32.6468	2.12746	-0.877537	0.111654	0.0990697	-0.12144	-0.551275	0.0575243	-0.213319	0.17497	
201	1573229629.854673882	-1.21949	-2.09006	-1.70222	-1.55043	0.621279	0.752818	0.0216547	0.0223706	0.0226901	0.020958	0.0205553	0.0209964	-0.737988	66.9651	31.4891	2.52881	-0.407206	0.364459	-0.0703076	0.174171	0.556068	0.0862866	0.047937	-0.0287623	
202	1573229629.862679317	-1.21928	-2.08988	-1.70209	-1.55029	0.621471	0.752973	0.0209644	0.0213862	0.0196733	0.0211498	0.0204403	0.0214566	0.166603	69.1196	32.6748	2.31989	-0.791291	0.117121	-0.0862863	-0.123038	-0.377103	0.0239683	-0.014381	0.0575243	
203	1573229629.870703721	-1.21912	-2.0897	-1.70186	-1.55011	0.621603	0.753165	0.0215524	0.0219359	0.0229458	0.0209197	0.0191556	0.0219168	-0.181229	67.3395	31.5966	2.34525	-0.570461	0.307398	0.0735032	0.0687095	0.409062	-0.028762	-0.160589	0.0575243	
204	1573229629.878686809	-1.21897	-2.08953	-1.70171	-1.54998	0.62177	0.753332	0.0215141	0.0213735	0.0196733	0.0216867	0.0215141	0.02161	0.293038	68.9921	32.6779	2.35502	-0.665472	0.128637	-0.00479375	-0.0703074	-0.409062	0.0958738	0.294812	-0.0383495	
205	1573229629.886721258	-1.21878	-2.08932	-1.70156	-1.54977	0.62195	0.753536	0.0203764	0.0214118	0.0233421	0.0205553	0.0190405	0.0216867	-0.571111	67.5788	31.7348	2.4244	-0.668106	0.266308	-0.142213	0.00479375	0.458596	-0.141414	-0.309193	0.0095875	
206	1573229629.894680690	-1.2186	-2.08917	-1.70139	-1.54962	0.622094	0.753668	0.0212073	0.0211945	0.0185867	0.0208238	0.0190981	0.0209772	0.65108	68.8819	32.624	2.15741	-0.805877	0.0878235	0.103863	-0.0271644	-0.594418	0.0335558	0.00719074	-0.0886833	
207	1573229629.902691382	-1.21846	-2.08898	-1.70123	-1.54944	0.622286	0.75386	0.0206065	0.0217825	0.0223322	0.0215716	0.0198651	0.0217634	-0.606658	67.4471	31.7838	2.54577	-0.444786	0.341514	-0.0751012	0.0735032	0.468184	0.0934768	0.0958736	0.0982706	
208	1573229629.910692538	-1.21825	-2.08885	-1.70102	-1.54928	0.622442	0.754003	0.0208621	0.0202997	0.0192259	0.0213607	0.0206129	0.0204403	0.500257	69.2223	32.7038	2.23172	-0.791518	0.0710437	0.0319581	-0.185356	-0.388289	-0.0263653	0.0934771	-0.165382	
209	1573229629.918675240	-1.21811	-2.08866	-1.70085	-1.54913	0.622562	0.754195	0.0206448	0.0215141	0.0219615	0.0202294	0.0208621	0.0215524	-0.322199	67.2489	31.7287	2.4915	-0.551304	0.295023	-0.0271644	0.1518	0.34195	-0.141414	0.031159	0.139017	
210	1573229629.926668668	-1.21794	-2.08853	-1.70072	-1.54898	0.622706	0.754351	0.0211178	0.0204659	0.0189319	0.0214757	0.0198651	0.0209005	0.388725	68.982	32.6142	2.17208	-0.77804	0.129541	0.0591222	-0.131028	-0.378701	0.155795	-0.124636	-0.0814928	
211	1573229629.934661372	-1.2178	-2.08835	-1.70055	-1.5488	0.622921	0.754531	0.0207343	0.021693	0.0221277	0.0208621	0.0211498	0.0215716	-0.445834	67.2194	31.7442	2.54881	-0.476594	0.311638	-0.0479368	0.153398	0.399474	-0.0766991	0.160589	0.0838896	
212	1573229629.942669502	-1.21758	-2.08814	-1.70039	-1.54866	0.623065	0.75471	0.0202741	0.0209516	0.0187146	0.0213607	0.0209005	0.0214757	0.214733	69.013	32.7355	2.28765	-0.789722	0.113214	-0.0575243	-0.092678	-0.426638	0.0623178	-0.031159	-0.011984	
213	1573229629.950667625	-1.21745	-2.08799	-1.70025	-1.54846	0.623221	0.754866	0.0208877	0.0211817	0.0218464	0.0212456	0.0210539	0.0217825	-0.133383	67.5197	31.7908	2.39743	-0.529747	0.295547	0.0766991	0.0287623	0.391485	-0.014381	0.0191748	0.0383493	
214	1573229629.958713374	-1.21726	-2.08786	-1.7001	-1.54831	0.623365	0.75501	0.0207982	0.0222299	0.0191492	0.0215908	0.0219743	0.0204403	0.0992482	68.106	32.3735	2.32763	-0.661763	0.15812	-0.0111854	0.131027	-0.337156	0.0431433	0.115049	-0.167779	
215	1573229629.966726065	-1.2171	-2.08768	-1.69986	-1.54816	0.623593	0.755225	0.0196094	0.0212456	0.0223578	0.0209197	0.0211114	0.0210731	-0.471774	68.1513	32.1087	2.48614	-0.643693	0.246336	-0.148604	-0.123038	0.401072	-0.0838896	-0.107858	0.0790958	
216	1573229629.974700802	-1.21692	-2.08751	-1.69974	-1.54799	0.623689	0.755369	0.0211434	0.0221788	0.0198267	0.0210731	0.0210155	0.020517	0.53867	67.9599	32.2213	2.18065	-0.694589	0.174637	0.191748	0.116647	-0.316384	0.0191748	-0.0119843	-0.0695086	
217	1573229629.982666256	-1.21677	-2.08732	-1.69955	-1.54781	0.623941	0.755536	0.0198139	0.0221021	0.0226901	0.0211881	0.0210155	0.0214566	-0.613562	67.8751	32.0943	2.55092	-0.560542	0.284261	-0.166181	-0.0095875	0.357929	0.014381	0	0.117445	
218	1573229629.990691948	-1.21662	-2.08713	-1.6994	-1.54768	0.624085	0.75574	0.0194816	0.0221149	0.0188935	0.0240068	0.0206896	0.0212073	0.0320455	68.7566	32.7484	2.28265	-0.684905	0.177007	-0.0415454	0.00159792	-0.474575	0.352336	-0.0407465	-0.031159	
219	1573229629.998772872	-1.21648	-2.08696	-1.69921	-1.5475	0.624264	0.755908	0.0201591	0.0213096	0.0228819	0.0222619	0.0224728	0.020843	0.0344402	67.824	31.9026	2.44704	-0.542727	0.240448	0.0846884	-0.100667	0.498544	-0.218113	0.222907	-0.04554	
220	1573229630.006714033	-1.21633	-2.08678	-1.69905	-1.54729	0.624396	0.756039	0.0193665	0.0217186	0.0181905	0.0219743	0.0207087	0.02161	0.196001	68.6761	32.7504	2.27194	-0.885792	0.103004	-0.0990694	0.0511326	-0.586428	-0.0359528	-0.22051	0.0958738	
221	1573229630.014696659	-1.21615	-2.08659	-1.6989	-1.54712	0.624612	0.756231	0.0202741	0.0214246	0.0224345	0.0214566	0.0208046	0.0209772	-0.0844279	67.4955	31.7561	2.37174	-0.527455	0.286297	0.113451	-0.0367516	0.530502	-0.0647148	0.0119843	-0.0790958	
222	1573229630.022692809	-1.21599	-2.08645	-1.69872	-1.54699	0.624816	0.756387	0.0202613	0.0216675	0.0186507	0.0211881	0.0205937	0.0206512	0.338339	68.5615	32.6488	2.26691	-0.796236	0.109767	-0.00159792	0.03036	-0.472977	-0.0335558	-0.0263655	-0.0407463	
223	1573229630.030735531	-1.21582	-2.0863	-1.69855	-1.54678	0.624936	0.756566	0.0205809	0.0205042	0.0222172	0.0203061	0.0211881	0.0211114	-0.0616747	68.0597	32.0671	2.4342	-0.582546	0.250647	0.0399475	-0.145409	0.445813	-0.110255	0.0743023	0.0575243	
224	1573229630.038704882	-1.21568	-2.08612	-1.6984	-1.54661	0.625104	0.756722	0.0197884	0.0201079	0.0216675	0.022492	0.0208813	0.0206512	-0.301586	68.4513	32.5286	2.38594	-0.615849	0.223949	-0.0990697	-0.0495347	-0.0687097	0.27324	-0.0383495	-0.0575243	
225	1573229630.046677749	-1.2155	-2.08599	-1.69822	-1.54643	0.625248	0.75689	0.020632	0.0209516	0.0204659	0.0225495	0.0199034	0.0205937	0.244905	67.8183	32.2087	2.24774	-0.694447	0.204588	0.105461	0.105461	-0.150202	0.00719051	-0.122239	-0.00719074	
226	1573229630.054681868	-1.2153	-2.08583	-1.69804	-1.54625	0.625416	0.757022	0.0200696	0.0206193	0.0229586	0.0221277	0.0214566	0.0204019	-0.305003	67.9666	32.1927	2.52091	-0.542958	0.242753	-0.0703074	-0.0415454	0.31159	-0.0527306	0.194144	-0.0239683	
227	1573229630.062659828	-1.21516	-2.08564	-1.69789	-1.54612	0.625631	0.75719	0.0207087	0.0210795	0.0201591	0.0226646	0.0206129	0.0222235	0.345519	68.299	32.5385	2.27261	-0.740705	0.193001	0.0798949	0.0575243	-0.34994	0.0671118	-0.105461	0.2277	
228	1573229630.070700614	-1.21498	-2.0855	-1.69773	-1.54591	0.625763	0.757393	0.0197244	0.0205681	0.0233165	0.0203252	0.0209388	0.0213799	-0.323352	67.879	32.0993	2.50103	-0.653665	0.196043	-0.123038	-0.0639157	0.394681	-0.292415	0.0407463	-0.105461	
229	1573229630.078696597	-1.2148	-2.0853	-1.69751	-1.54578	0.625919	0.757585	0.0201718	0.0211434	0.0225879	0.0223578	0.0215141	0.0213032	-0.0233825	67.9802	32.367	2.35187	-0.552654	0.253659	0.0559264	0.0719053	-0.0910801	0.254066	0.0719053	-0.0095875	
230	1573229630.086677708	-1.21465	-2.08514	-1.69736	-1.54555	0.626123	0.75774	0.019929	0.0202613	0.0224728	0.0211498	0.0217825	0.0214566	0.122827	68.5036	32.512	2.38523	-0.731769	0.15196	-0.03036	-0.110255	-0.014381	-0.151001	0.0335558	0.0191748	
231	1573229630.094667596	-1.21451	-2.08498	-1.69714	-1.54539	0.626219	0.757908	0.0203252	0.0213096	0.02494	0.020632	0.0222044	0.0204403	-0.178649	67.2212	31.8815	2.4094	-0.534901	0.268809	0.0495347	0.131028	0.308394	-0.0647148	0.0527308	-0.127033	
232	1573229630.102920571	-1.21434	-2.0848	-1.69692	-1.54522	0.626482	0.758088	0.0196605	0.0213096	0.0223066	0.0224536	0.0214374	0.022166	-0.0743118	68.603	32.784	2.3764	-0.706685	0.206385	-0.0830905	0	-0.329167	0.2277	-0.0958738	0.215716	
233	1573229630.110665763	-1.21419	-2.08465	-1.69676	-1.54509	0.626639	0.758231	0.0206704	0.0207343	0.0250295	0.0215141	0.0223002	0.0211689	0.143079	67.8245	32.0656	2.35647	-0.58005	0.225728	0.126234	-0.0719053	0.340352	-0.117445	0.107858	-0.124636	
234	1573229630.118684508	-1.21398	-2.08445	-1.69658	-1.54491	0.626794	0.758471	0.021284	0.0218209	0.023521	0.0216675	0.0232015	0.0224153	0.20345	67.8658	32.4058	2.3793	-0.625482	0.222771	0.0766991	0.135821	-0.188552	0.0191748	0.112652	0.155795	
235	1573229630.126703590	-1.21385	-2.08433	-1.6964	-1.54475	0.626974	0.758615	0.020632	0.0212456	0.0218592	0.0210922	0.0223578	0.0220701	0.06795	68.5928	32.6798	2.3354	-0.794551	0.127123	-0.0814928	-0.0719053	-0.207727	-0.0719053	-0.105461	-0.0431433	
236	1573229630.134690483	-1.21368	-2.08417	-1.69622	-1.54453	0.627142	0.758782	0.0216547	0.0219487	0.0246843	0.0215716	0.0215908	0.0230097	-0.0913847	67.2782	31.909	2.36503	-0.534007	0.32352	0.127832	0.0878843	0.353135	0.0599211	-0.0958738	0.117445	
237	1573229630.142673474	-1.2135	-2.08399	-1.69604	-1.54432	0.627346	0.75901	0.0217697	0.0220254	0.0199801	0.0237	0.0225687	0.0225303	0.291591	68.8096	32.9843	2.29239	-0.694085	0.137171	0.0143813	0.0095875	-0.588026	0.26605	0.122239	-0.0599211	
238	1573229630.150673025	-1.21331	-2.08381	-1.69586	-1.5442	0.627502	0.759154	0.02246	0.0230736	0.0230864	0.0214949	0.0215524	0.0219359	-0.0361396	67.0143	31.7675	2.35774	-0.633612	0.250714	0.0862863	0.131028	0.388289	-0.275637	-0.127033	-0.0743023	
239	1573229630.158706653	-1.21318	-2.08365	-1.69568	-1.54401	0.627694	0.759357	0.0220254	0.0217442	0.0219359	0.0227796	0.0218592	0.0225112	0.0142677	68.908	32.8567	2.38915	-0.683755	0.178511	-0.0543285	-0.166181	-0.143811	0.160589	0.0383495	0.0719056	
240	1573229630.166670788	-1.21296	-2.08347	-1.69552	-1.5438	0.627861	0.759561	0.0222044	0.0228819	0.0207982	0.0216483	0.022818	0.0218592	0.140577	67.7428	32.375	2.38463	-0.665603	0.171567	0.0223706	0.142213	-0.142213	-0.141414	0.119842	-0.0814928	
241	1573229630.174681170	-1.21282	-2.08328	-1.69534	-1.54365	0.628065	0.759729	0.0224728	0.0222427	0.0213479	0.0223386	0.0234316	0.0228755	0.0331422	68.3005	32.5275	2.41003	-0.607669	0.234143	0.0335558	-0.0798949	0.0687095	0.0862863	0.0766988	0.127033	
242	1573229630.183208903	-1.21261	-2.08311	-1.69514	-1.54347	0.628245	0.759908	0.0227413	0.0230736	0.0234571	0.0222235	0.0216291	0.0224153	-0.20616	67.3006	32.0066	2.33977	-0.623983	0.269711	0.0335558	0.103863	0.263653	-0.014381	-0.225303	-0.0575243	
243	1573229630.190690855	-1.21245	-2.08292	-1.69498	-1.54327	0.628461	0.76004	0.0221149	0.022933	0.0223578	0.022166	0.0230289	0.022607	-0.0361842	68.4032	32.7238	2.46611	-0.656103	0.171932	-0.078297	-0.0175769	-0.137419	-0.00719051	0.17497	0.0239683	
244	1573229630.198676067	-1.21223	-2.08274	-1.69479	-1.54305	0.628617	0.760244	0.0227668	0.0225623	0.0211178	0.0237575	0.0223961	0.0215333	0.18196	68.3298	32.6013	2.24677	-0.667957	0.190326	0.0814928	-0.0463391	-0.154996	0.198938	-0.0790961	-0.134223	
245	1573229630.206674857	-1.21207	-2.08257	-1.69464	-1.54288	0.628809	0.760411	0.0223833	0.0224217	0.0227157	0.0221085	0.022818	0.022166	-0.099792	67.9192	32.3637	2.48013	-0.661669	0.207031	-0.047937	-0.0175769	0.199737	-0.206129	0.0527308	0.0790958	
246	1573229630.214663711	-1.21187	-2.08238	-1.69446	-1.54272	0.628905	0.760591	0.0226518	0.0225623	0.022754	0.0231631	0.0225687	0.0246204	-0.017351	68.0464	32.5242	2.41714	-0.615764	0.271152	0.033556	0.0175769	0.00479375	0.131826	-0.031159	0.306796	
247	1573229630.222690519	-1.21171	-2.08221	-1.69426	-1.54253	0.629168	0.760807	0.0229841	0.0229586	0.0226007	0.0214566	0.023259	0.0227604	0.193594	67.8266	32.3749	2.3474	-0.69115	0.144594	0.0415451	0.049535	-0.0191748	-0.213319	0.0862863	-0.232494	
248	1573229630.230678896	-1.21152	-2.08202	-1.69412	-1.54233	0.629348	0.760974	0.0234955	0.0232909	0.0229714	0.022933	0.0219551	0.0219743	-0.0611256	67.7727	32.3475	2.29048	-0.617978	0.248247	0.063916	0.0415451	0.0463389	0.184557	-0.162985	-0.0982706	
249	1573229630.238680916	-1.21133	-2.08183	-1.69392	-1.54212	0.629504	0.761154	0.0236872	0.0233676	0.0216803	0.0231439	0.0246587	0.0225879	0.169183	68.3112	32.7526	2.47064	-0.590407	0.189495	0.0239685	0.0095875	-0.161387	0.0263653	0.337955	0.0766991	
250	1573229630.246675713	-1.21116	-2.08168	-1.69371	-1.54194	0.629744	0.761345	0.0239429	0.0240451	0.0232909	0.0234316	0.0231439	0.0218592	-0.181509	67.432	32.169	2.33927	-0.620998	0.258252	0.0319579	0.0846884	0.201335	0.0359525	-0.189351	-0.0910801	
251	1573229630.254675856	-1.21094	-2.08145	-1.69352	-1.54176	0.6299	0.761549	0.0242752	0.0240707	0.0229841	0.0225879	0.0231823	0.0230289	0.184983	68.0681	32.5552	2.38718	-0.699023	0.19522	0.0415454	0.00319583	-0.0383495	-0.105461	0.00479375	0.146208	
252	1573229630.262696361	-1.21078	-2.08126	-1.69333	-1.5416	0.630068	0.761717	0.0246843	0.024173	0.0224345	0.0231248	0.0231439	0.0232782	0.106407	68.0609	32.5788	2.35332	-0.650968	0.2113	0.0511326	0.0127831	-0.0687095	0.0671116	-0.00479375	0.0311588	
253	1573229630.271064306	-1.21054	-2.08108	-1.69316	-1.54139	0.630247	0.761885	0.0244798	0.025349	0.023227	0.0235274	0.0231439	0.0230097	-0.2666	67.4426	32.3217	2.44193	-0.575054	0.258039	-0.0255664	0.147007	0.0990697	0.0503338	0	-0.0335558	
254	1573229630.278698120	-1.21037	-2.08087	-1.69295	-1.54119	0.630475	0.7621	0.0244414	0.0245309	0.0235594	0.0239493	0.0243136	0.0240835	0.0140455	68.4165	32.7391	2.46198	-0.616532	0.215103	-0.00479352	-0.102266	0.0415454	0.0527306	0.146207	0.134223	
255	1573229630.286680805	-1.21015	-2.08065	-1.69279	-1.54101	0.630679	0.762268	0.0251445	0.0247866	0.0230097	0.0229714	0.0241794	0.0228563	0.279199	67.8877	32.4836	2.29629	-0.709082	0.158799	0.0878843	0.0319579	-0.0687097	-0.122239	-0.0167778	-0.153398	
256	1573229630.294696752	-1.21	-2.08045	-1.69256	-1.5408	0.630895	0.762472	0.0243903	0.0247354	0.0245565	0.0232782	0.0242752	0.0251765	-0.346705	67.9599	32.5671	2.54793	-0.597541	0.275961	-0.0942759	-0.00639143	0.193346	0.0383495	0.0119843	0.290018	
257	1573229630.302684471	-1.20975	-2.08025	-1.6924	-1.54064	0.631075	0.762663	0.0251701	0.0249528	0.0233804	0.0236233	0.025234	0.0243136	0.267443	68.0577	32.6474	2.33108	-0.637478	0.179765	0.0974718	0.0271641	-0.147006	0.0431433	0.119842	-0.107858	
258	1573229630.310669136	-1.20957	-2.08005	-1.69218	-1.54043	0.631242	0.762891	0.0250167	0.0246076	0.0246587	0.0236425	0.0252148	0.024026	-0.131254	67.9856	32.5304	2.42387	-0.629026	0.219912	-0.0191748	-0.0431433	0.15979	0.00239676	-0.00239676	-0.0359525	
259	1573229630.318691142	-1.20942	-2.07987	-1.69202	-1.54024	0.631435	0.763023	0.0252723	0.0247099	0.0243008	0.023585	0.0246779	0.0249272	0.0945088	68.0114	32.6233	2.3716	-0.689415	0.20939	0.0319579	0.0127833	-0.044741	-0.00719051	-0.0671116	0.112652	
260	1573229630.326671201	-1.20916	-2.07968	-1.69181	-1.54005	0.631698	0.76325	0.025822	0.0247099	0.0247994	0.0234124	0.0249655	0.0257325	0.117189	67.9231	32.5513	2.39823	-0.634956	0.225006	0.0687095	0	0.0623178	-0.0215715	0.0359525	0.100668	
261	1573229630.334711287	-1.20898	-2.07946	-1.69163	-1.53982	0.63189	0.763466	0.0252468	0.0256047	0.0265251	0.0243136	0.0248697	0.0246204	-0.468419	67.4149	32.3603	2.47043	-0.540129	0.269888	-0.0719053	0.111853	0.215716	0.112652	-0.0119843	-0.139017	
262	1573229630.342699335	-1.20876	-2.07927	-1.69141	-1.53964	0.632082	0.763681	0.0258731	0.0248121	0.0253874	0.0239876	0.0249655	0.0265187	0.37516	68.5078	32.8781	2.3609	-0.733345	0.176504	0.078297	-0.0990697	-0.142213	-0.0407463	0.0119843	0.237288	
263	1573229630.350688968	-1.20854	-2.0791	-1.6912	-1.53945	0.63225	0.763861	0.0254513	0.0246587	0.0255663	0.0242561	0.0234891	0.0246587	-0.158235	67.9902	32.6108	2.33148	-0.707676	0.178925	-0.0527306	-0.0191748	0.0223706	0.0335558	-0.184557	-0.232494	
264	1573229630.358745341	-1.20834	-2.07891	-1.69099	-1.53926	0.632478	0.76404	0.026001	0.0249144	0.0258348	0.0244862	0.0234699	0.0249272	0.0780509	67.8215	32.5626	2.37658	-0.629495	0.22738	0.0687095	0.0319579	0.0335558	0.0287623	-0.00239699	0.0335558	
265	1573229630.366752451	-1.20815	-2.07868	-1.69078	-1.53904	0.632669	0.76428	0.0271131	0.0248761	0.0247994	0.0257134	0.0237384	0.0248313	0.293356	68.1045	32.7323	2.30202	-0.629631	0.209417	0.139017	-0.00479352	-0.12943	0.153398	0.0335558	-0.0119843	
266	1573229630.374693561	-1.20787	-2.07849	-1.69056	-1.53883	0.632873	0.764496	0.0263973	0.0264356	0.0252212	0.024793	0.025349	0.025349	-0.278549	67.398	32.5261	2.57789	-0.575382	0.234166	-0.0894824	0.194943	0.0527306	-0.115049	0.201335	0.064715	
267	1573229630.382661176	-1.20768	-2.07825	-1.69033	-1.53863	0.633077	0.764699	0.0259115	0.0261799	0.025234	0.0248121	0.0250614	0.0257709	-0.10812	68.1485	32.7835	2.43815	-0.684495	0.198511	-0.0607199	-0.0319579	0.00159792	0.00239676	-0.0359528	0.0527306	
268	1573229630.390690083	-1.20751	-2.07806	-1.69017	-1.53839	0.633281	0.764915	0.0261416	0.026116	0.0258731	0.0247163	0.0245245	0.026116	0.0104679	67.894	32.6161	2.3888	-0.66382	0.218886	0.028762	-0.00798958	0.0798949	-0.0119843	-0.0671116	0.0431431	
269	1573229630.398682938	-1.2073	-2.07787	-1.68992	-1.5382	0.633497	0.765119	0.0257837	0.0260393	0.0256303	0.0238918	0.0243328	0.0255791	-0.00585608	68.0566	32.7539	2.4086	-0.717363	0.163226	-0.044741	-0.00958727	-0.03036	-0.103064	-0.0239685	-0.0671116	
270	1573229630.406673353	-1.20706	-2.07764	-1.68969	-1.53802	0.633689	0.765322	0.0271515	0.0266529	0.0245181	0.0250231	0.0244478	0.0257325	0.315702	67.8018	32.6709	2.29755	-0.617435	0.226804	0.170975	0.0766991	-0.139017	0.141414	0.014381	0.0191748	
271	1573229630.414661481	-1.20685	-2.0774	-1.68953	-1.53782	0.63388	0.765502	0.0266274	0.0265507	0.025822	0.0242944	0.0249847	0.0251381	-0.190682	67.8696	32.6499	2.48627	-0.635035	0.200556	-0.0655137	-0.0127833	0.162985	-0.0910801	0.0671116	-0.0743023	
272	1573229630.422695569	-1.20666	-2.07723	-1.68932	-1.53761	0.634084	0.765741	0.0264995	0.0267168	0.0257581	0.0234124	0.0258284	0.0259818	0.0371012	67.9682	32.7757	2.47757	-0.665123	0.193607	-0.0159789	0.0207727	-0.00798935	-0.110255	0.105461	0.105461	
273	1573229630.430688074	-1.20645	-2.07698	-1.68912	-1.53741	0.634264	0.765945	0.0261288	0.0272282	0.0243903	0.0249655	0.0254833	0.0254257	-0.145692	67.9984	32.8798	2.39314	-0.645355	0.207409	-0.0463391	0.063916	-0.170975	0.194144	-0.0431433	-0.0695086	
274	1573229630.438690376	-1.20624	-2.07675	-1.68891	-1.53718	0.634456	0.766137	0.0271642	0.0263078	0.0257325	0.0255983	0.0249272	0.0250806	0.17064	68.0519	32.6529	2.31458	-0.634711	0.224571	0.12943	-0.115049	0.167779	0.0790958	-0.0695086	-0.0431433	
275	1573229630.446730787	-1.206	-2.07656	-1.68873	-1.53698	0.634684	0.766316	0.0268702	0.0269981	0.0245181	0.0251573	0.0267871	0.0246396	0.0199058	67.93	32.8846	2.48848	-0.633207	0.16983	-0.0367516	0.0862863	-0.1518	-0.0551273	0.232494	-0.0551273	
276	1573229630.454696436	-1.20582	-2.07637	-1.6885	-1.53674	0.634864	0.76652	0.0261288	0.0273816	0.0249655	0.024793	0.0262694	0.0257901	-0.239343	67.8103	32.7562	2.4972	-0.674951	0.224662	-0.092678	0.047937	0.0559264	-0.04554	-0.0647148	0.143811	
277	1573229630.462668779	-1.2056	-2.07611	-1.68832	-1.53656	0.635067	0.766759	0.0266785	0.0265379	0.0254385	0.0237	0.02556	0.02556	0.251093	68.1447	32.7703	2.33384	-0.743428	0.162459	0.0687097	-0.105461	0.0591222	-0.13662	-0.0886831	-0.028762	
278	1573229630.470688829	-1.20537	-2.07589	-1.68809	-1.53636	0.635283	0.766927	0.0268063	0.027177	0.0252084	0.0253107	0.0264803	0.0260777	-0.119148	67.7873	32.8136	2.46479	-0.548514	0.257665	0.0159789	0.0798947	-0.0287623	0.201335	0.115048	0.0647148	
279	1573229630.478697305	-1.20519	-2.0757	-1.68789	-1.53614	0.635511	0.767143	0.0266401	0.0278673	0.0246587	0.0242177	0.0267104	0.0255216	0.0282749	67.7328	32.7669	2.42826	-0.696633	0.168878	-0.0207727	0.0862866	-0.0687095	-0.13662	0.0287623	-0.0695086	
280	1573229630.486701979	-1.20492	-2.0755	-1.68769	-1.53594	0.635691	0.767358	0.0262055	0.0265379	0.0268191	0.024793	0.027209	0.0247163	-0.239325	68.2375	32.8427	2.47811	-0.597962	0.216498	-0.0543285	-0.166181	0.270045	0.0719053	0.0623178	-0.100668	
281	1573229630.494689342	-1.20473	-2.07528	-1.68754	-1.53572	0.635931	0.767598	0.0269725	0.0266913	0.0242369	0.0258284	0.0277651	0.0259243	0.352164	68.265	33.1049	2.35765	-0.680059	0.186825	0.0958738	0.0191745	-0.322775	0.12943	0.0695086	0.151001	
282	1573229630.502687562	-1.20455	-2.07508	-1.68732	-1.53549	0.636159	0.767778	0.0266018	0.0276628	0.0257709	0.0244095	0.0288197	0.026883	-0.199941	67.3775	32.6029	2.56914	-0.599015	0.239821	-0.0463391	0.12144	0.191748	-0.177367	0.131827	0.119842	
283	1573229630.510706851	-1.20435	-2.07481	-1.68708	-1.53532	0.636386	0.767993	0.025643	0.027062	0.0261927	0.0252723	0.0279568	0.0262119	-0.314044	68.1818	32.9676	2.44449	-0.676845	0.198774	-0.119842	-0.0751012	0.0527306	0.107858	-0.107858	-0.0838896	
284	1573229630.518685262	-1.2041	-2.07462	-1.68686	-1.53512	0.636566	0.768221	0.0267935	0.0268063	0.0259243	0.0253682	0.0275158	0.0259243	0.33104	67.9585	32.8155	2.29831	-0.685795	0.18997	0.143811	-0.0319579	-0.0335558	0.0119843	-0.0551275	-0.0359525	
285	1573229630.526697104	-1.20391	-2.07437	-1.68668	-1.53488	0.636866	0.7684	0.0264228	0.0278034	0.027356	0.0248313	0.0264036	0.0260968	-0.285404	67.2884	32.5676	2.46323	-0.646145	0.247332	-0.0463391	0.124636	0.178964	-0.0671118	-0.139017	0.0215715	
286	1573229630.534694406	-1.20372	-2.07418	-1.68645	-1.53469	0.637034	0.768628	0.0261288	0.0263461	0.0258348	0.0264612	0.0268255	0.0271515	0.0750219	68.8632	33.3812	2.43024	-0.691317	0.175451	-0.0367516	-0.18216	-0.19015	0.203732	0.0527306	0.131826	
287	1573229630.534694406	-1.20372	-2.07418	-1.68645	-1.53469	0.637034	0.768628	0.0261288	0.0263461	0.0258348	0.0264612	0.0268255	0.0271515	-0.00139055	67.9274	32.8951	2.42597	-0.665705	0.19831	0	0	0	0	0	0	
288	1573229630.550750788	-1.20328	-2.07374	-1.686	-1.53426	0.637514	0.769047	0.0262822	0.0263973	0.0269981	0.0265379	0.0265187	0.0276692	-0.0791135	67.7185	32.7708	2.44301	-0.630299	0.238029	0.0191748	0.00639143	0.145409	0.0095875	-0.0383495	0.0647148	
289	1573229630.559011039	-1.2031	-2.07356	-1.68575	-1.53404	0.637693	0.769275	0.0266657	0.0263589	0.0289539	0.0257517	0.0255408	0.02765	-0.0265238	67.564	32.6301	2.4018	-0.663729	0.227661	0.047937	-0.00479352	0.244478	-0.0982708	-0.122239	-0.00239676	
290	1573229630.566706615	-1.20286	-2.07335	-1.6856	-1.53382	0.637873	0.769502	0.0262822	0.0268191	0.0254513	0.0264036	0.0266337	0.0284937	0.144627	68.3442	33.362	2.45558	-0.709561	0.149948	-0.047937	0.0575243	-0.437824	0.0814928	0.13662	0.105461	
291	1573229630.574659878	-1.20265	-2.07315	-1.68534	-1.53363	0.638089	0.769742	0.0266274	0.0259498	0.0291712	0.0266146	0.0263269	0.0271898	-0.203667	67.6584	32.5957	2.42704	-0.566486	0.253523	0.0431433	-0.108657	0.464988	0.0263653	-0.0383495	-0.162985	
292	1573229630.582661492	-1.20247	-2.0729	-1.6851	-1.53339	0.638329	0.769945	0.02641	0.026768	0.0279696	0.0276117	0.0270939	0.0277459	-0.0873134	67.8223	33.0533	2.48266	-0.612864	0.220364	-0.0271644	0.102266	-0.150202	0.124636	0.0958738	0.0695086	
293	1573229630.590663460	-1.20223	-2.07269	-1.68488	-1.53319	0.638533	0.770173	0.0269086	0.0259115	0.028123	0.0267104	0.0264995	0.0272473	0.251327	68.146	32.9789	2.34565	-0.746185	0.152275	0.0623181	-0.107059	0.0191748	-0.112652	-0.0743021	-0.0623181	
294	1573229630.598660460	-1.20202	-2.0725	-1.68467	-1.53294	0.638748	0.770377	0.0264867	0.0263078	0.0283786	0.0270364	0.0276117	0.028417	-0.177429	67.8135	33.006	2.55409	-0.59392	0.236139	-0.0527306	0.0495347	0.0319579	0.0407463	0.139017	0.146208	
295	1573229630.606667247	-1.20179	-2.07229	-1.68445	-1.53276	0.638988	0.770616	0.0276372	0.025528	0.0275477	0.0272282	0.0270556	0.0281294	0.419391	68.2212	33.0669	2.28307	-0.726173	0.162972	0.143811	-0.0974718	-0.103863	0.0239685	-0.0695083	-0.0359528	
296	1573229630.614695804	-1.2016	-2.07205	-1.68418	-1.53252	0.639192	0.770832	0.0266274	0.0269725	0.0290817	0.0269405	0.0284937	0.0271131	-0.501385	67.1754	32.7325	2.611	-0.530606	0.244817	-0.126234	0.180562	0.191747	-0.0359528	0.179763	-0.127033	
297	1573229630.622690959	-1.20137	-2.07182	-1.68398	-1.53228	0.639432	0.771071	0.0273049	0.026589	0.0275989	0.0275158	0.0271131	0.0279185	0.290481	68.1919	33.1527	2.30774	-0.754513	0.179706	0.0846884	-0.047937	-0.185356	0.0719053	-0.172573	0.100667	
298	1573229630.630658578	-1.20115	-2.07165	-1.68371	-1.53207	0.639624	0.771287	0.027356	0.027177	0.0288516	0.0277459	0.0273624	0.0272282	-0.175441	67.4522	32.7901	2.46735	-0.583951	0.238293	0.00639167	0.0735032	0.156594	0.0287623	0.0311588	-0.0862863	
299	1573229630.638666073	-1.20095	-2.07139	-1.68353	-1.53183	0.639876	0.771467	0.0271515	0.0274966	0.0281997	0.0273432	0.0280527	0.0279376	0.0193346	67.9006	33.1089	2.49269	-0.67278	0.188156	-0.0255664	0.0399475	-0.0814928	-0.0503338	0.0862866	0.0886833	
300	1573229630.646676217	-1.20072	-2.07121	-1.68331	-1.53162	0.640067	0.77173	0.0275222	0.0263589	0.0280079	0.0281294	0.0273624	0.0277075	0.143693	68.3373	33.1835	2.35265	-0.705263	0.179047	0.0463391	-0.142213	-0.0239683	0.0982706	-0.0862866	-0.0287623	
301	1573229630.654656714	-1.20051	-2.07098	-1.68307	-1.53137	0.640307	0.771934	0.0276628	0.0278034	0.0282764	0.0278801	0.0277459	0.0273624	-0.0974537	67.2237	32.7988	2.47167	-0.602484	0.230381	0.0175769	0.180562	0.0335558	-0.031159	0.047937	-0.0431433	
302	1573229630.662654024	-1.20028	-2.07077	-1.68285	-1.53117	0.640547	0.772161	0.0282764	0.0271642	0.0273049	0.0279185	0.0278418	0.0274007	0.300505	68.2352	33.2131	2.36664	-0.714619	0.160043	0.0766991	-0.0798949	-0.12144	0.00479375	0.0119843	0.00479375	
303	1573229630.670672745	-1.2001	-2.07056	-1.68265	-1.53093	0.640774	0.772365	0.0270748	0.027177	0.0281869	0.0282444	0.0284553	0.0277842	-0.409832	67.8823	33.1231	2.59173	-0.613223	0.224019	-0.150202	0.00159792	0.110255	0.0407465	0.0766991	0.047937	
304	1573229630.678661311	-1.19985	-2.07032	-1.68244	-1.53073	0.640979	0.772592	0.0280207	0.0279057	0.0280335	0.0273816	0.0279568	0.0278418	0.253358	67.4691	32.8722	2.36298	-0.693188	0.196475	0.118244	0.0910801	-0.0191748	-0.107858	-0.0623181	0.00719051	
305	1573229630.686663022	-1.1996	-2.07008	-1.6822	-1.53049	0.641182	0.772796	0.0279185	0.02765	0.0263333	0.0283595	0.027976	0.0284553	0.0790142	68.2622	33.3672	2.42732	-0.698565	0.178801	-0.0127833	-0.0319579	-0.21252	0.122239	0.00239676	0.0766991	
306	1573229630.694657152	-1.19937	-2.06984	-1.68198	-1.53029	0.641434	0.773048	0.0288133	0.0277011	0.0286343	0.0275925	0.0286087	0.0284937	0.0775118	67.4308	32.7693	2.45669	-0.586403	0.239801	0.111853	0.00639167	0.287621	-0.0958738	0.0790961	0.00479352	
307	1573229630.702996673	-1.19917	-2.06965	-1.68176	-1.53004	0.641626	0.773263	0.0284042	0.0280335	0.0280463	0.0281485	0.0292607	0.0290114	-0.115852	67.887	33.2183	2.51259	-0.635933	0.207836	-0.0511326	0.0415451	-0.0735032	0.0695086	0.0814926	0.0647148	
308	1573229630.710663246	-1.19894	-2.06944	-1.68152	-1.52981	0.641878	0.773503	0.0273049	0.0270364	0.028417	0.028417	0.0292032	0.028091	-0.255542	68.2905	33.3148	2.5	-0.694149	0.164303	-0.137419	-0.124636	0.0463391	0.0335558	-0.00719051	-0.115048	
309	1573229630.718669576	-1.19873	-2.06919	-1.68132	-1.52959	0.642106	0.773718	0.0278162	0.0281741	0.027471	0.0281869	0.0282252	0.0295291	0.132104	67.4645	33.0249	2.40602	-0.70358	0.220029	0.063916	0.142213	-0.118244	-0.0287623	-0.122239	0.179763	
310	1573229630.726660992	-1.19848	-2.06897	-1.68111	-1.52936	0.642334	0.773946	0.0285193	0.0284426	0.0288133	0.0261927	0.0292415	0.0288005	0.191695	67.4531	32.8701	2.45617	-0.650987	0.179622	0.0878843	0.033556	0.167779	-0.249272	0.127033	-0.0910801	
311	1573229630.734663783	-1.19828	-2.06872	-1.68083	-1.52914	0.642609	0.774198	0.0286215	0.028711	0.0285448	0.0286087	0.0289922	0.0286087	-0.165855	67.7895	33.1816	2.42888	-0.5796	0.250748	0.0127831	0.0335558	-0.0335558	0.302003	-0.031159	-0.0239683	
312	1573229630.742665408	-1.19805	-2.06851	-1.68064	-1.52893	0.642825	0.774437	0.029657	0.0284298	0.0281741	0.0305837	0.0282828	0.0283978	0.160611	67.9216	33.1702	2.32551	-0.628502	0.228017	0.12943	-0.0351537	-0.0463391	0.246875	-0.0886833	-0.0263655	
313	1573229630.750680023	-1.19779	-2.06827	-1.68039	-1.52869	0.643041	0.774689	0.0296186	0.0288005	0.0283403	0.0289539	0.0282636	0.029184	0.0711002	67.6465	33.0955	2.4871	-0.719775	0.179757	-0.00479375	0.0463389	0.0207727	-0.203732	-0.00239676	0.0982708	
314	1573229630.758655406	-1.19756	-2.06802	-1.68016	-1.52844	0.643245	0.774928	0.0300021	0.0287877	0.0274583	0.0287813	0.028743	0.0294908	0.198429	67.9486	33.2774	2.43378	-0.688276	0.174207	0.0479368	-0.00159792	-0.110255	-0.0215715	0.0599211	0.0383495	
315	1573229630.766701887	-1.19732	-2.06778	-1.67993	-1.52821	0.643508	0.77518	0.0308202	0.0281358	0.0294908	0.0284745	0.0290306	0.0293949	0.103792	67.7279	33.0007	2.43596	-0.616819	0.221803	0.102266	-0.0814926	0.254066	-0.0383495	0.0359528	-0.0119843	
316	1573229630.774725242	-1.19705	-2.06754	-1.67968	-1.52797	0.643748	0.775395	0.0302578	0.0288644	0.0280207	0.0296825	0.0301044	0.0288388	-0.160758	67.8255	33.3745	2.51371	-0.613876	0.194259	-0.0703076	0.0910801	-0.183758	0.151001	0.134223	-0.0695086	
317	1573229630.782679042	-1.19682	-2.06734	-1.67948	-1.52774	0.644048	0.775659	0.0302578	0.0289028	0.0290945	0.0284937	0.0294524	0.0299318	-0.0122241	67.6268	33.0791	2.48373	-0.705348	0.207891	0	0.00479375	0.134223	-0.148604	-0.0814928	0.13662	
318	1573229630.790667929	-1.1966	-2.06708	-1.67925	-1.52753	0.644192	0.775838	0.0307307	0.0291584	0.0297848	0.0292415	0.0290881	0.0285704	-0.0369813	67.5269	33.0506	2.39611	-0.616089	0.217606	0.0591222	0.0319579	0.0862866	0.0934771	-0.04554	-0.170176	
319	1573229630.798651966	-1.19635	-2.06686	-1.67902	-1.52729	0.644479	0.776078	0.0302833	0.0294141	0.0297337	0.0290881	0.0287621	0.029184	-0.121782	67.7492	33.2574	2.50156	-0.687549	0.20111	-0.0559264	0.0319579	-0.00639167	-0.0191748	-0.0407463	0.0766991	
320	1573229630.806676544	-1.19611	-2.06662	-1.67878	-1.52705	0.644696	0.776318	0.0306668	0.0298359	0.030424	0.0297784	0.0288197	0.0298168	-0.0544882	67.5252	33.1188	2.47368	-0.598691	0.248694	0.047937	0.0527306	0.0862863	0.0862863	0.00719051	0.0790958	
321	1573229630.814655393	-1.19582	-2.06637	-1.67853	-1.52682	0.644947	0.776558	0.0301299	0.0296058	0.0302578	0.0292032	0.0297976	0.0302386	-0.0459532	68.0001	33.4039	2.548	-0.6797	0.171363	-0.0671118	-0.028762	-0.0207727	-0.0719053	0.122239	0.0527306	
322	1573229630.822656919	-1.1956	-2.06614	-1.67834	-1.52656	0.645127	0.776773	0.030539	0.0303728	0.0303856	0.0309672	0.0294333	0.0298168	-0.120278	67.4296	33.1333	2.4251	-0.577516	0.254476	0.0511329	0.0958738	0.0159792	0.22051	-0.04554	-0.0527306	
323	1573229630.830664961	-1.19533	-2.06589	-1.67808	-1.52632	0.645403	0.777025	0.0303856	0.0307563	0.030833	0.0300085	0.0297209	0.0283211	-0.047379	67.5316	33.1542	2.47122	-0.673251	0.167423	-0.0191748	0.0479368	0.0559264	-0.119842	0.0359525	-0.186954	
324	1573229630.838680866	-1.19512	-2.06564	-1.67785	-1.52607	0.645643	0.777252	0.0298615	0.0307435	0.0309353	0.0304112	0.0297209	0.0284362	-0.173988	67.8316	33.3545	2.51272	-0.658654	0.202508	-0.0655139	-0.00159792	0.0127831	0.0503336	0	0.014381	
325	1573229630.846691370	-1.19488	-2.06536	-1.67756	-1.52587	0.645858	0.777516	0.0304112	0.0309608	0.0319196	0.0306796	0.0317151	0.0303153	0.038386	67.6243	33.2483	2.57858	-0.541484	0.258095	0.0687095	0.0271644	0.123038	0.033556	0.249272	0.234891	
326	1573229630.854653731	-1.19466	-2.06515	-1.67732	-1.52562	0.646146	0.777695	0.0303217	0.0313188	0.0309608	0.0304495	0.0304687	0.0302961	0.0368609	67.7255	33.3406	2.41086	-0.750271	0.171586	-0.0111852	0.0447412	-0.119842	-0.0287623	-0.155795	-0.00239699	
327	1573229630.862661854	-1.19439	-2.06487	-1.6771	-1.52537	0.64641	0.778007	0.0309353	0.0312293	0.0318429	0.0300085	0.0305837	0.0301811	0.115038	67.6185	33.1902	2.44314	-0.653069	0.201772	0.0766991	-0.0111854	0.110255	-0.0551273	0.014381	-0.014381	
328	1573229630.870696633	-1.19415	-2.0646	-1.67684	-1.52509	0.646638	0.778222	0.0309992	0.0309992	0.0303473	0.0301427	0.0318685	0.030066	0.174657	68.1153	33.5898	2.47986	-0.681384	0.150142	0.00798935	-0.0287623	-0.186954	0.0167778	0.160588	-0.014381	
329	1573229630.878695503	-1.1939	-2.06435	-1.67663	-1.52484	0.646842	0.778462	0.0309864	0.0312932	0.0310887	0.0305837	0.0308905	0.0302002	-0.143127	67.5087	33.2184	2.45916	-0.655279	0.229709	-0.00159768	0.0367519	0.092678	0.0551275	-0.122239	0.0167778	
330	1573229630.886678556	-1.19367	-2.06411	-1.67635	-1.52463	0.647153	0.778665	0.0306285	0.0308586	0.0297976	0.0302961	0.0298935	0.0302194	0.0765451	68.1127	33.5726	2.42544	-0.787152	0.139322	-0.0447412	-0.0543287	-0.161387	-0.0359528	-0.124636	0.00239699	
331	1573229630.894664681	-1.19339	-2.06388	-1.67609	-1.52436	0.647417	0.778929	0.0310631	0.030245	0.0302322	0.0309481	0.030718	0.0299893	0.0791151	67.9401	33.425	2.46808	-0.619422	0.199668	0.0543285	-0.0766988	0.0543285	0.0814928	0.103064	-0.0287623	
332	1573229630.902688473	-1.19314	-2.06364	-1.67585	-1.52415	0.647645	0.77918	0.0311526	0.0302961	0.0297464	0.0307563	0.0313124	0.0309289	0.0874328	67.8309	33.4757	2.50724	-0.675389	0.189368	0.0111852	0.00639143	-0.0607201	-0.0239685	0.0743023	0.117445	
333	1573229630.910724369	-1.19289	-2.06339	-1.67565	-1.52388	0.647825	0.779408	0.0311142	0.0303856	0.0292351	0.0316192	0.0300085	0.0312549	-0.0511002	67.7603	33.4369	2.42555	-0.702493	0.205835	-0.00479352	0.0111854	-0.063916	0.107858	-0.162985	0.0407463	
334	1573229630.918678385	-1.19261	-2.06314	-1.67543	-1.52364	0.648136	0.77966	0.030718	0.030718	0.028711	0.0302769	0.0295291	0.0307563	0.0127122	67.6537	33.4077	2.47336	-0.758393	0.144373	-0.049535	0.0415451	-0.0655137	-0.167779	-0.0599213	-0.0623178	
335	1573229630.926716218	-1.19241	-2.06292	-1.67519	-1.52342	0.648365	0.779947	0.0301172	0.03036	0.0287877	0.0307755	0.0298743	0.0302386	-0.167044	67.9301	33.5392	2.52306	-0.658597	0.183325	-0.0751012	-0.044741	0.00958727	0.0623181	0.0431433	-0.0647148	
336	1573229630.934670410	-1.19214	-2.06267	-1.67494	-1.5232	0.648592	0.780175	0.0302194	0.0307691	0.0291201	0.0313891	0.0304303	0.0310631	-0.079439	67.5554	33.3901	2.53078	-0.602952	0.23597	0.0127833	0.0511326	0.0415454	0.0766991	0.0695086	0.103064	
337	1573229630.942731599	-1.19192	-2.06243	-1.67472	-1.52294	0.64882	0.780426	0.0301555	0.0307819	0.0295419	0.030833	0.0297976	0.030833	-0.0231266	67.6237	33.3701	2.46557	-0.706953	0.183335	-0.00798958	0.00159792	0.0527306	-0.0695086	-0.0790958	-0.028762	
338	1573229630.950674989	-1.19168	-2.06218	-1.67448	-1.52266	0.649084	0.780654	0.0301427	0.0306029	0.029657	0.0313699	0.0298551	0.031159	-0.0388984	67.7974	33.5002	2.49378	-0.654372	0.205087	-0.00159792	-0.0223706	0.0143813	0.0671118	0.00719051	0.0407463	
339	1573229630.958683278	-1.19143	-2.06192	-1.67424	-1.52244	0.64936	0.780833	0.0297592	0.0310375	0.0313571	0.0315617	0.0302769	0.030507	-0.307389	67.3246	33.2639	2.56119	-0.581361	0.23519	-0.0479368	0.0543285	0.21252	0.0239681	0.0527306	-0.0814928	
340	1573229630.966675998	-1.19121	-2.06166	-1.67398	-1.52219	0.649563	0.781157	0.0300532	0.0310248	0.0312165	0.0317342	0.0301044	0.0304687	0.0709516	67.7046	33.4749	2.45185	-0.677671	0.190586	0.0367516	-0.00159792	-0.0175769	0.0215718	-0.0215715	-0.00479352	
341	1573229630.974663363	-1.191	-2.0614	-1.67372	-1.52193	0.649803	0.78142	0.0303217	0.0307435	0.0317278	0.0302002	0.0306796	0.0313316	0.172979	67.7373	33.4672	2.51738	-0.70782	0.170835	0.0335558	-0.0351537	0.0639157	-0.191748	0.0719053	0.107858	
342	1573229630.982673935	-1.19073	-2.06114	-1.67349	-1.52169	0.650043	0.781624	0.0295675	0.0309225	0.0317278	0.0317342	0.0310439	0.0306988	-0.325347	67.7158	33.5862	2.54892	-0.602171	0.216792	-0.0942759	0.0223706	0	0.191748	0.04554	-0.0790958	
343	1573229630.990729904	-1.19047	-2.06089	-1.67325	-1.52144	0.650283	0.781875	0.0299382	0.0307052	0.0310375	0.0319835	0.0325204	0.0305837	0.170536	67.903	33.651	2.49932	-0.640823	0.171832	0.0463391	-0.0271644	-0.0862863	0.0311588	0.184557	-0.014381	
344	1573229630.998688260	-1.19028	-2.06068	-1.673	-1.52117	0.650558	0.782127	0.0309608	0.0300021	0.0325332	0.0317342	0.0318301	0.0305262	0.190574	67.6449	33.3438	2.40142	-0.673487	0.20549	0.127832	-0.0878843	0.186954	-0.0311588	-0.0862866	-0.00719051	
345	1573229631.006697052	-1.18999	-2.06042	-1.67272	-1.52094	0.65081	0.782379	0.0303984	0.029951	0.0314977	0.0313891	0.0319068	0.0310056	-0.0129643	67.9134	33.7268	2.52649	-0.733413	0.156844	-0.0703074	-0.00639143	-0.12943	-0.0431431	0.0095875	0.0599211	
346	1573229631.014659838	-1.18975	-2.06017	-1.67251	-1.52068	0.651086	0.782642	0.0301555	0.0294524	0.0322136	0.0314658	0.0319643	0.0308714	-0.0909404	67.8038	33.5723	2.51692	-0.667468	0.190753	-0.0303602	-0.0623181	0.0894824	0.00958703	0.00719028	-0.016778	
347	1573229631.022688812	-1.18949	-2.05994	-1.67217	-1.52041	0.651314	0.782822	0.0310631	0.0300532	0.0321113	0.0312549	0.0319452	0.0304112	0.196119	67.3497	33.3952	2.42152	-0.659106	0.194529	0.113451	0.0751012	-0.0127833	-0.0263653	-0.00239676	-0.0575243	
348	1573229631.030686216	-1.18924	-2.05977	-1.67194	-1.52019	0.651566	0.783049	0.0301683	0.0295419	0.0311909	0.0316192	0.0319835	0.0305837	-0.12321	68.1094	33.8504	2.54006	-0.72231	0.157698	-0.111853	-0.063916	-0.115049	0.0455403	0.00479352	0.0215718	
349	1573229631.038682565	-1.189	-2.0595	-1.67174	-1.51994	0.651865	0.783349	0.030424	0.0297209	0.0332746	0.0310823	0.0324053	0.0316192	-0.09338	67.3082	33.3394	2.56779	-0.602477	0.246575	0.0319579	0.0223706	0.260457	-0.0671118	0.052731	0.12943	
350	1573229631.046703708	-1.18877	-2.05926	-1.67146	-1.51971	0.652082	0.783588	0.0307435	0.0299893	0.0304879	0.0311015	0.0317151	0.0314274	0.301369	67.8965	33.8141	2.38431	-0.787858	0.125818	0.0399475	0.0335558	-0.348342	0.00239699	-0.0862866	-0.0239685	
351	1573229631.054714539	-1.18854	-2.05903	-1.67119	-1.51945	0.652381	0.78384	0.0305007	0.0305134	0.0325587	0.0311206	0.0318109	0.0317151	-0.298269	67.1845	33.3432	2.58305	-0.585411	0.254826	-0.03036	0.0655139	0.258859	0.00239676	0.0119843	0.0359528	
352	1573229631.062666162	-1.18827	-2.05877	-1.67098	-1.51923	0.652549	0.784115	0.0305262	0.0306924	0.031421	0.0316575	0.0301619	0.0316	0.033205	67.6915	33.6734	2.40568	-0.750162	0.175718	0.00319583	0.0223706	-0.142213	0.0671116	-0.206129	-0.014381	
353	1573229631.070694878	-1.18805	-2.05856	-1.67076	-1.51898	0.652825	0.784331	0.0304112	0.0298359	0.0321497	0.0325012	0.0311398	0.0321177	-0.0735659	67.9747	33.7526	2.56149	-0.614953	0.208651	-0.0143813	-0.107059	0.0910801	0.105461	0.122239	0.0647148	
354	1573229631.078715599	-1.18779	-2.0583	-1.67051	-1.51875	0.653041	0.784606	0.0303217	0.0305646	0.0307691	0.0319068	0.0299318	0.0312932	0.0666856	67.4775	33.6279	2.42343	-0.770997	0.145539	-0.0111852	0.0910801	-0.172573	-0.0743018	-0.151001	-0.103064	
355	1573229631.086688695	-1.18751	-2.05804	-1.67018	-1.51847	0.65334	0.784858	0.0311398	0.0302833	0.0312549	0.0316	0.0314466	0.0312932	0.223335	67.6661	33.6178	2.50785	-0.62043	0.187332	0.102266	-0.0351537	0.0607199	-0.0383495	0.189351	0	
356	1573229631.095233075	-1.18731	-2.05776	-1.66993	-1.51826	0.653544	0.785121	0.0308586	0.0314977	0.0317534	0.0321944	0.0308522	0.0319835	-0.272982	67.1026	33.4785	2.55163	-0.619418	0.253445	-0.0351539	0.1518	0.0623181	0.0743018	-0.0743021	0.0862861	
357	1573229631.102692687	-1.18702	-2.05754	-1.66967	-1.51797	0.653796	0.785349	0.0302578	0.0304495	0.0309864	0.0333257	0.0311782	0.0318876	-0.0730883	68.256	34.0066	2.52586	-0.692676	0.161643	-0.0751012	-0.131028	-0.0958736	0.141414	0.0407463	-0.0119838	
358	1573229631.110653376	-1.18677	-2.05731	-1.6694	-1.51774	0.654012	0.785612	0.0312804	0.0300916	0.0300916	0.0329231	0.0302578	0.0320986	0.38883	67.7801	33.7146	2.36951	-0.762668	0.153772	0.127832	-0.044741	-0.111853	-0.0503333	-0.115049	0.0263653	
359	1573229631.118668179	-1.18654	-2.05705	-1.66921	-1.51748	0.654251	0.785852	0.0310375	0.0309736	0.0302066	0.0322903	0.0310439	0.0316384	-0.0950983	67.272	33.5919	2.56713	-0.644796	0.187987	-0.03036	0.110255	0.014381	-0.0790963	0.0982708	-0.0575245	
360	1573229631.126696164	-1.1863	-2.05684	-1.66896	-1.51722	0.654515	0.786103	0.0303856	0.0313699	0.0310503	0.0334216	0.0313891	0.0321369	-0.35684	67.4428	33.6749	2.61028	-0.585201	0.247175	-0.0814926	0.049535	0.105461	0.141414	0.0431433	0.0623181	
361	1573229631.134664034	-1.18603	-2.05655	-1.66872	-1.51696	0.654779	0.786367	0.0311398	0.0313955	0.0301939	0.0325012	0.0324245	0.0322328	0.346044	67.6816	33.7683	2.47942	-0.701415	0.14783	0.0942759	0.00319537	-0.107059	-0.115049	0.12943	0.0119843	
362	1573229631.142714854	-1.18579	-2.0563	-1.66847	-1.51674	0.654983	0.786606	0.0313443	0.0324309	0.0322647	0.0326738	0.0316384	0.0319643	-0.25637	66.8428	33.3132	2.52089	-0.589665	0.264812	0.0255664	0.12943	0.258859	0.0215718	-0.0982708	-0.033556	
363	1573229631.151084990	-1.18555	-2.05606	-1.66825	-1.5165	0.655282	0.78687	0.0312037	0.0318045	0.0329295	0.0344954	0.0320986	0.032482	-0.175002	67.8431	33.8462	2.55581	-0.589864	0.234897	-0.0175771	-0.0782968	0.0830907	0.2277	0.0575245	0.0647148	
364	1573229631.158676804	-1.1853	-2.05583	-1.66799	-1.51623	0.655546	0.787157	0.0318429	0.0316128	0.0313699	0.0333066	0.0328272	0.0325204	0.417644	67.8492	33.9028	2.45851	-0.757853	0.116388	0.0798947	-0.0239685	-0.194943	-0.148605	0.0910801	0.00479398	
365	1573229631.166668732	-1.18502	-2.05557	-1.66774	-1.51594	0.65581	0.787409	0.0322264	0.0329167	0.032367	0.0347255	0.0321944	0.0332299	-0.224754	66.9117	33.4673	2.5214	-0.559956	0.290323	0.047937	0.162986	0.124636	0.177367	-0.0790963	0.0886829	
366	1573229631.174696280	-1.18475	-2.05527	-1.66745	-1.5157	0.656062	0.787661	0.032546	0.0324053	0.0341566	0.0336517	0.0322136	0.0322711	0.0341337	67.4722	33.5847	2.49861	-0.675442	0.176243	0.0399477	-0.0639157	0.223706	-0.134223	0.00239722	-0.119842	
367	1573229631.182678351	-1.1845	-2.05503	-1.66715	-1.51544	0.656278	0.787936	0.0332363	0.0335303	0.0325076	0.035876	0.032367	0.0312549	0.048427	67.3217	33.7861	2.42986	-0.593985	0.216047	0.0862861	0.140615	-0.206129	0.278034	0.0191745	-0.127033	
368	1573229631.190675566	-1.18422	-2.05479	-1.66691	-1.51514	0.656554	0.788188	0.032661	0.0331596	0.0348853	0.0338243	0.032482	0.0315041	-0.17155	67.419	33.6171	2.61877	-0.697792	0.182783	-0.0719051	-0.0463394	0.297209	-0.256462	0.014381	0.0311593	
369	1573229631.198675762	-1.18395	-2.05453	-1.6666	-1.51485	0.65683	0.788439	0.033313	0.0334152	0.0326738	0.0342461	0.032808	0.0330573	0.321442	67.7906	34.0295	2.47725	-0.714727	0.172375	0.0814926	0.0319583	-0.276436	0.0527306	0.0407463	0.194144	
370	1573229631.206722318	-1.18368	-2.05423	-1.66635	-1.5146	0.657081	0.788666	0.0331596	0.0329422	0.0342333	0.0329806	0.0328655	0.0309672	-0.0569991	67.4791	33.6666	2.50994	-0.694548	0.146982	-0.019175	-0.0591222	0.194944	-0.158192	0.00719074	-0.261256	
371	1573229631.214707973	-1.18344	-2.05399	-1.66611	-1.51436	0.657369	0.788906	0.0334919	0.0338243	0.0328144	0.0325396	0.0322136	0.0317726	0.164544	67.3684	33.8345	2.47538	-0.739191	0.174913	0.0415454	0.110255	-0.177367	-0.0551273	-0.0814926	0.100667	
372	1573229631.222678801	-1.18311	-2.05372	-1.66582	-1.51411	0.657656	0.789205	0.0332363	0.0332363	0.032073	0.0330573	0.0319643	0.0331915	0.0194482	67.9658	34.0841	2.53931	-0.721191	0.180877	-0.0319579	-0.0735032	-0.0926778	0.0647148	-0.0311593	0.177367	
373	1573229631.230682751	-1.18289	-2.05344	-1.66556	-1.51387	0.657873	0.789445	0.033134	0.0340799	0.0328016	0.0333066	0.0317918	0.0336134	-0.186975	67.1273	33.6896	2.56663	-0.624397	0.234502	-0.0127829	0.105461	0.0910801	0.0311588	-0.0215713	0.0527306	
374	1573229631.238693857	-1.18262	-2.05321	-1.66533	-1.51359	0.658124	0.789697	0.0341694	0.0340288	0.0330701	0.0325971	0.0331915	0.0324629	0.297875	67.4491	33.7688	2.48103	-0.640617	0.158951	0.12943	-0.0063912	0.0335556	-0.0886833	0.174969	-0.143811	
375	1573229631.246744579	-1.18235	-2.05293	-1.66505	-1.51328	0.658364	0.790008	0.0332235	0.0337604	0.0333513	0.0331532	0.031159	0.0336901	-0.298735	67.6674	33.9577	2.54589	-0.745534	0.208866	-0.118244	-0.033556	0.0351537	0.0695088	-0.254065	0.153398	
376	1573229631.254696723	-1.18208	-2.05268	-1.66477	-1.51305	0.658592	0.790248	0.0336837	0.0341566	0.0330573	0.0330956	0.0321561	0.0320602	0.111093	67.3722	33.8339	2.49538	-0.63947	0.1623	0.0575241	0.0495347	-0.0367514	-0.00719074	0.124636	-0.203732	
377	1573229631.262678465	-1.1818	-2.05241	-1.66444	-1.51279	0.658856	0.790511	0.0340416	0.0343356	0.0342717	0.0330189	0.0324629	0.0337476	-0.0224315	67.3158	33.7767	2.58467	-0.622731	0.24085	0.0447412	0.0223708	0.1518	-0.0095875	0.0383495	0.210923	
378	1573229631.270724228	-1.18154	-2.05213	-1.6642	-1.51254	0.659155	0.790775	0.0334536	0.0347191	0.0321625	0.0320602	0.0325012	0.0322711	0.0791489	67.666	34.1093	2.50385	-0.789195	0.0920356	-0.0735032	0.0479366	-0.263653	-0.119842	0.00479352	-0.184557	
379	1573229631.278719081	-1.18125	-2.05186	-1.66395	-1.51225	0.659419	0.791063	0.0339138	0.0341183	0.0318429	0.0339202	0.0336517	0.0328655	0.0678589	67.8637	34.1154	2.53827	-0.593239	0.213245	0.0575241	-0.0751009	-0.0399477	0.232494	0.143811	0.0743023	
380	1573229631.286694681	-1.181	-2.05158	-1.66369	-1.51198	0.659659	0.791314	0.0331979	0.0348214	0.0318045	0.0334408	0.0329998	0.0323095	-0.210666	67.2525	33.8791	2.56004	-0.712338	0.175468	-0.0894819	0.0878843	-0.00479352	-0.0599208	-0.0814931	-0.0695083	
381	1573229631.294739365	-1.18076	-2.05132	-1.66342	-1.5117	0.659887	0.791602	0.0330829	0.0342078	0.0321752	0.0336901	0.0324629	0.0329231	-0.0336847	67.7204	34.024	2.53172	-0.704071	0.188343	-0.014381	-0.0766991	0.0463389	0.0311588	-0.0671116	0.0766991	
382	1573229631.302679425	-1.18046	-2.05102	-1.66322	-1.51144	0.66021	0.791829	0.0334024	0.0347958	0.0319707	0.0338243	0.0316	0.0329998	0.0235858	67.2402	33.8629	2.48367	-0.692643	0.197957	0.0399472	0.0735032	-0.0255662	0.0167778	-0.107858	0.00958703	
383	1573229631.310705527	-1.18021	-2.05074	-1.66295	-1.51118	0.660426	0.792116	0.0327633	0.0344123	0.0331723	0.0341694	0.0332107	0.030833	-0.255605	67.5464	33.9812	2.61716	-0.590225	0.172139	-0.0798949	-0.047937	0.150202	0.0431435	0.201335	-0.270843	
384	1573229631.318704352	-1.17992	-2.05047	-1.66271	-1.51093	0.660714	0.792368	0.032546	0.0352176	0.0316895	0.03346	0.0333449	0.0335558	0.0826507	67.4557	34.1297	2.60942	-0.737392	0.186568	-0.0271639	0.100668	-0.185356	-0.0886833	0.0167782	0.340352	
385	1573229631.326741688	-1.17968	-2.05024	-1.66243	-1.51066	0.660978	0.792643	0.0324437	0.0336837	0.033722	0.0319068	0.0327121	0.0331915	0.026939	67.7712	33.9482	2.5275	-0.755787	0.146166	-0.0127833	-0.191748	0.254066	-0.194144	-0.0790963	-0.0455403	
386	1573229631.334714064	-1.17937	-2.04994	-1.66212	-1.51033	0.661217	0.792883	0.032661	0.0345529	0.0316128	0.0339393	0.0337859	0.0334216	0.0298369	67.4894	34.2064	2.54268	-0.604298	0.204474	0.0271644	0.108657	-0.263653	0.254065	0.134224	0.028762	
387	1573229631.342714351	-1.17911	-2.0497	-1.66193	-1.51016	0.661482	0.79317	0.0323414	0.0331596	0.0331596	0.0327505	0.0337284	0.0322711	-0.0188861	67.7952	34.0345	2.54291	-0.734892	0.133425	-0.0399477	-0.174171	0.193345	-0.148604	-0.00719074	-0.143811	
388	1573229631.350748068	-1.17886	-2.04941	-1.66166	-1.50982	0.661745	0.79341	0.0318045	0.0335686	0.031485	0.0320986	0.0343995	0.0328272	0.0467363	67.6107	34.2509	2.59677	-0.740492	0.1383	-0.0671116	0.0511329	-0.209324	-0.0814926	0.0838898	0.0695088	
389	1573229631.350748068	-1.17886	-2.04941	-1.66166	-1.50982	0.661745	0.79341	0.0318045	0.0335686	0.031485	0.0320986	0.0343995	0.0328272	-0.00207249	67.4686	34.0494	2.54224	-0.686114	0.179598	0	0	0	0	0	0	
390	1573229631.359246035	-1.17859	-2.04915	-1.66136	-1.50955	0.662057	0.793674	0.0311909	0.0335558	0.0315105	0.0322711	0.0349939	0.0335175	-0.155183	67.5612	34.1592	2.63157	-0.665491	0.190095	-0.0766991	-0.00159768	0.00319583	0.0215713	0.0743023	0.0862861	
391	1573229631.374779806	-1.17809	-2.04865	-1.66088	-1.50905	0.662633	0.794213	0.0309225	0.0333641	0.0316895	0.0316767	0.0340736	0.0334791	-0.0340484	67.4834	34.0695	2.52808	-0.748257	0.162366	-0.0335558	-0.0239685	0.0223704	-0.0743023	-0.115049	-0.00479352	
392	1573229631.374779806	-1.17809	-2.04865	-1.66088	-1.50905	0.662633	0.794213	0.0309225	0.0333641	0.0316895	0.0316767	0.0340736	0.0334791	-0.00192367	67.4527	34.084	2.54566	-0.686737	0.179003	0	0	0	0	0	0	
393	1573229631.382732153	-1.17786	-2.04835	-1.66062	-1.50877	0.662884	0.794476	0.0308586	0.0322775	0.032546	0.0330381	0.0339202	0.0340544	-0.104871	67.8057	34.1973	2.55595	-0.645915	0.211975	-0.00798958	-0.135821	0.107059	0.170176	-0.019175	0.0719051	
394	1573229631.382732153	-1.17786	-2.04835	-1.66062	-1.50877	0.662884	0.794476	0.0308586	0.0322775	0.032546	0.0330381	0.0339202	0.0340544	-0.00173634	67.4457	34.0968	2.54694	-0.686923	0.178778	0	0	0	0	0	0	
395	1573229631.406766682	-1.17707	-2.04758	-1.65978	-1.50796	0.6637	0.795314	0.032073	0.0319963	0.0344123	0.0317151	0.0326546	0.033575	0.228317	67.0972	33.768	2.43005	-0.715493	0.185024	0.1518	-0.0351537	0.233293	-0.165382	-0.158192	-0.0599208	
396	1573229631.414692036	-1.17684	-2.04735	-1.65954	-1.50772	0.664011	0.79559	0.0317151	0.0315489	0.0322903	0.0329614	0.0334024	0.034016	0.0623985	67.9956	34.5382	2.56546	-0.705397	0.148108	-0.0447412	-0.0559264	-0.265251	0.155795	0.0934768	0.0551273	
397	1573229631.422776518	-1.17657	-2.04707	-1.65928	-1.50744	0.664263	0.795829	0.032073	0.033134	0.0338754	0.0326546	0.0326738	0.0329998	-0.189572	66.4713	33.6678	2.53482	-0.608734	0.238881	0.0447412	0.198139	0.198139	-0.0383495	-0.0910801	-0.127033	
398	1573229631.430691336	-1.17629	-2.04683	-1.65902	-1.50718	0.664503	0.796129	0.0316511	0.0318045	0.0326227	0.0321944	0.0329422	0.0338626	0.169	68.1857	34.5509	2.56671	-0.795046	0.110323	-0.0527306	-0.166181	-0.156594	-0.0575245	0.033556	0.107858	
399	1573229631.438681449	-1.17605	-2.04659	-1.65869	-1.50693	0.664766	0.796429	0.0327121	0.0332107	0.0346552	0.0317151	0.0326546	0.0329998	-0.0247737	66.4303	33.6178	2.51181	-0.581767	0.246436	0.132625	0.175769	0.254066	-0.0599208	-0.0359528	-0.107858	
400	1573229631.446706735	-1.17578	-2.04632	-1.65845	-1.50663	0.665006	0.796644	0.0322519	0.0319963	0.0335686	0.031485	0.0329231	0.0334216	0.114327	68.1025	34.5375	2.56681	-0.776208	0.11594	-0.0575241	-0.1518	-0.135821	-0.028762	0.033556	0.0527306	
401	1573229631.454729029	-1.17553	-2.04604	-1.65816	-1.50639	0.665294	0.796943	0.0324309	0.033249	0.0360102	0.0311782	0.0330573	0.0335367	-0.265949	66.5443	33.7417	2.62793	-0.562859	0.265129	0.0223704	0.156594	0.305198	-0.0383498	0.0167778	0.014381	
402	1573229631.462664146	-1.17532	-2.04576	-1.65789	-1.50612	0.66557	0.797183	0.0316384	0.0323159	0.0326866	0.0332107	0.0331915	0.032808	0.035547	68.3234	34.8174	2.51658	-0.761173	0.104375	-0.0990694	-0.116647	-0.415453	0.254065	0.0167778	-0.0910801	
403	1573229631.470695302	-1.17506	-2.04554	-1.65759	-1.50586	0.665869	0.797458	0.0320858	0.0327761	0.0354222	0.0315617	0.0342461	0.0329422	-0.0453102	66.7985	33.8228	2.64079	-0.599695	0.2196	0.0559264	0.0575245	0.34195	-0.206129	0.131826	0.0167782	
404	1573229631.478723489	-1.17478	-2.04527	-1.65734	-1.5056	0.666109	0.797746	0.0319579	0.0319324	0.0336964	0.0327121	0.0331148	0.0330573	0.0971807	67.9591	34.5462	2.47315	-0.775382	0.141017	-0.0159787	-0.105461	-0.215716	0.143811	-0.141414	0.014381	
405	1573229631.486743242	-1.17451	-2.04499	-1.65707	-1.50532	0.666373	0.798009	0.0317534	0.0327888	0.0327121	0.0318301	0.033134	0.0333066	0.0341396	67.1795	34.2476	2.58073	-0.732321	0.155695	-0.0255667	0.107059	-0.123038	-0.110255	0.00239722	0.0311588	
406	1573229631.494666796	-1.17423	-2.04474	-1.65681	-1.50507	0.666613	0.798285	0.0324437	0.0334024	0.0335175	0.0323095	0.0341119	0.0338435	0.0177216	67.0145	34.081	2.59219	-0.575432	0.234518	0.0862866	0.0766991	0.100668	0.0599213	0.122239	0.0671116	
407	1573229631.502712815	-1.17397	-2.04447	-1.65651	-1.50482	0.666876	0.798524	0.0327249	0.0324309	0.0320602	0.0313699	0.0329422	0.0329231	0.334424	67.8516	34.461	2.42448	-0.852427	0.0802143	0.0351537	-0.12144	-0.18216	-0.117445	-0.146207	-0.115048	
408	1573229631.510702503	-1.17373	-2.04422	-1.65628	-1.50456	0.667188	0.798776	0.0322519	0.0329806	0.0328016	0.0319643	0.033901	0.0334408	-0.261536	67.1385	34.2289	2.67883	-0.591757	0.226775	-0.0591222	0.0687097	0.0926782	0.0743018	0.119842	0.0647148	
409	1573229631.518670482	-1.17348	-2.04393	-1.65602	-1.50428	0.667476	0.799052	0.0330701	0.0335558	0.031779	0.0319068	0.0348789	0.0325012	0.252505	67.2044	34.2657	2.51136	-0.661574	0.154243	0.102265	0.0719056	-0.127832	-0.00719028	0.122239	-0.117446	
410	1573229631.526691947	-1.17323	-2.04365	-1.65573	-1.50402	0.667764	0.799315	0.0335175	0.0323159	0.031894	0.0323095	0.0340352	0.0339393	0.16816	67.8074	34.4406	2.51262	-0.739038	0.178581	0.0559264	-0.154996	0.014381	0.0503338	-0.105461	0.179763	
411	1573229631.534689839	-1.17296	-2.0434	-1.65548	-1.50375	0.668028	0.799567	0.0331468	0.0329806	0.0319196	0.0327121	0.0323095	0.0339777	-0.204567	67.053	34.2078	2.53964	-0.716194	0.202369	-0.0463389	0.0830907	0.00319583	0.0503333	-0.215716	0.00479398	
412	1573229631.542677341	-1.17268	-2.04314	-1.65525	-1.50349	0.66828	0.799878	0.034016	0.033607	0.0330062	0.0326546	0.0325587	0.0338626	0.0605864	66.8668	34.0481	2.54652	-0.611281	0.219406	0.108657	0.0782968	0.135821	-0.00719028	0.0311588	-0.014381	
413	1573229631.550684768	-1.17241	-2.04285	-1.65494	-1.50323	0.668531	0.800105	0.0345913	0.0328016	0.0335814	0.0337476	0.0321752	0.0333449	0.0615631	67.5188	34.3352	2.49513	-0.659431	0.189372	0.0719056	-0.100667	0.0719056	0.13662	-0.047937	-0.0647148	
414	1573229631.558723470	-1.17213	-2.0426	-1.65464	-1.50296	0.668819	0.800405	0.0350642	0.0338754	0.033249	0.032482	0.0312932	0.0341694	0.138618	66.8701	34.1634	2.53509	-0.742339	0.178942	0.0591222	0.134223	-0.0415454	-0.158192	-0.110255	0.103064	
415	1573229631.566666168	-1.17185	-2.04231	-1.6544	-1.50267	0.669059	0.800632	0.0343612	0.0343228	0.0351282	0.03346	0.0323286	0.0339777	-0.444391	66.9932	34.2142	2.71192	-0.540193	0.247932	-0.0878847	0.0559264	0.234891	0.122239	0.12943	-0.0239685	
416	1573229631.574702476	-1.17159	-2.04206	-1.65414	-1.50239	0.669323	0.80092	0.0354477	0.033543	0.0329039	0.0333257	0.0319835	0.0335942	0.534135	67.8154	34.6095	2.40764	-0.80071	0.0957714	0.135821	-0.0974718	-0.278034	-0.0167782	-0.0431435	-0.047937	
417	1573229631.582687786	-1.17129	-2.0418	-1.65391	-1.50213	0.669598	0.801219	0.03555	0.0342973	0.0342845	0.0330765	0.0328272	0.0338435	-0.138079	66.8403	34.1533	2.65256	-0.594178	0.224767	0.0127833	0.0942759	0.172573	-0.0311588	0.105462	0.0311588	
418	1573229631.590725782	-1.17105	-2.04153	-1.65364	-1.50187	0.669886	0.801483	0.0361125	0.0342461	0.0346808	0.0334983	0.0331532	0.0346104	0.0773008	67.2611	34.3517	2.57335	-0.642895	0.205763	0.0703074	-0.00639167	0.0495347	0.0527306	0.0407463	0.0958741	
419	1573229631.598681720	-1.17075	-2.04123	-1.65334	-1.50159	0.670138	0.801735	0.0359207	0.0348214	0.0332235	0.0337092	0.0332299	0.0331915	0.0133957	67.2528	34.4873	2.54146	-0.712974	0.135706	-0.0239685	0.0719056	-0.18216	0.0263653	0.00958703	-0.177367	
420	1573229631.606682924	-1.17043	-2.04096	-1.65306	-1.50134	0.670402	0.801998	0.0361253	0.0346041	0.0351793	0.0329806	0.0330765	0.0338435	-0.058592	67.089	34.2149	2.61135	-0.663175	0.207921	0.0255667	-0.0271644	0.244478	-0.0910801	-0.0191745	0.0814926	
421	1573229631.614676423	-1.17017	-2.04062	-1.65276	-1.50106	0.670689	0.802249	0.03679	0.0350003	0.0352816	0.0333833	0.0318685	0.0340927	0.0676091	67.025	34.2846	2.49592	-0.691756	0.203427	0.0830903	0.0495347	0.0127829	0.0503338	-0.151001	0.0311593	
