terrinbabu/Matlab/log_filtering/UR10_35_KF/ijt_0kg_lift_drop.txt
seq	time	q0	q1	q2	q3	q4	q5	Dq0	Dq1	Dq2	Dq3	Dq4	Dq5	eff0	eff1	eff2	eff3	eff4	eff5	DDq0	DDq1	DDq2	DDq3	DDq4	DDq5	
29	1580406960.718684153	0.00247662	-0.92881	2.13525	-2.77703	-1.56958	-2.62323	0	0	-0	0	0	0	0	-60.8411	-16.1754	-2.82093	0.406908	0.000125102	0	0	0	0	0	0	
30	1580406960.726668176	0.00245265	-0.928834	2.13521	-2.77703	-1.56957	-2.62323	0	0	-0	0	0	0	0	-60.8419	-16.1775	-2.821	0.40692	0.000140642	0	0	0	0	0	0	
31	1580406960.734697687	0.0024886	-0.928846	2.13523	-2.77704	-1.56957	-2.62324	0	0	-0	0	0	0	0	-60.8412	-16.1775	-2.82101	0.406918	0.000143409	0	0	0	0	0	0	
32	1580406960.742741002	0.00247662	-0.92881	2.1352	-2.77702	-1.56957	-2.62321	0	0	-0	0	0	0	0	-60.8428	-16.1771	-2.82097	0.406921	0.000134999	0	0	0	0	0	0	
33	1580406960.750698302	0.0024886	-0.928822	2.13525	-2.77703	-1.5696	-2.62325	0	0	-0	0	0	0	0	-60.8409	-16.1758	-2.82094	0.406894	0.000126154	0	0	0	0	0	0	
34	1580406960.758750015	0.00247662	-0.928846	2.13525	-2.77702	-1.56958	-2.6232	0	0	-0	0	0	0	0	-60.8403	-16.1767	-2.82096	0.406912	0.000130512	0	0	0	0	0	0	
35	1580406960.766711083	0.0024886	-0.928834	2.13525	-2.77703	-1.5696	-2.62321	0	0	-0	0	0	0	0	-60.8406	-16.1762	-2.82096	0.406899	0.000128907	0	0	0	0	0	0	
36	1580406960.774687878	0.00247662	-0.928858	2.13529	-2.77703	-1.56958	-2.62319	0	0	-0	0	0	0	0	-60.8388	-16.1758	-2.82095	0.406914	0.000127744	0	0	0	0	0	0	
37	1580406960.782748073	0.0024886	-0.928786	2.13523	-2.77704	-1.56956	-2.62318	0	0	-0	0	0	0	0	-60.8426	-16.1754	-2.82095	0.406938	0.000131289	0	0	0	0	0	0	
38	1580406960.790737380	0.00250058	-0.928834	2.13523	-2.77703	-1.5696	-2.62321	0	0	-0	0	0	0	0	-60.8415	-16.1771	-2.82099	0.406899	0.000134435	0	0	0	0	0	0	
39	1580406960.798709166	0.00252455	-0.928846	2.13523	-2.77703	-1.56958	-2.6232	0	0	-0	0	0	0	0	-60.8412	-16.1775	-2.821	0.406912	0.000138915	0	0	0	0	0	0	
40	1580406960.806753214	0.0024886	-0.928834	2.13525	-2.77703	-1.56957	-2.62321	0	0	-0	0	0	0	0	-60.8406	-16.1762	-2.82096	0.406921	0.000132345	0	0	0	0	0	0	
41	1580406960.814757007	0.0024886	-0.928858	2.13523	-2.77703	-1.56961	-2.62324	0	0	-0	0	0	0	0	-60.8409	-16.178	-2.82101	0.406885	0.000138252	0	0	0	0	0	0	
42	1580406960.822703702	0.0024886	-0.928798	2.13524	-2.777	-1.56956	-2.62321	0	0	-0	0	0	0	0	-60.8418	-16.1753	-2.8209	0.406932	0.000122897	0	0	0	0	0	0	
43	1580406960.830737855	0.00247662	-0.928834	2.13524	-2.77702	-1.56962	-2.62319	0	0	-0	0	0	0	0	-60.841	-16.1767	-2.82096	0.40688	0.000125351	0	0	0	0	0	0	
44	1580406960.838774301	0.00250058	-0.928846	2.13529	-2.77705	-1.56957	-2.62321	0	0	-0	0	0	0	0	-60.839	-16.1754	-2.82096	0.406921	0.000132235	0	0	0	0	0	0	
45	1580406960.846778003	0.00247662	-0.928846	2.13523	-2.77704	-1.56957	-2.62324	0	0	-0	0	0	0	0	-60.8412	-16.1775	-2.82101	0.406918	0.000143409	0	0	0	0	0	0	
46	1580406960.854685056	0.00246463	-0.928834	2.13526	-2.777	-1.5696	-2.62318	0	0	-0	0	0	0	0	-60.8401	-16.1758	-2.82092	0.406904	0.000120493	0	0	0	0	0	0	
47	1580406960.862700048	0.0024886	-0.928834	2.13527	-2.77703	-1.56955	-2.62319	0	0	-0	0	0	0	0	-60.8397	-16.1754	-2.82093	0.406947	0.000130206	0	0	0	0	0	0	
48	1580406960.870753984	0.00250058	-0.928786	2.13529	-2.77702	-1.56958	-2.6232	0	0	-0	0	0	0	0	-60.8403	-16.1732	-2.82085	0.406912	0.000108287	0	0	0	0	0	0	
49	1580406960.878729783	0.00247662	-0.928846	2.13525	-2.77702	-1.56957	-2.62321	0	0	-0	0	0	0	0	-60.8403	-16.1767	-2.82096	0.406921	0.000132235	0	0	0	0	0	0	
50	1580406960.886754232	0.00244066	-0.928834	2.13523	-2.77703	-1.5696	-2.62324	0	0	-0	0	0	0	0	-60.8415	-16.1771	-2.82098	0.406896	0.000134443	0	0	0	0	0	0	
51	1580406960.894684120	0.00245265	-0.928858	2.13529	-2.77702	-1.5696	-2.62318	0	0	-0	0	0	0	0	-60.8387	-16.1758	-2.82094	0.406904	0.000123146	0	0	0	0	0	0	
52	1580406960.902735307	0.00246463	-0.928858	2.13527	-2.777	-1.56956	-2.62321	0	0	-0	0	0	0	0	-60.8391	-16.1762	-2.82093	0.406932	0.000128315	0	0	0	0	0	0	
53	1580406960.910753088	0.00251257	-0.928834	2.13524	-2.77703	-1.56957	-2.62319	0	0	-0	0	0	0	0	-60.841	-16.1767	-2.82098	0.406925	0.000135102	0	0	0	0	0	0	
54	1580406960.918664366	0.00244066	-0.928846	2.13526	-2.77699	-1.5696	-2.62321	0	0	-0	0	0	0	0	-60.8399	-16.1762	-2.82091	0.406899	0.000120504	0	0	0	0	0	0	
55	1580406960.926718513	0.00247662	-0.928822	2.13529	-2.77702	-1.56957	-2.62318	0	0	-0	0	0	0	0	-60.8395	-16.1745	-2.82089	0.406926	0.000118292	0	0	0	0	0	0	
56	1580406960.934761823	0.0024886	-0.928834	2.13526	-2.77702	-1.56955	-2.62321	0	0	-0	0	0	0	0	-60.8401	-16.1758	-2.82093	0.406944	0.000130213	0	0	0	0	0	0	
57	1580406960.942687818	0.00250058	-0.928834	2.13529	-2.77704	-1.56958	-2.62321	0	0	-0	0	0	0	0	-60.8393	-16.1749	-2.82093	0.40691	0.000124987	0	0	0	0	0	0	
58	1580406960.950681434	0.00250058	-0.928822	2.13523	-2.77702	-1.56958	-2.62318	0	0	-0	0	0	0	0	-60.8417	-16.1767	-2.82097	0.406915	0.000130505	0	0	0	0	0	0	
59	1580406960.958712371	0.00247662	-0.928846	2.13523	-2.77702	-1.56963	-2.62324	0	0	-0	0	0	0	0	-60.8412	-16.1775	-2.82098	0.406862	0.000129175	0	0	0	0	0	0	
60	1580406960.966727179	0.00247662	-0.928858	2.13526	-2.77702	-1.5696	-2.6232	0	0	-0	0	0	0	0	-60.8396	-16.1767	-2.82096	0.406901	0.000128793	0	0	0	0	0	0	
61	1580406960.974728896	0.00247662	-0.928846	2.13526	-2.77702	-1.56955	-2.62321	0	0	-0	0	0	0	0	-60.8399	-16.1762	-2.82094	0.406944	0.000132978	0	0	0	0	0	0	
62	1580406960.982758525	0.00246463	-0.928822	2.13524	-2.77702	-1.5696	-2.6232	0	0	-0	0	0	0	0	-60.8413	-16.1762	-2.82095	0.406901	0.000126029	0	0	0	0	0	0	
63	1580406960.990744641	0.0024886	-0.928834	2.13527	-2.77703	-1.56961	-2.62323	0	0	-0	0	0	0	0	-60.8397	-16.1754	-2.82093	0.406886	0.000121553	0	0	0	0	0	0	
64	1580406960.998748599	0.00247662	-0.928858	2.13521	-2.77702	-1.56956	-2.6232	0	0	-0	0	0	0	0	-60.8413	-16.1784	-2.82102	0.406934	0.000145007	0	0	0	0	0	0	
65	1580406961.006766946	0.00247662	-0.92881	2.13524	-2.77702	-1.5696	-2.62324	0	0	-0	0	0	0	0	-60.8415	-16.1758	-2.82092	0.406896	0.000123275	0	0	0	0	0	0	
66	1580406961.014743211	0.00247662	-0.928858	2.13525	-2.77703	-1.56958	-2.6232	0	0	-0	0	0	0	0	-60.8401	-16.1771	-2.82099	0.406912	0.000136151	0	0	0	0	0	0	
67	1580406961.022702951	0.00250058	-0.92887	2.13523	-2.77703	-1.56957	-2.62323	0	0	-0	0	0	0	0	-60.8406	-16.1784	-2.82103	0.40692	0.00014617	0	0	0	0	0	0	
68	1580406961.030733128	0.00247662	-0.928834	2.13523	-2.77703	-1.56958	-2.6232	0	0	-0	0	0	0	0	-60.8415	-16.1771	-2.82099	0.406912	0.000136151	0	0	0	0	0	0	
69	1580406961.038730524	0.00247662	-0.928834	2.13525	-2.77703	-1.56957	-2.62325	0	0	-0	0	0	0	0	-60.8406	-16.1762	-2.82095	0.406916	0.000132357	0	0	0	0	0	0	
70	1580406961.046748466	0.00250058	-0.928834	2.13527	-2.77704	-1.5696	-2.62318	0	0	-0	0	0	0	0	-60.8397	-16.1754	-2.82095	0.406904	0.000126021	0	0	0	0	0	0	
71	1580406961.054733744	0.00247662	-0.928822	2.13523	-2.77699	-1.56957	-2.62321	0	0	-0	0	0	0	0	-60.8417	-16.1766	-2.82093	0.406921	0.000126706	0	0	0	0	0	0	
72	1580406961.062697647	0.00250058	-0.928822	2.13529	-2.77702	-1.56958	-2.62319	0	0	-0	0	0	0	0	-60.8395	-16.1745	-2.82089	0.406914	0.000116576	0	0	0	0	0	0	
73	1580406961.070752507	0.00246463	-0.928858	2.13524	-2.77703	-1.56957	-2.62324	0	0	-0	0	0	0	0	-60.8405	-16.1775	-2.821	0.406918	0.000140645	0	0	0	0	0	0	
74	1580406961.078734866	0.00247662	-0.928834	2.13527	-2.77702	-1.56958	-2.62323	0	0	-0	0	0	0	0	-60.8397	-16.1753	-2.82091	0.406908	0.000122116	0	0	0	0	0	0	
75	1580406961.086708382	0.00247662	-0.928846	2.13525	-2.77702	-1.56956	-2.6232	0	0	-0	0	0	0	0	-60.8403	-16.1767	-2.82096	0.406934	0.00013395	0	0	0	0	0	0	
76	1580406961.094780623	0.00246463	-0.928798	2.13525	-2.77699	-1.56958	-2.62321	0	0	-0	0	0	0	0	-60.8414	-16.1749	-2.82087	0.40691	0.00011393	0	0	0	0	0	0	
77	1580406961.102717642	0.00250058	-0.928858	2.13525	-2.77704	-1.56958	-2.62321	0	0	-0	0	0	0	0	-60.8401	-16.1771	-2.821	0.40691	0.000138919	0	0	0	0	0	0	
78	1580406961.110745653	0.00246463	-0.92881	2.13527	-2.77704	-1.5696	-2.62323	0	0	-0	0	0	0	0	-60.8403	-16.1745	-2.82091	0.406897	0.000120508	0	0	0	0	0	0	
79	1580406961.118715327	0.00247662	-0.928858	2.13524	-2.77702	-1.56958	-2.62319	0	0	-0	0	0	0	0	-60.8405	-16.1775	-2.82099	0.406914	0.000136037	0	0	0	0	0	0	
80	1580406961.126722114	0.00247662	-0.928822	2.13526	-2.77702	-1.5696	-2.62319	0	0	-0	0	0	0	0	-60.8404	-16.1754	-2.82092	0.406903	0.000120496	0	0	0	0	0	0	
81	1580406961.134747469	0.00245265	-0.928822	2.13525	-2.77702	-1.5696	-2.6232	0	0	-0	0	0	0	0	-60.8409	-16.1758	-2.82093	0.406901	0.000123264	0	0	0	0	0	0	
82	1580406961.142704275	0.00245265	-0.928786	2.13525	-2.77702	-1.56961	-2.62323	0	0	-0	0	0	0	0	-60.8417	-16.1745	-2.82088	0.406886	0.00011326	0	0	0	0	0	0	
83	1580406961.150738658	0.00247662	-0.928846	2.13525	-2.77703	-1.56957	-2.62321	0	0	-0	0	0	0	0	-60.8403	-16.1767	-2.82097	0.406921	0.00013511	0	0	0	0	0	0	
84	1580406961.158786407	0.00250058	-0.928798	2.13524	-2.77702	-1.56958	-2.62324	0	0	-0	0	0	0	0	-60.8418	-16.1754	-2.82091	0.406907	0.00012223	0	0	0	0	0	0	
85	1580406961.166735277	0.00245265	-0.928846	2.13525	-2.77705	-1.5696	-2.6232	0	0	-0	0	0	0	0	-60.8404	-16.1767	-2.821	0.406901	0.000137196	0	0	0	0	0	0	
86	1580406961.174696223	0.00244066	-0.928846	2.13524	-2.77702	-1.56956	-2.62324	0	0	-0	0	0	0	0	-60.8407	-16.1771	-2.82097	0.406929	0.000136726	0	0	0	0	0	0	
87	1580406961.182689230	0.00247662	-0.928822	2.13521	-2.777	-1.56955	-2.62321	0	0	-0	0	0	0	0	-60.8421	-16.1771	-2.82096	0.406944	0.000135742	0	0	0	0	0	0	
88	1580406961.190745469	0.00247662	-0.928822	2.13527	-2.77703	-1.56958	-2.62324	0	0	-0	0	0	0	0	-60.84	-16.1749	-2.82091	0.406907	0.00012223	0	0	0	0	0	0	
89	1580406961.198707406	0.00247662	-0.928822	2.13531	-2.777	-1.56957	-2.62319	0	0	-0	0	0	0	0	-60.8387	-16.1736	-2.82085	0.406925	0.000110003	0	0	0	0	0	0	
90	1580406961.206722673	0.0024886	-0.928858	2.13524	-2.77699	-1.56957	-2.62321	0	0	-0	0	0	0	0	-60.8404	-16.1775	-2.82096	0.406921	0.000132235	0	0	0	0	0	0	
91	1580406961.214683076	0.00250058	-0.928798	2.13525	-2.77702	-1.56955	-2.62321	0	0	-0	0	0	0	0	-60.8414	-16.1749	-2.8209	0.406944	0.000124685	0	0	0	0	0	0	
92	1580406961.222721795	0.0024886	-0.928834	2.13524	-2.77703	-1.56957	-2.62321	0	0	-0	0	0	0	0	-60.841	-16.1767	-2.82097	0.406921	0.00013511	0	0	0	0	0	0	
93	1580406961.230745098	0.00246463	-0.92887	2.13524	-2.77705	-1.56954	-2.62324	0	0	-0	0	0	0	0	-60.8402	-16.178	-2.82104	0.406952	0.000154164	0	0	0	0	0	0	
94	1580406961.238727427	0.00250058	-0.928846	2.13527	-2.777	-1.56955	-2.6232	0	0	-0	0	0	0	0	-60.8394	-16.1758	-2.82092	0.406946	0.000127335	0	0	0	0	0	0	
95	1580406961.246686151	0.00246463	-0.92881	2.13529	-2.777	-1.56958	-2.62321	0	0	-0	0	0	0	0	-60.8398	-16.174	-2.82086	0.40691	0.000111056	0	0	0	0	0	0	
96	1580406961.254789901	0.00246463	-0.928846	2.13525	-2.77702	-1.56957	-2.62321	0	0	-0	0	0	0	0	-60.8403	-16.1767	-2.82096	0.406921	0.000132235	0	0	0	0	0	0	
97	1580406961.262755037	0.00246463	-0.928834	2.13524	-2.77702	-1.56957	-2.62321	0	0	-0	0	0	0	0	-60.841	-16.1767	-2.82096	0.406921	0.000132235	0	0	0	0	0	0	
98	1580406961.270724451	0.00247662	-0.928822	2.13525	-2.77702	-1.56957	-2.62318	0	0	-0	0	0	0	0	-60.8409	-16.1758	-2.82094	0.406926	0.000126695	0	0	0	0	0	0	
99	1580406961.278717672	0.00250058	-0.928822	2.13524	-2.77702	-1.56961	-2.62321	0	0	-0	0	0	0	0	-60.8413	-16.1762	-2.82094	0.406888	0.000124313	0	0	0	0	0	0	
100	1580406961.286778829	0.0024886	-0.928786	2.13527	-2.77702	-1.56956	-2.62324	0	0	-0	0	0	0	0	-60.8408	-16.1736	-2.82085	0.406929	0.000114502	0	0	0	0	0	0	
101	1580406961.294668554	0.00247662	-0.928834	2.13524	-2.77702	-1.56958	-2.6232	0	0	-0	0	0	0	0	-60.841	-16.1767	-2.82096	0.406912	0.000130512	0	0	0	0	0	0	
102	1580406961.302714606	0.00245265	-0.928834	2.13529	-2.77702	-1.5696	-2.6232	0	0	-0	0	0	0	0	-60.8393	-16.1749	-2.8209	0.406901	0.000117625	0	0	0	0	0	0	
103	1580406961.310659775	0.0024886	-0.928846	2.13524	-2.77704	-1.56956	-2.62323	0	0	-0	0	0	0	0	-60.8408	-16.1771	-2.821	0.406931	0.000142361	0	0	0	0	0	0	
104	1580406961.318712611	0.00245265	-0.92881	2.13529	-2.777	-1.5696	-2.62321	0	0	-0	0	0	0	0	-60.8398	-16.174	-2.82086	0.406899	0.000109336	0	0	0	0	0	0	
105	1580406961.326650435	0.00244066	-0.928846	2.13529	-2.77702	-1.56955	-2.6232	0	0	-0	0	0	0	0	-60.839	-16.1753	-2.82092	0.406946	0.000127335	0	0	0	0	0	0	
106	1580406961.334695492	0.00247662	-0.928846	2.13527	-2.77704	-1.56958	-2.62323	0	0	-0	0	0	0	0	-60.8395	-16.1758	-2.82095	0.406908	0.000130519	0	0	0	0	0	0	
107	1580406961.342673012	0.00246463	-0.928834	2.13527	-2.77702	-1.56957	-2.62319	0	0	-0	0	0	0	0	-60.8397	-16.1754	-2.82092	0.406925	0.000123824	0	0	0	0	0	0	
108	1580406961.350701383	0.00242905	-0.928858	2.13525	-2.77702	-1.56961	-2.6232	0	0	-0	0	0	0	0	-60.84	-16.1771	-2.82097	0.40689	0.000129838	0	0	0	0	0	0	
109	1580406961.358691732	0.0024886	-0.928798	2.13526	-2.777	-1.5696	-2.62321	0	0	-0	0	0	0	0	-60.8409	-16.1745	-2.82087	0.406899	0.000112211	0	0	0	0	0	0	
110	1580406961.366712871	0.00247662	-0.928786	2.13526	-2.77702	-1.56958	-2.62321	0	0	-0	0	0	0	0	-60.8412	-16.1741	-2.82087	0.40691	0.00011393	0	0	0	0	0	0	
111	1580406961.374704901	0.0024886	-0.928846	2.13524	-2.77704	-1.56954	-2.62321	0	0	-0	0	0	0	0	-60.8408	-16.1771	-2.821	0.406955	0.000145864	0	0	0	0	0	0	
112	1580406961.382666806	0.00250058	-0.92881	2.13525	-2.77704	-1.56958	-2.62319	0	0	-0	0	0	0	0	-60.8412	-16.1754	-2.82095	0.406914	0.000127855	0	0	0	0	0	0	
113	1580406961.390729552	0.00251257	-0.928846	2.13521	-2.777	-1.56957	-2.62321	0	0	-0	0	0	0	0	-60.8416	-16.1779	-2.82099	0.406921	0.000137763	0	0	0	0	0	0	
114	1580406961.398745870	0.0024886	-0.928822	2.13525	-2.77703	-1.56958	-2.6232	0	0	-0	0	0	0	0	-60.8409	-16.1758	-2.82095	0.406912	0.000127858	0	0	0	0	0	0	
115	1580406961.406687903	0.00250058	-0.928822	2.13525	-2.77704	-1.56957	-2.6232	0	0	-0	0	0	0	0	-60.8409	-16.1758	-2.82096	0.406923	0.000132342	0	0	0	0	0	0	
116	1580406961.414789473	0.00247662	-0.928846	2.13525	-2.77702	-1.56958	-2.62321	0	0	-0	0	0	0	0	-60.8403	-16.1767	-2.82096	0.40691	0.000130516	0	0	0	0	0	0	
117	1580406961.422745335	0.00247662	-0.928882	2.13526	-2.77702	-1.56958	-2.62323	0	0	-0	0	0	0	0	-60.8391	-16.1775	-2.82098	0.406908	0.000136158	0	0	0	0	0	0	
118	1580406961.430763984	0.00247662	-0.928846	2.13525	-2.77702	-1.56956	-2.62323	0	0	-0	0	0	0	0	-60.8403	-16.1767	-2.82095	0.406931	0.000133958	0	0	0	0	0	0	
119	1580406961.438682228	0.00246463	-0.92881	2.13524	-2.77702	-1.56957	-2.62317	0	0	-0	0	0	0	0	-60.8416	-16.1758	-2.82094	0.406928	0.000126691	0	0	0	0	0	0	
120	1580406961.447161981	0.0024886	-0.928846	2.13524	-2.777	-1.5696	-2.62321	0	0	-0	0	0	0	0	-60.8407	-16.1771	-2.82096	0.406899	0.000128796	0	0	0	0	0	0	
121	1580406961.454719705	0.00245265	-0.928834	2.13529	-2.77703	-1.56957	-2.62321	0	0	-0	0	0	0	0	-60.8393	-16.1749	-2.82091	0.406921	0.000123942	0	0	0	0	0	0	
122	1580406961.462695452	0.00247662	-0.928834	2.13526	-2.77702	-1.56956	-2.62323	0	0	-0	0	0	0	0	-60.8401	-16.1758	-2.82093	0.406931	0.000128429	0	0	0	0	0	0	
123	1580406961.470748500	0.0024886	-0.928846	2.13525	-2.77702	-1.56958	-2.6232	0	0	-0	0	0	0	0	-60.8403	-16.1767	-2.82096	0.406912	0.000130512	0	0	0	0	0	0	
124	1580406961.478775866	0.0024886	-0.928822	2.13524	-2.77703	-1.56957	-2.6232	0	0	-0	0	0	0	0	-60.8413	-16.1762	-2.82096	0.406923	0.000132342	0	0	0	0	0	0	
125	1580406961.486740599	0.0024886	-0.928834	2.13523	-2.77703	-1.56958	-2.6232	0	0	-0	0	0	0	0	-60.8415	-16.1771	-2.82099	0.406912	0.000136151	0	0	0	0	0	0	
126	1580406961.494712285	0.00247662	-0.928798	2.13523	-2.77704	-1.56957	-2.62318	0	0	-0	0	0	0	0	-60.8423	-16.1758	-2.82097	0.406926	0.000132334	0	0	0	0	0	0	
127	1580406961.502690539	0.00245265	-0.928846	2.13527	-2.777	-1.56958	-2.62321	0	0	-0	0	0	0	0	-60.8394	-16.1758	-2.82091	0.40691	0.000122112	0	0	0	0	0	0	
128	1580406961.510820129	0.00247662	-0.928846	2.13525	-2.77704	-1.56956	-2.62323	0	0	-0	0	0	0	0	-60.8403	-16.1767	-2.82098	0.406931	0.000139597	0	0	0	0	0	0	
129	1580406961.518702285	0.00245265	-0.928834	2.13523	-2.77702	-1.56958	-2.62319	0	0	-0	0	0	0	0	-60.8414	-16.1771	-2.82098	0.406914	0.000133272	0	0	0	0	0	0	
130	1580406961.526770565	0.00247662	-0.92881	2.13521	-2.77702	-1.56955	-2.62324	0	0	-0	0	0	0	0	-60.8424	-16.1767	-2.82095	0.40694	0.000135749	0	0	0	0	0	0	
131	1580406961.534713045	0.00250058	-0.928846	2.13524	-2.777	-1.56958	-2.62324	0	0	-0	0	0	0	0	-60.8407	-16.1771	-2.82095	0.406907	0.000130523	0	0	0	0	0	0	
132	1580406961.542702693	0.00250058	-0.928822	2.13523	-2.77704	-1.56958	-2.62321	0	0	-0	0	0	0	0	-60.8417	-16.1767	-2.82099	0.40691	0.000136155	0	0	0	0	0	0	
133	1580406961.550711562	0.00251257	-0.928822	2.13525	-2.77702	-1.56956	-2.6232	0	0	-0	0	0	0	0	-60.8409	-16.1758	-2.82093	0.406934	0.000128422	0	0	0	0	0	0	
134	1580406961.558734774	0.00251257	-0.928834	2.13525	-2.777	-1.56958	-2.62319	0	0	-0	0	0	0	0	-60.8406	-16.1762	-2.82093	0.406914	0.00012498	0	0	0	0	0	0	
135	1580406961.566721036	0.0024886	-0.928858	2.13525	-2.77702	-1.56957	-2.62323	0	0	-0	0	0	0	0	-60.84	-16.1771	-2.82097	0.40692	0.000135003	0	0	0	0	0	0	
136	1580406961.574734388	0.0024886	-0.928798	2.13525	-2.77704	-1.56955	-2.62323	0	0	-0	0	0	0	0	-60.8414	-16.175	-2.82093	0.406942	0.000130328	0	0	0	0	0	0	
137	1580406961.582761004	0.00245265	-0.92881	2.13529	-2.77702	-1.56956	-2.62319	0	0	-0	0	0	0	0	-60.8398	-16.1741	-2.82088	0.406936	0.00011725	0	0	0	0	0	0	
138	1580406961.590764291	0.00250058	-0.928834	2.13527	-2.777	-1.56958	-2.62323	0	0	-0	0	0	0	0	-60.8397	-16.1753	-2.8209	0.406908	0.000119352	0	0	0	0	0	0	
139	1580406961.598721656	0.00247662	-0.928798	2.13527	-2.77704	-1.56956	-2.62323	0	0	-0	0	0	0	0	-60.8405	-16.1741	-2.8209	0.406931	0.000122901	0	0	0	0	0	0	
140	1580406961.606773210	0.00246463	-0.928834	2.13525	-2.77702	-1.56958	-2.62321	0	0	-0	0	0	0	0	-60.8406	-16.1762	-2.82094	0.40691	0.000127751	0	0	0	0	0	0	
141	1580406961.614736496	0.00247662	-0.928834	2.13525	-2.77702	-1.56961	-2.6232	0	0	-0	0	0	0	0	-60.8406	-16.1762	-2.82095	0.40689	0.000124309	0	0	0	0	0	0	
142	1580406961.622672559	0.00251257	-0.928822	2.13525	-2.77703	-1.56958	-2.62319	0	0	-0	0	0	0	0	-60.8409	-16.1758	-2.82095	0.406914	0.000127855	0	0	0	0	0	0	
143	1580406961.630709536	0.0024886	-0.92881	2.13527	-2.77699	-1.56962	-2.62321	0	0	-0	0	0	0	0	-60.8402	-16.1745	-2.82086	0.406877	0.000105898	0	0	0	0	0	0	
144	1580406961.638709316	0.00250058	-0.928846	2.13525	-2.77702	-1.56958	-2.62324	0	0	-0	0	0	0	0	-60.8403	-16.1767	-2.82095	0.406907	0.000130523	0	0	0	0	0	0	
145	1580406961.646723427	0.00247662	-0.928846	2.13524	-2.777	-1.56962	-2.62318	0	0	-0	0	0	0	0	-60.8407	-16.1771	-2.82097	0.406882	0.000125347	0	0	0	0	0	0	
146	1580406961.654742575	0.00247662	-0.928834	2.13521	-2.777	-1.56957	-2.62319	0	0	-0	0	0	0	0	-60.8419	-16.1775	-2.82098	0.406925	0.000134992	0	0	0	0	0	0	
147	1580406961.662696953	0.00245265	-0.928834	2.13529	-2.77704	-1.5696	-2.6232	0	0	-0	0	0	0	0	-60.8393	-16.1749	-2.82093	0.406901	0.000123264	0	0	0	0	0	0	
148	1580406961.670778173	0.0024886	-0.92881	2.13527	-2.77704	-1.56957	-2.62323	0	0	-0	0	0	0	0	-60.8403	-16.1745	-2.82091	0.40692	0.000123946	0	0	0	0	0	0	
149	1580406961.678746506	0.00247662	-0.928822	2.13526	-2.77699	-1.56958	-2.62321	0	0	-0	0	0	0	0	-60.8404	-16.1753	-2.82089	0.40691	0.000116695	0	0	0	0	0	0	
150	1580406961.686735402	0.00247662	-0.928834	2.13525	-2.77703	-1.56958	-2.6232	0	0	-0	0	0	0	0	-60.8406	-16.1762	-2.82096	0.406912	0.000130622	0	0	0	0	0	0	
151	1580406961.694693346	0.0024886	-0.92881	2.13526	-2.77703	-1.56958	-2.62319	0	0	-0	0	0	0	0	-60.8407	-16.175	-2.82092	0.406914	0.000122326	0	0	0	0	0	0	
152	1580406961.702759015	0.0024886	-0.928858	2.13525	-2.77699	-1.56958	-2.62321	0	0	-0	0	0	0	0	-60.84	-16.1771	-2.82094	0.40691	0.000127751	0	0	0	0	0	0	
153	1580406961.710753607	0.0024886	-0.92887	2.13525	-2.77704	-1.56957	-2.6232	0	0	-0	0	0	0	0	-60.8398	-16.1776	-2.82102	0.406923	0.000143399	0	0	0	0	0	0	
154	1580406961.718716313	0.00247662	-0.928834	2.13525	-2.77703	-1.56956	-2.6232	0	0	-0	0	0	0	0	-60.8406	-16.1762	-2.82096	0.406934	0.000134061	0	0	0	0	0	0	
155	1580406961.726684200	0.00247662	-0.928762	2.13526	-2.77704	-1.56958	-2.62321	0	0	-0	0	0	0	0	-60.8418	-16.1732	-2.82087	0.40691	0.00011393	0	0	0	0	0	0	
156	1580406961.734765396	0.00245265	-0.928822	2.13526	-2.77702	-1.56957	-2.6232	0	0	-0	0	0	0	0	-60.8404	-16.1754	-2.82092	0.406923	0.000123938	0	0	0	0	0	0	
157	1580406961.742724775	0.00247662	-0.928834	2.13529	-2.77702	-1.56958	-2.6232	0	0	-0	0	0	0	0	-60.8393	-16.1749	-2.8209	0.406912	0.000119344	0	0	0	0	0	0	
158	1580406961.750681281	0.0024886	-0.928822	2.13527	-2.77702	-1.56958	-2.62319	0	0	-0	0	0	0	0	-60.84	-16.1749	-2.82091	0.406914	0.000119341	0	0	0	0	0	0	
159	1580406961.758694223	0.0024886	-0.92881	2.13524	-2.77702	-1.5696	-2.62323	0	0	-0	0	0	0	0	-60.8415	-16.1758	-2.82093	0.406897	0.000123272	0	0	0	0	0	0	
160	1580406961.766706692	0.00250058	-0.928822	2.13526	-2.777	-1.56955	-2.62319	0	0	-0	0	0	0	0	-60.8404	-16.1754	-2.82091	0.406947	0.000124677	0	0	0	0	0	0	
161	1580406961.774758584	0.00247662	-0.928798	2.13525	-2.77702	-1.56957	-2.62319	0	0	-0	0	0	0	0	-60.8414	-16.1749	-2.82091	0.406925	0.00012117	0	0	0	0	0	0	
162	1580406961.782749414	0.00246463	-0.92881	2.13523	-2.77704	-1.56955	-2.6232	0	0	-0	0	0	0	0	-60.842	-16.1763	-2.82098	0.406946	0.000138613	0	0	0	0	0	0	
163	1580406961.790739308	0.0024886	-0.928834	2.13527	-2.77703	-1.56961	-2.62323	0	0	-0	0	0	0	0	-60.8397	-16.1754	-2.82093	0.406886	0.000121553	0	0	0	0	0	0	
164	1580406961.798844679	0.00246463	-0.928822	2.13521	-2.77699	-1.5696	-2.62318	0	0	-0	0	0	0	0	-60.8421	-16.1771	-2.82095	0.406904	0.000126021	0	0	0	0	0	0	
165	1580406961.806734616	0.00247662	-0.928858	2.13526	-2.777	-1.56957	-2.62321	0	0	-0	0	0	0	0	-60.8396	-16.1766	-2.82094	0.406921	0.000129471	0	0	0	0	0	0	
166	1580406961.814748736	0.0024886	-0.928846	2.13527	-2.77704	-1.56962	-2.62323	0	0	-0	0	0	0	0	-60.8395	-16.1758	-2.82095	0.406875	0.000125362	0	0	0	0	0	0	
167	1580406961.822705624	0.0024886	-0.928846	2.13526	-2.77703	-1.56956	-2.62321	0	0	-0	0	0	0	0	-60.8399	-16.1762	-2.82096	0.406932	0.000134064	0	0	0	0	0	0	
168	1580406961.830810511	0.00245265	-0.928822	2.13525	-2.77703	-1.5696	-2.6232	0	0	-0	0	0	0	0	-60.8409	-16.1758	-2.82095	0.406901	0.000126139	0	0	0	0	0	0	
169	1580406961.838761655	0.00246463	-0.928882	2.13523	-2.77704	-1.56954	-2.62323	0	0	-0	0	0	0	0	-60.8404	-16.1789	-2.82106	0.406953	0.000157035	0	0	0	0	0	0	
170	1580406961.846679686	0.00250058	-0.928834	2.1353	-2.777	-1.56955	-2.62324	0	0	-0	0	0	0	0	-60.8388	-16.1745	-2.82087	0.40694	0.000119054	0	0	0	0	0	0	
171	1580406961.854735252	0.00250058	-0.928846	2.13525	-2.77702	-1.56961	-2.6232	0	0	-0	0	0	0	0	-60.8403	-16.1767	-2.82096	0.40689	0.000127074	0	0	0	0	0	0	
172	1580406961.862753336	0.00250058	-0.928834	2.13526	-2.77702	-1.56958	-2.62319	0	0	-0	0	0	0	0	-60.8402	-16.1758	-2.82093	0.406914	0.00012498	0	0	0	0	0	0	
173	1580406961.870684250	0.00246463	-0.928834	2.13523	-2.77702	-1.56958	-2.6232	0	0	-0	0	0	0	0	-60.8414	-16.1771	-2.82097	0.406912	0.000133276	0	0	0	0	0	0	
174	1580406961.878682609	0.00246463	-0.928834	2.13524	-2.77702	-1.56961	-2.62319	0	0	-0	0	0	0	0	-60.841	-16.1767	-2.82096	0.406891	0.00012707	0	0	0	0	0	0	
175	1580406961.886735654	0.00242905	-0.928786	2.13527	-2.77703	-1.56955	-2.6232	0	0	-0	0	0	0	0	-60.8408	-16.1736	-2.82087	0.406946	0.000119153	0	0	0	0	0	0	
176	1580406961.894790915	0.00250058	-0.928834	2.13523	-2.777	-1.56958	-2.62319	0	0	-0	0	0	0	0	-60.8414	-16.1771	-2.82096	0.406914	0.000130508	0	0	0	0	0	0	
177	1580406961.902736534	0.00251257	-0.928834	2.13526	-2.77703	-1.56957	-2.62323	0	0	-0	0	0	0	0	-60.8402	-16.1758	-2.82094	0.40692	0.000129585	0	0	0	0	0	0	
178	1580406961.910735627	0.0024886	-0.928846	2.13525	-2.777	-1.56955	-2.62323	0	0	-0	0	0	0	0	-60.8403	-16.1766	-2.82094	0.406942	0.000132981	0	0	0	0	0	0	
179	1580406961.918686959	0.0024886	-0.928822	2.13524	-2.77702	-1.56956	-2.62318	0	0	-0	0	0	0	0	-60.8413	-16.1762	-2.82095	0.406938	0.000131178	0	0	0	0	0	0	
180	1580406961.926796266	0.00247662	-0.928846	2.13525	-2.77704	-1.56957	-2.62323	0	0	-0	0	0	0	0	-60.8403	-16.1767	-2.82098	0.40692	0.000137877	0	0	0	0	0	0	
181	1580406961.934752648	0.00246463	-0.928858	2.13525	-2.77704	-1.56956	-2.6232	0	0	-0	0	0	0	0	-60.8401	-16.1771	-2.821	0.406934	0.000142353	0	0	0	0	0	0	
182	1580406961.942685239	0.00247662	-0.928822	2.13525	-2.77703	-1.56961	-2.62321	0	0	-0	0	0	0	0	-60.8409	-16.1758	-2.82094	0.406888	0.000124424	0	0	0	0	0	0	
183	1580406961.950706247	0.0024886	-0.928834	2.1353	-2.77703	-1.56958	-2.62321	0	0	-0	0	0	0	0	-60.8389	-16.1745	-2.8209	0.40691	0.000119459	0	0	0	0	0	0	
184	1580406961.958764272	0.0024886	-0.928858	2.13525	-2.77703	-1.56957	-2.62319	0	0	-0	0	0	0	0	-60.8401	-16.1771	-2.82099	0.406925	0.000137866	0	0	0	0	0	0	
185	1580406961.966699057	0.00250058	-0.92881	2.13524	-2.77703	-1.56957	-2.62323	0	0	-0	0	0	0	0	-60.8416	-16.1758	-2.82094	0.40692	0.000129585	0	0	0	0	0	0	
186	1580406961.974707818	0.00250058	-0.92881	2.13526	-2.777	-1.56955	-2.62319	0	0	-0	0	0	0	0	-60.8407	-16.1749	-2.82089	0.406947	0.000121913	0	0	0	0	0	0	
187	1580406961.982687655	0.0024886	-0.928834	2.13526	-2.77703	-1.5696	-2.62323	0	0	-0	0	0	0	0	-60.8402	-16.1758	-2.82094	0.406897	0.000126147	0	0	0	0	0	0	
188	1580406961.990724172	0.0024886	-0.928798	2.13523	-2.777	-1.56957	-2.6232	0	0	-0	0	0	0	0	-60.8422	-16.1758	-2.82092	0.406923	0.000123938	0	0	0	0	0	0	
189	1580406961.998744533	0.0024886	-0.928834	2.13525	-2.77702	-1.56957	-2.62321	0	0	-0	0	0	0	0	-60.8406	-16.1762	-2.82094	0.406921	0.000129471	0	0	0	0	0	0	
190	1580406962.006747697	0.00247662	-0.928846	2.13525	-2.77702	-1.56958	-2.62323	0	0	-0	0	0	0	0	-60.8403	-16.1767	-2.82095	0.406908	0.000130519	0	0	0	0	0	0	
191	1580406962.014704106	0.0024886	-0.928822	2.13519	-2.77702	-1.56958	-2.6232	0	0	-0	0	0	0	0	-60.843	-16.178	-2.821	0.406912	0.000138915	0	0	0	0	0	0	
192	1580406962.022834104	0.00246463	-0.928822	2.13527	-2.77702	-1.56954	-2.62324	0	0	-0	0	0	0	0	-60.84	-16.1749	-2.82089	0.406952	0.000126301	0	0	0	0	0	0	
193	1580406962.030762939	0.00246463	-0.928798	2.13526	-2.77702	-1.56958	-2.62321	0	0	-0	0	0	0	0	-60.841	-16.1745	-2.82089	0.40691	0.000116695	0	0	0	0	0	0	
194	1580406962.038691579	0.0024886	-0.928822	2.13526	-2.777	-1.56957	-2.62321	0	0	-0	0	0	0	0	-60.8404	-16.1753	-2.8209	0.406921	0.000121178	0	0	0	0	0	0	
195	1580406962.046703818	0.00247662	-0.928846	2.13527	-2.777	-1.56957	-2.6232	0	0	-0	0	0	0	0	-60.8394	-16.1758	-2.82092	0.406923	0.000123828	0	0	0	0	0	0	
196	1580406962.054727640	0.00245265	-0.928834	2.13526	-2.77704	-1.56956	-2.6232	0	0	-0	0	0	0	0	-60.8402	-16.1758	-2.82096	0.406934	0.000134061	0	0	0	0	0	0	
197	1580406962.062728188	0.00250058	-0.92881	2.13524	-2.77703	-1.56956	-2.62321	0	0	-0	0	0	0	0	-60.8416	-16.1758	-2.82094	0.406932	0.0001313	0	0	0	0	0	0	
198	1580406962.070745575	0.00242905	-0.928858	2.13525	-2.77702	-1.5696	-2.6232	0	0	-0	0	0	0	0	-60.84	-16.1771	-2.82097	0.406901	0.000131557	0	0	0	0	0	0	
199	1580406962.078739685	0.00246463	-0.928858	2.13523	-2.77704	-1.56957	-2.62318	0	0	-0	0	0	0	0	-60.8409	-16.178	-2.82104	0.406926	0.000146156	0	0	0	0	0	0	
200	1580406962.086762903	0.0024886	-0.928822	2.13524	-2.77702	-1.56958	-2.6232	0	0	-0	0	0	0	0	-60.8413	-16.1762	-2.82095	0.406912	0.000127748	0	0	0	0	0	0	
201	1580406962.094738727	0.00247662	-0.928822	2.13524	-2.77704	-1.56957	-2.6232	0	0	-0	0	0	0	0	-60.8413	-16.1763	-2.82098	0.406923	0.000135106	0	0	0	0	0	0	
202	1580406962.102775451	0.00247662	-0.928798	2.13525	-2.777	-1.56957	-2.62318	0	0	-0	0	0	0	0	-60.8414	-16.1749	-2.82089	0.406926	0.000118402	0	0	0	0	0	0	
203	1580406962.110732317	0.00247662	-0.928822	2.13525	-2.77702	-1.56956	-2.62319	0	0	-0	0	0	0	0	-60.8409	-16.1758	-2.82093	0.406936	0.000128418	0	0	0	0	0	0	
204	1580406962.118842553	0.00247662	-0.928798	2.13525	-2.77699	-1.56956	-2.6232	0	0	-0	0	0	0	0	-60.8414	-16.1749	-2.82087	0.406934	0.000117365	0	0	0	0	0	0	
205	1580406962.126762255	0.0024886	-0.928846	2.13525	-2.777	-1.56955	-2.62321	0	0	-0	0	0	0	0	-60.8403	-16.1766	-2.82094	0.406944	0.000132978	0	0	0	0	0	0	
206	1580406962.134697533	0.00247662	-0.928822	2.13521	-2.77704	-1.5696	-2.62318	0	0	-0	0	0	0	0	-60.8422	-16.1771	-2.82101	0.406904	0.000137189	0	0	0	0	0	0	
207	1580406962.142712683	0.0024886	-0.928834	2.13529	-2.77702	-1.56961	-2.62324	0	0	-0	0	0	0	0	-60.8393	-16.1749	-2.82089	0.406885	0.000115917	0	0	0	0	0	0	
208	1580406962.150698290	0.00247662	-0.928822	2.1353	-2.77703	-1.56956	-2.62323	0	0	-0	0	0	0	0	-60.8391	-16.1741	-2.82088	0.406931	0.000120137	0	0	0	0	0	0	
209	1580406962.158704281	0.0024886	-0.928846	2.13523	-2.77702	-1.56958	-2.62321	0	0	-0	0	0	0	0	-60.8412	-16.1775	-2.82099	0.40691	0.000136044	0	0	0	0	0	0	
210	1580406962.166736875	0.00246463	-0.928846	2.13525	-2.77702	-1.56958	-2.6232	0	0	-0	0	0	0	0	-60.8403	-16.1767	-2.82096	0.406912	0.000130512	0	0	0	0	0	0	
211	1580406962.174727831	0.00246463	-0.928858	2.13525	-2.77703	-1.56958	-2.62319	0	0	-0	0	0	0	0	-60.8401	-16.1771	-2.82099	0.406914	0.000136147	0	0	0	0	0	0	
212	1580406962.182780494	0.0024886	-0.928846	2.13525	-2.77702	-1.56958	-2.62321	0	0	-0	0	0	0	0	-60.8403	-16.1767	-2.82096	0.40691	0.000130516	0	0	0	0	0	0	
213	1580406962.190780150	0.0024886	-0.928822	2.13529	-2.77702	-1.56962	-2.62321	0	0	-0	0	0	0	0	-60.8395	-16.1745	-2.82089	0.406877	0.000111427	0	0	0	0	0	0	
214	1580406962.198779856	0.00247662	-0.928846	2.13525	-2.777	-1.56956	-2.62324	0	0	-0	0	0	0	0	-60.8403	-16.1766	-2.82094	0.406929	0.000131197	0	0	0	0	0	0	
215	1580406962.206702804	0.00246463	-0.928846	2.13526	-2.77702	-1.5696	-2.62323	0	0	-0	0	0	0	0	-60.8399	-16.1762	-2.82094	0.406897	0.000126036	0	0	0	0	0	0	
216	1580406962.214777811	0.0024886	-0.928846	2.13529	-2.77702	-1.56958	-2.62321	0	0	-0	0	0	0	0	-60.839	-16.1753	-2.82091	0.40691	0.000122112	0	0	0	0	0	0	
217	1580406962.222756062	0.0024886	-0.92881	2.13525	-2.77702	-1.5696	-2.62319	0	0	-0	0	0	0	0	-60.8411	-16.1754	-2.82092	0.406903	0.000120496	0	0	0	0	0	0	
218	1580406962.230696799	0.00245265	-0.928822	2.13521	-2.77703	-1.56958	-2.62321	0	0	-0	0	0	0	0	-60.8422	-16.1771	-2.82099	0.40691	0.000136155	0	0	0	0	0	0	
219	1580406962.238737056	0.00246463	-0.928822	2.13525	-2.77702	-1.56957	-2.62321	0	0	-0	0	0	0	0	-60.8408	-16.1758	-2.82093	0.406921	0.000126706	0	0	0	0	0	0	
220	1580406962.246732866	0.00245265	-0.928834	2.13524	-2.77702	-1.56956	-2.6232	0	0	-0	0	0	0	0	-60.841	-16.1767	-2.82096	0.406934	0.00013395	0	0	0	0	0	0	
221	1580406962.254695266	0.00246463	-0.928822	2.13525	-2.77703	-1.56956	-2.62324	0	0	-0	0	0	0	0	-60.8409	-16.1758	-2.82094	0.406929	0.000131308	0	0	0	0	0	0	
222	1580406962.262675362	0.00250058	-0.928798	2.13523	-2.77704	-1.56957	-2.6232	0	0	-0	0	0	0	0	-60.8423	-16.1758	-2.82096	0.406923	0.000132342	0	0	0	0	0	0	
223	1580406962.270716697	0.00247662	-0.928834	2.13524	-2.77702	-1.56958	-2.62323	0	0	-0	0	0	0	0	-60.841	-16.1767	-2.82095	0.406908	0.000130519	0	0	0	0	0	0	
224	1580406962.278772467	0.00250058	-0.928822	2.13525	-2.777	-1.56956	-2.62324	0	0	-0	0	0	0	0	-60.8408	-16.1758	-2.82091	0.406929	0.000125669	0	0	0	0	0	0	
225	1580406962.286779816	0.00247662	-0.928846	2.13525	-2.77702	-1.56958	-2.62319	0	0	-0	0	0	0	0	-60.8403	-16.1767	-2.82096	0.406914	0.000130508	0	0	0	0	0	0	
226	1580406962.294681711	0.0024886	-0.92881	2.13521	-2.77703	-1.56957	-2.62321	0	0	-0	0	0	0	0	-60.8424	-16.1767	-2.82097	0.406921	0.00013511	0	0	0	0	0	0	
227	1580406962.302696914	0.00247662	-0.92881	2.13526	-2.777	-1.56957	-2.6232	0	0	-0	0	0	0	0	-60.8407	-16.1749	-2.82089	0.406923	0.00011841	0	0	0	0	0	0	
228	1580406962.310706093	0.00250058	-0.928846	2.13529	-2.77703	-1.56955	-2.62318	0	0	-0	0	0	0	0	-60.839	-16.1754	-2.82094	0.406949	0.000130202	0	0	0	0	0	0	
229	1580406962.318715456	0.00247662	-0.928834	2.13524	-2.77703	-1.56957	-2.62319	0	0	-0	0	0	0	0	-60.841	-16.1767	-2.82098	0.406925	0.000135102	0	0	0	0	0	0	
230	1580406962.326710541	0.0024886	-0.928822	2.13529	-2.77703	-1.56958	-2.62321	0	0	-0	0	0	0	0	-60.8396	-16.1745	-2.8209	0.40691	0.000119459	0	0	0	0	0	0	
231	1580406962.334702428	0.00250058	-0.928834	2.13527	-2.77702	-1.56957	-2.62324	0	0	-0	0	0	0	0	-60.8397	-16.1753	-2.82091	0.406918	0.000123839	0	0	0	0	0	0	
232	1580406962.342704811	0.00250058	-0.928798	2.13525	-2.77703	-1.56956	-2.62324	0	0	-0	0	0	0	0	-60.8414	-16.1749	-2.82091	0.406929	0.000125779	0	0	0	0	0	0	
233	1580406962.350806055	0.00247662	-0.928822	2.13525	-2.77702	-1.56958	-2.62323	0	0	-0	0	0	0	0	-60.8408	-16.1758	-2.82093	0.406908	0.000124991	0	0	0	0	0	0	
234	1580406962.358760412	0.00251257	-0.92881	2.13527	-2.77703	-1.56956	-2.62321	0	0	-0	0	0	0	0	-60.8403	-16.1745	-2.8209	0.406932	0.000122897	0	0	0	0	0	0	
235	1580406962.366717557	0.0024886	-0.928858	2.13523	-2.77704	-1.56958	-2.62321	0	0	-0	0	0	0	0	-60.8409	-16.178	-2.82103	0.40691	0.000144447	0	0	0	0	0	0	
236	1580406962.374747918	0.00246463	-0.928822	2.13526	-2.77702	-1.5696	-2.62321	0	0	-0	0	0	0	0	-60.8404	-16.1754	-2.82091	0.406899	0.000120504	0	0	0	0	0	0	
237	1580406962.382759786	0.0024886	-0.92881	2.13524	-2.777	-1.56955	-2.62321	0	0	-0	0	0	0	0	-60.8415	-16.1758	-2.82091	0.406944	0.000127449	0	0	0	0	0	0	
238	1580406962.390683277	0.00246463	-0.928822	2.13521	-2.77703	-1.5696	-2.62321	0	0	-0	0	0	0	0	-60.8422	-16.1771	-2.82099	0.406899	0.000134435	0	0	0	0	0	0	
239	1580406962.398708817	0.00247662	-0.928846	2.13525	-2.77703	-1.56957	-2.62317	0	0	-0	0	0	0	0	-60.8403	-16.1767	-2.82098	0.406928	0.000135095	0	0	0	0	0	0	
240	1580406962.406815115	0.00246463	-0.928834	2.13527	-2.77703	-1.56956	-2.62321	0	0	-0	0	0	0	0	-60.8397	-16.1754	-2.82093	0.406932	0.000128425	0	0	0	0	0	0	
241	1580406962.414686649	0.00246463	-0.928822	2.13526	-2.77702	-1.56957	-2.62321	0	0	-0	0	0	0	0	-60.8404	-16.1754	-2.82091	0.406921	0.000123942	0	0	0	0	0	0	
242	1580406962.422733194	0.00247662	-0.928834	2.13525	-2.77705	-1.56958	-2.62326	0	0	-0	0	0	0	0	-60.8406	-16.1763	-2.82098	0.406903	0.000136169	0	0	0	0	0	0	
243	1580406962.430724508	0.0024886	-0.928858	2.13529	-2.777	-1.56957	-2.62321	0	0	-0	0	0	0	0	-60.8387	-16.1758	-2.82091	0.406921	0.000123832	0	0	0	0	0	0	
244	1580406962.438806278	0.00247662	-0.928798	2.13526	-2.77702	-1.5696	-2.62319	0	0	-0	0	0	0	0	-60.841	-16.1745	-2.82089	0.406903	0.000114968	0	0	0	0	0	0	
245	1580406962.446668156	0.00250058	-0.928858	2.13525	-2.77703	-1.5696	-2.62318	0	0	-0	0	0	0	0	-60.8401	-16.1771	-2.821	0.406904	0.000134425	0	0	0	0	0	0	
246	1580406962.454684860	0.00247662	-0.928834	2.13524	-2.77703	-1.56956	-2.6232	0	0	-0	0	0	0	0	-60.841	-16.1767	-2.82098	0.406934	0.000136825	0	0	0	0	0	0	
247	1580406962.462718140	0.00246463	-0.928786	2.13523	-2.77703	-1.56957	-2.62321	0	0	-0	0	0	0	0	-60.8425	-16.1754	-2.82093	0.406921	0.000126817	0	0	0	0	0	0	
248	1580406962.470818280	0.00246463	-0.928846	2.13521	-2.77703	-1.56957	-2.62321	0	0	-0	0	0	0	0	-60.8416	-16.178	-2.82102	0.406921	0.000143402	0	0	0	0	0	0	
249	1580406962.478725253	0.00247662	-0.928858	2.13524	-2.77703	-1.56957	-2.62324	0	0	-0	0	0	0	0	-60.8405	-16.1775	-2.821	0.406918	0.000140645	0	0	0	0	0	0	
250	1580406962.486677280	0.00246463	-0.928882	2.13525	-2.77704	-1.56956	-2.6232	0	0	-0	0	0	0	0	-60.8395	-16.178	-2.82103	0.406934	0.000147992	0	0	0	0	0	0	
251	1580406962.494710065	0.00250058	-0.928846	2.13526	-2.77703	-1.56957	-2.62318	0	0	-0	0	0	0	0	-60.8399	-16.1762	-2.82097	0.406926	0.000132334	0	0	0	0	0	0	
252	1580406962.502796023	0.0024886	-0.928846	2.13524	-2.77698	-1.56958	-2.62319	0	0	-0	0	0	0	0	-60.8407	-16.1771	-2.82093	0.406914	0.00012498	0	0	0	0	0	0	
253	1580406962.510701725	0.00246463	-0.928858	2.13525	-2.77702	-1.56956	-2.62321	0	0	-0	0	0	0	0	-60.84	-16.1771	-2.82097	0.406932	0.000136718	0	0	0	0	0	0	
254	1580406962.518747783	0.00247662	-0.928834	2.13527	-2.77702	-1.56957	-2.62324	0	0	-0	0	0	0	0	-60.8397	-16.1753	-2.82091	0.406918	0.000123839	0	0	0	0	0	0	
255	1580406962.526738573	0.00245265	-0.928822	2.13526	-2.77704	-1.56957	-2.62323	0	0	-0	0	0	0	0	-60.8404	-16.1754	-2.82094	0.40692	0.000129585	0	0	0	0	0	0	
256	1580406962.534760681	0.00250058	-0.928834	2.13523	-2.777	-1.56958	-2.62321	0	0	-0	0	0	0	0	-60.8414	-16.1771	-2.82096	0.40691	0.000130516	0	0	0	0	0	0	
257	1580406962.542753896	0.00251257	-0.928822	2.13525	-2.77703	-1.56958	-2.6232	0	0	-0	0	0	0	0	-60.8409	-16.1758	-2.82095	0.406912	0.000127858	0	0	0	0	0	0	
258	1580406962.550747317	0.00247662	-0.928822	2.13523	-2.77702	-1.56957	-2.62323	0	0	-0	0	0	0	0	-60.8417	-16.1767	-2.82095	0.40692	0.000132239	0	0	0	0	0	0	
259	1580406962.558680885	0.00247662	-0.928858	2.13527	-2.77704	-1.56956	-2.6232	0	0	-0	0	0	0	0	-60.8392	-16.1762	-2.82097	0.406934	0.000136714	0	0	0	0	0	0	
260	1580406962.566721514	0.00247662	-0.928834	2.13524	-2.77702	-1.56958	-2.6232	0	0	-0	0	0	0	0	-60.841	-16.1767	-2.82096	0.406912	0.000130512	0	0	0	0	0	0	
261	1580406962.574704198	0.00250058	-0.928834	2.13525	-2.77702	-1.56957	-2.62319	0	0	-0	0	0	0	0	-60.8406	-16.1762	-2.82095	0.406925	0.000129463	0	0	0	0	0	0	
262	1580406962.582712104	0.00250058	-0.92881	2.13529	-2.77703	-1.5696	-2.62321	0	0	-0	0	0	0	0	-60.8398	-16.1741	-2.82089	0.406899	0.000114975	0	0	0	0	0	0	
263	1580406962.590689519	0.0024886	-0.928858	2.13524	-2.77703	-1.56958	-2.62321	0	0	-0	0	0	0	0	-60.8405	-16.1775	-2.821	0.40691	0.000138919	0	0	0	0	0	0	
264	1580406962.598699719	0.0024886	-0.928834	2.13527	-2.777	-1.56963	-2.62318	0	0	-0	0	0	0	0	-60.8397	-16.1753	-2.82091	0.406871	0.000112461	0	0	0	0	0	0	
265	1580406962.606687612	0.00245265	-0.928798	2.13526	-2.77698	-1.5696	-2.62321	0	0	-0	0	0	0	0	-60.8409	-16.1745	-2.82084	0.406899	0.000106683	0	0	0	0	0	0	
266	1580406962.614706059	0.00246463	-0.928858	2.13524	-2.77702	-1.56957	-2.62318	0	0	-0	0	0	0	0	-60.8405	-16.1775	-2.82099	0.406926	0.000137752	0	0	0	0	0	0	
267	1580406962.622706635	0.00247662	-0.928786	2.13525	-2.77703	-1.5696	-2.6232	0	0	-0	0	0	0	0	-60.8417	-16.1745	-2.8209	0.406901	0.000117846	0	0	0	0	0	0	
268	1580406962.630705429	0.0024886	-0.92881	2.13525	-2.777	-1.56958	-2.62325	0	0	-0	0	0	0	0	-60.8411	-16.1753	-2.82089	0.406905	0.00011947	0	0	0	0	0	0	
269	1580406962.638709731	0.0024886	-0.928786	2.13525	-2.77702	-1.5696	-2.62324	0	0	-0	0	0	0	0	-60.8416	-16.1745	-2.82088	0.406896	0.000114983	0	0	0	0	0	0	
270	1580406962.646781802	0.00246463	-0.92887	2.13524	-2.777	-1.56956	-2.62319	0	0	-0	0	0	0	0	-60.8402	-16.1779	-2.82099	0.406936	0.000139475	0	0	0	0	0	0	
271	1580406962.654678124	0.0024886	-0.928822	2.13525	-2.77702	-1.56957	-2.62323	0	0	-0	0	0	0	0	-60.8408	-16.1758	-2.82093	0.40692	0.00012671	0	0	0	0	0	0	
272	1580406962.662761377	0.00247662	-0.92881	2.13525	-2.77703	-1.56956	-2.62318	0	0	-0	0	0	0	0	-60.8411	-16.1754	-2.82094	0.406938	0.000128525	0	0	0	0	0	0	
273	1580406962.670742110	0.00246463	-0.928846	2.13526	-2.77702	-1.56958	-2.62321	0	0	-0	0	0	0	0	-60.8399	-16.1762	-2.82094	0.40691	0.000127751	0	0	0	0	0	0	
274	1580406962.678670490	0.00246463	-0.928822	2.13527	-2.77704	-1.56957	-2.62325	0	0	-0	0	0	0	0	-60.84	-16.1749	-2.82092	0.406916	0.000126718	0	0	0	0	0	0	
275	1580406962.686718655	0.00247662	-0.928822	2.13524	-2.77702	-1.56957	-2.62323	0	0	-0	0	0	0	0	-60.8413	-16.1762	-2.82094	0.40692	0.000129474	0	0	0	0	0	0	
276	1580406962.694747682	0.00245265	-0.928858	2.13523	-2.77702	-1.56958	-2.62321	0	0	-0	0	0	0	0	-60.8409	-16.1779	-2.821	0.40691	0.000138808	0	0	0	0	0	0	
277	1580406962.702722356	0.0024886	-0.928834	2.13524	-2.77703	-1.5696	-2.6232	0	0	-0	0	0	0	0	-60.841	-16.1767	-2.82098	0.406901	0.000131668	0	0	0	0	0	0	
278	1580406962.710724485	0.00245265	-0.928798	2.1352	-2.777	-1.56957	-2.62326	0	0	-0	0	0	0	0	-60.8431	-16.1766	-2.82093	0.406914	0.000129486	0	0	0	0	0	0	
279	1580406962.718728469	0.00251257	-0.928846	2.13525	-2.77702	-1.56958	-2.62324	0	0	-0	0	0	0	0	-60.8403	-16.1767	-2.82095	0.406907	0.000130523	0	0	0	0	0	0	
280	1580406962.726739626	0.00250058	-0.92881	2.13526	-2.777	-1.5696	-2.62323	0	0	-0	0	0	0	0	-60.8407	-16.1749	-2.82088	0.406897	0.000114979	0	0	0	0	0	0	
281	1580406962.734732535	0.00246463	-0.92881	2.13526	-2.777	-1.56957	-2.6232	0	0	-0	0	0	0	0	-60.8407	-16.1749	-2.82089	0.406923	0.00011841	0	0	0	0	0	0	
282	1580406962.742745160	0.0024886	-0.928822	2.13523	-2.777	-1.56958	-2.62321	0	0	-0	0	0	0	0	-60.8417	-16.1766	-2.82094	0.40691	0.000127751	0	0	0	0	0	0	
283	1580406962.750676023	0.00250058	-0.928858	2.13523	-2.77702	-1.56958	-2.62321	0	0	-0	0	0	0	0	-60.8409	-16.1779	-2.821	0.40691	0.000138808	0	0	0	0	0	0	
284	1580406962.758786842	0.0024886	-0.92887	2.13524	-2.77702	-1.56958	-2.62321	0	0	-0	0	0	0	0	-60.8402	-16.1779	-2.821	0.40691	0.000138808	0	0	0	0	0	0	
285	1580406962.766746253	0.0024886	-0.928834	2.13521	-2.77703	-1.56958	-2.62323	0	0	-0	0	0	0	0	-60.8419	-16.1775	-2.821	0.406908	0.000138922	0	0	0	0	0	0	
286	1580406962.774756588	0.0024886	-0.928846	2.13521	-2.77702	-1.56956	-2.62323	0	0	-0	0	0	0	0	-60.8416	-16.1779	-2.821	0.406931	0.00014225	0	0	0	0	0	0	
287	1580406962.782681681	0.00247662	-0.92881	2.13525	-2.77704	-1.56956	-2.62323	0	0	-0	0	0	0	0	-60.8411	-16.1754	-2.82094	0.406931	0.000131304	0	0	0	0	0	0	
288	1580406962.790796976	0.00246463	-0.92881	2.13525	-2.77703	-1.5696	-2.6232	0	0	-0	0	0	0	0	-60.8411	-16.1754	-2.82093	0.406901	0.000123375	0	0	0	0	0	0	
289	1580406962.798720581	0.00250058	-0.928834	2.13525	-2.77702	-1.56955	-2.62323	0	0	-0	0	0	0	0	-60.8406	-16.1762	-2.82094	0.406942	0.000132981	0	0	0	0	0	0	
290	1580406962.806731403	0.00246463	-0.92881	2.13525	-2.77702	-1.56956	-2.62321	0	0	-0	0	0	0	0	-60.8411	-16.1754	-2.82091	0.406932	0.000125661	0	0	0	0	0	0	
291	1580406962.814682661	0.00250058	-0.92881	2.13527	-2.777	-1.56954	-2.62323	0	0	-0	0	0	0	0	-60.8402	-16.1745	-2.82087	0.406953	0.000120769	0	0	0	0	0	0	
292	1580406962.822684573	0.00250058	-0.928834	2.13526	-2.77703	-1.56956	-2.62323	0	0	-0	0	0	0	0	-60.8402	-16.1758	-2.82094	0.406931	0.000131304	0	0	0	0	0	0	
293	1580406962.830698094	0.00251257	-0.928834	2.13525	-2.777	-1.56957	-2.62321	0	0	-0	0	0	0	0	-60.8406	-16.1762	-2.82093	0.406921	0.000126706	0	0	0	0	0	0	
294	1580406962.838742508	0.0024886	-0.928822	2.13526	-2.77702	-1.56958	-2.62321	0	0	-0	0	0	0	0	-60.8404	-16.1754	-2.82091	0.40691	0.000122223	0	0	0	0	0	0	
295	1580406962.846696994	0.00245265	-0.928822	2.13525	-2.77702	-1.56956	-2.62324	0	0	-0	0	0	0	0	-60.8408	-16.1758	-2.82092	0.406929	0.000128433	0	0	0	0	0	0	
296	1580406962.854735290	0.00247662	-0.92881	2.13525	-2.77702	-1.56958	-2.62323	0	0	-0	0	0	0	0	-60.8411	-16.1754	-2.82091	0.406908	0.000122227	0	0	0	0	0	0	
297	1580406962.862687909	0.00250058	-0.92881	2.1353	-2.77702	-1.56958	-2.62318	0	0	-0	0	0	0	0	-60.8394	-16.1736	-2.82086	0.406915	0.000111044	0	0	0	0	0	0	
298	1580406962.870751092	0.00246463	-0.928822	2.13523	-2.777	-1.56957	-2.62323	0	0	-0	0	0	0	0	-60.8417	-16.1766	-2.82094	0.40692	0.000129474	0	0	0	0	0	0	
299	1580406962.878741197	0.00246463	-0.928834	2.13523	-2.77703	-1.56956	-2.62321	0	0	-0	0	0	0	0	-60.8415	-16.1771	-2.82099	0.406932	0.000139593	0	0	0	0	0	0	
300	1580406962.886781797	0.0024886	-0.92881	2.13521	-2.77702	-1.56957	-2.62321	0	0	-0	0	0	0	0	-60.8424	-16.1767	-2.82096	0.406921	0.000132235	0	0	0	0	0	0	
301	1580406962.894738787	0.00247662	-0.928834	2.13525	-2.77703	-1.56957	-2.6232	0	0	-0	0	0	0	0	-60.8406	-16.1762	-2.82096	0.406923	0.000132342	0	0	0	0	0	0	
302	1580406962.902688717	0.0024886	-0.928822	2.13527	-2.77703	-1.56955	-2.62321	0	0	-0	0	0	0	0	-60.84	-16.1749	-2.82091	0.406944	0.000127449	0	0	0	0	0	0	
303	1580406962.910706398	0.00250058	-0.92881	2.13526	-2.77702	-1.56957	-2.62319	0	0	-0	0	0	0	0	-60.8407	-16.1749	-2.82091	0.406925	0.00012117	0	0	0	0	0	0	
304	1580406962.918732982	0.00250058	-0.928846	2.13521	-2.77702	-1.56957	-2.62324	0	0	-0	0	0	0	0	-60.8416	-16.1779	-2.82099	0.406918	0.000140535	0	0	0	0	0	0	
305	1580406962.926686428	0.00251257	-0.928846	2.13532	-2.77703	-1.5696	-2.62321	0	0	-0	0	0	0	0	-60.8377	-16.1741	-2.82089	0.406899	0.000114975	0	0	0	0	0	0	
306	1580406962.934721747	0.0024886	-0.928858	2.13529	-2.777	-1.5696	-2.62324	0	0	-0	0	0	0	0	-60.8387	-16.1758	-2.82091	0.406896	0.000120401	0	0	0	0	0	0	
307	1580406962.942698947	0.0024886	-0.92881	2.13526	-2.77704	-1.56958	-2.6232	0	0	-0	0	0	0	0	-60.8407	-16.175	-2.82093	0.406912	0.000125094	0	0	0	0	0	0	
308	1580406962.950683479	0.00245265	-0.928846	2.13524	-2.777	-1.5696	-2.62321	0	0	-0	0	0	0	0	-60.8407	-16.1771	-2.82096	0.406899	0.000128796	0	0	0	0	0	0	
309	1580406962.958723154	0.0024886	-0.928822	2.13525	-2.77704	-1.56958	-2.62323	0	0	-0	0	0	0	0	-60.8409	-16.1758	-2.82096	0.406908	0.00013063	0	0	0	0	0	0	
310	1580406962.966704689	0.00247662	-0.928834	2.13527	-2.77702	-1.56957	-2.62318	0	0	-0	0	0	0	0	-60.8397	-16.1754	-2.82092	0.406926	0.00012382	0	0	0	0	0	0	
311	1580406962.974719463	0.00247662	-0.928822	2.13523	-2.77706	-1.56958	-2.62319	0	0	-0	0	0	0	0	-60.8418	-16.1767	-2.82102	0.406914	0.000141676	0	0	0	0	0	0	
312	1580406962.982690390	0.00247662	-0.928846	2.13525	-2.77702	-1.56958	-2.62324	0	0	-0	0	0	0	0	-60.8403	-16.1767	-2.82095	0.406907	0.000130523	0	0	0	0	0	0	
313	1580406962.990768391	0.00250058	-0.928822	2.13523	-2.77702	-1.5696	-2.6232	0	0	-0	0	0	0	0	-60.8417	-16.1767	-2.82096	0.406901	0.000128793	0	0	0	0	0	0	
314	1580406962.998732371	0.00250058	-0.92881	2.1352	-2.77703	-1.56957	-2.62319	0	0	-0	0	0	0	0	-60.8429	-16.1771	-2.82099	0.406925	0.000137866	0	0	0	0	0	0	
315	1580406963.006702939	0.00247662	-0.928834	2.13524	-2.77702	-1.56957	-2.62323	0	0	-0	0	0	0	0	-60.841	-16.1767	-2.82095	0.40692	0.000132239	0	0	0	0	0	0	
316	1580406963.014763365	0.0024886	-0.928822	2.13523	-2.77702	-1.56957	-2.62321	0	0	-0	0	0	0	0	-60.8417	-16.1767	-2.82096	0.406921	0.000132235	0	0	0	0	0	0	
317	1580406963.022748880	0.00247662	-0.928822	2.13525	-2.77699	-1.5696	-2.6232	0	0	-0	0	0	0	0	-60.8408	-16.1758	-2.8209	0.406901	0.000117736	0	0	0	0	0	0	
318	1580406963.030753791	0.00250058	-0.92881	2.13521	-2.77703	-1.56955	-2.62321	0	0	-0	0	0	0	0	-60.8424	-16.1767	-2.82097	0.406944	0.000138617	0	0	0	0	0	0	
319	1580406963.038735495	0.0024886	-0.928846	2.13525	-2.77702	-1.56957	-2.62321	0	0	-0	0	0	0	0	-60.8403	-16.1767	-2.82096	0.406921	0.000132235	0	0	0	0	0	0	
320	1580406963.046711937	0.0024886	-0.928822	2.13526	-2.77702	-1.56957	-2.62321	0	0	-0	0	0	0	0	-60.8404	-16.1754	-2.82091	0.406921	0.000123942	0	0	0	0	0	0	
321	1580406963.054764360	0.00250058	-0.928822	2.13525	-2.77702	-1.56956	-2.62321	0	0	-0	0	0	0	0	-60.8408	-16.1758	-2.82093	0.406932	0.000128425	0	0	0	0	0	0	
322	1580406963.062694954	0.00247662	-0.92881	2.13525	-2.77699	-1.56958	-2.62323	0	0	-0	0	0	0	0	-60.8411	-16.1753	-2.82088	0.406908	0.000116698	0	0	0	0	0	0	
323	1580406963.070722078	0.00247662	-0.92887	2.13527	-2.77702	-1.5696	-2.62321	0	0	-0	0	0	0	0	-60.8389	-16.1766	-2.82096	0.406899	0.000128686	0	0	0	0	0	0	
324	1580406963.078785544	0.00250058	-0.928858	2.13524	-2.77702	-1.56957	-2.62319	0	0	-0	0	0	0	0	-60.8405	-16.1775	-2.82099	0.406925	0.000137756	0	0	0	0	0	0	
325	1580406963.086752831	0.00245265	-0.928798	2.13524	-2.77703	-1.56957	-2.62319	0	0	-0	0	0	0	0	-60.8418	-16.1754	-2.82094	0.406925	0.000126809	0	0	0	0	0	0	
326	1580406963.094725428	0.00245265	-0.928834	2.13525	-2.77703	-1.56957	-2.6232	0	0	-0	0	0	0	0	-60.8406	-16.1762	-2.82096	0.406923	0.000132342	0	0	0	0	0	0	
327	1580406963.102689651	0.00246463	-0.928834	2.13523	-2.77702	-1.56958	-2.62317	0	0	-0	0	0	0	0	-60.8415	-16.1771	-2.82098	0.406917	0.000133265	0	0	0	0	0	0	
328	1580406963.110835103	0.00247662	-0.928822	2.13525	-2.777	-1.56961	-2.62321	0	0	-0	0	0	0	0	-60.8408	-16.1758	-2.82091	0.406888	0.000118785	0	0	0	0	0	0	
329	1580406963.118724738	0.0024886	-0.928798	2.13529	-2.77703	-1.56957	-2.62324	0	0	-0	0	0	0	0	-60.8401	-16.1736	-2.82087	0.406918	0.000115657	0	0	0	0	0	0	
330	1580406963.126775637	0.00246463	-0.928834	2.13525	-2.77705	-1.56956	-2.62324	0	0	-0	0	0	0	0	-60.8406	-16.1763	-2.82098	0.406929	0.0001396	0	0	0	0	0	0	
331	1580406963.134744028	0.00250058	-0.928858	2.13525	-2.77703	-1.56958	-2.62319	0	0	-0	0	0	0	0	-60.8401	-16.1771	-2.82099	0.406914	0.000136147	0	0	0	0	0	0	
332	1580406963.142705308	0.00246463	-0.928846	2.13529	-2.77702	-1.56956	-2.62323	0	0	-0	0	0	0	0	-60.839	-16.1753	-2.82091	0.406931	0.000125555	0	0	0	0	0	0	
333	1580406963.150788916	0.00250058	-0.928822	2.13526	-2.777	-1.56958	-2.62319	0	0	-0	0	0	0	0	-60.8404	-16.1754	-2.82091	0.406914	0.000119451	0	0	0	0	0	0	
334	1580406963.158756924	0.00245265	-0.92881	2.13525	-2.77702	-1.56958	-2.62324	0	0	-0	0	0	0	0	-60.8411	-16.1754	-2.82091	0.406907	0.00012223	0	0	0	0	0	0	
335	1580406963.166697293	0.00250058	-0.928834	2.13526	-2.77703	-1.56957	-2.62325	0	0	-0	0	0	0	0	-60.8402	-16.1758	-2.82094	0.406916	0.000129592	0	0	0	0	0	0	
336	1580406963.174780186	0.00247662	-0.928822	2.13526	-2.77704	-1.56956	-2.6232	0	0	-0	0	0	0	0	-60.8404	-16.1754	-2.82095	0.406934	0.000131296	0	0	0	0	0	0	
337	1580406963.182737308	0.00247662	-0.92881	2.13521	-2.77702	-1.56956	-2.6232	0	0	-0	0	0	0	0	-60.8424	-16.1767	-2.82096	0.406934	0.00013395	0	0	0	0	0	0	
338	1580406963.190708057	0.00246463	-0.928798	2.13525	-2.77705	-1.56958	-2.62318	0	0	-0	0	0	0	0	-60.8414	-16.175	-2.82095	0.406915	0.000127851	0	0	0	0	0	0	
339	1580406963.198709702	0.00247662	-0.928822	2.13523	-2.77703	-1.56955	-2.62319	0	0	-0	0	0	0	0	-60.8417	-16.1767	-2.82098	0.406947	0.000138609	0	0	0	0	0	0	
340	1580406963.206699625	0.00247662	-0.92881	2.13524	-2.77703	-1.5696	-2.62323	0	0	-0	0	0	0	0	-60.8416	-16.1758	-2.82094	0.406897	0.000126147	0	0	0	0	0	0	
341	1580406963.214729351	0.00247662	-0.928846	2.13524	-2.77704	-1.56958	-2.62323	0	0	-0	0	0	0	0	-60.8408	-16.1771	-2.821	0.406908	0.000138922	0	0	0	0	0	0	
342	1580406963.222734348	0.00250058	-0.928822	2.13527	-2.77703	-1.56957	-2.62318	0	0	-0	0	0	0	0	-60.84	-16.1749	-2.82092	0.406926	0.000123931	0	0	0	0	0	0	
343	1580406963.230691036	0.00247662	-0.928846	2.13526	-2.77702	-1.56957	-2.62318	0	0	-0	0	0	0	0	-60.8399	-16.1762	-2.82095	0.406926	0.000129459	0	0	0	0	0	0	
344	1580406963.238761108	0.00246463	-0.928858	2.13521	-2.777	-1.56957	-2.62321	0	0	-0	0	0	0	0	-60.8413	-16.1784	-2.821	0.406921	0.000140527	0	0	0	0	0	0	
345	1580406963.246702376	0.00247662	-0.928846	2.13524	-2.77702	-1.5696	-2.62321	0	0	-0	0	0	0	0	-60.8407	-16.1771	-2.82097	0.406899	0.000131561	0	0	0	0	0	0	
346	1580406963.254698265	0.00246463	-0.928834	2.13529	-2.777	-1.56955	-2.62321	0	0	-0	0	0	0	0	-60.8393	-16.1749	-2.82089	0.406944	0.00012181	0	0	0	0	0	0	
347	1580406963.262715958	0.00247662	-0.928846	2.13524	-2.77702	-1.56957	-2.6232	0	0	-0	0	0	0	0	-60.8407	-16.1771	-2.82097	0.406923	0.000134995	0	0	0	0	0	0	
348	1580406963.270799076	0.00247662	-0.92881	2.13529	-2.77702	-1.56958	-2.6232	0	0	-0	0	0	0	0	-60.8398	-16.1741	-2.82087	0.406912	0.000113816	0	0	0	0	0	0	
349	1580406963.278683468	0.0024886	-0.928822	2.13523	-2.77702	-1.56957	-2.62321	0	0	-0	0	0	0	0	-60.8417	-16.1767	-2.82096	0.406921	0.000132235	0	0	0	0	0	0	
350	1580406963.286774812	0.00247662	-0.92881	2.13525	-2.77703	-1.56957	-2.62319	0	0	-0	0	0	0	0	-60.8411	-16.1754	-2.82094	0.406925	0.000126809	0	0	0	0	0	0	
351	1580406963.294737700	0.0024886	-0.928834	2.13524	-2.77705	-1.56955	-2.6232	0	0	-0	0	0	0	0	-60.8411	-16.1767	-2.821	0.406946	0.000144141	0	0	0	0	0	0	
352	1580406963.302756894	0.00250058	-0.928822	2.13529	-2.77702	-1.56957	-2.62321	0	0	-0	0	0	0	0	-60.8395	-16.1745	-2.82089	0.406921	0.000118303	0	0	0	0	0	0	
353	1580406963.310699040	0.00250058	-0.928822	2.13526	-2.77702	-1.5696	-2.62321	0	0	-0	0	0	0	0	-60.8404	-16.1754	-2.82091	0.406899	0.000120504	0	0	0	0	0	0	
354	1580406963.318695387	0.00250058	-0.92881	2.13526	-2.77702	-1.5696	-2.62319	0	0	-0	0	0	0	0	-60.8407	-16.1749	-2.82091	0.406903	0.000117732	0	0	0	0	0	0	
355	1580406963.326722562	0.00247662	-0.928822	2.13525	-2.77703	-1.56956	-2.62321	0	0	-0	0	0	0	0	-60.8409	-16.1758	-2.82094	0.406932	0.0001313	0	0	0	0	0	0	
356	1580406963.334708824	0.00247662	-0.928846	2.13525	-2.77703	-1.5696	-2.62323	0	0	-0	0	0	0	0	-60.8403	-16.1767	-2.82097	0.406897	0.000131675	0	0	0	0	0	0	
357	1580406963.342763736	0.0024886	-0.928786	2.13525	-2.77703	-1.56958	-2.62319	0	0	-0	0	0	0	0	-60.8417	-16.1745	-2.82091	0.406914	0.000119562	0	0	0	0	0	0	
358	1580406963.350730806	0.00247662	-0.928846	2.13524	-2.77702	-1.56955	-2.62321	0	0	-0	0	0	0	0	-60.8407	-16.1771	-2.82097	0.406944	0.000138506	0	0	0	0	0	0	
359	1580406963.358705217	0.00251257	-0.928834	2.13525	-2.777	-1.56955	-2.6232	0	0	-0	0	0	0	0	-60.8406	-16.1762	-2.82093	0.406946	0.00013021	0	0	0	0	0	0	
360	1580406963.366714390	0.00247662	-0.928822	2.13527	-2.77703	-1.5696	-2.6232	0	0	-0	0	0	0	0	-60.84	-16.1749	-2.82092	0.406901	0.0001205	0	0	0	0	0	0	
361	1580406963.374728024	0.00246463	-0.928798	2.13525	-2.777	-1.56958	-2.62323	0	0	-0	0	0	0	0	-60.8414	-16.1749	-2.82088	0.406908	0.000116698	0	0	0	0	0	0	
362	1580406963.382752734	0.00250058	-0.928834	2.13529	-2.77703	-1.56961	-2.6232	0	0	-0	0	0	0	0	-60.8393	-16.1749	-2.82092	0.40689	0.000118781	0	0	0	0	0	0	
363	1580406963.390730329	0.00250058	-0.92881	2.13526	-2.77702	-1.5696	-2.62321	0	0	-0	0	0	0	0	-60.8407	-16.1749	-2.8209	0.406899	0.00011774	0	0	0	0	0	0	
364	1580406963.398727861	0.00247662	-0.928846	2.13526	-2.777	-1.56957	-2.62319	0	0	-0	0	0	0	0	-60.8399	-16.1762	-2.82093	0.406925	0.000126699	0	0	0	0	0	0	
365	1580406963.406757472	0.00247662	-0.928834	2.13524	-2.77699	-1.56957	-2.62318	0	0	-0	0	0	0	0	-60.841	-16.1766	-2.82094	0.406926	0.000126695	0	0	0	0	0	0	
366	1580406963.414777658	0.0024886	-0.928834	2.13524	-2.77705	-1.56955	-2.6232	0	0	-0	0	0	0	0	-60.8411	-16.1767	-2.821	0.406946	0.000144141	0	0	0	0	0	0	
367	1580406963.422705176	0.00247662	-0.928858	2.13526	-2.77702	-1.56955	-2.62321	0	0	-0	0	0	0	0	-60.8396	-16.1767	-2.82096	0.406944	0.000135742	0	0	0	0	0	0	
368	1580406963.430736437	0.00247662	-0.928834	2.13523	-2.77703	-1.56956	-2.6232	0	0	-0	0	0	0	0	-60.8415	-16.1771	-2.82099	0.406934	0.000139589	0	0	0	0	0	0	
369	1580406963.438753306	0.0024886	-0.928858	2.13529	-2.77704	-1.56958	-2.6232	0	0	-0	0	0	0	0	-60.8388	-16.1758	-2.82096	0.406912	0.000130512	0	0	0	0	0	0	
370	1580406963.446718927	0.00247662	-0.928834	2.13525	-2.77702	-1.56958	-2.62319	0	0	-0	0	0	0	0	-60.8406	-16.1762	-2.82095	0.406914	0.000127744	0	0	0	0	0	0	
371	1580406963.454702443	0.00247662	-0.928822	2.13525	-2.77702	-1.56958	-2.62321	0	0	-0	0	0	0	0	-60.8408	-16.1758	-2.82093	0.40691	0.000124987	0	0	0	0	0	0	
372	1580406963.462739518	0.00250058	-0.928834	2.13523	-2.77703	-1.56955	-2.62321	0	0	-0	0	0	0	0	-60.8415	-16.1771	-2.82099	0.406944	0.000141381	0	0	0	0	0	0	
373	1580406963.470730324	0.00246463	-0.928846	2.13525	-2.77703	-1.56957	-2.62321	0	0	-0	0	0	0	0	-60.8403	-16.1767	-2.82097	0.406921	0.00013511	0	0	0	0	0	0	
374	1580406963.478695550	0.00247662	-0.928834	2.13523	-2.77702	-1.56957	-2.62323	0	0	-0	0	0	0	0	-60.8414	-16.1771	-2.82097	0.40692	0.000135003	0	0	0	0	0	0	
375	1580406963.486724524	0.00251257	-0.928858	2.13525	-2.77702	-1.56957	-2.62323	0	0	-0	0	0	0	0	-60.84	-16.1771	-2.82097	0.40692	0.000135003	0	0	0	0	0	0	
376	1580406963.494751406	0.00246463	-0.928846	2.13529	-2.77702	-1.56957	-2.6232	0	0	-0	0	0	0	0	-60.839	-16.1753	-2.82092	0.406923	0.000123828	0	0	0	0	0	0	
377	1580406963.502713404	0.0024886	-0.928822	2.13525	-2.77702	-1.5696	-2.6232	0	0	-0	0	0	0	0	-60.8409	-16.1758	-2.82093	0.406901	0.000123264	0	0	0	0	0	0	
378	1580406963.510773151	0.00246463	-0.928858	2.13524	-2.77703	-1.56957	-2.62321	0	0	-0	0	0	0	0	-60.8405	-16.1775	-2.821	0.406921	0.000140638	0	0	0	0	0	0	
379	1580406963.518719487	0.00250058	-0.928834	2.13525	-2.77702	-1.56954	-2.62318	0	0	-0	0	0	0	0	-60.8406	-16.1762	-2.82095	0.40696	0.000134685	0	0	0	0	0	0	
380	1580406963.526801758	0.00251257	-0.928822	2.13525	-2.77702	-1.56961	-2.62318	0	0	-0	0	0	0	0	-60.8409	-16.1758	-2.82094	0.406893	0.000121538	0	0	0	0	0	0	
381	1580406963.534748940	0.00247662	-0.928858	2.13525	-2.77702	-1.56957	-2.62317	0	0	-0	0	0	0	0	-60.8401	-16.1771	-2.82098	0.406928	0.000134984	0	0	0	0	0	0	
382	1580406963.542739171	0.00245265	-0.928858	2.13526	-2.777	-1.56961	-2.6232	0	0	-0	0	0	0	0	-60.8396	-16.1766	-2.82095	0.40689	0.000124309	0	0	0	0	0	0	
383	1580406963.550696329	0.0024886	-0.928822	2.13527	-2.77703	-1.56958	-2.62321	0	0	-0	0	0	0	0	-60.84	-16.1749	-2.82091	0.40691	0.000122223	0	0	0	0	0	0	
384	1580406963.558711467	0.00251257	-0.92881	2.13525	-2.77706	-1.56957	-2.62325	0	0	-0	0	0	0	0	-60.8412	-16.1754	-2.82096	0.406916	0.000135121	0	0	0	0	0	0	
385	1580406963.566677149	0.0024886	-0.92881	2.13524	-2.77699	-1.56956	-2.62323	0	0	-0	0	0	0	0	-60.8415	-16.1758	-2.8209	0.406931	0.000122901	0	0	0	0	0	0	
386	1580406963.574741939	0.00247662	-0.928822	2.13523	-2.77702	-1.56956	-2.6232	0	0	-0	0	0	0	0	-60.8417	-16.1767	-2.82096	0.406934	0.00013395	0	0	0	0	0	0	
387	1580406963.582741580	0.00246463	-0.928834	2.13531	-2.777	-1.56957	-2.6232	0	0	-0	0	0	0	0	-60.8384	-16.174	-2.82086	0.406923	0.000112771	0	0	0	0	0	0	
388	1580406963.590732767	0.0024886	-0.92881	2.13523	-2.77699	-1.56957	-2.62324	0	0	-0	0	0	0	0	-60.8419	-16.1762	-2.82091	0.406918	0.00012395	0	0	0	0	0	0	
389	1580406963.598731850	0.0024886	-0.928798	2.13529	-2.77702	-1.56958	-2.62318	0	0	-0	0	0	0	0	-60.8401	-16.1736	-2.82086	0.406915	0.000111044	0	0	0	0	0	0	
390	1580406963.606737694	0.0024886	-0.928834	2.13525	-2.77705	-1.56961	-2.62321	0	0	-0	0	0	0	0	-60.8406	-16.1763	-2.82099	0.406888	0.000132716	0	0	0	0	0	0	
391	1580406963.614714954	0.00246463	-0.928822	2.13524	-2.77702	-1.56955	-2.62324	0	0	-0	0	0	0	0	-60.8413	-16.1762	-2.82094	0.40694	0.000132985	0	0	0	0	0	0	
392	1580406963.622802237	0.0024886	-0.928786	2.13527	-2.77702	-1.5696	-2.6232	0	0	-0	0	0	0	0	-60.8408	-16.1736	-2.82086	0.406901	0.000109333	0	0	0	0	0	0	
393	1580406963.630693420	0.00245265	-0.928846	2.13527	-2.77704	-1.56961	-2.62321	0	0	-0	0	0	0	0	-60.8395	-16.1758	-2.82096	0.406888	0.000127077	0	0	0	0	0	0	
394	1580406963.638713166	0.0024886	-0.928834	2.13525	-2.77703	-1.56962	-2.62321	0	0	-0	0	0	0	0	-60.8406	-16.1762	-2.82096	0.406877	0.000125469	0	0	0	0	0	0	
395	1580406963.646712813	0.00250058	-0.92881	2.13523	-2.77702	-1.56955	-2.62321	0	0	-0	0	0	0	0	-60.842	-16.1762	-2.82094	0.406944	0.000132978	0	0	0	0	0	0	
396	1580406963.654736401	0.00245265	-0.92887	2.13526	-2.77703	-1.56958	-2.62319	0	0	-0	0	0	0	0	-60.8394	-16.1771	-2.82099	0.406914	0.000136147	0	0	0	0	0	0	
397	1580406963.662701566	0.00247662	-0.92887	2.13526	-2.77699	-1.56957	-2.62319	0	0	-0	0	0	0	0	-60.8393	-16.1771	-2.82095	0.406925	0.000129463	0	0	0	0	0	0	
398	1580406963.670757116	0.00247662	-0.928846	2.13526	-2.77702	-1.5696	-2.62321	0	0	-0	0	0	0	0	-60.8399	-16.1762	-2.82094	0.406899	0.000126032	0	0	0	0	0	0	
399	1580406963.678709523	0.00247662	-0.928822	2.13521	-2.77703	-1.56958	-2.62321	0	0	-0	0	0	0	0	-60.8422	-16.1771	-2.82099	0.40691	0.000136155	0	0	0	0	0	0	
400	1580406963.686826314	0.00250058	-0.928822	2.13526	-2.77703	-1.5696	-2.6232	0	0	-0	0	0	0	0	-60.8404	-16.1754	-2.82093	0.406901	0.000123375	0	0	0	0	0	0	
401	1580406963.694742446	0.0024886	-0.928822	2.13525	-2.77702	-1.56958	-2.62321	0	0	-0	0	0	0	0	-60.8408	-16.1758	-2.82093	0.40691	0.000124987	0	0	0	0	0	0	
402	1580406963.702739028	0.00246463	-0.928846	2.13529	-2.77703	-1.56958	-2.62324	0	0	-0	0	0	0	0	-60.839	-16.1754	-2.82092	0.406907	0.000124995	0	0	0	0	0	0	
403	1580406963.710711529	0.0024886	-0.928858	2.13526	-2.77703	-1.5696	-2.62319	0	0	-0	0	0	0	0	-60.8396	-16.1767	-2.82098	0.406903	0.000131664	0	0	0	0	0	0	
404	1580406963.718799390	0.00245265	-0.928822	2.13525	-2.77702	-1.56957	-2.62324	0	0	-0	0	0	0	0	-60.8408	-16.1758	-2.82092	0.406918	0.000126714	0	0	0	0	0	0	
405	1580406963.726759359	0.00246463	-0.928822	2.13523	-2.777	-1.56957	-2.62321	0	0	-0	0	0	0	0	-60.8417	-16.1766	-2.82094	0.406921	0.000129471	0	0	0	0	0	0	
406	1580406963.734699325	0.00247662	-0.928834	2.13525	-2.777	-1.56957	-2.62321	0	0	-0	0	0	0	0	-60.8406	-16.1762	-2.82093	0.406921	0.000126706	0	0	0	0	0	0	
407	1580406963.742726123	0.00252455	-0.928834	2.13524	-2.77702	-1.56958	-2.62321	0	0	-0	0	0	0	0	-60.841	-16.1767	-2.82096	0.40691	0.000130516	0	0	0	0	0	0	
408	1580406963.750700926	0.0024886	-0.928846	2.13527	-2.77703	-1.5696	-2.6232	0	0	-0	0	0	0	0	-60.8394	-16.1758	-2.82095	0.406901	0.000126029	0	0	0	0	0	0	
409	1580406963.758671443	0.00245265	-0.92881	2.13525	-2.77702	-1.56956	-2.6232	0	0	-0	0	0	0	0	-60.8411	-16.1754	-2.82092	0.406934	0.000125657	0	0	0	0	0	0	
410	1580406963.766731221	0.00247662	-0.928798	2.13526	-2.77702	-1.56958	-2.6232	0	0	-0	0	0	0	0	-60.841	-16.1745	-2.82089	0.406912	0.000116691	0	0	0	0	0	0	
411	1580406963.774703312	0.00246463	-0.928834	2.13525	-2.77702	-1.56962	-2.62321	0	0	-0	0	0	0	0	-60.8406	-16.1762	-2.82094	0.406877	0.000122594	0	0	0	0	0	0	
412	1580406963.782729711	0.00246463	-0.928834	2.13524	-2.77703	-1.56957	-2.6232	0	0	-0	0	0	0	0	-60.841	-16.1767	-2.82098	0.406923	0.000135106	0	0	0	0	0	0	
413	1580406963.790749763	0.0024886	-0.92887	2.13526	-2.77703	-1.56956	-2.62324	0	0	-0	0	0	0	0	-60.8394	-16.1771	-2.82098	0.406929	0.0001396	0	0	0	0	0	0	
414	1580406963.798744768	0.00247662	-0.928834	2.13525	-2.77705	-1.56955	-2.6232	0	0	-0	0	0	0	0	-60.8406	-16.1763	-2.82099	0.406946	0.000141377	0	0	0	0	0	0	
415	1580406963.806696167	0.00247662	-0.928846	2.13525	-2.777	-1.5696	-2.62319	0	0	-0	0	0	0	0	-60.8403	-16.1766	-2.82095	0.406903	0.000126025	0	0	0	0	0	0	
416	1580406963.814736656	0.00251257	-0.928822	2.13527	-2.777	-1.56955	-2.62321	0	0	-0	0	0	0	0	-60.84	-16.1749	-2.82089	0.406944	0.00012181	0	0	0	0	0	0	
417	1580406963.822782195	0.0024886	-0.928822	2.13524	-2.77702	-1.5696	-2.6232	0	0	-0	0	0	0	0	-60.8413	-16.1762	-2.82095	0.406901	0.000126029	0	0	0	0	0	0	
418	1580406963.830691698	0.00250058	-0.928834	2.13526	-2.777	-1.56958	-2.62325	0	0	-0	0	0	0	0	-60.8401	-16.1758	-2.82091	0.406905	0.000122234	0	0	0	0	0	0	
419	1580406963.838724934	0.00247662	-0.928834	2.13525	-2.77705	-1.56961	-2.6232	0	0	-0	0	0	0	0	-60.8406	-16.1763	-2.82099	0.40689	0.000132713	0	0	0	0	0	0	
420	1580406963.846750262	0.00247662	-0.928834	2.13529	-2.777	-1.56957	-2.62323	0	0	-0	0	0	0	0	-60.8393	-16.1749	-2.82088	0.40692	0.000118307	0	0	0	0	0	0	
421	1580406963.854688303	0.00247662	-0.928858	2.13521	-2.77704	-1.56957	-2.62325	0	0	-0	0	0	0	0	-60.8414	-16.1784	-2.82104	0.406916	0.000148941	0	0	0	0	0	0	
422	1580406963.862737270	0.00247662	-0.928846	2.13523	-2.77702	-1.56957	-2.62319	0	0	-0	0	0	0	0	-60.8412	-16.1775	-2.82099	0.406925	0.000137756	0	0	0	0	0	0	
423	1580406963.870712046	0.0024886	-0.928822	2.13525	-2.777	-1.5696	-2.62319	0	0	-0	0	0	0	0	-60.8408	-16.1758	-2.82092	0.406903	0.000120496	0	0	0	0	0	0	
424	1580406963.878776995	0.00247662	-0.928798	2.13527	-2.77704	-1.56957	-2.62321	0	0	-0	0	0	0	0	-60.8405	-16.1741	-2.8209	0.406921	0.000121178	0	0	0	0	0	0	
425	1580406963.886738707	0.00250058	-0.928846	2.13526	-2.77702	-1.56957	-2.62321	0	0	-0	0	0	0	0	-60.8399	-16.1762	-2.82094	0.406921	0.000129471	0	0	0	0	0	0	
426	1580406963.894745604	0.0024886	-0.928834	2.13524	-2.77702	-1.56958	-2.62321	0	0	-0	0	0	0	0	-60.841	-16.1767	-2.82096	0.40691	0.000130516	0	0	0	0	0	0	
427	1580406963.902713289	0.00250058	-0.928834	2.13527	-2.77702	-1.56958	-2.62319	0	0	-0	0	0	0	0	-60.8397	-16.1754	-2.82092	0.406914	0.000122105	0	0	0	0	0	0	
428	1580406963.910790004	0.00246463	-0.928798	2.13525	-2.77702	-1.5696	-2.62323	0	0	-0	0	0	0	0	-60.8414	-16.1749	-2.8209	0.406897	0.000117743	0	0	0	0	0	0	
429	1580406963.918733828	0.00247662	-0.928822	2.13523	-2.77702	-1.5696	-2.6232	0	0	-0	0	0	0	0	-60.8417	-16.1767	-2.82096	0.406901	0.000128793	0	0	0	0	0	0	
430	1580406963.926777057	0.00247662	-0.92887	2.1352	-2.77703	-1.56958	-2.62323	0	0	-0	0	0	0	0	-60.8415	-16.1793	-2.82106	0.406908	0.000149979	0	0	0	0	0	0	
431	1580406963.934741605	0.00250058	-0.92881	2.13526	-2.77703	-1.56961	-2.62321	0	0	-0	0	0	0	0	-60.8407	-16.1749	-2.82092	0.406888	0.000118895	0	0	0	0	0	0	
432	1580406963.942775972	0.00251257	-0.92887	2.1353	-2.77703	-1.56956	-2.62319	0	0	-0	0	0	0	0	-60.8381	-16.1758	-2.82095	0.406936	0.000131182	0	0	0	0	0	0	
433	1580406963.950744529	0.00250058	-0.928858	2.13523	-2.777	-1.5696	-2.62321	0	0	-0	0	0	0	0	-60.8409	-16.1779	-2.82099	0.406899	0.000134325	0	0	0	0	0	0	
434	1580406963.958748829	0.00250058	-0.92887	2.13526	-2.77703	-1.56957	-2.62323	0	0	-0	0	0	0	0	-60.8394	-16.1771	-2.82098	0.40692	0.000137877	0	0	0	0	0	0	
435	1580406963.967350183	0.00246463	-0.928822	2.13524	-2.77702	-1.56955	-2.62323	0	0	-0	0	0	0	0	-60.8413	-16.1762	-2.82094	0.406942	0.000132981	0	0	0	0	0	0	
436	1580406963.974786618	0.00250058	-0.928822	2.13529	-2.77702	-1.56961	-2.62323	0	0	-0	0	0	0	0	-60.8395	-16.1745	-2.82088	0.406886	0.000113149	0	0	0	0	0	0	
437	1580406963.982690692	0.00241707	-0.928822	2.13526	-2.77702	-1.5696	-2.62321	0	0	-0	0	0	0	0	-60.8404	-16.1754	-2.82091	0.406899	0.000120504	0	0	0	0	0	0	
438	1580406963.990751692	0.00245265	-0.928834	2.13525	-2.77702	-1.56958	-2.62323	0	0	-0	0	0	0	0	-60.8406	-16.1762	-2.82094	0.406908	0.000127755	0	0	0	0	0	0	
439	1580406963.998716918	0.00245265	-0.928822	2.13524	-2.77703	-1.56957	-2.62324	0	0	-0	0	0	0	0	-60.8413	-16.1762	-2.82095	0.406918	0.000132353	0	0	0	0	0	0	
440	1580406964.006705608	0.0024886	-0.928858	2.13525	-2.77702	-1.56955	-2.62321	0	0	-0	0	0	0	0	-60.84	-16.1771	-2.82097	0.406944	0.000138506	0	0	0	0	0	0	
441	1580406964.014775288	0.00251257	-0.928846	2.13525	-2.77703	-1.56957	-2.62324	0	0	-0	0	0	0	0	-60.8403	-16.1767	-2.82097	0.406918	0.000135117	0	0	0	0	0	0	
442	1580406964.022710863	0.00247662	-0.928834	2.13524	-2.77702	-1.5696	-2.62323	0	0	-0	0	0	0	0	-60.841	-16.1767	-2.82095	0.406897	0.0001288	0	0	0	0	0	0	
443	1580406964.030719682	0.00247662	-0.928834	2.13523	-2.77702	-1.5696	-2.62324	0	0	-0	0	0	0	0	-60.8414	-16.1771	-2.82097	0.406896	0.000131568	0	0	0	0	0	0	
444	1580406964.038761474	0.00247662	-0.928822	2.13526	-2.77703	-1.56958	-2.6232	0	0	-0	0	0	0	0	-60.8404	-16.1754	-2.82093	0.406912	0.000125094	0	0	0	0	0	0	
445	1580406964.046759184	0.00246463	-0.928834	2.13519	-2.777	-1.56956	-2.62323	0	0	-0	0	0	0	0	-60.8427	-16.1784	-2.821	0.406931	0.000142361	0	0	0	0	0	0	
446	1580406964.054729351	0.0024886	-0.928858	2.13525	-2.77703	-1.56958	-2.62323	0	0	-0	0	0	0	0	-60.8401	-16.1771	-2.82098	0.406908	0.000136158	0	0	0	0	0	0	
447	1580406964.062701847	0.00250058	-0.928834	2.13523	-2.77702	-1.5696	-2.62319	0	0	-0	0	0	0	0	-60.8414	-16.1771	-2.82098	0.406903	0.000131553	0	0	0	0	0	0	
448	1580406964.070768132	0.00250058	-0.928798	2.13526	-2.77702	-1.56956	-2.6232	0	0	-0	0	0	0	0	-60.841	-16.1745	-2.82089	0.406934	0.000120129	0	0	0	0	0	0	
449	1580406964.078796003	0.0024886	-0.928822	2.13525	-2.77703	-1.56957	-2.6232	0	0	-0	0	0	0	0	-60.8409	-16.1758	-2.82095	0.406923	0.000129577	0	0	0	0	0	0	
450	1580406964.086768920	0.00245265	-0.928846	2.13527	-2.777	-1.56957	-2.62321	0	0	-0	0	0	0	0	-60.8394	-16.1758	-2.82091	0.406921	0.000123832	0	0	0	0	0	0	
451	1580406964.094693283	0.0024886	-0.92881	2.13524	-2.77702	-1.56956	-2.62323	0	0	-0	0	0	0	0	-60.8415	-16.1758	-2.82093	0.406931	0.000128429	0	0	0	0	0	0	
452	1580406964.102719113	0.00247662	-0.92881	2.13521	-2.77702	-1.56958	-2.6232	0	0	-0	0	0	0	0	-60.8424	-16.1767	-2.82096	0.406912	0.000130512	0	0	0	0	0	0	
453	1580406964.110758521	0.00246463	-0.92887	2.13525	-2.77702	-1.5696	-2.6232	0	0	-0	0	0	0	0	-60.8398	-16.1775	-2.82099	0.406901	0.000134321	0	0	0	0	0	0	
454	1580406964.118785478	0.0024886	-0.928822	2.13525	-2.77702	-1.56961	-2.62323	0	0	-0	0	0	0	0	-60.8408	-16.1758	-2.82093	0.406886	0.000121553	0	0	0	0	0	0	
455	1580406964.126692439	0.00246463	-0.928882	2.13525	-2.77704	-1.5696	-2.6232	0	0	-0	0	0	0	0	-60.8395	-16.178	-2.82103	0.406901	0.000142835	0	0	0	0	0	0	
456	1580406964.134817450	0.0024886	-0.928858	2.13529	-2.77703	-1.5696	-2.62321	0	0	-0	0	0	0	0	-60.8387	-16.1758	-2.82094	0.406899	0.000126032	0	0	0	0	0	0	
457	1580406964.142736717	0.0024886	-0.92887	2.1352	-2.77703	-1.56957	-2.6232	0	0	-0	0	0	0	0	-60.8415	-16.1793	-2.82106	0.406923	0.000151691	0	0	0	0	0	0	
458	1580406964.150760105	0.00247662	-0.928846	2.13525	-2.777	-1.56961	-2.6232	0	0	-0	0	0	0	0	-60.8403	-16.1766	-2.82095	0.40689	0.000124309	0	0	0	0	0	0	
459	1580406964.158680546	0.00251257	-0.928822	2.13527	-2.77702	-1.5696	-2.62323	0	0	-0	0	0	0	0	-60.84	-16.1749	-2.8209	0.406897	0.000117633	0	0	0	0	0	0	
460	1580406964.166812415	0.00250058	-0.928834	2.13523	-2.77702	-1.56962	-2.62319	0	0	-0	0	0	0	0	-60.8414	-16.1771	-2.82098	0.40688	0.000128115	0	0	0	0	0	0	
461	1580406964.174771351	0.00250058	-0.92881	2.13527	-2.777	-1.56957	-2.62318	0	0	-0	0	0	0	0	-60.8402	-16.1745	-2.82088	0.406926	0.000115527	0	0	0	0	0	0	
462	1580406964.182727913	0.00247662	-0.928858	2.13525	-2.77702	-1.5696	-2.6232	0	0	-0	0	0	0	0	-60.84	-16.1771	-2.82097	0.406901	0.000131557	0	0	0	0	0	0	
463	1580406964.190742032	0.00250058	-0.928846	2.13524	-2.77702	-1.56958	-2.62319	0	0	-0	0	0	0	0	-60.8407	-16.1771	-2.82098	0.406914	0.000133272	0	0	0	0	0	0	
464	1580406964.198803180	0.00247662	-0.928846	2.13525	-2.777	-1.56955	-2.62319	0	0	-0	0	0	0	0	-60.8403	-16.1766	-2.82095	0.406947	0.00013297	0	0	0	0	0	0	
465	1580406964.206730713	0.00247662	-0.928834	2.13524	-2.77703	-1.56957	-2.62319	0	0	-0	0	0	0	0	-60.841	-16.1767	-2.82098	0.406925	0.000135102	0	0	0	0	0	0	
466	1580406964.214734386	0.00251257	-0.928774	2.13524	-2.77703	-1.56956	-2.62317	0	0	-0	0	0	0	0	-60.8424	-16.1745	-2.82091	0.406939	0.000122882	0	0	0	0	0	0	
467	1580406964.222682128	0.00247662	-0.928858	2.13519	-2.77703	-1.56957	-2.62321	0	0	-0	0	0	0	0	-60.8422	-16.1793	-2.82106	0.406921	0.000151805	0	0	0	0	0	0	
468	1580406964.230738145	0.00245265	-0.92881	2.13526	-2.77704	-1.56958	-2.62319	0	0	-0	0	0	0	0	-60.8407	-16.175	-2.82094	0.406914	0.00012509	0	0	0	0	0	0	
469	1580406964.238740401	0.00247662	-0.928834	2.13525	-2.77702	-1.56957	-2.6232	0	0	-0	0	0	0	0	-60.8406	-16.1762	-2.82095	0.406923	0.000129467	0	0	0	0	0	0	
470	1580406964.246777721	0.00244066	-0.928822	2.13527	-2.77702	-1.56961	-2.62321	0	0	-0	0	0	0	0	-60.84	-16.1749	-2.8209	0.406888	0.00011591	0	0	0	0	0	0	
471	1580406964.254716055	0.0024886	-0.928834	2.13523	-2.77704	-1.56958	-2.62323	0	0	-0	0	0	0	0	-60.8415	-16.1771	-2.821	0.406908	0.000138922	0	0	0	0	0	0	
472	1580406964.262775106	0.00247662	-0.928834	2.13525	-2.77699	-1.56961	-2.62323	0	0	-0	0	0	0	0	-60.8405	-16.1762	-2.82091	0.406886	0.000118788	0	0	0	0	0	0	
473	1580406964.270741905	0.00246463	-0.928834	2.13527	-2.77702	-1.5696	-2.62323	0	0	-0	0	0	0	0	-60.8397	-16.1753	-2.82091	0.406897	0.000120397	0	0	0	0	0	0	
474	1580406964.278731858	0.00246463	-0.928846	2.13525	-2.777	-1.56957	-2.62319	0	0	-0	0	0	0	0	-60.8403	-16.1766	-2.82095	0.406925	0.000129463	0	0	0	0	0	0	
475	1580406964.286736461	0.0024886	-0.92881	2.13526	-2.77703	-1.56956	-2.62321	0	0	-0	0	0	0	0	-60.8407	-16.1749	-2.82092	0.406932	0.000125772	0	0	0	0	0	0	
476	1580406964.294792210	0.00250058	-0.92881	2.13524	-2.77702	-1.56958	-2.62323	0	0	-0	0	0	0	0	-60.8415	-16.1758	-2.82093	0.406908	0.000124991	0	0	0	0	0	0	
477	1580406964.302699878	0.0024886	-0.928822	2.13523	-2.77702	-1.56958	-2.62324	0	0	-0	0	0	0	0	-60.8417	-16.1767	-2.82095	0.406907	0.000130523	0	0	0	0	0	0	
478	1580406964.310732985	0.0024886	-0.92881	2.13524	-2.777	-1.5696	-2.62321	0	0	-0	0	0	0	0	-60.8415	-16.1758	-2.82091	0.406899	0.000120504	0	0	0	0	0	0	
479	1580406964.318702237	0.00247662	-0.928858	2.13525	-2.77702	-1.56955	-2.62323	0	0	-0	0	0	0	0	-60.84	-16.1771	-2.82097	0.406942	0.00013851	0	0	0	0	0	0	
480	1580406964.326729041	0.00251257	-0.928858	2.1353	-2.77702	-1.56957	-2.62321	0	0	-0	0	0	0	0	-60.8383	-16.1753	-2.82091	0.406921	0.000123832	0	0	0	0	0	0	
481	1580406964.334719515	0.0024886	-0.928846	2.13525	-2.777	-1.56957	-2.62323	0	0	-0	0	0	0	0	-60.8403	-16.1766	-2.82094	0.40692	0.000129474	0	0	0	0	0	0	
482	1580406964.342692386	0.00244066	-0.928822	2.1353	-2.77702	-1.56958	-2.62321	0	0	-0	0	0	0	0	-60.8391	-16.1741	-2.82087	0.40691	0.00011382	0	0	0	0	0	0	
483	1580406964.350658199	0.0024886	-0.92887	2.13527	-2.77703	-1.5696	-2.62318	0	0	-0	0	0	0	0	-60.8389	-16.1767	-2.82098	0.406904	0.00013155	0	0	0	0	0	0	
484	1580406964.358733494	0.0024886	-0.928822	2.13521	-2.77703	-1.56958	-2.62321	0	0	-0	0	0	0	0	-60.8422	-16.1771	-2.82099	0.40691	0.000136155	0	0	0	0	0	0	
485	1580406964.366717161	0.00247662	-0.928786	2.13524	-2.777	-1.56957	-2.62319	0	0	-0	0	0	0	0	-60.8421	-16.1749	-2.82089	0.406925	0.000118406	0	0	0	0	0	0	
486	1580406964.374724022	0.00247662	-0.928834	2.13524	-2.77705	-1.56956	-2.62324	0	0	-0	0	0	0	0	-60.841	-16.1767	-2.821	0.406929	0.000142365	0	0	0	0	0	0	
487	1580406964.382713770	0.00250058	-0.928822	2.13527	-2.77702	-1.5696	-2.62319	0	0	-0	0	0	0	0	-60.84	-16.1749	-2.82091	0.406903	0.000117622	0	0	0	0	0	0	
488	1580406964.390731249	0.00250058	-0.928858	2.13524	-2.77704	-1.56956	-2.62324	0	0	-0	0	0	0	0	-60.8405	-16.1775	-2.82101	0.406929	0.000145129	0	0	0	0	0	0	
489	1580406964.398656787	0.00247662	-0.928846	2.13525	-2.77702	-1.56958	-2.62324	0	0	-0	0	0	0	0	-60.8403	-16.1767	-2.82095	0.406907	0.000130523	0	0	0	0	0	0	
490	1580406964.406709374	0.00247662	-0.928834	2.13525	-2.77704	-1.56957	-2.62321	0	0	-0	0	0	0	0	-60.8406	-16.1763	-2.82097	0.406921	0.00013511	0	0	0	0	0	0	
491	1580406964.414699736	0.0024886	-0.928846	2.13525	-2.77699	-1.56955	-2.62325	0	0	-0	0	0	0	0	-60.8403	-16.1766	-2.82092	0.406939	0.000130225	0	0	0	0	0	0	
492	1580406964.422687218	0.00247662	-0.928846	2.13525	-2.77703	-1.56962	-2.62323	0	0	-0	0	0	0	0	-60.8403	-16.1767	-2.82097	0.406875	0.000128237	0	0	0	0	0	0	
493	1580406964.430705942	0.0024886	-0.928822	2.13523	-2.77703	-1.56958	-2.62321	0	0	-0	0	0	0	0	-60.8417	-16.1767	-2.82097	0.40691	0.00013339	0	0	0	0	0	0	
494	1580406964.438712642	0.00247662	-0.928822	2.13526	-2.77699	-1.5696	-2.62323	0	0	-0	0	0	0	0	-60.8404	-16.1753	-2.82088	0.406897	0.000114979	0	0	0	0	0	0	
495	1580406964.446684881	0.00247662	-0.92881	2.13524	-2.77703	-1.56957	-2.62324	0	0	-0	0	0	0	0	-60.8416	-16.1758	-2.82094	0.406918	0.000129589	0	0	0	0	0	0	
496	1580406964.454703286	0.0024886	-0.928822	2.13525	-2.77703	-1.56958	-2.62321	0	0	-0	0	0	0	0	-60.8409	-16.1758	-2.82094	0.40691	0.000127862	0	0	0	0	0	0	
497	1580406964.462711593	0.00247662	-0.928834	2.13523	-2.77702	-1.56961	-2.6232	0	0	-0	0	0	0	0	-60.8414	-16.1771	-2.82097	0.40689	0.000129838	0	0	0	0	0	0	
498	1580406964.470752225	0.00246463	-0.92881	2.13529	-2.77702	-1.56957	-2.62318	0	0	-0	0	0	0	0	-60.8398	-16.1741	-2.82088	0.406926	0.000115527	0	0	0	0	0	0	
499	1580406964.478684715	0.00250058	-0.92881	2.13523	-2.777	-1.5696	-2.62321	0	0	-0	0	0	0	0	-60.842	-16.1762	-2.82093	0.406899	0.000123268	0	0	0	0	0	0	
500	1580406964.486736805	0.00245265	-0.92881	2.13523	-2.77703	-1.56955	-2.62319	0	0	-0	0	0	0	0	-60.842	-16.1762	-2.82096	0.406947	0.000135845	0	0	0	0	0	0	
501	1580406964.494741279	0.0024886	-0.928834	2.13524	-2.77702	-1.56956	-2.62323	0	0	-0	0	0	0	0	-60.841	-16.1767	-2.82095	0.406931	0.000133958	0	0	0	0	0	0	
502	1580406964.502731858	0.00245265	-0.92881	2.13526	-2.777	-1.56958	-2.62319	0	0	-0	0	0	0	0	-60.8407	-16.1749	-2.82089	0.406914	0.000116687	0	0	0	0	0	0	
503	1580406964.510712412	0.0024886	-0.92881	2.13525	-2.77703	-1.56961	-2.62319	0	0	-0	0	0	0	0	-60.8411	-16.1754	-2.82094	0.406891	0.000121652	0	0	0	0	0	0	
504	1580406964.518776354	0.00247662	-0.92887	2.13523	-2.77699	-1.56958	-2.6232	0	0	-0	0	0	0	0	-60.8406	-16.1784	-2.82099	0.406912	0.00013604	0	0	0	0	0	0	
505	1580406964.526743624	0.00247662	-0.92881	2.13524	-2.77703	-1.56957	-2.6232	0	0	-0	0	0	0	0	-60.8416	-16.1758	-2.82095	0.406923	0.000129577	0	0	0	0	0	0	
506	1580406964.534726024	0.00245265	-0.928786	2.13524	-2.77703	-1.56958	-2.62321	0	0	-0	0	0	0	0	-60.8421	-16.1749	-2.82092	0.40691	0.000122334	0	0	0	0	0	0	
507	1580406964.542712188	0.00251257	-0.928834	2.13523	-2.77703	-1.56956	-2.62319	0	0	-0	0	0	0	0	-60.8415	-16.1771	-2.82099	0.406936	0.000139585	0	0	0	0	0	0	
508	1580406964.550760600	0.00247662	-0.928846	2.13525	-2.77702	-1.5696	-2.62323	0	0	-0	0	0	0	0	-60.8403	-16.1767	-2.82095	0.406897	0.0001288	0	0	0	0	0	0	
509	1580406964.558753441	0.00251257	-0.928846	2.13526	-2.77702	-1.5696	-2.62323	0	0	-0	0	0	0	0	-60.8399	-16.1762	-2.82094	0.406897	0.000126036	0	0	0	0	0	0	
510	1580406964.566796613	0.00247662	-0.92881	2.13525	-2.77699	-1.56956	-2.62319	0	0	-0	0	0	0	0	-60.8411	-16.1753	-2.82089	0.406936	0.000120125	0	0	0	0	0	0	
511	1580406964.574716614	0.0024886	-0.928846	2.13525	-2.777	-1.56961	-2.62321	0	0	-0	0	0	0	0	-60.8403	-16.1766	-2.82094	0.406888	0.000124313	0	0	0	0	0	0	
512	1580406964.582738911	0.00250058	-0.928798	2.13527	-2.77698	-1.56957	-2.62321	0	0	-0	0	0	0	0	-60.8405	-16.174	-2.82083	0.406921	0.000107246	0	0	0	0	0	0	
513	1580406964.590716757	0.00245265	-0.928846	2.13526	-2.77703	-1.56957	-2.62319	0	0	-0	0	0	0	0	-60.8399	-16.1762	-2.82096	0.406925	0.000132338	0	0	0	0	0	0	
514	1580406964.598781319	0.00247662	-0.928846	2.13525	-2.77702	-1.56956	-2.6232	0	0	-0	0	0	0	0	-60.8403	-16.1767	-2.82096	0.406934	0.00013395	0	0	0	0	0	0	
515	1580406964.606687393	0.00246463	-0.928846	2.13526	-2.77702	-1.56955	-2.6232	0	0	-0	0	0	0	0	-60.8399	-16.1762	-2.82095	0.406946	0.000132974	0	0	0	0	0	0	
516	1580406964.614742021	0.00247662	-0.928858	2.13525	-2.777	-1.56958	-2.62323	0	0	-0	0	0	0	0	-60.84	-16.1771	-2.82095	0.406908	0.000130519	0	0	0	0	0	0	
517	1580406964.622746634	0.00250058	-0.928822	2.13529	-2.777	-1.56961	-2.62323	0	0	-0	0	0	0	0	-60.8395	-16.1745	-2.82087	0.406886	0.000110385	0	0	0	0	0	0	
518	1580406964.630756855	0.00247662	-0.928846	2.13525	-2.77703	-1.56957	-2.62321	0	0	-0	0	0	0	0	-60.8403	-16.1767	-2.82097	0.406921	0.00013511	0	0	0	0	0	0	
519	1580406964.638712373	0.0024886	-0.928834	2.13529	-2.77702	-1.5696	-2.62324	0	0	-0	0	0	0	0	-60.8393	-16.1749	-2.82089	0.406896	0.000117637	0	0	0	0	0	0	
520	1580406964.647662946	0.00247662	-0.92887	2.13525	-2.77702	-1.56958	-2.6232	0	0	-0	0	0	0	0	-60.8398	-16.1775	-2.82099	0.406912	0.00013604	0	0	0	0	0	0	
521	1580406964.654735187	0.00246463	-0.92881	2.13525	-2.77699	-1.56957	-2.6232	0	0	-0	0	0	0	0	-60.8411	-16.1753	-2.82089	0.406923	0.00011841	0	0	0	0	0	0	
522	1580406964.662723133	0.00246463	-0.928822	2.13525	-2.77705	-1.5696	-2.6232	0	0	-0	0	0	0	0	-60.8409	-16.1758	-2.82098	0.406901	0.000131668	0	0	0	0	0	0	
523	1580406964.670724121	0.00251257	-0.928858	2.13524	-2.77699	-1.56958	-2.6232	0	0	-0	0	0	0	0	-60.8404	-16.1775	-2.82096	0.406912	0.000130512	0	0	0	0	0	0	
524	1580406964.678740422	0.00252455	-0.928834	2.1353	-2.77699	-1.56955	-2.62321	0	0	-0	0	0	0	0	-60.8388	-16.1745	-2.82086	0.406944	0.000116282	0	0	0	0	0	0	
525	1580406964.686716217	0.00247662	-0.928846	2.13525	-2.77703	-1.56955	-2.62325	0	0	-0	0	0	0	0	-60.8403	-16.1767	-2.82096	0.406939	0.000138628	0	0	0	0	0	0	
526	1580406964.694767373	0.00246463	-0.928834	2.13526	-2.77704	-1.56954	-2.62319	0	0	-0	0	0	0	0	-60.8402	-16.1758	-2.82096	0.406958	0.000137564	0	0	0	0	0	0	
527	1580406964.702681861	0.00246463	-0.928846	2.13527	-2.77704	-1.56958	-2.62324	0	0	-0	0	0	0	0	-60.8395	-16.1758	-2.82095	0.406907	0.000130523	0	0	0	0	0	0	
528	1580406964.710778830	0.00246463	-0.92881	2.13527	-2.77702	-1.5696	-2.62321	0	0	-0	0	0	0	0	-60.8402	-16.1745	-2.82089	0.406899	0.000114865	0	0	0	0	0	0	
529	1580406964.718753847	0.0024886	-0.928846	2.13527	-2.77705	-1.56957	-2.62321	0	0	-0	0	0	0	0	-60.8395	-16.1758	-2.82097	0.406921	0.000134999	0	0	0	0	0	0	
530	1580406964.726776758	0.00247662	-0.928798	2.13529	-2.77702	-1.56956	-2.62318	0	0	-0	0	0	0	0	-60.8401	-16.1736	-2.82086	0.406938	0.000114482	0	0	0	0	0	0	
531	1580406964.734741095	0.00247662	-0.928834	2.13524	-2.77702	-1.5696	-2.62323	0	0	-0	0	0	0	0	-60.841	-16.1767	-2.82095	0.406897	0.0001288	0	0	0	0	0	0	
532	1580406964.742841271	0.00250058	-0.928846	2.13525	-2.77702	-1.56954	-2.6232	0	0	-0	0	0	0	0	-60.8403	-16.1767	-2.82096	0.406957	0.000137457	0	0	0	0	0	0	
533	1580406964.750751157	0.00250058	-0.928858	2.13525	-2.77702	-1.56957	-2.62321	0	0	-0	0	0	0	0	-60.84	-16.1771	-2.82097	0.406921	0.000134999	0	0	0	0	0	0	
534	1580406964.758699731	0.00247662	-0.92887	2.13526	-2.77703	-1.56961	-2.62323	0	0	-0	0	0	0	0	-60.8394	-16.1771	-2.82098	0.406886	0.00013272	0	0	0	0	0	0	
535	1580406964.766710220	0.00247662	-0.928822	2.13526	-2.77704	-1.56958	-2.62321	0	0	-0	0	0	0	0	-60.8404	-16.1754	-2.82094	0.40691	0.000127862	0	0	0	0	0	0	
536	1580406964.774698478	0.00247662	-0.928858	2.13527	-2.77702	-1.56958	-2.62321	0	0	-0	0	0	0	0	-60.8392	-16.1762	-2.82094	0.40691	0.000127641	0	0	0	0	0	0	
537	1580406964.782675803	0.00246463	-0.928834	2.13525	-2.77703	-1.56958	-2.62321	0	0	-0	0	0	0	0	-60.8406	-16.1762	-2.82096	0.40691	0.000130626	0	0	0	0	0	0	
538	1580406964.790755448	0.00246463	-0.928822	2.13524	-2.77704	-1.56961	-2.62317	0	0	-0	0	0	0	0	-60.8413	-16.1763	-2.82098	0.406895	0.000129938	0	0	0	0	0	0	
539	1580406964.798714465	0.00247662	-0.928822	2.13525	-2.77704	-1.56957	-2.6232	0	0	-0	0	0	0	0	-60.8409	-16.1758	-2.82096	0.406923	0.000132342	0	0	0	0	0	0	
540	1580406964.806861933	0.00244066	-0.92881	2.13523	-2.77702	-1.56958	-2.62319	0	0	-0	0	0	0	0	-60.842	-16.1762	-2.82095	0.406914	0.000127744	0	0	0	0	0	0	
541	1580406964.814735578	0.00247662	-0.928834	2.13526	-2.77702	-1.5696	-2.62323	0	0	-0	0	0	0	0	-60.8401	-16.1758	-2.82093	0.406897	0.000123272	0	0	0	0	0	0	
542	1580406964.822814157	0.00250058	-0.92887	2.13525	-2.77702	-1.56957	-2.62323	0	0	-0	0	0	0	0	-60.8398	-16.1775	-2.82098	0.40692	0.000137767	0	0	0	0	0	0	
543	1580406964.830722458	0.00247662	-0.928822	2.13525	-2.77703	-1.56955	-2.62319	0	0	-0	0	0	0	0	-60.8409	-16.1758	-2.82095	0.406947	0.000133081	0	0	0	0	0	0	
544	1580406964.838792153	0.00247662	-0.928822	2.13526	-2.77703	-1.56958	-2.62324	0	0	-0	0	0	0	0	-60.8404	-16.1754	-2.82092	0.406907	0.000125105	0	0	0	0	0	0	
545	1580406964.846750975	0.00250058	-0.92881	2.13525	-2.77704	-1.56958	-2.62318	0	0	-0	0	0	0	0	-60.8412	-16.1754	-2.82095	0.406915	0.000127851	0	0	0	0	0	0	
546	1580406964.854707465	0.0024886	-0.928834	2.13526	-2.77702	-1.56958	-2.62317	0	0	-0	0	0	0	0	-60.8402	-16.1758	-2.82094	0.406917	0.000124972	0	0	0	0	0	0	
547	1580406964.862737658	0.00251257	-0.928834	2.13527	-2.77702	-1.56958	-2.62321	0	0	-0	0	0	0	0	-60.8397	-16.1753	-2.82091	0.40691	0.000122112	0	0	0	0	0	0	
548	1580406964.870843016	0.00245265	-0.928846	2.13525	-2.77703	-1.56958	-2.62321	0	0	-0	0	0	0	0	-60.8403	-16.1767	-2.82097	0.40691	0.00013339	0	0	0	0	0	0	
549	1580406964.878751939	0.00250058	-0.92881	2.13525	-2.77703	-1.56956	-2.6232	0	0	-0	0	0	0	0	-60.8411	-16.1754	-2.82093	0.406934	0.000128532	0	0	0	0	0	0	
550	1580406964.886693333	0.00247662	-0.92881	2.13527	-2.77704	-1.56958	-2.6232	0	0	-0	0	0	0	0	-60.8403	-16.1745	-2.82092	0.406912	0.000122219	0	0	0	0	0	0	
551	1580406964.894700486	0.00250058	-0.928834	2.13525	-2.77703	-1.5696	-2.62318	0	0	-0	0	0	0	0	-60.8406	-16.1762	-2.82097	0.406904	0.000128896	0	0	0	0	0	0	
552	1580406964.902758213	0.0024886	-0.92887	2.13525	-2.77702	-1.5696	-2.62323	0	0	-0	0	0	0	0	-60.8398	-16.1775	-2.82098	0.406897	0.000134329	0	0	0	0	0	0	
553	1580406964.910754049	0.00247662	-0.928846	2.13526	-2.77703	-1.56957	-2.6232	0	0	-0	0	0	0	0	-60.8399	-16.1762	-2.82096	0.406923	0.000132342	0	0	0	0	0	0	
554	1580406964.918677332	0.00250058	-0.928858	2.13526	-2.77703	-1.56957	-2.62321	0	0	-0	0	0	0	0	-60.8396	-16.1767	-2.82097	0.406921	0.00013511	0	0	0	0	0	0	
555	1580406964.926736116	0.00245265	-0.928846	2.13524	-2.77702	-1.56957	-2.62318	0	0	-0	0	0	0	0	-60.8407	-16.1771	-2.82098	0.406926	0.000134988	0	0	0	0	0	0	
556	1580406964.934764919	0.00250058	-0.92887	2.13525	-2.77702	-1.56958	-2.62323	0	0	-0	0	0	0	0	-60.8398	-16.1775	-2.82098	0.406908	0.000136048	0	0	0	0	0	0	
557	1580406964.942742954	0.00245265	-0.928834	2.13525	-2.777	-1.56961	-2.6232	0	0	-0	0	0	0	0	-60.8406	-16.1762	-2.82093	0.40689	0.000121545	0	0	0	0	0	0	
558	1580406964.950761691	0.00246463	-0.928834	2.13524	-2.77703	-1.56961	-2.62321	0	0	-0	0	0	0	0	-60.841	-16.1767	-2.82097	0.406888	0.000129952	0	0	0	0	0	0	
559	1580406964.958733742	0.00246463	-0.928846	2.13527	-2.77703	-1.56956	-2.62323	0	0	-0	0	0	0	0	-60.8394	-16.1758	-2.82094	0.406931	0.000131193	0	0	0	0	0	0	
560	1580406964.966772626	0.00247662	-0.92881	2.13526	-2.77705	-1.56955	-2.62319	0	0	-0	0	0	0	0	-60.8407	-16.175	-2.82095	0.406947	0.000133081	0	0	0	0	0	0	
561	1580406964.974771318	0.00247662	-0.928846	2.13524	-2.77702	-1.56961	-2.62315	0	0	-0	0	0	0	0	-60.8408	-16.1771	-2.82099	0.406897	0.000129823	0	0	0	0	0	0	
562	1580406964.982727546	0.0024886	-0.928834	2.13525	-2.77702	-1.5696	-2.6232	0	0	-0	0	0	0	0	-60.8406	-16.1762	-2.82095	0.406901	0.000126029	0	0	0	0	0	0	
563	1580406964.990737684	0.00250058	-0.928846	2.13525	-2.77704	-1.5696	-2.6232	0	0	-0	0	0	0	0	-60.8403	-16.1767	-2.82099	0.406901	0.000134432	0	0	0	0	0	0	
564	1580406964.998772270	0.00250058	-0.928834	2.13526	-2.777	-1.56956	-2.62323	0	0	-0	0	0	0	0	-60.8401	-16.1758	-2.82091	0.406931	0.000125665	0	0	0	0	0	0	
565	1580406965.006755087	0.0024886	-0.928846	2.1353	-2.77703	-1.56957	-2.62324	0	0	-0	0	0	0	0	-60.8386	-16.1749	-2.82091	0.406918	0.00012395	0	0	0	0	0	0	
566	1580406965.014744846	0.0024886	-0.928834	2.13526	-2.77702	-1.56956	-2.6232	0	0	-0	0	0	0	0	-60.8402	-16.1758	-2.82093	0.406934	0.000128422	0	0	0	0	0	0	
567	1580406965.022731083	0.00247662	-0.92881	2.13525	-2.777	-1.56956	-2.62319	0	0	-0	0	0	0	0	-60.8411	-16.1754	-2.82091	0.406936	0.000122889	0	0	0	0	0	0	
568	1580406965.030771107	0.00252455	-0.92887	2.13524	-2.77703	-1.56956	-2.62325	0	0	-0	0	0	0	0	-60.8402	-16.178	-2.82101	0.406927	0.000145132	0	0	0	0	0	0	
569	1580406965.038747402	0.00247662	-0.92881	2.13525	-2.77702	-1.56958	-2.62321	0	0	-0	0	0	0	0	-60.8411	-16.1754	-2.82091	0.40691	0.000122223	0	0	0	0	0	0	
570	1580406965.046752298	0.00250058	-0.92881	2.13526	-2.77705	-1.56957	-2.62319	0	0	-0	0	0	0	0	-60.8407	-16.175	-2.82095	0.406925	0.000129574	0	0	0	0	0	0	
571	1580406965.054730948	0.00247662	-0.928882	2.13526	-2.77702	-1.5696	-2.62319	0	0	-0	0	0	0	0	-60.8391	-16.1775	-2.82099	0.406903	0.000134428	0	0	0	0	0	0	
572	1580406965.062724332	0.00251257	-0.928822	2.13525	-2.77705	-1.56958	-2.62321	0	0	-0	0	0	0	0	-60.8409	-16.1758	-2.82097	0.40691	0.00013339	0	0	0	0	0	0	
573	1580406965.070713428	0.0024886	-0.92881	2.13524	-2.77702	-1.5696	-2.62323	0	0	-0	0	0	0	0	-60.8415	-16.1758	-2.82093	0.406897	0.000123272	0	0	0	0	0	0	
574	1580406965.078707511	0.00245265	-0.928822	2.13526	-2.77702	-1.56961	-2.6232	0	0	-0	0	0	0	0	-60.8404	-16.1754	-2.82092	0.40689	0.000118781	0	0	0	0	0	0	
575	1580406965.086735714	0.00246463	-0.92887	2.13525	-2.77704	-1.5696	-2.6232	0	0	-0	0	0	0	0	-60.8398	-16.1776	-2.82102	0.406901	0.00013996	0	0	0	0	0	0	
576	1580406965.094693996	0.00246463	-0.92881	2.13526	-2.77702	-1.56958	-2.62321	0	0	-0	0	0	0	0	-60.8407	-16.1749	-2.8209	0.40691	0.000119459	0	0	0	0	0	0	
577	1580406965.102704817	0.00245265	-0.928846	2.13525	-2.77703	-1.5696	-2.62323	0	0	-0	0	0	0	0	-60.8403	-16.1767	-2.82097	0.406897	0.000131675	0	0	0	0	0	0	
578	1580406965.110769819	0.00246463	-0.928834	2.13525	-2.77703	-1.56956	-2.62319	0	0	-0	0	0	0	0	-60.8406	-16.1762	-2.82096	0.406936	0.000134057	0	0	0	0	0	0	
579	1580406965.118727977	0.00246463	-0.928798	2.13524	-2.77703	-1.5696	-2.62319	0	0	-0	0	0	0	0	-60.8418	-16.1754	-2.82094	0.406903	0.000123371	0	0	0	0	0	0	
580	1580406965.126717864	0.0024886	-0.928846	2.13526	-2.77703	-1.5696	-2.62321	0	0	-0	0	0	0	0	-60.8399	-16.1762	-2.82096	0.406899	0.000128907	0	0	0	0	0	0	
581	1580406965.134746551	0.00250058	-0.928834	2.13524	-2.77703	-1.56957	-2.62323	0	0	-0	0	0	0	0	-60.841	-16.1767	-2.82097	0.40692	0.000135113	0	0	0	0	0	0	
582	1580406965.142749099	0.00246463	-0.928846	2.13527	-2.77702	-1.5696	-2.62324	0	0	-0	0	0	0	0	-60.8394	-16.1758	-2.82092	0.406896	0.000123165	0	0	0	0	0	0	
583	1580406965.150695482	0.0024886	-0.928846	2.13523	-2.777	-1.56957	-2.6232	0	0	-0	0	0	0	0	-60.8412	-16.1775	-2.82097	0.406923	0.000134995	0	0	0	0	0	0	
584	1580406965.158756476	0.00251257	-0.928834	2.13526	-2.77702	-1.56958	-2.62321	0	0	-0	0	0	0	0	-60.8401	-16.1758	-2.82093	0.40691	0.000124987	0	0	0	0	0	0	
585	1580406965.166753532	0.00251257	-0.928786	2.13526	-2.77703	-1.56957	-2.6232	0	0	-0	0	0	0	0	-60.8412	-16.1741	-2.82089	0.406923	0.00011852	0	0	0	0	0	0	
586	1580406965.174685597	0.00247662	-0.928822	2.13527	-2.77703	-1.56958	-2.62319	0	0	-0	0	0	0	0	-60.84	-16.1749	-2.82092	0.406914	0.000122215	0	0	0	0	0	0	
587	1580406965.182717145	0.0024886	-0.928834	2.13524	-2.77703	-1.56957	-2.6232	0	0	-0	0	0	0	0	-60.841	-16.1767	-2.82098	0.406923	0.000135106	0	0	0	0	0	0	
588	1580406965.190788278	0.00247662	-0.928834	2.13529	-2.77704	-1.5696	-2.6232	0	0	-0	0	0	0	0	-60.8393	-16.1749	-2.82093	0.406901	0.000123264	0	0	0	0	0	0	
589	1580406965.198734580	0.00247662	-0.928822	2.13526	-2.777	-1.56954	-2.62321	0	0	-0	0	0	0	0	-60.8404	-16.1753	-2.8209	0.406955	0.000126404	0	0	0	0	0	0	
590	1580406965.206734500	0.00246463	-0.928822	2.13525	-2.777	-1.56956	-2.62321	0	0	-0	0	0	0	0	-60.8408	-16.1758	-2.82091	0.406932	0.000125661	0	0	0	0	0	0	
591	1580406965.214724869	0.00246463	-0.928834	2.13524	-2.77702	-1.5696	-2.62323	0	0	-0	0	0	0	0	-60.841	-16.1767	-2.82095	0.406897	0.0001288	0	0	0	0	0	0	
592	1580406965.222781144	0.00247662	-0.928798	2.13526	-2.77699	-1.56955	-2.62323	0	0	-0	0	0	0	0	-60.8409	-16.1745	-2.82085	0.406942	0.000116396	0	0	0	0	0	0	
593	1580406965.230771448	0.00247662	-0.928846	2.13521	-2.77702	-1.56958	-2.6232	0	0	-0	0	0	0	0	-60.8416	-16.178	-2.821	0.406912	0.000138805	0	0	0	0	0	0	
594	1580406965.238736212	0.00251257	-0.92887	2.13524	-2.777	-1.56957	-2.62321	0	0	-0	0	0	0	0	-60.8402	-16.1779	-2.82099	0.406921	0.000137763	0	0	0	0	0	0	
595	1580406965.246711608	0.00245265	-0.928822	2.13527	-2.777	-1.56958	-2.6232	0	0	-0	0	0	0	0	-60.84	-16.1749	-2.82089	0.406912	0.00011658	0	0	0	0	0	0	
596	1580406965.254707295	0.00250058	-0.928834	2.13525	-2.77702	-1.56957	-2.6232	0	0	-0	0	0	0	0	-60.8406	-16.1762	-2.82095	0.406923	0.000129467	0	0	0	0	0	0	
597	1580406965.262674549	0.00250058	-0.928846	2.13525	-2.77704	-1.56958	-2.62321	0	0	-0	0	0	0	0	-60.8403	-16.1767	-2.82099	0.40691	0.000136155	0	0	0	0	0	0	
598	1580406965.270725062	0.0024886	-0.928834	2.13525	-2.77702	-1.56957	-2.6232	0	0	-0	0	0	0	0	-60.8406	-16.1762	-2.82095	0.406923	0.000129467	0	0	0	0	0	0	
599	1580406965.278734125	0.0024886	-0.92881	2.13525	-2.77702	-1.56958	-2.62323	0	0	-0	0	0	0	0	-60.8411	-16.1754	-2.82091	0.406908	0.000122227	0	0	0	0	0	0	
600	1580406965.286725751	0.0024886	-0.92881	2.13524	-2.77702	-1.56956	-2.62321	0	0	-0	0	0	0	0	-60.8415	-16.1758	-2.82093	0.406932	0.000128425	0	0	0	0	0	0	
601	1580406965.294698862	0.0024886	-0.928798	2.13526	-2.77704	-1.56957	-2.62319	0	0	-0	0	0	0	0	-60.841	-16.1745	-2.82092	0.406925	0.000124045	0	0	0	0	0	0	
602	1580406965.302660348	0.00246463	-0.928798	2.13526	-2.777	-1.56956	-2.62319	0	0	-0	0	0	0	0	-60.8409	-16.1745	-2.82088	0.406936	0.000117361	0	0	0	0	0	0	
603	1580406965.310738473	0.0024886	-0.928822	2.13523	-2.777	-1.5696	-2.62319	0	0	-0	0	0	0	0	-60.8417	-16.1766	-2.82095	0.406903	0.000126025	0	0	0	0	0	0	
604	1580406965.318732918	0.00247662	-0.92881	2.13526	-2.77703	-1.56961	-2.62321	0	0	-0	0	0	0	0	-60.8407	-16.1749	-2.82092	0.406888	0.000118895	0	0	0	0	0	0	
605	1580406965.326733563	0.00250058	-0.928786	2.13525	-2.777	-1.56958	-2.6232	0	0	-0	0	0	0	0	-60.8416	-16.1745	-2.82087	0.406912	0.000113926	0	0	0	0	0	0	
606	1580406965.334720372	0.0024886	-0.928822	2.1352	-2.77702	-1.56961	-2.6232	0	0	-0	0	0	0	0	-60.8426	-16.1775	-2.82099	0.40689	0.000132602	0	0	0	0	0	0	
607	1580406965.342686097	0.00245265	-0.928846	2.13524	-2.77702	-1.56957	-2.6232	0	0	-0	0	0	0	0	-60.8407	-16.1771	-2.82097	0.406923	0.000134995	0	0	0	0	0	0	
608	1580406965.350680942	0.00250058	-0.928846	2.13526	-2.77704	-1.56956	-2.62321	0	0	-0	0	0	0	0	-60.8399	-16.1763	-2.82097	0.406932	0.000136829	0	0	0	0	0	0	
609	1580406965.358707820	0.00250058	-0.92881	2.13524	-2.777	-1.56957	-2.62321	0	0	-0	0	0	0	0	-60.8415	-16.1758	-2.82091	0.406921	0.000123942	0	0	0	0	0	0	
610	1580406965.366678674	0.00246463	-0.928798	2.13529	-2.77702	-1.56956	-2.62324	0	0	-0	0	0	0	0	-60.8401	-16.1736	-2.82085	0.406929	0.000114502	0	0	0	0	0	0	
611	1580406965.374680810	0.00250058	-0.928822	2.13521	-2.77699	-1.56958	-2.6232	0	0	-0	0	0	0	0	-60.8421	-16.1771	-2.82095	0.406912	0.000127748	0	0	0	0	0	0	
612	1580406965.382718631	0.00245265	-0.928834	2.13523	-2.77703	-1.56956	-2.62319	0	0	-0	0	0	0	0	-60.8415	-16.1771	-2.82099	0.406936	0.000139585	0	0	0	0	0	0	
613	1580406965.390676632	0.00245265	-0.928858	2.13521	-2.77703	-1.5696	-2.6232	0	0	-0	0	0	0	0	-60.8414	-16.1784	-2.82103	0.406901	0.000142725	0	0	0	0	0	0	
614	1580406965.398744032	0.00247662	-0.928846	2.13527	-2.77705	-1.56958	-2.6232	0	0	-0	0	0	0	0	-60.8395	-16.1758	-2.82097	0.406912	0.000133276	0	0	0	0	0	0	
615	1580406965.406763395	0.00247662	-0.928822	2.13525	-2.77702	-1.56956	-2.62324	0	0	-0	0	0	0	0	-60.8408	-16.1758	-2.82092	0.406929	0.000128433	0	0	0	0	0	0	
616	1580406965.414819076	0.00246463	-0.928798	2.13525	-2.77702	-1.56957	-2.62324	0	0	-0	0	0	0	0	-60.8414	-16.1749	-2.82089	0.406918	0.000121186	0	0	0	0	0	0	
617	1580406965.422742439	0.00244066	-0.92881	2.13527	-2.77702	-1.56961	-2.6232	0	0	-0	0	0	0	0	-60.8402	-16.1745	-2.82089	0.40689	0.000113142	0	0	0	0	0	0	
618	1580406965.430752482	0.00246463	-0.928822	2.13529	-2.77703	-1.56958	-2.62323	0	0	-0	0	0	0	0	-60.8395	-16.1745	-2.8209	0.406908	0.000119463	0	0	0	0	0	0	
619	1580406965.438740833	0.00250058	-0.92887	2.13524	-2.777	-1.56956	-2.6232	0	0	-0	0	0	0	0	-60.8402	-16.1779	-2.82099	0.406934	0.000139479	0	0	0	0	0	0	
620	1580406965.446796469	0.00247662	-0.928822	2.13525	-2.77702	-1.56957	-2.62321	0	0	-0	0	0	0	0	-60.8408	-16.1758	-2.82093	0.406921	0.000126706	0	0	0	0	0	0	
621	1580406965.454732973	0.00246463	-0.928846	2.13527	-2.77703	-1.5696	-2.62319	0	0	-0	0	0	0	0	-60.8395	-16.1758	-2.82095	0.406903	0.000126025	0	0	0	0	0	0	
622	1580406965.462727849	0.00251257	-0.92881	2.13527	-2.77702	-1.56958	-2.62325	0	0	-0	0	0	0	0	-60.8402	-16.1745	-2.82088	0.406905	0.000116595	0	0	0	0	0	0	
623	1580406965.470701616	0.00251257	-0.928858	2.13527	-2.77699	-1.56958	-2.62324	0	0	-0	0	0	0	0	-60.8391	-16.1762	-2.82091	0.406907	0.00012212	0	0	0	0	0	0	
624	1580406965.478842570	0.00247662	-0.92881	2.13521	-2.777	-1.56961	-2.62323	0	0	-0	0	0	0	0	-60.8424	-16.1766	-2.82094	0.406886	0.000124317	0	0	0	0	0	0	
625	1580406965.486680287	0.0024886	-0.928822	2.13524	-2.77702	-1.56956	-2.6232	0	0	-0	0	0	0	0	-60.8413	-16.1762	-2.82095	0.406934	0.000131186	0	0	0	0	0	0	
626	1580406965.494680085	0.00246463	-0.92881	2.13525	-2.77703	-1.5696	-2.62319	0	0	-0	0	0	0	0	-60.8411	-16.1754	-2.82094	0.406903	0.000123371	0	0	0	0	0	0	
627	1580406965.502753630	0.00247662	-0.928846	2.13524	-2.777	-1.56957	-2.62321	0	0	-0	0	0	0	0	-60.8407	-16.1771	-2.82096	0.406921	0.000132235	0	0	0	0	0	0	
628	1580406965.510781146	0.0024886	-0.928834	2.13526	-2.77705	-1.56956	-2.6232	0	0	-0	0	0	0	0	-60.8402	-16.1758	-2.82098	0.406934	0.000136825	0	0	0	0	0	0	
629	1580406965.518752103	0.00246463	-0.928846	2.13524	-2.77703	-1.56961	-2.62321	0	0	-0	0	0	0	0	-60.8408	-16.1771	-2.82099	0.406888	0.000132716	0	0	0	0	0	0	
630	1580406965.526725960	0.00245265	-0.928822	2.13525	-2.77703	-1.56954	-2.6232	0	0	-0	0	0	0	0	-60.8409	-16.1758	-2.82095	0.406957	0.000134803	0	0	0	0	0	0	
631	1580406965.534715839	0.00247662	-0.92881	2.13525	-2.77702	-1.56958	-2.62319	0	0	-0	0	0	0	0	-60.8411	-16.1754	-2.82092	0.406914	0.000122215	0	0	0	0	0	0	
632	1580406965.542700705	0.0024886	-0.92881	2.13525	-2.77702	-1.5696	-2.62321	0	0	-0	0	0	0	0	-60.8411	-16.1754	-2.82091	0.406899	0.000120504	0	0	0	0	0	0	
633	1580406965.550759567	0.00245265	-0.928858	2.13525	-2.77702	-1.56958	-2.6232	0	0	-0	0	0	0	0	-60.84	-16.1771	-2.82097	0.406912	0.000133276	0	0	0	0	0	0	
634	1580406965.558712426	0.00251257	-0.928834	2.13527	-2.77702	-1.56957	-2.62324	0	0	-0	0	0	0	0	-60.8397	-16.1753	-2.82091	0.406918	0.000123839	0	0	0	0	0	0	
635	1580406965.566741729	0.00250058	-0.928786	2.13525	-2.77702	-1.56955	-2.62324	0	0	-0	0	0	0	0	-60.8416	-16.1745	-2.82088	0.40694	0.000121929	0	0	0	0	0	0	
636	1580406965.574732592	0.00247662	-0.92881	2.13527	-2.77702	-1.5696	-2.62323	0	0	-0	0	0	0	0	-60.8402	-16.1745	-2.82088	0.406897	0.000114869	0	0	0	0	0	0	
637	1580406965.582715368	0.00247662	-0.928858	2.13524	-2.77704	-1.56957	-2.62319	0	0	-0	0	0	0	0	-60.8405	-16.1776	-2.82102	0.406925	0.000143395	0	0	0	0	0	0	
638	1580406965.590747172	0.00246463	-0.92887	2.13524	-2.77702	-1.56957	-2.6232	0	0	-0	0	0	0	0	-60.8402	-16.178	-2.821	0.406923	0.000140524	0	0	0	0	0	0	
639	1580406965.598692947	0.00246463	-0.928834	2.13529	-2.77702	-1.5696	-2.62321	0	0	-0	0	0	0	0	-60.8393	-16.1749	-2.8209	0.406899	0.000117629	0	0	0	0	0	0	
640	1580406965.606724685	0.0024886	-0.928858	2.13525	-2.77703	-1.5696	-2.62321	0	0	-0	0	0	0	0	-60.8401	-16.1771	-2.82099	0.406899	0.000134435	0	0	0	0	0	0	
641	1580406965.614757380	0.00246463	-0.928822	2.13527	-2.777	-1.56955	-2.62321	0	0	-0	0	0	0	0	-60.84	-16.1749	-2.82089	0.406944	0.00012181	0	0	0	0	0	0	
642	1580406965.622747551	0.00250058	-0.92881	2.13524	-2.77703	-1.56958	-2.6232	0	0	-0	0	0	0	0	-60.8416	-16.1758	-2.82095	0.406912	0.000127858	0	0	0	0	0	0	
643	1580406965.630745562	0.00247662	-0.928846	2.13526	-2.77704	-1.56956	-2.62321	0	0	-0	0	0	0	0	-60.8399	-16.1763	-2.82097	0.406932	0.000136829	0	0	0	0	0	0	
644	1580406965.638784941	0.0024886	-0.928834	2.13525	-2.77702	-1.56961	-2.62321	0	0	-0	0	0	0	0	-60.8406	-16.1762	-2.82094	0.406888	0.000124313	0	0	0	0	0	0	
645	1580406965.646768768	0.0024886	-0.928822	2.13526	-2.77702	-1.56957	-2.62319	0	0	-0	0	0	0	0	-60.8404	-16.1754	-2.82092	0.406925	0.000123935	0	0	0	0	0	0	
646	1580406965.654673342	0.00247662	-0.928858	2.13527	-2.77704	-1.56958	-2.62321	0	0	-0	0	0	0	0	-60.8392	-16.1762	-2.82097	0.40691	0.00013328	0	0	0	0	0	0	
647	1580406965.662709466	0.00251257	-0.928846	2.13523	-2.77702	-1.56955	-2.62321	0	0	-0	0	0	0	0	-60.8412	-16.1775	-2.82099	0.406944	0.00014127	0	0	0	0	0	0	
648	1580406965.670778352	0.00251257	-0.928834	2.13526	-2.77703	-1.56958	-2.62318	0	0	-0	0	0	0	0	-60.8402	-16.1758	-2.82095	0.406915	0.000127851	0	0	0	0	0	0	
649	1580406965.678696548	0.0024886	-0.928846	2.1352	-2.77702	-1.56957	-2.62324	0	0	-0	0	0	0	0	-60.842	-16.1784	-2.82101	0.406918	0.000143299	0	0	0	0	0	0	
650	1580406965.686748733	0.00247662	-0.928846	2.13525	-2.77703	-1.56962	-2.62321	0	0	-0	0	0	0	0	-60.8403	-16.1767	-2.82097	0.406877	0.000128233	0	0	0	0	0	0	
651	1580406965.694693613	0.00250058	-0.928846	2.1352	-2.77702	-1.5696	-2.62319	0	0	-0	0	0	0	0	-60.842	-16.1784	-2.82102	0.406903	0.000139846	0	0	0	0	0	0	
652	1580406965.702763433	0.0024886	-0.928834	2.13527	-2.777	-1.56955	-2.62321	0	0	-0	0	0	0	0	-60.8397	-16.1753	-2.8209	0.406944	0.000124574	0	0	0	0	0	0	
653	1580406965.710753177	0.00247662	-0.928846	2.13527	-2.77704	-1.56956	-2.62319	0	0	-0	0	0	0	0	-60.8395	-16.1758	-2.82096	0.406936	0.000133946	0	0	0	0	0	0	
654	1580406965.718765526	0.00247662	-0.928846	2.13526	-2.77702	-1.56961	-2.62323	0	0	-0	0	0	0	0	-60.8399	-16.1762	-2.82094	0.406886	0.000124317	0	0	0	0	0	0	
655	1580406965.726738876	0.00250058	-0.928846	2.13524	-2.77702	-1.56957	-2.6232	0	0	-0	0	0	0	0	-60.8407	-16.1771	-2.82097	0.406923	0.000134995	0	0	0	0	0	0	
656	1580406965.734784308	0.00250058	-0.928834	2.13523	-2.77703	-1.56958	-2.6232	0	0	-0	0	0	0	0	-60.8415	-16.1771	-2.82099	0.406912	0.000136151	0	0	0	0	0	0	
657	1580406965.742753085	0.00250058	-0.928846	2.13525	-2.77703	-1.56958	-2.62319	0	0	-0	0	0	0	0	-60.8403	-16.1767	-2.82098	0.406914	0.000133383	0	0	0	0	0	0	
658	1580406965.750730119	0.00251257	-0.928846	2.13526	-2.77703	-1.56958	-2.62321	0	0	-0	0	0	0	0	-60.8399	-16.1762	-2.82096	0.40691	0.000130626	0	0	0	0	0	0	
659	1580406965.758727321	0.00246463	-0.928846	2.13525	-2.77703	-1.56958	-2.62321	0	0	-0	0	0	0	0	-60.8403	-16.1767	-2.82097	0.40691	0.00013339	0	0	0	0	0	0	
660	1580406965.766816930	0.0024886	-0.928834	2.13524	-2.77702	-1.56956	-2.6232	0	0	-0	0	0	0	0	-60.841	-16.1767	-2.82096	0.406934	0.00013395	0	0	0	0	0	0	
661	1580406965.774736414	0.00246463	-0.928822	2.13525	-2.77702	-1.5696	-2.62321	0	0	-0	0	0	0	0	-60.8408	-16.1758	-2.82093	0.406899	0.000123268	0	0	0	0	0	0	
662	1580406965.782679056	0.00246463	-0.928822	2.13525	-2.77703	-1.56956	-2.62318	0	0	-0	0	0	0	0	-60.8409	-16.1758	-2.82095	0.406938	0.000131289	0	0	0	0	0	0	
663	1580406965.790731526	0.00246463	-0.928846	2.13524	-2.77702	-1.56958	-2.6232	0	0	-0	0	0	0	0	-60.8407	-16.1771	-2.82097	0.406912	0.000133276	0	0	0	0	0	0	
664	1580406965.798731321	0.00250058	-0.92881	2.13525	-2.777	-1.56954	-2.6232	0	0	-0	0	0	0	0	-60.8411	-16.1754	-2.8209	0.406957	0.0001264	0	0	0	0	0	0	
665	1580406965.806742596	0.0024886	-0.92887	2.13524	-2.777	-1.56958	-2.62326	0	0	-0	0	0	0	0	-60.8402	-16.1779	-2.82098	0.406903	0.000136059	0	0	0	0	0	0	
666	1580406965.814749195	0.00250058	-0.928822	2.13524	-2.77703	-1.56956	-2.62325	0	0	-0	0	0	0	0	-60.8413	-16.1762	-2.82095	0.406927	0.000134076	0	0	0	0	0	0	
667	1580406965.822712915	0.00245265	-0.928846	2.13525	-2.77703	-1.56961	-2.62324	0	0	-0	0	0	0	0	-60.8403	-16.1767	-2.82097	0.406885	0.000129959	0	0	0	0	0	0	
668	1580406965.830754392	0.0024886	-0.928822	2.13526	-2.777	-1.5696	-2.6232	0	0	-0	0	0	0	0	-60.8404	-16.1754	-2.8209	0.406901	0.000117736	0	0	0	0	0	0	
669	1580406965.838732661	0.0024886	-0.928834	2.13526	-2.77702	-1.5696	-2.62324	0	0	-0	0	0	0	0	-60.8401	-16.1758	-2.82092	0.406896	0.000123275	0	0	0	0	0	0	
670	1580406965.846724843	0.00247662	-0.92881	2.13529	-2.77703	-1.56957	-2.62319	0	0	-0	0	0	0	0	-60.8398	-16.1741	-2.82089	0.406925	0.000118406	0	0	0	0	0	0	
671	1580406965.854682683	0.0024886	-0.928822	2.13525	-2.77704	-1.56957	-2.62323	0	0	-0	0	0	0	0	-60.8409	-16.1758	-2.82096	0.40692	0.000132349	0	0	0	0	0	0	
