terrinbabu/Matlab/log_filtering/UR10_35_KF/ijt_KF2_0kg_lift_drop.txt
seq	time	q0	q1	q2	q3	q4	q5	Dq0	Dq1	Dq2	Dq3	Dq4	Dq5	eff0	eff1	eff2	eff3	eff4	eff5	DDq0	DDq1	DDq2	DDq3	DDq4	DDq5	
26	1580406961.022702951	0.00247968	-0.928844	2.13525	-2.77702	-1.56958	-2.62321	-1.7313e-05	-7.54729e-05	-1.12742e-05	2.3815e-05	1.57398e-05	-3.6114e-06	-0.000161678	-60.8397	-16.1763	-2.82096	0.406969	0.000118199	-3.38308e-05	-0.000109876	-4.01006e-05	5.05012e-05	3.74003e-05	-1.05032e-06	
27	1580406961.030733128	0.00247928	-0.928844	2.13525	-2.77702	-1.56958	-2.62321	-1.91001e-05	-7.06192e-05	-2.38424e-05	1.94072e-05	1.46214e-05	5.65506e-07	-0.000156406	-60.8398	-16.1764	-2.82095	0.406975	0.000117339	-3.58972e-05	-9.85753e-05	-6.02153e-05	4.16217e-05	3.44519e-05	6.04051e-06	
28	1580406961.038730524	0.00247891	-0.928843	2.13525	-2.77702	-1.56958	-2.62321	-2.06776e-05	-6.59355e-05	-2.30049e-05	1.53124e-05	1.96972e-05	-2.02981e-05	-0.000142095	-60.8399	-16.1764	-2.82096	0.406977	0.000114123	-3.75618e-05	-8.78912e-05	-5.71066e-05	3.3522e-05	4.20777e-05	-2.94499e-05	
29	1580406961.046748466	0.00248066	-0.928843	2.13525	-2.77702	-1.56958	-2.62321	-9.8145e-06	-6.14201e-05	-9.75028e-06	5.42454e-06	1.21115e-05	-2.6917e-06	-0.000109012	-60.8399	-16.1763	-2.82095	0.406962	0.000118042	-1.81067e-05	-7.78008e-05	-3.30513e-05	1.58308e-05	2.805e-05	1.20583e-06	
30	1580406961.054733744	0.00248023	-0.928842	2.13525	-2.77702	-1.56958	-2.62321	-1.19643e-05	-5.10318e-05	-2.19716e-05	2.07421e-05	1.71993e-05	-4.65091e-06	-9.62583e-05	-60.8401	-16.1764	-2.82096	0.406956	0.000121666	-2.12532e-05	-5.80366e-05	-5.28661e-05	4.13758e-05	3.59041e-05	-2.15232e-06	
31	1580406961.062697647	0.00248191	-0.92884	2.13525	-2.77702	-1.56958	-2.62321	-1.85635e-06	-4.13237e-05	-2.93623e-06	2.27575e-05	1.58281e-05	5.54924e-06	-5.39966e-05	-60.8402	-16.1763	-2.82097	0.406932	0.000128879	-3.50938e-06	-3.99697e-05	-1.90954e-05	4.36611e-05	3.25899e-05	1.52225e-05	
32	1580406961.070752507	0.0024804	-0.928842	2.13525	-2.77702	-1.56958	-2.62321	-1.04901e-05	-5.00919e-05	-9.46138e-06	1.83607e-05	2.04654e-05	-8.98598e-06	-8.26591e-05	-60.8401	-16.1764	-2.82097	0.40695	0.00012311	-1.80819e-05	-5.37844e-05	-2.96578e-05	3.50004e-05	3.95791e-05	-9.88811e-06	
33	1580406961.078734866	0.00248	-0.928842	2.13525	-2.77702	-1.56958	-2.62321	-1.24643e-05	-4.61877e-05	2.48669e-06	2.03976e-05	1.87707e-05	-1.64155e-05	-7.12151e-05	-60.8401	-16.1764	-2.82097	0.406936	0.000126242	-2.09486e-05	-4.56988e-05	-8.54046e-06	3.7515e-05	3.56258e-05	-2.22518e-05	
34	1580406961.086708382	0.00247962	-0.928842	2.13525	-2.77702	-1.56958	-2.62321	-1.42413e-05	-4.82904e-05	1.52384e-06	2.22099e-05	2.88566e-05	-1.13771e-05	-7.79645e-05	-60.8401	-16.1764	-2.82098	0.406944	0.000127036	-2.34078e-05	-4.80537e-05	-9.94558e-06	3.95878e-05	5.18216e-05	-1.3085e-05	
35	1580406961.094780623	0.00247824	-0.928839	2.13525	-2.77702	-1.56958	-2.62321	-2.16681e-05	-2.68428e-05	6.27035e-07	3.54202e-05	2.64393e-05	-1.25096e-05	-5.09588e-05	-60.8404	-16.1764	-2.82099	0.406919	0.000136244	-3.54197e-05	-1.02825e-05	-1.1203e-05	6.10081e-05	4.63231e-05	-1.46639e-05	
36	1580406961.102717642	0.00247997	-0.928841	2.13525	-2.77702	-1.56958	-2.62321	-1.10635e-05	-3.58096e-05	-2.06583e-07	2.4199e-05	2.41364e-05	-1.35111e-05	-4.67558e-05	-60.8402	-16.1764	-2.82098	0.406931	0.000129177	-1.64288e-05	-2.52803e-05	-1.23218e-05	4.02877e-05	4.11729e-05	-1.59808e-05	
37	1580406961.110745653	0.0024786	-0.928838	2.13525	-2.77702	-1.56958	-2.62321	-1.85097e-05	-2.10699e-05	1.06848e-05	1.37944e-05	1.62265e-05	-2.02221e-05	-2.56587e-05	-60.8404	-16.1763	-2.82097	0.406914	0.000132906	-2.86741e-05	4.75312e-07	6.55012e-06	2.15095e-05	2.66188e-05	-2.69869e-05	
38	1580406961.118715327	0.00247829	-0.92884	2.13525	-2.77702	-1.56958	-2.62321	-1.96077e-05	-3.01143e-05	3.42632e-06	1.57466e-05	1.45673e-05	-9.19985e-06	-4.791e-05	-60.8403	-16.1764	-2.82097	0.406922	0.000132157	-2.97925e-05	-1.49474e-05	-5.98034e-06	2.42703e-05	2.30953e-05	-7.51007e-06	
39	1580406961.126722114	0.00247801	-0.928839	2.13525	-2.77702	-1.56958	-2.62321	-2.05609e-05	-2.14394e-05	7.98989e-06	1.74988e-05	7.3597e-06	9.90534e-07	-3.27826e-05	-60.8404	-16.1763	-2.82096	0.406906	0.000137987	-3.06401e-05	2.09868e-07	1.95085e-06	2.66226e-05	1.02174e-05	1.00405e-05	
40	1580406961.134747469	0.00247574	-0.928838	2.13525	-2.77702	-1.56958	-2.62321	-3.26272e-05	-1.3359e-05	6.57442e-06	1.90624e-05	6.90672e-07	4.79436e-06	-3.92508e-05	-60.8405	-16.1763	-2.82096	0.406895	0.000142984	-5.04004e-05	1.39605e-05	-5.08296e-07	2.85969e-05	-1.40661e-06	1.62578e-05	
41	1580406961.142704275	0.00247358	-0.928833	2.13525	-2.77702	-1.56958	-2.62321	-4.36635e-05	1.08192e-05	5.24372e-06	2.04485e-05	-1.10209e-05	-2.92785e-06	-1.23594e-05	-60.8409	-16.1763	-2.82095	0.40687	0.000149215	-6.79022e-05	5.47783e-05	-2.75948e-06	3.0222e-05	-2.13193e-05	2.68329e-06	
42	1580406961.150738658	0.00247351	-0.928834	2.13525	-2.77702	-1.56958	-2.62321	-4.26304e-05	5.5394e-06	3.99462e-06	1.59298e-05	-5.25015e-06	-4.41615e-06	-1.98873e-05	-60.8408	-16.1763	-2.82096	0.406884	0.000145366	-6.44047e-05	4.43744e-05	-4.81404e-06	2.1752e-05	-1.09431e-05	7.78842e-08	
43	1580406961.158786407	0.00247543	-0.928831	2.13525	-2.77702	-1.56958	-2.62321	-3.05357e-05	2.25823e-05	-2.65507e-06	1.74078e-05	-5.3866e-06	-1.6842e-05	3.20479e-05	-60.841	-16.1763	-2.82096	0.406876	0.000143011	-4.21662e-05	7.2265e-05	-1.6015e-05	2.37164e-05	-1.08964e-05	-2.10896e-05	
44	1580406961.166735277	0.00247333	-0.928832	2.13525	-2.77702	-1.56958	-2.62321	-4.11557e-05	1.65126e-05	-3.35455e-06	2.17752e-06	-1.09405e-05	-1.18354e-05	2.01173e-06	-60.8409	-16.1763	-2.82095	0.406887	0.000140759	-5.91862e-05	6.00913e-05	-1.67983e-05	-2.82025e-06	-2.00785e-05	-1.20307e-05	
45	1580406961.174696223	0.00247035	-0.928833	2.13525	-2.77702	-1.56958	-2.62321	-5.62857e-05	1.08729e-05	-9.40306e-06	4.52555e-06	1.73401e-07	-2.34966e-05	-3.48844e-05	-60.8409	-16.1763	-2.82095	0.406904	0.000138464	-8.346e-05	4.89687e-05	-2.6672e-05	1.25012e-06	-6.48609e-07	-3.15852e-05	
46	1580406961.182689230	0.00247045	-0.928832	2.13525	-2.77702	-1.56958	-2.62321	-5.39176e-05	1.6384e-05	-2.57154e-05	1.20511e-05	1.60336e-05	-2.3362e-05	-2.7004e-05	-60.841	-16.1764	-2.82096	0.406919	0.00013672	-7.73406e-05	5.71181e-05	-5.37715e-05	1.40313e-05	2.63677e-05	-3.05666e-05	
47	1580406961.190745469	0.00247055	-0.928831	2.13525	-2.77702	-1.56958	-2.62322	-5.15723e-05	2.14514e-05	-1.38489e-05	8.09193e-06	1.44405e-05	-3.39463e-05	-6.61844e-06	-60.841	-16.1763	-2.82097	0.406909	0.000136794	-7.14251e-05	6.4314e-05	-3.22337e-05	6.94475e-06	2.29997e-05	-4.78208e-05	
48	1580406961.198707406	0.00247066	-0.92883	2.13525	-2.77702	-1.56958	-2.62322	-4.92537e-05	2.60961e-05	1.30685e-05	1.5217e-05	1.82274e-05	-2.23331e-05	1.27237e-05	-60.841	-16.1762	-2.82098	0.406885	0.000146577	-6.57134e-05	7.06177e-05	1.4366e-05	1.88972e-05	2.88733e-05	-2.68782e-05	
49	1580406961.206722673	0.00247175	-0.928832	2.13525	-2.77702	-1.56958	-2.62322	-4.16702e-05	1.45359e-05	6.13205e-06	2.70359e-05	2.16827e-05	-2.20516e-05	1.20933e-06	-60.8409	-16.1762	-2.82098	0.406893	0.000143183	-5.11979e-05	4.92088e-05	2.21495e-06	3.8536e-05	3.40394e-05	-2.57391e-05	
50	1580406961.214683076	0.00247376	-0.92883	2.13525	-2.77702	-1.56958	-2.62322	-2.92635e-05	2.99757e-05	4.92236e-06	2.74361e-05	3.55015e-05	-2.17261e-05	4.92418e-05	-60.8411	-16.1762	-2.82099	0.406894	0.000143268	-2.88504e-05	7.42506e-05	1.05276e-07	3.82729e-05	5.67021e-05	-2.45566e-05	
51	1580406961.222721795	0.00247473	-0.92883	2.13525	-2.77702	-1.56957	-2.62322	-2.29112e-05	2.8605e-05	-1.41763e-06	2.23195e-05	3.75951e-05	-2.13606e-05	5.44237e-05	-60.841	-16.1762	-2.82099	0.406905	0.000138834	-1.73533e-05	7.01049e-05	-1.06719e-05	2.86439e-05	5.88779e-05	-2.33386e-05	
52	1580406961.230745098	0.00247376	-0.928833	2.13525	-2.77702	-1.56957	-2.62322	-2.73484e-05	1.17583e-05	-7.29368e-06	7.17331e-06	5.51515e-05	-3.14032e-05	1.52464e-05	-60.8408	-16.1763	-2.82099	0.406945	0.000128157	-2.44751e-05	3.97764e-05	-2.03949e-05	2.21658e-06	8.72784e-05	-3.98371e-05	
53	1580406961.238727427	0.00247569	-0.928834	2.13525	-2.77702	-1.56957	-2.62322	-1.58805e-05	6.39668e-06	2.89688e-06	1.38696e-05	6.61412e-05	-2.51045e-05	2.65379e-05	-60.8407	-16.1763	-2.821	0.406945	0.000129295	-4.41206e-06	2.97064e-05	-2.59428e-06	1.35371e-05	0.000103835	-2.81804e-05	
54	1580406961.246686151	0.0024747	-0.928832	2.13525	-2.77702	-1.56957	-2.62322	-2.05991e-05	1.67421e-05	1.74454e-05	2.0039e-05	6.0627e-05	-2.42989e-05	4.12137e-05	-60.8408	-16.1762	-2.821	0.40692	0.000137348	-1.23201e-05	4.65505e-05	2.21658e-05	2.36862e-05	9.19808e-05	-2.61382e-05	
55	1580406961.254789901	0.00247375	-0.928833	2.13525	-2.77702	-1.56957	-2.62322	-2.49126e-05	1.10703e-05	1.54558e-05	2.06274e-05	6.04271e-05	-2.34812e-05	2.17335e-05	-60.8408	-16.1762	-2.821	0.406925	0.000136532	-1.93482e-05	3.58105e-05	1.82612e-05	2.412e-05	8.94437e-05	-2.41284e-05	
56	1580406961.262755037	0.00247285	-0.928833	2.13525	-2.77702	-1.56957	-2.62322	-2.88407e-05	1.08349e-05	8.51678e-06	2.11152e-05	6.00797e-05	-2.26543e-05	1.13953e-05	-60.8408	-16.1762	-2.82099	0.40693	0.000135873	-2.55533e-05	3.4556e-05	6.06052e-06	2.4375e-05	8.67279e-05	-2.21546e-05	
57	1580406961.270724451	0.00247293	-0.928832	2.13525	-2.77702	-1.56957	-2.62321	-2.73561e-05	1.56163e-05	7.06862e-06	2.15085e-05	5.95962e-05	-6.76133e-06	1.8756e-05	-60.8408	-16.1762	-2.82099	0.406926	0.000139454	-2.24357e-05	4.18387e-05	3.46387e-06	2.44662e-05	8.38566e-05	5.30508e-06	
58	1580406961.278717672	0.0024749	-0.928831	2.13525	-2.77702	-1.56957	-2.62321	-1.58609e-05	2.00245e-05	7.10365e-07	2.18134e-05	4.40136e-05	-6.95008e-06	4.43088e-05	-60.8409	-16.1762	-2.82098	0.406915	0.000137411	-2.43774e-06	4.8317e-05	-7.38731e-06	2.4408e-05	5.54852e-05	4.85731e-06	
59	1580406961.286778829	0.00247585	-0.928827	2.13525	-2.77702	-1.56957	-2.62322	-1.01196e-05	3.89656e-05	9.88581e-06	2.20355e-05	4.92699e-05	-1.71257e-05	9.19724e-05	-60.8411	-16.1761	-2.82099	0.4069	0.000140079	7.33559e-06	7.9249e-05	8.32212e-06	2.42134e-05	6.30855e-05	-1.24874e-05	
60	1580406961.294668554	0.00247584	-0.928827	2.13525	-2.77702	-1.56957	-2.62321	-9.70886e-06	3.67336e-05	3.37943e-06	2.21804e-05	4.41499e-05	-1.16254e-05	8.33843e-05	-60.8411	-16.1761	-2.82098	0.406902	0.000139145	7.85493e-06	7.36186e-05	-2.88006e-06	2.38952e-05	5.29519e-05	-2.89174e-06	
61	1580406961.302714606	0.00247396	-0.928828	2.13525	-2.77702	-1.56957	-2.62321	-1.91605e-05	3.45725e-05	1.7149e-05	2.22533e-05	3.43614e-05	-6.47543e-06	6.57051e-05	-60.841	-16.176	-2.82097	0.406888	0.000144352	-8.31507e-06	6.82501e-05	2.04733e-05	2.34651e-05	3.51714e-05	5.88147e-06	
62	1580406961.310659775	0.00247495	-0.928829	2.13525	-2.77702	-1.56957	-2.62321	-1.31673e-05	2.76e-05	1.01839e-05	1.23003e-05	3.98087e-05	-1.15239e-05	6.08693e-05	-60.8409	-16.1761	-2.82097	0.406909	0.000136313	2.00182e-06	5.48848e-05	8.2298e-06	6.1036e-06	4.35669e-05	-2.78937e-06	
63	1580406961.318712611	0.00247314	-0.928827	2.13526	-2.77702	-1.56957	-2.62321	-2.21928e-05	3.5617e-05	2.32924e-05	1.77661e-05	3.01995e-05	-1.12307e-05	6.2972e-05	-60.841	-16.176	-2.82097	0.406884	0.000143909	-1.32918e-05	6.71584e-05	3.01809e-05	1.51967e-05	2.63375e-05	-2.23282e-06	
64	1580406961.326650435	0.00247047	-0.928828	2.13526	-2.77702	-1.56957	-2.62321	-3.53802e-05	2.8503e-05	3.54277e-05	1.79714e-05	4.06854e-05	-6.09286e-06	2.91914e-05	-60.8409	-16.1759	-2.82097	0.406891	0.000147394	-3.52486e-05	5.36089e-05	4.99719e-05	1.51969e-05	4.34355e-05	6.48743e-06	
65	1580406961.334695492	0.00247068	-0.928829	2.13526	-2.77702	-1.56957	-2.62321	-3.30664e-05	2.18151e-05	4.18268e-05	8.31071e-06	3.57285e-05	-1.09931e-05	2.45437e-05	-60.8407	-16.1759	-2.82096	0.406894	0.000143285	-3.05446e-05	4.11025e-05	5.9625e-05	-1.44243e-06	3.40863e-05	-1.92879e-06	
66	1580406961.342673012	0.00246997	-0.92883	2.13526	-2.77702	-1.56957	-2.62321	-3.56252e-05	2.03173e-05	4.76777e-05	9.0394e-06	3.57943e-05	-1.08706e-06	1.71263e-05	-60.8407	-16.1759	-2.82096	0.406892	0.000146273	-3.41667e-05	3.7642e-05	6.81322e-05	-1.7884e-07	3.3426e-05	1.48095e-05	
67	1580406961.350701383	0.00246659	-0.928832	2.13526	-2.77702	-1.56957	-2.62321	-5.21007e-05	9.36559e-06	4.3306e-05	9.68903e-06	2.14925e-05	3.39341e-06	-3.27402e-05	-60.8405	-16.1759	-2.82095	0.406892	0.000147075	-6.11479e-05	1.83419e-05	5.9227e-05	9.21941e-07	8.58354e-06	2.20181e-05	
68	1580406961.358691732	0.00246788	-0.928829	2.13526	-2.77702	-1.56957	-2.62321	-4.36809e-05	2.27955e-05	4.38543e-05	1.49943e-05	1.28368e-05	2.83586e-06	6.56242e-06	-60.8407	-16.1758	-2.82094	0.406872	0.000149506	-4.56005e-05	4.05327e-05	5.88157e-05	9.83343e-06	-6.17496e-06	2.05802e-05	
69	1580406961.366712871	0.00246822	-0.928826	2.13526	-2.77702	-1.56958	-2.62321	-4.04504e-05	3.99622e-05	4.42536e-05	1.5188e-05	9.43501e-06	2.31691e-06	4.28268e-05	-60.8409	-16.1758	-2.82094	0.406858	0.000152234	-3.91466e-05	6.84957e-05	5.81684e-05	9.94071e-06	-1.17535e-05	1.92424e-05	
70	1580406961.374704901	0.00246946	-0.928827	2.13526	-2.77702	-1.56957	-2.62321	-3.26224e-05	3.24514e-05	3.51471e-05	5.77162e-06	2.51495e-05	1.83484e-06	3.8693e-05	-60.8408	-16.1758	-2.82095	0.406889	0.000143707	-2.51183e-05	5.43391e-05	4.15635e-05	-6.10588e-06	1.49262e-05	1.79992e-05	
71	1580406961.382666806	0.00247157	-0.928825	2.13526	-2.77702	-1.56957	-2.62321	-2.05494e-05	3.93532e-05	3.12268e-05	-3.02759e-06	2.09008e-05	1.0708e-05	6.83467e-05	-60.8409	-16.1758	-2.82094	0.40689	0.000141673	-4.28648e-06	6.47197e-05	3.40558e-05	-2.07457e-05	7.46212e-06	3.24984e-05	
72	1580406961.390729552	0.0024745	-0.928826	2.13526	-2.77702	-1.56957	-2.62321	-4.56765e-06	3.17843e-05	1.35777e-05	2.86444e-06	2.15146e-05	9.68923e-06	7.41076e-05	-60.8408	-16.1758	-2.82094	0.406903	0.000134153	2.26254e-05	5.05809e-05	3.68309e-06	-1.03945e-05	8.33082e-06	3.00649e-05	
73	1580406961.398745870	0.00247553	-0.928826	2.13526	-2.77702	-1.56957	-2.62321	1.08476e-06	3.38788e-05	1.09201e-05	-1.06775e-06	1.74094e-05	1.33375e-05	8.45921e-05	-60.8408	-16.1758	-2.82093	0.406903	0.00013282	3.15996e-05	5.29756e-05	-8.52222e-07	-1.67565e-05	1.26656e-06	3.55162e-05	
74	1580406961.406687903	0.00247741	-0.928825	2.13526	-2.77702	-1.56957	-2.62321	1.09863e-05	3.57526e-05	8.40654e-06	-9.33332e-06	1.81189e-05	1.67162e-05	0.000101855	-60.8408	-16.1758	-2.82093	0.40691	0.000129512	4.74912e-05	5.49495e-05	-5.04245e-06	-3.02358e-05	2.43198e-06	4.03937e-05	
75	1580406961.414789473	0.00247744	-0.928827	2.13525	-2.77702	-1.56957	-2.62321	1.1024e-05	2.82747e-05	6.03284e-06	-7.70719e-06	1.41557e-05	1.52653e-05	8.59171e-05	-60.8407	-16.1758	-2.82092	0.406913	0.000127525	4.65081e-05	4.12239e-05	-8.90345e-06	-2.68476e-05	-4.25314e-06	3.70765e-05	
76	1580406961.422745335	0.00247746	-0.928831	2.13526	-2.77702	-1.56957	-2.62321	1.10467e-05	7.397e-06	8.34408e-06	-6.17797e-06	1.04112e-05	9.24093e-06	4.90864e-05	-60.8404	-16.1759	-2.82092	0.406922	0.000122671	4.55254e-05	5.39368e-06	-4.83909e-06	-2.37003e-05	-1.04209e-05	2.61852e-05	
77	1580406961.430763984	0.00247748	-0.928832	2.13525	-2.77702	-1.56957	-2.62321	1.10548e-05	1.65042e-06	5.9462e-06	-4.74218e-06	1.59351e-05	3.60009e-06	3.77485e-05	-60.8403	-16.1759	-2.82093	0.406931	0.000120034	4.45439e-05	-4.32963e-06	-8.73963e-06	-2.0782e-05	-9.55046e-07	1.61833e-05	
78	1580406961.438682228	0.00247661	-0.92883	2.13525	-2.77702	-1.56957	-2.62321	6.51778e-06	9.79883e-06	-8.22307e-07	-3.39638e-06	1.65378e-05	2.10455e-05	3.79609e-05	-60.8405	-16.1759	-2.82092	0.406929	0.000125149	3.59952e-05	9.37672e-06	-1.98536e-05	-1.80813e-05	7.6443e-08	4.49722e-05	
79	1580406961.447161981	0.00247755	-0.928831	2.13525	-2.77702	-1.56957	-2.62321	1.12974e-05	3.9247e-06	-7.15105e-06	2.34947e-06	8.0775e-06	1.92611e-05	3.29156e-05	-60.8404	-16.1759	-2.82092	0.406927	0.000123038	4.31915e-05	-6.29306e-07	-2.99852e-05	-8.09848e-06	-1.40421e-05	4.10208e-05	
80	1580406961.454719705	0.00247579	-0.928831	2.13525	-2.77702	-1.56957	-2.62321	2.27829e-06	2.89088e-06	4.98819e-06	-1.40434e-06	9.07538e-06	1.75546e-05	1.99148e-05	-60.8404	-16.1759	-2.82092	0.406923	0.000125802	2.72166e-05	-2.33884e-06	-9.09199e-06	-1.41828e-05	-1.20716e-05	3.72906e-05	
81	1580406961.462695452	0.00247587	-0.928831	2.13526	-2.77702	-1.56957	-2.62321	2.79523e-06	1.9151e-06	7.24279e-06	-2.90241e-07	1.44217e-05	1.1389e-05	2.02749e-05	-60.8403	-16.1759	-2.82093	0.406926	0.000124824	2.74908e-05	-3.91365e-06	-5.13742e-06	-1.20203e-05	-2.89966e-06	2.62153e-05	
82	1580406961.470748500	0.00247683	-0.928832	2.13525	-2.77702	-1.56957	-2.62321	7.73238e-06	-3.43096e-06	4.8998e-06	7.46598e-07	1.05217e-05	1.45454e-05	1.74366e-05	-60.8403	-16.1759	-2.82092	0.406927	0.00012334	3.51205e-05	-1.27302e-05	-8.92624e-06	-1.00354e-05	-9.3274e-06	3.09095e-05	
83	1580406961.478775866	0.00247775	-0.928832	2.13525	-2.77702	-1.56957	-2.62321	1.23409e-05	3.89538e-07	-1.71622e-06	-2.87407e-06	1.12472e-05	1.74671e-05	2.8913e-05	-60.8403	-16.1759	-2.82092	0.406931	0.000121861	4.20364e-05	-6.10224e-06	-1.97404e-05	-1.58436e-05	-7.91785e-06	3.51111e-05	
84	1580406961.486740599	0.00247863	-0.928832	2.13525	-2.77702	-1.56957	-2.62321	1.66328e-05	-4.29542e-07	-1.22944e-05	-6.25837e-06	7.50123e-06	2.01634e-05	3.02628e-05	-60.8403	-16.176	-2.82092	0.406938	0.000118875	4.82756e-05	-7.33332e-06	-3.69028e-05	-2.11314e-05	-1.39728e-05	3.88472e-05	
85	1580406961.494712285	0.00247861	-0.928829	2.13525	-2.77702	-1.56957	-2.62321	1.62277e-05	1.19088e-05	-2.21687e-05	-1.37836e-05	8.33816e-06	3.13809e-05	4.55803e-05	-60.8405	-16.176	-2.82091	0.406941	0.000120403	4.65791e-05	1.3315e-05	-5.252e-05	-3.31815e-05	-1.22836e-05	5.66559e-05	
86	1580406961.502690539	0.00247684	-0.92883	2.13525	-2.77702	-1.56957	-2.62321	7.07557e-06	6.02223e-06	-1.37903e-05	-7.57365e-06	4.74126e-06	2.87582e-05	2.20389e-05	-60.8405	-16.176	-2.82091	0.406932	0.00012366	3.04073e-05	3.26677e-06	-3.75076e-05	-2.21757e-05	-1.79901e-05	5.11093e-05	
87	1580406961.510820129	0.00247688	-0.928832	2.13525	-2.77702	-1.56957	-2.62321	7.21394e-06	4.98103e-07	-1.47635e-05	-1.49187e-05	1.0017e-05	2.18249e-05	1.33083e-05	-60.8404	-16.176	-2.82091	0.406946	0.000119234	2.99957e-05	-5.96028e-06	-3.83316e-05	-3.38875e-05	-8.86111e-06	3.85397e-05	
88	1580406961.518702285	0.00247518	-0.928832	2.13525	-2.77702	-1.56957	-2.62321	-1.33662e-06	-3.62648e-07	-2.4275e-05	-1.29655e-05	6.29504e-06	2.8316e-05	-7.30194e-06	-60.8404	-16.1761	-2.82091	0.406948	0.000120811	1.52e-05	-7.2606e-06	-5.32851e-05	-2.99413e-05	-1.48382e-05	4.84865e-05	
89	1580406961.526770565	0.00247527	-0.92883	2.13525	-2.77702	-1.56957	-2.62321	-6.93936e-07	7.41997e-06	-3.74271e-05	-1.1113e-05	1.58438e-05	1.70648e-05	4.54128e-06	-60.8406	-16.1761	-2.82092	0.406958	0.000117901	1.59445e-05	5.77402e-06	-7.39424e-05	-2.62493e-05	1.28051e-06	2.88516e-05	
90	1580406961.534713045	0.00247709	-0.928831	2.13525	-2.77702	-1.56957	-2.62321	8.51701e-06	1.85546e-06	-4.11111e-05	-5.08065e-06	1.17357e-05	6.49449e-06	1.05561e-05	-60.8405	-16.1761	-2.82092	0.406956	0.000114055	3.08443e-05	-3.54798e-06	-7.84966e-05	-1.5726e-05	-5.53697e-06	1.07701e-05	
91	1580406961.542702693	0.00247885	-0.928831	2.13524	-2.77702	-1.56957	-2.62321	1.71317e-05	5.15742e-06	-4.87375e-05	-1.2374e-05	7.85262e-06	5.18694e-06	2.87398e-05	-60.8406	-16.1762	-2.82092	0.40696	0.00011042	4.44383e-05	1.98272e-06	-8.94713e-05	-2.74511e-05	-1.18354e-05	8.38632e-06	
92	1580406961.550711562	0.0024814	-0.92883	2.13524	-2.77702	-1.56957	-2.62321	2.9436e-05	8.23629e-06	-4.72958e-05	-1.05272e-05	1.2673e-05	8.19361e-06	5.37495e-05	-60.8406	-16.1762	-2.82092	0.406958	0.000110426	6.38334e-05	7.02597e-06	-8.52427e-05	-2.38343e-05	-3.62907e-06	1.31773e-05	
93	1580406961.558734774	0.00248385	-0.92883	2.13524	-2.77702	-1.56957	-2.62321	4.09071e-05	6.87498e-06	-4.58483e-05	-4.55233e-06	8.70064e-06	1.52181e-05	6.8433e-05	-60.8406	-16.1762	-2.82092	0.40695	0.000111618	8.14405e-05	4.63665e-06	-8.10996e-05	-1.34868e-05	-1.01039e-05	2.44938e-05	
94	1580406961.566721036	0.00248449	-0.928832	2.13524	-2.77702	-1.56957	-2.62321	4.31137e-05	-2.83466e-06	-4.43976e-05	-3.15535e-06	9.15797e-06	9.05829e-06	5.52923e-05	-60.8405	-16.1762	-2.82092	0.406954	0.000108974	8.3405e-05	-1.14608e-05	-7.70444e-05	-1.09068e-05	-9.13964e-06	1.3839e-05	
95	1580406961.574734388	0.00248511	-0.92883	2.13524	-2.77702	-1.56957	-2.62321	4.50964e-05	9.02692e-06	-4.29466e-05	-1.03929e-05	1.81077e-05	3.26611e-06	7.98017e-05	-60.8406	-16.1762	-2.82093	0.406956	0.000108953	8.49631e-05	8.30759e-06	-7.30792e-05	-2.26016e-05	5.7885e-06	4.01782e-06	
96	1580406961.582761004	0.00248314	-0.928828	2.13525	-2.77702	-1.56957	-2.62321	3.42737e-05	1.59483e-05	-2.88056e-05	-8.64037e-06	2.21062e-05	1.04382e-05	7.55054e-05	-60.8407	-16.1761	-2.82094	0.406944	0.000117266	6.54229e-05	1.95272e-05	-4.83227e-05	-1.92567e-05	1.22526e-05	1.57366e-05	
97	1580406961.590764291	0.00248463	-0.928828	2.13525	-2.77702	-1.56957	-2.62321	4.0783e-05	1.40836e-05	-1.96476e-05	-2.82288e-06	1.74809e-05	4.58038e-06	8.55957e-05	-60.8407	-16.1761	-2.82094	0.406932	0.000118078	7.47933e-05	1.6066e-05	-3.22859e-05	-9.30138e-06	4.40325e-06	5.78735e-06	
98	1580406961.598721656	0.00248437	-0.928826	2.13525	-2.77702	-1.56957	-2.62321	3.84763e-05	2.47305e-05	-1.10197e-05	-9.9575e-06	2.13823e-05	-9.22527e-07	0.0001028	-60.8408	-16.176	-2.82094	0.406927	0.000119965	6.94888e-05	3.32289e-05	-1.74608e-05	-2.08309e-05	1.07252e-05	-3.36809e-06	
99	1580406961.606773210	0.00248326	-0.928827	2.13525	-2.77702	-1.56957	-2.62321	3.20879e-05	2.22816e-05	-1.13234e-05	-8.21174e-06	1.67333e-05	-1.87312e-06	8.59901e-05	-60.8408	-16.176	-2.82094	0.406924	0.000121099	5.76011e-05	2.85401e-05	-1.76067e-05	-1.75448e-05	2.88267e-06	-4.85983e-06	
100	1580406961.614736496	0.00248303	-0.928827	2.13525	-2.77702	-1.56957	-2.62321	3.01644e-05	1.99353e-05	-1.15846e-05	-6.55911e-06	4.10616e-06	1.34908e-06	7.67076e-05	-60.8408	-16.176	-2.82093	0.406915	0.000122497	5.32871e-05	2.41195e-05	-1.76806e-05	-1.44814e-05	-1.78761e-05	5.2145e-07	
101	1580406961.622672559	0.00248534	-0.928826	2.13525	-2.77702	-1.56957	-2.62321	4.06503e-05	2.17847e-05	-1.18053e-05	-9.25581e-06	4.31279e-07	8.46367e-06	9.47296e-05	-60.8408	-16.176	-2.82093	0.406912	0.000121997	6.93955e-05	2.66664e-05	-1.76876e-05	-1.86081e-05	-2.35344e-05	1.21664e-05	
102	1580406961.630709536	0.00248587	-0.928825	2.13525	-2.77702	-1.56958	-2.62321	4.2205e-05	2.75515e-05	-3.665e-06	6.33592e-07	-1.52673e-05	6.96197e-06	0.000108447	-60.8408	-16.1759	-2.82092	0.406885	0.000127035	7.05514e-05	3.5573e-05	-4.01006e-06	-2.0486e-06	-4.87556e-05	9.46523e-06	
103	1580406961.638709316	0.00248722	-0.928826	2.13525	-2.77702	-1.56958	-2.62321	4.7665e-05	2.07101e-05	-4.30876e-06	1.78299e-06	-1.77858e-05	-2.67252e-06	0.000105028	-60.8407	-16.1759	-2.82092	0.406888	0.000122944	7.8073e-05	2.36765e-05	-4.98311e-06	-1.27669e-07	-5.18987e-05	-6.47913e-06	
104	1580406961.646723427	0.00248683	-0.928827	2.13525	-2.77702	-1.56958	-2.62321	4.45519e-05	1.42423e-05	-8.95281e-06	6.90632e-06	-3.22716e-05	8.61665e-06	8.32182e-05	-60.8406	-16.1759	-2.82091	0.406881	0.000125056	7.14336e-05	1.26391e-05	-1.24723e-05	8.24642e-06	-7.45324e-05	1.20957e-05	
105	1580406961.654742575	0.00248645	-0.928828	2.13525	-2.77702	-1.56958	-2.62321	4.1539e-05	1.21717e-05	-2.13625e-05	1.17008e-05	-2.96771e-05	1.51621e-05	6.71768e-05	-60.8407	-16.176	-2.82091	0.40689	0.000124948	6.50988e-05	9.00951e-06	-3.24842e-05	1.59103e-05	-6.88162e-05	2.25415e-05	
106	1580406961.662696953	0.0024844	-0.928828	2.13525	-2.77702	-1.56958	-2.62321	3.05435e-05	1.01986e-05	-8.69158e-06	3.95783e-06	-3.52295e-05	1.72567e-05	4.89474e-05	-60.8406	-16.176	-2.82091	0.406884	0.000127913	4.58775e-05	5.61431e-06	-1.11749e-05	2.9667e-06	-7.65095e-05	2.55127e-05	
107	1580406961.670778173	0.00248492	-0.928827	2.13525	-2.77702	-1.56958	-2.62321	3.22341e-05	1.63307e-05	-7.78939e-07	-3.3229e-06	-3.23712e-05	1.10979e-05	6.55117e-05	-60.8407	-16.1759	-2.82091	0.406882	0.000127551	4.77287e-05	1.54983e-05	1.93995e-06	-8.95645e-06	-7.03407e-05	1.49733e-05	
108	1580406961.678746506	0.00248459	-0.928826	2.13525	-2.77702	-1.56958	-2.62321	2.9744e-05	1.80624e-05	2.50551e-06	5.96619e-06	-3.36202e-05	9.3604e-06	6.39982e-05	-60.8407	-16.1759	-2.82092	0.406873	0.000130615	4.27366e-05	1.80146e-05	7.24929e-06	6.34489e-06	-7.09895e-05	1.18502e-05	
109	1580406961.686735402	0.00248426	-0.928827	2.13525	-2.77702	-1.56958	-2.62321	2.73435e-05	1.56721e-05	1.61086e-06	2.59074e-06	-3.47337e-05	1.16846e-05	5.42098e-05	-60.8407	-16.1759	-2.82091	0.406877	0.000129993	3.79944e-05	1.37743e-05	5.65137e-06	7.29688e-07	-7.14074e-05	1.53994e-05	
110	1580406961.694693346	0.00248476	-0.928825	2.13525	-2.77702	-1.56958	-2.62321	2.90146e-05	2.13149e-05	4.73066e-06	-5.87177e-07	-3.57175e-05	1.78059e-05	6.58168e-05	-60.8407	-16.1758	-2.82091	0.406873	0.000131868	3.99687e-05	2.26784e-05	1.06115e-05	-4.44954e-06	-7.1609e-05	2.50484e-05	
111	1580406961.702759015	0.00248524	-0.928828	2.13525	-2.77702	-1.56958	-2.62321	3.05248e-05	1.07773e-05	3.7059e-06	8.42905e-06	-3.65774e-05	1.56247e-05	4.84183e-05	-60.8406	-16.1759	-2.82091	0.406875	0.000130545	4.16431e-05	5.12481e-06	8.74008e-06	1.02799e-05	-7.1608e-05	2.10184e-05	
112	1580406961.710753607	0.0024857	-0.92883	2.13525	-2.77702	-1.56958	-2.62321	3.18809e-05	-3.08694e-06	2.73669e-06	9.89558e-07	-3.33845e-05	1.74767e-05	2.55908e-05	-60.8404	-16.1759	-2.82091	0.406892	0.000125753	4.3035e-05	-1.7469e-05	6.99725e-06	-1.99067e-06	-6.5034e-05	2.36155e-05	
113	1580406961.718716313	0.00248532	-0.928831	2.13525	-2.77702	-1.56958	-2.62321	2.91481e-05	-4.35565e-06	1.8214e-06	-2.08594e-06	-2.64019e-05	1.91815e-05	1.77441e-05	-60.8404	-16.1759	-2.82091	0.406901	0.000125232	3.77717e-05	-1.91857e-05	5.37748e-06	-6.93754e-06	-5.24522e-05	2.5922e-05	
114	1580406961.726684200	0.00248494	-0.928826	2.13525	-2.77702	-1.56958	-2.62321	2.65184e-05	1.80546e-05	4.86561e-06	-8.88184e-06	-2.76047e-05	1.68374e-05	5.34233e-05	-60.8407	-16.1758	-2.82091	0.406888	0.000129142	3.27832e-05	1.74857e-05	1.02041e-05	-1.78107e-05	-5.33853e-05	2.16247e-05	
115	1580406961.734765396	0.00248292	-0.928825	2.13525	-2.77702	-1.56958	-2.62321	1.61613e-05	1.94608e-05	7.71943e-06	-7.31244e-06	-2.47919e-05	1.84922e-05	3.82961e-05	-60.8407	-16.1758	-2.82092	0.406887	0.000132271	1.53909e-05	1.94258e-05	1.46256e-05	-1.49271e-05	-4.78031e-05	2.38865e-05	
116	1580406961.742724775	0.00248261	-0.928826	2.13526	-2.77702	-1.56958	-2.62321	1.41883e-05	1.686e-05	1.83053e-05	-5.82379e-06	-2.59827e-05	2.00101e-05	3.31591e-05	-60.8407	-16.1758	-2.82092	0.406881	0.000134559	1.19061e-05	1.48484e-05	3.1461e-05	-1.22327e-05	-4.88085e-05	2.58824e-05	
117	1580406961.750681281	0.00248312	-0.928826	2.13526	-2.77702	-1.56958	-2.6232	1.61886e-05	1.82438e-05	2.43596e-05	-4.41366e-06	-2.70554e-05	2.52639e-05	3.92378e-05	-60.8407	-16.1757	-2.82092	0.406874	0.000136724	1.49107e-05	1.68007e-05	4.06385e-05	-9.71968e-06	-4.9605e-05	3.38746e-05	
118	1580406961.758694223	0.00248362	-0.928824	2.13526	-2.77702	-1.56958	-2.62321	1.80345e-05	2.33595e-05	1.8291e-05	-3.07985e-06	-3.18695e-05	1.85142e-05	4.94867e-05	-60.8407	-16.1757	-2.82092	0.406871	0.000135199	1.76065e-05	2.47384e-05	3.00655e-05	-7.38054e-06	-5.64262e-05	2.23327e-05	
119	1580406961.766706692	0.00248491	-0.928824	2.13526	-2.77702	-1.56958	-2.6232	2.35938e-05	2.42808e-05	2.02301e-05	2.02137e-06	-2.08198e-05	2.37272e-05	5.81898e-05	-60.8407	-16.1757	-2.82092	0.406875	0.000136158	2.62377e-05	2.57538e-05	3.26193e-05	9.8751e-07	-3.75291e-05	3.03149e-05	
120	1580406961.774758584	0.00248452	-0.928822	2.13526	-2.77702	-1.56958	-2.6232	2.10766e-05	3.27534e-05	1.81873e-05	2.98757e-06	-1.81959e-05	2.85837e-05	6.57103e-05	-60.8409	-16.1757	-2.82093	0.406873	0.000138699	2.16839e-05	3.89178e-05	2.87072e-05	2.52587e-06	-3.25866e-05	3.75646e-05	
121	1580406961.782749414	0.00248333	-0.928821	2.13525	-2.77702	-1.56958	-2.6232	1.48263e-05	3.68424e-05	8.59794e-06	-3.89481e-06	-7.9085e-06	2.928e-05	5.79122e-05	-60.841	-16.1757	-2.82093	0.406889	0.000136848	1.12111e-05	4.47641e-05	1.27239e-05	-8.60219e-06	-1.54056e-05	3.79738e-05	
122	1580406961.790739308	0.0024838	-0.928822	2.13526	-2.77702	-1.56958	-2.6232	1.65583e-05	3.30078e-05	1.49229e-05	-6.56218e-06	-1.73831e-05	2.21927e-05	5.70328e-05	-60.8409	-16.1757	-2.82092	0.406883	0.0001351	1.37863e-05	3.77504e-05	2.26574e-05	-1.27298e-05	-3.03543e-05	2.58557e-05	
123	1580406961.798844679	0.00248262	-0.928821	2.13525	-2.77702	-1.56958	-2.6232	1.05292e-05	3.31211e-05	1.73963e-06	2.4641e-06	-2.24784e-05	3.07167e-05	4.00106e-05	-60.8409	-16.1757	-2.82092	0.406882	0.000137105	3.8376e-06	3.72217e-05	1.0418e-06	2.01775e-06	-3.79702e-05	3.90685e-05	
124	1580406961.806734616	0.0024823	-0.928824	2.13525	-2.77702	-1.56958	-2.6232	8.62729e-06	2.18219e-05	4.44095e-06	7.17712e-06	-1.96756e-05	2.73422e-05	1.80758e-05	-60.8408	-16.1758	-2.82092	0.406888	0.00013558	7.12744e-07	1.83782e-05	5.36021e-06	9.54822e-06	-3.27543e-05	3.29153e-05	
125	1580406961.814748736	0.00248279	-0.928825	2.13525	-2.77702	-1.56958	-2.6232	1.06019e-05	1.49025e-05	1.08929e-05	1.4891e-07	-3.20681e-05	2.02671e-05	1.35326e-05	-60.8406	-16.1757	-2.82091	0.406884	0.000132406	3.86902e-06	6.93311e-06	1.56115e-05	-1.90722e-06	-5.20219e-05	2.09468e-05	
126	1580406961.822705624	0.00248326	-0.928826	2.13526	-2.77702	-1.56958	-2.62321	1.24362e-05	8.35192e-06	1.30424e-05	-2.71556e-06	-2.49035e-05	1.73922e-05	6.28739e-06	-60.8405	-16.1757	-2.82092	0.406894	0.000129575	6.73851e-06	-3.6958e-06	1.8765e-05	-6.46317e-06	-3.9562e-05	1.5947e-05	
127	1580406961.830810511	0.00248129	-0.928826	2.13525	-2.77702	-1.56958	-2.6232	2.84659e-06	9.64623e-06	1.12985e-05	-5.4091e-06	-2.93387e-05	1.83905e-05	-7.61786e-06	-60.8406	-16.1757	-2.82091	0.406893	0.000130864	-8.74559e-06	-1.55173e-06	1.56214e-05	-1.06564e-05	-4.59264e-05	1.72493e-05	
128	1580406961.838761655	0.0024802	-0.928829	2.13525	-2.77702	-1.56958	-2.62321	-2.44562e-06	-7.96486e-06	2.17163e-06	-1.16682e-05	-1.4656e-05	1.17547e-05	-4.79381e-05	-60.8404	-16.1759	-2.82092	0.406927	0.000123352	-1.70503e-05	-2.97044e-05	7.24459e-07	-2.04741e-05	-2.15733e-05	6.30958e-06	
129	1580406961.846679686	0.00248154	-0.92883	2.13526	-2.77702	-1.56958	-2.62321	3.78598e-06	-9.52026e-06	1.60348e-05	-6.23623e-06	-4.51622e-06	1.75721e-06	-3.38866e-05	-60.8403	-16.1758	-2.82093	0.406923	0.000123503	-6.7677e-06	-3.16372e-05	2.2878e-05	-1.14076e-05	-4.95923e-06	-9.792e-06	
130	1580406961.854735252	0.00248284	-0.928831	2.13526	-2.77702	-1.56958	-2.62321	9.6449e-06	-1.46828e-05	1.40851e-05	-4.8156e-06	-1.36421e-05	3.52784e-06	-3.32101e-05	-60.8402	-16.1758	-2.82093	0.406919	0.000122044	2.7195e-06	-3.92962e-05	1.9339e-05	-8.92624e-06	-1.9447e-05	-6.7802e-06	
131	1580406961.862753336	0.0024841	-0.928831	2.13526	-2.77702	-1.56958	-2.62321	1.51427e-05	-1.58304e-05	1.59174e-05	-3.46865e-06	-1.48221e-05	8.88126e-06	-2.60064e-05	-60.8402	-16.1758	-2.82093	0.406917	0.000122576	1.14465e-05	-4.0399e-05	2.19062e-05	-6.61086e-06	-2.09709e-05	1.89203e-06	
132	1580406961.870684250	0.00248292	-0.928832	2.13525	-2.77702	-1.56958	-2.62321	9.1768e-06	-1.6889e-05	6.55802e-06	-2.19342e-06	-1.59059e-05	1.02199e-05	-4.03559e-05	-60.8402	-16.1759	-2.82092	0.406922	0.000122296	1.72149e-06	-4.13399e-05	6.575e-06	-4.45482e-06	-2.23126e-05	3.99336e-06	
133	1580406961.878682609	0.00248177	-0.928832	2.13525	-2.77702	-1.56958	-2.62321	3.53195e-06	-1.78619e-05	1.39726e-06	-9.87898e-07	-2.42451e-05	1.51318e-05	-5.27111e-05	-60.8402	-16.1759	-2.82092	0.406918	0.000123662	-7.30413e-06	-4.21272e-05	-1.76958e-06	-2.45162e-06	-3.51908e-05	1.17486e-05	
134	1580406961.886735654	0.00247829	-0.928829	2.13525	-2.77702	-1.56958	-2.6232	-1.27322e-05	-4.10087e-06	7.66336e-06	-3.65941e-06	-1.35999e-05	1.60667e-05	-5.30886e-05	-60.8404	-16.1758	-2.82092	0.406916	0.000129785	-3.30643e-05	-1.94414e-05	8.24024e-06	-6.66006e-06	-1.75953e-05	1.30225e-05	
135	1580406961.894790915	0.00247967	-0.928829	2.13525	-2.77702	-1.56958	-2.6232	-6.13509e-06	-5.73273e-06	-1.1979e-06	1.2779e-06	-1.46394e-05	2.05656e-05	-4.82442e-05	-60.8404	-16.1759	-2.82092	0.406918	0.000128476	-2.19617e-05	-2.16796e-05	-6.00738e-06	1.31668e-06	-1.89268e-05	1.99422e-05	
136	1580406961.902736534	0.00248181	-0.92883	2.13525	-2.77702	-1.56958	-2.6232	3.75125e-06	-7.26603e-06	1.37022e-06	-1.4968e-06	-1.19505e-05	1.37699e-05	-3.19045e-05	-60.8404	-16.1759	-2.82093	0.406921	0.000124962	-5.84423e-06	-2.3719e-05	-1.815e-06	-3.11776e-06	-1.43072e-05	8.77701e-06	
137	1580406961.910735627	0.00248228	-0.928831	2.13525	-2.77702	-1.56958	-2.62321	5.76365e-06	-1.23337e-05	1.57823e-07	3.29426e-06	-1.98657e-06	7.33185e-06	-3.65467e-05	-60.8403	-16.1759	-2.82094	0.40693	0.000122859	-2.54026e-06	-3.13332e-05	-3.70696e-06	4.54829e-06	1.77796e-06	-1.60653e-06	
138	1580406961.918686959	0.00248274	-0.92883	2.13525	-2.77702	-1.56958	-2.6232	7.64645e-06	-9.85698e-06	-4.60662e-06	4.18717e-06	3.65164e-06	1.57911e-05	-3.20258e-05	-60.8404	-16.1759	-2.82094	0.406934	0.000123806	4.94952e-07	-2.68314e-05	-1.11995e-05	5.88248e-06	1.06921e-05	1.18476e-05	
139	1580406961.926796266	0.0024824	-0.928831	2.13525	-2.77702	-1.56958	-2.62321	5.77628e-06	-1.4725e-05	-5.48511e-06	-2.33986e-06	5.35636e-06	9.22974e-06	-4.14216e-05	-60.8403	-16.176	-2.82094	0.406943	0.00012049	-2.478e-06	-3.40612e-05	-1.23886e-05	-4.57307e-06	1.32002e-05	1.23069e-06	
140	1580406961.934752648	0.00248127	-0.928833	2.13525	-2.77702	-1.56958	-2.62321	3.80149e-07	-2.2893e-05	-6.30548e-06	-8.49289e-06	1.05547e-05	1.02867e-05	-6.32919e-05	-60.8402	-16.176	-2.82094	0.406957	0.000118597	-1.09804e-05	-4.63826e-05	-1.34633e-05	-1.42377e-05	2.11958e-05	2.88418e-06	
141	1580406961.942685239	0.00248097	-0.928833	2.13525	-2.77702	-1.56958	-2.62321	-1.10926e-06	-1.97995e-05	-7.06962e-06	-1.06953e-05	1.09184e-06	7.67261e-06	-5.86621e-05	-60.8403	-16.176	-2.82093	0.406949	0.000118961	-1.31382e-05	-4.06462e-05	-1.4429e-05	-1.74664e-05	5.8334e-06	-1.3043e-06	
142	1580406961.950706247	0.00248146	-0.928833	2.13525	-2.77702	-1.56958	-2.62321	1.07897e-06	-2.04266e-05	6.67224e-06	-1.27546e-05	-6.8241e-07	5.18731e-06	-4.99547e-05	-60.8402	-16.1759	-2.82093	0.40694	0.000120361	-9.43919e-06	-4.09037e-05	7.56531e-06	-2.04081e-05	2.92164e-06	-5.21003e-06	
143	1580406961.958764272	0.00248193	-0.928835	2.13525	-2.77702	-1.56958	-2.62321	3.13743e-06	-2.81194e-05	5.21611e-06	-1.46753e-05	1.21305e-06	9.96136e-06	-5.98875e-05	-60.8401	-16.176	-2.82093	0.406948	0.000118811	-6.01521e-06	-5.23231e-05	5.12838e-06	-2.3076e-05	5.86394e-06	2.42936e-06	
144	1580406961.966699057	0.00248318	-0.928833	2.13525	-2.77702	-1.56958	-2.62321	8.64567e-06	-2.11063e-05	2.74888e-07	-1.64621e-05	3.00125e-06	3.70278e-06	-3.87926e-05	-60.8402	-16.176	-2.82093	0.406948	0.000117021	2.79119e-06	-4.03092e-05	-2.76535e-06	-2.54827e-05	8.58168e-06	-7.49487e-06	
145	1580406961.974707818	0.00248438	-0.928832	2.13525	-2.77702	-1.56957	-2.62321	1.38249e-05	-1.4453e-05	2.7026e-06	-1.08845e-05	1.19202e-05	8.49458e-06	-1.94145e-05	-60.8403	-16.1759	-2.82094	0.406945	0.000119866	1.09133e-05	-2.90895e-05	1.11461e-06	-1.62266e-05	2.24984e-05	2.00577e-07	
146	1580406961.982687655	0.00248476	-0.928832	2.13525	-2.77702	-1.56958	-2.62321	1.513e-05	-1.52231e-05	4.98819e-06	-1.28148e-05	6.03203e-06	2.31729e-06	-1.61007e-05	-60.8403	-16.1759	-2.82094	0.40694	0.000118761	1.27764e-05	-2.97826e-05	4.69787e-06	-1.89793e-05	1.28139e-05	-9.53918e-06	
147	1580406961.990724172	0.00248512	-0.92883	2.13525	-2.77702	-1.56958	-2.62321	1.63311e-05	-5.34621e-06	-3.44381e-06	-7.41997e-06	7.51745e-06	3.6002e-06	-8.32426e-07	-60.8405	-16.1759	-2.82094	0.406937	0.000120471	1.44415e-05	-1.36939e-05	-8.66645e-06	-1.01436e-05	1.49245e-05	-7.34696e-06	
148	1580406961.998744533	0.00248547	-0.92883	2.13525	-2.77702	-1.56958	-2.62321	1.74324e-05	-6.56412e-06	-4.36653e-06	-5.82983e-06	8.90802e-06	1.28331e-06	-1.14115e-06	-60.8404	-16.176	-2.82094	0.406938	0.000119889	1.59186e-05	-1.53662e-05	-9.96393e-06	-7.46069e-06	1.68469e-05	-1.0861e-05	
149	1580406962.006747697	0.00248503	-0.928831	2.13525	-2.77702	-1.56958	-2.62321	1.49119e-05	-1.12116e-05	-5.23144e-06	-4.31762e-06	6.69979e-06	-4.48874e-06	-1.21633e-05	-60.8404	-16.176	-2.82094	0.406939	0.000118745	1.16736e-05	-2.24008e-05	-1.11466e-05	-4.95039e-06	1.30749e-05	-1.97431e-05	
150	1580406962.014704106	0.00248537	-0.928831	2.13525	-2.77702	-1.56958	-2.62321	1.60172e-05	-8.58844e-06	-2.36664e-05	-2.88142e-06	4.60394e-06	-2.87225e-06	-1.21991e-05	-60.8405	-16.1761	-2.82094	0.406946	0.000116617	1.32043e-05	-1.78816e-05	-3.99134e-05	-2.60626e-06	9.54982e-06	-1.6852e-05	
151	1580406962.022834104	0.00248415	-0.92883	2.13525	-2.77702	-1.56957	-2.62321	1.00164e-05	-6.09798e-06	-1.63447e-05	-1.51932e-06	1.67076e-05	-1.18781e-05	-1.39491e-05	-60.8405	-16.1761	-2.82095	0.406948	0.000117977	3.5513e-06	-1.3655e-05	-2.77125e-05	-4.21979e-07	2.83821e-05	-3.0691e-05	
152	1580406962.030762939	0.00248296	-0.928828	2.13525	-2.77702	-1.56957	-2.62321	4.32663e-06	3.21934e-06	-1.30191e-05	-2.29408e-07	1.40603e-05	-1.3343e-05	-5.90933e-06	-60.8407	-16.176	-2.82095	0.406937	0.000121704	-5.43536e-06	1.20196e-06	-2.20065e-05	1.60866e-06	2.37283e-05	-3.24457e-05	
153	1580406962.038691579	0.00248336	-0.928828	2.13525	-2.77702	-1.56957	-2.62321	5.9138e-06	5.07635e-06	-9.85609e-06	4.45886e-06	1.50049e-05	-1.47084e-05	7.5224e-07	-60.8407	-16.176	-2.82095	0.406931	0.000123157	-2.85073e-06	4.09175e-06	-1.6661e-05	8.92831e-06	2.47906e-05	-3.40129e-05	
154	1580406962.046703818	0.00248296	-0.928829	2.13525	-2.77702	-1.56957	-2.62321	3.92079e-06	-9.80064e-08	-3.25397e-06	8.88108e-06	1.58722e-05	-1.25183e-05	-9.50156e-06	-60.8406	-16.176	-2.82096	0.406928	0.000125009	-5.92063e-06	-4.08331e-06	-6.02841e-06	1.56967e-05	2.57128e-05	-2.99838e-05	
155	1580406962.054727640	0.00248104	-0.928829	2.13525	-2.77702	-1.56957	-2.62321	-4.91019e-06	-1.53821e-06	-5.98999e-07	2.55697e-06	2.01149e-05	-1.04318e-05	-2.4974e-05	-60.8406	-16.176	-2.82096	0.406935	0.000125771	-1.96345e-05	-6.26493e-06	-1.76798e-06	5.52498e-06	3.19005e-05	-2.61917e-05	
156	1580406962.062728188	0.00248226	-0.928828	2.13525	-2.77702	-1.56957	-2.62321	5.84977e-07	3.98348e-06	-4.97106e-06	1.82647e-08	2.40898e-05	-1.18871e-05	-7.87598e-06	-60.8407	-16.176	-2.82096	0.406938	0.000124299	-1.06974e-05	2.47867e-06	-8.57293e-06	1.45867e-06	3.7557e-05	-2.80076e-05	
157	1580406962.070745575	0.00247885	-0.92883	2.13525	-2.77702	-1.56957	-2.62321	-1.48185e-05	-4.533e-06	-5.66298e-06	1.18855e-06	1.75106e-05	-9.81439e-06	-4.66016e-05	-60.8406	-16.176	-2.82095	0.406939	0.000126059	-3.45743e-05	-1.08696e-05	-9.50403e-06	3.26139e-06	2.66219e-05	-2.4279e-05	
158	1580406962.078739685	0.00247783	-0.928832	2.13525	-2.77702	-1.56957	-2.62321	-1.91412e-05	-1.25757e-05	-1.31526e-05	-4.68874e-06	1.81078e-05	-9.9745e-07	-6.95436e-05	-60.8405	-16.1761	-2.82095	0.406952	0.000124394	-4.07182e-05	-2.32348e-05	-2.10299e-05	-5.9704e-06	2.70899e-05	-1.0091e-05	
159	1580406962.086762903	0.00247837	-0.928831	2.13525	-2.77702	-1.56957	-2.62321	-1.63359e-05	-9.91735e-06	-1.67962e-05	-3.27196e-06	1.52278e-05	5.07583e-07	-6.09442e-05	-60.8405	-16.1761	-2.82094	0.406949	0.000124572	-3.56326e-05	-1.86835e-05	-2.63472e-05	-3.65672e-06	2.21263e-05	-7.56698e-06	
160	1580406962.094738727	0.00247814	-0.928831	2.13525	-2.77702	-1.56957	-2.62321	-1.70831e-05	-7.38907e-06	-2.02123e-05	-8.87192e-06	1.58838e-05	1.92615e-06	-5.79418e-05	-60.8406	-16.1761	-2.82094	0.406953	0.000123864	-3.61773e-05	-1.44182e-05	-3.12137e-05	-1.23212e-05	2.27645e-05	-5.22381e-06	
161	1580406962.102775451	0.00247791	-0.928829	2.13525	-2.77702	-1.56957	-2.62321	-1.77647e-05	1.80365e-06	-2.00122e-05	-3.82767e-06	1.64766e-05	1.00521e-05	-4.45173e-05	-60.8407	-16.1761	-2.82094	0.406944	0.00012842	-3.66106e-05	1.48055e-07	-3.0361e-05	-4.25224e-06	2.32932e-05	7.52229e-06	
162	1580406962.110732317	0.00247769	-0.928828	2.13525	-2.77702	-1.56957	-2.6232	-1.83829e-05	3.71721e-06	-1.97893e-05	-2.43836e-06	2.03955e-05	1.43281e-05	-4.2457e-05	-60.8408	-16.1761	-2.82095	0.406944	0.000129925	-3.69383e-05	3.12341e-06	-2.94889e-05	-2.01695e-06	2.89886e-05	1.40467e-05	
163	1580406962.118842553	0.00247749	-0.928826	2.13525	-2.77702	-1.56957	-2.6232	-1.89401e-05	1.22756e-05	-1.95451e-05	5.63633e-06	2.4066e-05	1.49661e-05	-2.91719e-05	-60.8409	-16.176	-2.82095	0.406936	0.000133345	-3.7166e-05	1.63768e-05	-2.86e-05	1.05727e-05	3.41953e-05	1.47968e-05	
164	1580406962.126762255	0.00247805	-0.928827	2.13525	-2.77702	-1.56957	-2.6232	-1.60512e-05	6.86949e-06	-1.9281e-05	9.89394e-06	3.1e-05	1.21717e-05	-3.29567e-05	-60.8408	-16.1761	-2.82096	0.406942	0.000131911	-3.20365e-05	7.69571e-06	-2.7697e-05	1.7005e-05	4.43792e-05	1.02013e-05	
165	1580406962.134697533	0.00247784	-0.928827	2.13525	-2.77702	-1.56957	-2.6232	-1.6674e-05	8.46598e-06	-2.90811e-05	3.68767e-06	2.3927e-05	1.95882e-05	-3.45755e-05	-60.8409	-16.1761	-2.82095	0.406945	0.000130924	-3.24515e-05	1.0042e-05	-4.24345e-05	7.07772e-06	3.2636e-05	2.15399e-05	
166	1580406962.142712683	0.00247839	-0.928827	2.13525	-2.77702	-1.56957	-2.6232	-1.38679e-05	6.60844e-06	-1.8053e-05	4.6509e-06	1.38437e-05	9.73823e-06	-2.70343e-05	-60.8408	-16.1761	-2.82095	0.406931	0.000130752	-2.75411e-05	6.98853e-06	-2.45996e-05	8.45022e-06	1.64351e-05	5.89195e-06	
167	1580406962.150698290	0.00247818	-0.928827	2.13525	-2.77702	-1.56957	-2.62321	-1.45547e-05	8.18314e-06	-4.24651e-06	2.07721e-06	1.76566e-05	3.74542e-06	-1.95329e-05	-60.8408	-16.176	-2.82095	0.406926	0.000131885	-2.81332e-05	9.30979e-06	-2.77891e-06	4.31619e-06	2.20638e-05	-3.49676e-06	
168	1580406962.158704281	0.00247873	-0.928828	2.13525	-2.77702	-1.56957	-2.62321	-1.18296e-05	2.98709e-06	-1.13236e-05	3.10844e-06	1.45615e-05	1.46873e-06	-2.53016e-05	-60.8407	-16.176	-2.82095	0.406931	0.000129009	-2.34309e-05	1.10352e-06	-1.36923e-05	5.83937e-06	1.68935e-05	-6.9621e-06	
169	1580406962.166736875	0.00247775	-0.928829	2.13525	-2.77702	-1.56957	-2.62321	-1.59236e-05	-1.93501e-06	-1.13447e-05	4.07936e-06	1.16074e-05	2.63599e-06	-3.95019e-05	-60.8407	-16.1761	-2.82095	0.406931	0.000129256	-2.9366e-05	-6.53214e-06	-1.34917e-05	7.24213e-06	1.2034e-05	-5.03602e-06	
170	1580406962.174727831	0.0024768	-0.928831	2.13525	-2.77702	-1.56957	-2.62321	-1.97729e-05	-9.90918e-06	-1.13446e-05	1.54008e-06	8.79104e-06	7.05145e-06	-5.84007e-05	-60.8406	-16.1761	-2.82094	0.406936	0.000128779	-3.48176e-05	-1.87512e-05	-1.3262e-05	3.19209e-06	7.47447e-06	1.8784e-06	
171	1580406962.182780494	0.00247739	-0.928832	2.13525	-2.77702	-1.56957	-2.62321	-1.67284e-05	-1.41292e-05	-1.13244e-05	2.57818e-06	6.10941e-06	4.59331e-06	-5.90813e-05	-60.8405	-16.1761	-2.82094	0.406936	0.000127336	-2.95209e-05	-2.49526e-05	-1.30056e-05	4.74172e-06	3.20445e-06	-1.95085e-06	
172	1580406962.190780150	0.00247797	-0.928831	2.13525	-2.77702	-1.56958	-2.62321	-1.38215e-05	-1.14961e-05	-1.24559e-06	3.55667e-06	-6.34808e-06	2.25617e-06	-4.51683e-05	-60.8405	-16.176	-2.82094	0.406917	0.000129311	-2.45313e-05	-2.04633e-05	2.77577e-06	6.17188e-06	-1.6083e-05	-5.52529e-06	
173	1580406962.198779856	0.00247778	-0.928832	2.13525	-2.77702	-1.56958	-2.62321	-1.4361e-05	-1.55752e-05	-1.718e-06	7.77161e-06	-1.65817e-06	-6.61752e-06	-5.09744e-05	-60.8404	-16.1761	-2.82094	0.406921	0.000127617	-2.49477e-05	-2.64094e-05	1.9995e-06	1.25698e-05	-8.57455e-06	-1.91207e-05	
174	1580406962.206702804	0.00247685	-0.928833	2.13525	-2.77702	-1.56958	-2.62321	-1.81533e-05	-1.94118e-05	1.12579e-06	8.46235e-06	-7.0779e-06	-1.17228e-05	-6.03485e-05	-60.8404	-16.1761	-2.82094	0.406918	0.000127426	-3.03716e-05	-3.18769e-05	6.34911e-06	1.3422e-05	-1.67838e-05	-2.66665e-05	
175	1580406962.214777811	0.00247745	-0.928834	2.13525	-2.77702	-1.56958	-2.62321	-1.51232e-05	-2.3013e-05	1.05055e-05	9.10268e-06	-8.92055e-06	-1.31958e-05	-5.71569e-05	-60.8403	-16.176	-2.82094	0.406912	0.00012779	-2.51911e-05	-3.68856e-05	2.06897e-05	1.41817e-05	-1.93383e-05	-2.84845e-05	
176	1580406962.222756062	0.00247803	-0.928833	2.13525	-2.77702	-1.56958	-2.62321	-1.2231e-05	-1.65742e-05	9.42755e-06	9.69429e-06	-1.39232e-05	-8.03118e-06	-4.22752e-05	-60.8404	-16.176	-2.82094	0.406905	0.000129533	-2.03149e-05	-2.63534e-05	1.86815e-05	1.48533e-05	-2.67118e-05	-2.00545e-05	
177	1580406962.230696799	0.00247635	-0.928832	2.13525	-2.77702	-1.56958	-2.62321	-1.93137e-05	-1.37146e-05	-1.39436e-06	6.84571e-06	-1.53765e-05	-9.65688e-06	-5.09435e-05	-60.8405	-16.1761	-2.82093	0.40691	0.000128566	-3.08662e-05	-2.1512e-05	1.72268e-06	1.02223e-05	-2.84972e-05	-2.22168e-05	
178	1580406962.238737056	0.00247548	-0.928832	2.13525	-2.77702	-1.56958	-2.62321	-2.27171e-05	-1.09854e-05	-1.87268e-06	7.52253e-06	-1.34749e-05	-1.11835e-05	-5.09536e-05	-60.8405	-16.1761	-2.82094	0.40691	0.000129375	-3.55784e-05	-1.69564e-05	9.58302e-07	1.10909e-05	-2.50959e-05	-2.41893e-05	
179	1580406962.246732866	0.00247388	-0.928832	2.13525	-2.77702	-1.56958	-2.62321	-2.91682e-05	-1.16306e-05	-5.56822e-06	8.15124e-06	-8.40743e-06	-9.36682e-06	-6.29033e-05	-60.8405	-16.1761	-2.82094	0.406917	0.000129981	-4.48887e-05	-1.7663e-05	-4.73321e-06	1.18705e-05	-1.6893e-05	-2.09934e-05	
180	1580406962.254695266	0.00247308	-0.928831	2.13525	-2.77702	-1.56958	-2.62321	-3.19742e-05	-8.98361e-06	-5.81815e-06	5.36445e-06	-3.59674e-06	-1.74169e-05	-6.06444e-05	-60.8406	-16.1761	-2.82094	0.406921	0.000128785	-4.84435e-05	-1.33057e-05	-5.03788e-06	7.39565e-06	-9.22798e-06	-3.29945e-05	
181	1580406962.262675362	0.00247455	-0.928829	2.13525	-2.77702	-1.56958	-2.62321	-2.48341e-05	1.11628e-09	-1.25076e-05	-5.15367e-07	-2.26815e-06	-1.52558e-05	-3.61833e-05	-60.8407	-16.1761	-2.82094	0.406923	0.000127365	-3.66864e-05	6.93061e-07	-1.52113e-05	-1.74353e-06	-7.03634e-06	-2.91291e-05	
182	1580406962.270716697	0.0024745	-0.92883	2.13525	-2.77702	-1.56958	-2.62321	-2.45141e-05	-1.16125e-06	-1.5598e-05	4.93319e-07	-4.23168e-06	-1.96997e-05	-3.72029e-05	-60.8407	-16.1761	-2.82094	0.406924	0.000126058	-3.55845e-05	-1.0995e-06	-1.9693e-05	-1.68889e-07	-9.92719e-06	-3.54518e-05	
183	1580406962.278772467	0.00247593	-0.928829	2.13525	-2.77702	-1.56958	-2.62321	-1.77041e-05	9.56442e-07	-1.52824e-05	4.66424e-06	3.47031e-07	-2.70965e-05	-2.16582e-05	-60.8407	-16.1761	-2.82095	0.406923	0.00012478	-2.45662e-05	2.16097e-06	-1.88825e-05	6.21979e-06	-2.75156e-06	-4.6186e-05	
184	1580406962.286779816	0.00247584	-0.92883	2.13525	-2.77702	-1.56958	-2.62321	-1.76765e-05	-3.45699e-06	-1.49577e-05	5.39852e-06	-1.73563e-06	-2.11619e-05	-2.92634e-05	-60.8407	-16.1761	-2.82094	0.406923	0.000125334	-2.4116e-05	-4.62698e-06	-1.80724e-05	7.23988e-06	-5.89176e-06	-3.6339e-05	
185	1580406962.294681711	0.0024765	-0.928829	2.13525	-2.77702	-1.56958	-2.62321	-1.44028e-05	1.97265e-06	-2.42298e-05	2.7555e-06	-5.05472e-07	-2.19112e-05	-1.76662e-05	-60.8408	-16.1762	-2.82094	0.406928	0.000123628	-1.87117e-05	3.75013e-06	-3.19477e-05	3.07945e-06	-3.91319e-06	-3.68815e-05	
186	1580406962.302696914	0.0024764	-0.928828	2.13525	-2.77702	-1.56958	-2.62321	-1.44885e-05	7.11414e-06	-2.01975e-05	6.76307e-06	6.59647e-07	-1.93937e-05	-8.605e-06	-60.8409	-16.1761	-2.82095	0.40692	0.000126597	-1.85332e-05	1.1542e-05	-2.52594e-05	9.15044e-06	-2.06831e-06	-3.24249e-05	
187	1580406962.310706093	0.00247778	-0.928829	2.13525	-2.77702	-1.56957	-2.62321	-8.13794e-06	2.41394e-06	-9.84155e-06	4.04782e-06	8.26293e-06	-1.06051e-05	-4.50409e-06	-60.8407	-16.1761	-2.82095	0.406924	0.000127289	-8.53336e-06	4.1766e-06	-9.03467e-06	4.85463e-06	9.57211e-06	-1.84734e-05	
188	1580406962.318715456	0.00247765	-0.928829	2.13525	-2.77702	-1.56957	-2.62321	-8.49914e-06	1.13618e-06	-1.28568e-05	1.46803e-06	8.96711e-06	-5.44098e-06	-8.75608e-06	-60.8407	-16.1761	-2.82095	0.406928	0.000127042	-8.94383e-06	2.15866e-06	-1.34852e-05	8.39676e-07	1.04885e-05	-1.02915e-05	
189	1580406962.326710541	0.00247826	-0.928829	2.13525	-2.77702	-1.56957	-2.62321	-5.63739e-06	3.09617e-06	-2.87495e-06	-9.79586e-07	6.44678e-06	-6.88439e-06	2.64038e-06	-60.8407	-16.176	-2.82095	0.406921	0.000128036	-4.43505e-06	5.11044e-06	1.9504e-06	-2.90462e-06	6.4746e-06	-1.23218e-05	
190	1580406962.334702428	0.00247959	-0.928829	2.13525	-2.77702	-1.56957	-2.62321	2.67301e-07	1.78376e-06	3.42683e-06	-6.37093e-09	7.2122e-06	-1.46364e-05	1.28206e-05	-60.8407	-16.176	-2.82095	0.406918	0.000126678	4.63063e-06	3.02751e-06	1.15157e-05	-1.37448e-06	7.53419e-06	-2.39256e-05	
191	1580406962.342704811	0.00248088	-0.928827	2.13525	-2.77702	-1.56957	-2.62321	5.86508e-06	1.00118e-05	2.9541e-06	-2.36898e-06	1.10834e-05	-2.19618e-05	3.55643e-05	-60.8408	-16.176	-2.82095	0.406917	0.000125379	1.30736e-05	1.55002e-05	1.06066e-05	-4.9475e-06	1.33025e-05	-3.46814e-05	
192	1580406962.350806055	0.00248067	-0.928827	2.13525	-2.77702	-1.56957	-2.62321	4.828e-06	1.14935e-05	2.50373e-06	-1.32815e-06	8.43221e-06	-2.5721e-05	3.62867e-05	-60.8408	-16.176	-2.82095	0.406914	0.000125402	1.12818e-05	1.74995e-05	9.74732e-06	-3.2834e-06	9.05281e-06	-3.98298e-05	
193	1580406962.358760412	0.00248266	-0.928826	2.13525	-2.77702	-1.56957	-2.62321	1.33213e-05	1.60245e-05	8.48912e-06	-3.60976e-06	1.21927e-05	-2.60381e-05	5.8014e-05	-60.8408	-16.1759	-2.82096	0.406912	0.000125288	2.40039e-05	2.40989e-05	1.86832e-05	-6.6969e-06	1.46198e-05	-3.96601e-05	
194	1580406962.366717557	0.00248313	-0.928827	2.13525	-2.77702	-1.56957	-2.62321	1.50466e-05	7.74688e-06	1.47867e-06	-8.90485e-06	9.46342e-06	-2.62988e-05	4.46373e-05	-60.8407	-16.176	-2.82095	0.406922	0.000121328	2.62315e-05	1.1135e-05	7.73167e-06	-1.46283e-05	1.02367e-05	-3.9408e-05	
195	1580406962.374747918	0.00248211	-0.928827	2.13525	-2.77702	-1.56957	-2.62321	1.0367e-05	9.27715e-06	4.22229e-06	-7.52638e-06	3.72947e-06	-2.65054e-05	4.02069e-05	-60.8407	-16.176	-2.82095	0.406915	0.000123366	1.87023e-05	1.32756e-05	1.17684e-05	-1.22979e-05	1.36903e-06	-3.90789e-05	
196	1580406962.382759786	0.00248258	-0.928826	2.13525	-2.77702	-1.56957	-2.62321	1.21948e-05	1.38369e-05	5.727e-07	-3.08484e-06	1.09034e-05	-2.66603e-05	4.80198e-05	-60.8408	-16.176	-2.82095	0.406917	0.000123981	2.11692e-05	1.99737e-05	6.0423e-06	-5.36265e-06	1.22253e-05	-3.86776e-05	
197	1580406962.390683277	0.00248158	-0.928826	2.13525	-2.77702	-1.56957	-2.62321	7.64448e-06	1.50228e-05	-9.11989e-06	-5.22621e-06	5.09743e-06	-2.67658e-05	3.94233e-05	-60.8409	-16.176	-2.82095	0.406919	0.000123131	1.39299e-05	2.1446e-05	-8.74304e-06	-8.52013e-06	3.22944e-06	-3.82088e-05	
198	1580406962.398708817	0.00248133	-0.928827	2.13525	-2.77702	-1.56957	-2.62321	6.44467e-06	9.90473e-06	-8.96691e-06	-7.24919e-06	5.80132e-06	-1.43235e-05	2.6813e-05	-60.8408	-16.176	-2.82094	0.406924	0.000124294	1.1887e-05	1.33486e-05	-8.36994e-06	-1.14449e-05	4.2432e-06	-1.87493e-05	
199	1580406962.406815115	0.00248036	-0.928827	2.13525	-2.77702	-1.56957	-2.62321	2.17839e-06	8.13797e-06	-2.47636e-06	-9.15694e-06	9.56127e-06	-1.49739e-05	1.91604e-05	-60.8408	-16.176	-2.82095	0.406925	0.000125282	5.23905e-06	1.04592e-05	1.58581e-06	-1.41459e-05	9.86382e-06	-1.94298e-05	
200	1580406962.414686649	0.00247942	-0.928827	2.13525	-2.77702	-1.56957	-2.62321	-1.87062e-06	9.54541e-06	4.65431e-07	-7.73256e-06	1.00151e-05	-1.55669e-05	1.58343e-05	-60.8408	-16.176	-2.82095	0.406922	0.000126931	-9.67819e-07	1.24181e-05	6.00757e-06	-1.17635e-05	1.03908e-05	-2.00123e-05	
201	1580406962.422733194	0.00247924	-0.928827	2.13525	-2.77702	-1.56957	-2.62322	-2.60181e-06	7.77571e-06	1.67577e-07	-1.57619e-05	7.33907e-06	-2.85243e-05	1.42564e-05	-60.8408	-16.176	-2.82095	0.406926	0.000123005	-2.05708e-06	9.54393e-06	5.46008e-06	-2.37048e-05	6.18023e-06	-3.92664e-05	
202	1580406962.430724508	0.00247979	-0.928829	2.13525	-2.77702	-1.56957	-2.62322	-1.91598e-07	-8.13695e-08	9.25868e-06	-1.08999e-05	7.8706e-06	-2.83781e-05	7.71575e-06	-60.8406	-16.176	-2.82095	0.406923	0.000123707	1.61486e-06	-2.47231e-06	1.90972e-05	-1.59819e-05	6.88346e-06	-3.84128e-05	
203	1580406962.438806278	0.00247959	-0.928827	2.13525	-2.77702	-1.56957	-2.62321	-9.96683e-07	7.8456e-06	1.15955e-05	-9.34718e-06	2.20852e-06	-2.20424e-05	1.88152e-05	-60.8407	-16.1759	-2.82094	0.406911	0.000127339	3.74061e-07	9.52715e-06	2.23148e-05	-1.3382e-05	-1.76936e-06	-2.8236e-05	
204	1580406962.446668156	0.00248086	-0.928829	2.13525	-2.77702	-1.56958	-2.62321	4.41378e-06	4.77796e-09	1.07271e-05	-1.10523e-05	-3.16853e-06	-1.29267e-05	1.2771e-05	-60.8406	-16.1759	-2.82094	0.406913	0.000126281	8.52485e-06	-2.44686e-06	2.06465e-05	-1.57376e-05	-9.84708e-06	-1.40394e-05	
205	1580406962.454684860	0.00248063	-0.928829	2.13525	-2.77702	-1.56957	-2.62321	3.38233e-06	-1.30905e-06	6.8254e-06	-1.26531e-05	9.2235e-07	-1.03828e-05	7.18935e-06	-60.8406	-16.176	-2.82094	0.40692	0.000125633	6.83393e-06	-4.38673e-06	1.44366e-05	-1.78968e-05	-3.52549e-06	-9.9819e-06	
206	1580406962.462718140	0.00247969	-0.928826	2.13525	-2.77702	-1.56957	-2.62321	-6.73863e-07	9.67259e-06	5.77138e-08	-1.41528e-05	1.74409e-06	-1.10081e-05	1.64037e-05	-60.8408	-16.176	-2.82094	0.406919	0.000126851	6.17748e-07	1.22164e-05	4.01632e-06	-1.98678e-05	-2.23148e-06	-1.07638e-05	
207	1580406962.470818280	0.00247878	-0.928828	2.13525	-2.77702	-1.56957	-2.62321	-4.52135e-06	4.82628e-06	-9.41346e-06	-1.55542e-05	2.51947e-06	-1.15829e-05	-2.79659e-07	-60.8408	-16.176	-2.82094	0.40693	0.000124682	-5.18048e-06	4.73028e-06	-1.02968e-05	-2.16584e-05	-1.02887e-06	-1.14568e-05	
208	1580406962.478725253	0.00247861	-0.928829	2.13525	-2.77702	-1.56957	-2.62321	-5.10513e-06	-2.82506e-06	-1.22982e-05	-1.68604e-05	3.24979e-06	-1.82578e-05	-1.30914e-05	-60.8407	-16.1761	-2.82094	0.406937	0.000121575	-5.97547e-06	-6.84772e-06	-1.44694e-05	-2.32761e-05	8.58827e-08	-2.1309e-05	
209	1580406962.486677280	0.00247773	-0.928833	2.13525	-2.77702	-1.56957	-2.62321	-8.70478e-06	-1.62804e-05	-1.19786e-05	-2.11119e-05	6.974e-06	-1.53897e-05	-4.00052e-05	-60.8405	-16.1762	-2.82094	0.406951	0.000119559	-1.1288e-05	-2.69521e-05	-1.37588e-05	-2.9292e-05	5.67974e-06	-1.66607e-05	
210	1580406962.494710065	0.00247904	-0.928833	2.13525	-2.77703	-1.56957	-2.62321	-2.96539e-06	-1.98127e-05	-8.62459e-06	-2.20836e-05	7.46531e-06	-6.5794e-06	-3.66095e-05	-60.8404	-16.1762	-2.82094	0.406951	0.000120125	-2.49219e-06	-3.18254e-05	-8.50482e-06	-3.02843e-05	6.32724e-06	-3.16964e-06	
211	1580406962.502796023	0.00247959	-0.928834	2.13525	-2.77702	-1.56957	-2.62321	-5.53609e-07	-2.31371e-05	-1.14768e-05	-1.07507e-05	4.8937e-06	-1.22957e-06	-3.99902e-05	-60.8404	-16.1762	-2.82094	0.406945	0.000121991	1.16538e-06	-3.63063e-05	-1.26487e-05	-1.28015e-05	2.36913e-06	4.90592e-06	
212	1580406962.510701725	0.00247869	-0.928836	2.13525	-2.77702	-1.56957	-2.62321	-4.33246e-06	-2.92782e-05	-1.11467e-05	-9.03228e-06	8.48131e-06	-2.18466e-06	-5.47997e-05	-60.8403	-16.1762	-2.82094	0.40695	0.000121814	-4.51826e-06	-4.49358e-05	-1.19534e-05	-1.00224e-05	7.71019e-06	3.39568e-06	
213	1580406962.518747783	0.00247853	-0.928836	2.13525	-2.77702	-1.56957	-2.62321	-4.88401e-06	-2.90399e-05	-4.66927e-06	-7.38636e-06	8.8601e-06	-9.1714e-06	-5.13092e-05	-60.8403	-16.1762	-2.82095	0.406946	0.000122318	-5.27305e-06	-4.38662e-05	-2.06052e-06	-7.39804e-06	8.15578e-06	-7.1254e-06	
214	1580406962.526738573	0.00247694	-0.928835	2.13525	-2.77702	-1.56957	-2.62321	-1.14448e-05	-2.57645e-05	-1.63775e-06	-1.1945e-05	9.20481e-06	-1.27821e-05	-5.34566e-05	-60.8403	-16.1762	-2.82095	0.406945	0.000123223	-1.50115e-05	-3.82683e-05	2.51e-06	-1.41056e-05	8.54311e-06	-1.24185e-05	
215	1580406962.534760681	0.00247827	-0.928835	2.13525	-2.77702	-1.56957	-2.62321	-5.59092e-06	-2.56172e-05	-7.75666e-06	-7.1328e-06	6.51621e-06	-1.31287e-05	-4.55585e-05	-60.8404	-16.1762	-2.82095	0.406943	0.000122359	-6.01693e-06	-3.7443e-05	-6.68395e-06	-6.68392e-06	4.38633e-06	-1.27411e-05	
216	1580406962.542753896	0.00248028	-0.928835	2.13525	-2.77702	-1.56957	-2.62321	2.9869e-06	-2.24451e-05	-7.56475e-06	-8.66023e-06	3.95181e-06	-1.04416e-05	-2.70353e-05	-60.8404	-16.1762	-2.82094	0.406939	0.000122011	6.90135e-06	-3.21098e-05	-6.29193e-06	-8.86217e-06	4.83839e-07	-8.52343e-06	
217	1580406962.550747317	0.00248009	-0.928834	2.13525	-2.77702	-1.56957	-2.62321	2.11611e-06	-1.93995e-05	-1.33464e-05	-6.98861e-06	4.49731e-06	-1.39086e-05	-2.44739e-05	-60.8405	-16.1762	-2.82095	0.40694	0.000121647	5.49148e-06	-2.7054e-05	-1.48305e-05	-6.22553e-06	1.29158e-06	-1.35691e-05	
218	1580406962.558680885	0.0024799	-0.928836	2.13525	-2.77702	-1.56957	-2.62321	1.28693e-06	-2.54255e-05	-6.76678e-06	-1.14735e-05	7.9892e-06	-1.11538e-05	-3.31137e-05	-60.8404	-16.1762	-2.82095	0.406945	0.000121549	4.16699e-06	-3.56245e-05	-4.77479e-06	-1.28233e-05	6.4847e-06	-9.24345e-06	
219	1580406962.566721514	0.00247971	-0.928836	2.13525	-2.77702	-1.56957	-2.62321	4.98391e-07	-2.51578e-05	-9.55458e-06	-9.64267e-06	5.33903e-06	-8.51852e-06	-3.46816e-05	-60.8404	-16.1763	-2.82095	0.406943	0.000122356	2.92493e-06	-3.46654e-05	-8.8592e-06	-9.89079e-06	2.42951e-06	-5.16733e-06	
220	1580406962.574704198	0.00248096	-0.928836	2.13525	-2.77702	-1.56957	-2.62321	5.72204e-06	-2.4866e-05	-9.21603e-06	-7.88817e-06	5.78271e-06	-3.03002e-06	-2.67005e-05	-60.8404	-16.1763	-2.82095	0.406941	0.00012308	1.06665e-05	-3.36865e-05	-8.21586e-06	-7.12023e-06	3.05327e-06	3.09567e-06	
221	1580406962.582712104	0.00248217	-0.928835	2.13525	-2.77702	-1.56957	-2.62321	1.06761e-05	-1.86223e-05	1.33333e-07	-9.29177e-06	2.64492e-07	-3.73892e-06	-5.64711e-06	-60.8404	-16.1762	-2.82094	0.406928	0.000124881	1.78799e-05	-2.38569e-05	5.84136e-06	-9.10012e-06	-5.21531e-06	1.99042e-06	
222	1580406962.590689519	0.00248263	-0.928836	2.13525	-2.77702	-1.56957	-2.62321	1.23928e-05	-2.44981e-05	-2.93728e-06	-1.06099e-05	-2.0209e-06	-4.40416e-06	-1.2921e-05	-60.8403	-16.1762	-2.82094	0.406932	0.000122876	2.01558e-05	-3.22318e-05	1.17796e-06	-1.09205e-05	-8.53577e-06	9.68284e-07	
223	1580406962.598699719	0.00248308	-0.928836	2.13525	-2.77702	-1.56958	-2.62321	1.40063e-05	-2.41371e-05	3.12897e-06	-5.82096e-06	-1.60028e-05	3.83182e-06	-8.95803e-06	-60.8403	-16.1762	-2.82094	0.406914	0.0001265	2.22413e-05	-3.11915e-05	1.01844e-05	-3.62531e-06	-2.92041e-05	1.3206e-05	
224	1580406962.606687612	0.00248138	-0.928834	2.13525	-2.77702	-1.56958	-2.62321	6.63115e-06	-1.49163e-05	5.82447e-06	4.63315e-06	-2.04233e-05	2.81187e-06	-4.85938e-06	-60.8404	-16.1761	-2.82094	0.406898	0.000131723	1.09288e-05	-1.69957e-05	1.40327e-05	1.19738e-05	-3.53203e-05	1.14829e-05	
225	1580406962.614706059	0.00248044	-0.928836	2.13525	-2.77702	-1.56958	-2.62321	2.57204e-06	-2.08395e-05	2.49616e-06	5.73631e-06	-1.87127e-05	1.06657e-05	-2.26511e-05	-60.8404	-16.1762	-2.82094	0.406904	0.000132251	4.72752e-06	-2.55318e-05	8.86854e-06	1.34259e-05	-3.22281e-05	2.29724e-05	
226	1580406962.622706635	0.00248023	-0.928833	2.13525	-2.77702	-1.56958	-2.62321	1.66326e-06	-8.82131e-06	2.26779e-06	3.72489e-06	-2.29336e-05	1.22438e-05	-4.85034e-06	-60.8405	-16.1761	-2.82093	0.406895	0.000134498	3.30456e-06	-7.29077e-06	8.39107e-06	1.02301e-05	-3.79933e-05	2.49575e-05	
227	1580406962.630705429	0.00248074	-0.928832	2.13525	-2.77702	-1.56958	-2.62321	3.74319e-06	-3.24698e-06	2.04936e-06	7.78725e-06	-2.39829e-05	1.94954e-06	8.51747e-06	-60.8406	-16.1761	-2.82094	0.406889	0.00013401	6.33928e-06	1.09307e-06	7.93621e-06	1.60984e-05	-3.89596e-05	9.29495e-06	
228	1580406962.638709731	0.00248123	-0.928829	2.13525	-2.77702	-1.56958	-2.62321	5.71459e-06	7.90556e-06	1.84064e-06	8.71368e-06	-2.78713e-05	-4.90873e-06	2.998e-05	-60.8408	-16.1761	-2.82094	0.406879	0.000134623	9.16399e-06	1.76123e-05	7.50321e-06	1.7222e-05	-4.41205e-05	-1.019e-06	
229	1580406962.646781802	0.00248029	-0.928831	2.13525	-2.77702	-1.56958	-2.62321	1.71169e-06	-1.93639e-06	-1.27737e-06	1.2502e-05	-2.27716e-05	3.16371e-07	5.85724e-06	-60.8406	-16.1761	-2.82094	0.406889	0.00013432	3.09055e-06	2.75541e-06	2.76641e-06	2.25682e-05	-3.588e-05	6.73874e-06	
230	1580406962.654678124	0.0024808	-0.928831	2.13525	-2.77702	-1.56958	-2.62321	3.76243e-06	3.67511e-07	-1.32398e-06	1.31728e-05	-2.08065e-05	-3.51378e-06	1.29541e-05	-60.8407	-16.1761	-2.82094	0.406889	0.000133682	6.07939e-06	6.12393e-06	2.65423e-06	2.3212e-05	-3.24147e-05	9.62377e-07	
231	1580406962.662761377	0.00248058	-0.928829	2.13525	-2.77702	-1.56958	-2.62321	2.78336e-06	5.46631e-06	-1.36473e-06	1.0769e-05	-1.60022e-05	4.54174e-06	1.79153e-05	-60.8407	-16.1761	-2.82094	0.406891	0.000135467	4.5366e-06	1.35741e-05	2.55255e-06	1.9296e-05	-2.48044e-05	1.28675e-05	
232	1580406962.670742110	0.00247966	-0.92883	2.13525	-2.77702	-1.56958	-2.62321	-1.06853e-06	1.60063e-06	1.50219e-06	1.14884e-05	-1.72178e-05	3.48792e-06	6.88327e-06	-60.8407	-16.1761	-2.82094	0.406891	0.000135703	-1.22965e-06	7.64757e-06	6.75246e-06	2.00619e-05	-2.62191e-05	1.11101e-05	
233	1580406962.678670490	0.00247877	-0.92883	2.13525	-2.77702	-1.56958	-2.62321	-4.72831e-06	3.71895e-06	7.23932e-06	6.24807e-06	-1.54525e-05	-6.26432e-06	8.21686e-06	-60.8407	-16.176	-2.82094	0.406891	0.00013479	-6.61923e-06	1.06598e-05	1.51265e-05	1.20081e-05	-2.32063e-05	-3.47362e-06	
234	1580406962.686718655	0.00247861	-0.928829	2.13525	-2.77702	-1.56958	-2.62321	-5.294e-06	5.72924e-06	3.89534e-06	7.15666e-06	-1.37528e-05	-9.74163e-06	9.80135e-06	-60.8407	-16.1761	-2.82094	0.406893	0.00013409	-7.35283e-06	1.34643e-05	9.95489e-06	1.3165e-05	-2.03389e-05	-8.55606e-06	
235	1580406962.694747682	0.00247704	-0.928831	2.13525	-2.77702	-1.56958	-2.62321	-1.16262e-05	-1.02308e-06	-2.17334e-06	8.01128e-06	-1.50033e-05	-1.00881e-05	-1.21913e-05	-60.8407	-16.1761	-2.82094	0.4069	0.000132946	-1.65855e-05	3.29148e-06	8.45008e-07	1.42238e-05	-2.18719e-05	-8.9364e-06	
236	1580406962.702722356	0.00247763	-0.928831	2.13525	-2.77702	-1.56958	-2.62321	-8.94307e-06	-1.67883e-06	-5.05811e-06	5.81784e-06	-1.90513e-05	-7.52093e-06	-1.00637e-05	-60.8407	-16.1762	-2.82094	0.4069	0.000131996	-1.23736e-05	2.27344e-06	-3.423e-06	1.07702e-05	-2.75067e-05	-5.01335e-06	
237	1580406962.710724485	0.0024761	-0.928829	2.13525	-2.77702	-1.56958	-2.62322	-1.50498e-05	6.32662e-06	-1.64172e-05	9.58992e-06	-1.71232e-05	-1.94997e-05	-8.39966e-06	-60.8409	-16.1762	-2.82094	0.406902	0.000131097	-2.11848e-05	1.40377e-05	-2.01133e-05	1.61648e-05	-2.42432e-05	-2.25927e-05	
238	1580406962.718728469	0.00247812	-0.92883	2.13525	-2.77702	-1.56958	-2.62322	-6.41052e-06	2.45279e-06	-1.57149e-05	1.02942e-05	-1.81352e-05	-2.51207e-05	-2.96096e-07	-60.8408	-16.1762	-2.82094	0.406903	0.000128264	-8.13537e-06	8.11649e-06	-1.87712e-05	1.69546e-05	-2.53629e-05	-3.05269e-05	
239	1580406962.726739626	0.00247939	-0.928829	2.13525	-2.77702	-1.56958	-2.62322	-1.0657e-06	7.36035e-06	-1.21592e-05	1.38145e-05	-2.19359e-05	-2.75638e-05	1.67473e-05	-60.8408	-16.1762	-2.82094	0.406893	0.000129135	-1.43564e-07	1.5216e-05	-1.32507e-05	2.18771e-05	-3.057e-05	-3.36571e-05	
240	1580406962.734732535	0.00247852	-0.928828	2.13525	-2.77702	-1.56958	-2.62322	-4.6037e-06	1.20184e-05	-8.75931e-06	1.71433e-05	-1.9801e-05	-2.4071e-05	1.86913e-05	-60.8409	-16.1761	-2.82094	0.406888	0.00013217	-5.346e-06	2.18356e-05	-8.04743e-06	2.64399e-05	-2.69629e-05	-2.80058e-05	
241	1580406962.742745160	0.00247907	-0.928827	2.13525	-2.77702	-1.56958	-2.62322	-2.22358e-06	1.35792e-05	-1.40735e-05	2.02856e-05	-2.05961e-05	-2.3567e-05	2.25034e-05	-60.8409	-16.1761	-2.82094	0.406888	0.000131767	-1.76564e-06	2.37969e-05	-1.57374e-05	3.06561e-05	-2.7721e-05	-2.68385e-05	
242	1580406962.750676023	0.00248031	-0.928829	2.13524	-2.77701	-1.56958	-2.62322	2.90737e-06	6.50042e-06	-1.91063e-05	2.03977e-05	-2.13228e-05	-2.30522e-05	1.7174e-05	-60.8409	-16.1762	-2.82094	0.406894	0.00012891	5.79909e-06	1.30347e-05	-2.28918e-05	3.03539e-05	-2.83667e-05	-2.56741e-05	
243	1580406962.758786842	0.00248081	-0.928831	2.13524	-2.77701	-1.56958	-2.62322	4.92546e-06	-3.08341e-06	-2.10212e-05	2.04761e-05	-2.19834e-05	-2.25276e-05	4.36842e-06	-60.8407	-16.1763	-2.82094	0.406901	0.000126675	8.6737e-06	-1.23441e-06	-2.53556e-05	3.00075e-05	-2.89054e-05	-2.45142e-05	
244	1580406962.766746253	0.0024813	-0.928831	2.13524	-2.77702	-1.56958	-2.62322	6.83869e-06	-3.67907e-06	-2.84881e-05	1.75706e-05	-2.258e-05	-2.48895e-05	4.48632e-06	-60.8408	-16.1763	-2.82094	0.406907	0.000124189	1.1349e-05	-2.08987e-06	-3.59265e-05	2.52888e-05	-2.93422e-05	-2.76079e-05	
245	1580406962.774756588	0.00248178	-0.928832	2.13524	-2.77702	-1.56958	-2.62322	8.6496e-06	-7.0725e-06	-3.55492e-05	1.77288e-05	-1.74489e-05	-2.70986e-05	-1.62224e-07	-60.8408	-16.1764	-2.82094	0.406916	0.000121787	1.38321e-05	-7.03409e-06	-4.57356e-05	2.51373e-05	-2.13738e-05	-3.04289e-05	
246	1580406962.782681681	0.00248155	-0.928831	2.13524	-2.77702	-1.56958	-2.62322	7.51779e-06	-1.80569e-06	-3.3731e-05	1.20855e-05	-1.25423e-05	-2.91593e-05	7.36906e-06	-60.8408	-16.1764	-2.82095	0.406919	0.000121856	1.1964e-05	7.89794e-07	-4.23791e-05	1.64874e-05	-1.38606e-05	-3.29884e-05	
247	1580406962.790796976	0.00248062	-0.92883	2.13524	-2.77702	-1.56958	-2.62322	3.59318e-06	3.20843e-06	-3.19524e-05	9.52272e-06	-1.63244e-05	-2.5374e-05	9.4183e-06	-60.8409	-16.1764	-2.82094	0.406913	0.000124073	6.03586e-06	8.1202e-06	-3.9134e-05	1.24852e-05	-1.91897e-05	-2.69469e-05	
248	1580406962.798720581	0.00248181	-0.92883	2.13524	-2.77702	-1.56958	-2.62322	8.35316e-06	2.33984e-06	-3.02137e-05	1.00016e-05	-8.51437e-06	-2.74262e-05	1.5555e-05	-60.8409	-16.1764	-2.82095	0.406918	0.000123077	1.29106e-05	6.72614e-06	-3.59989e-05	1.29975e-05	-7.47062e-06	-2.9544e-05	
249	1580406962.806731403	0.00248087	-0.928829	2.13524	-2.77702	-1.56958	-2.62322	4.38746e-06	7.13705e-06	-2.85151e-05	1.04428e-05	-3.99562e-06	-2.64684e-05	1.70551e-05	-60.841	-16.1763	-2.82095	0.406918	0.000125076	6.91587e-06	1.36404e-05	-3.29722e-05	1.34469e-05	-7.49545e-07	-2.76982e-05	
250	1580406962.814682661	0.00248205	-0.928828	2.13524	-2.77702	-1.56958	-2.62322	9.07654e-06	1.16929e-05	-2.11289e-05	1.36556e-05	6.0391e-06	-2.8381e-05	3.28319e-05	-60.841	-16.1763	-2.82096	0.406916	0.000126368	1.36651e-05	2.00933e-05	-2.16805e-05	1.79401e-05	1.39279e-05	-3.00769e-05	
251	1580406962.822684573	0.00248319	-0.928828	2.13524	-2.77702	-1.56957	-2.62322	1.35261e-05	1.04072e-05	-1.69836e-05	1.09755e-05	9.86317e-06	-3.0158e-05	3.85111e-05	-60.841	-16.1762	-2.82096	0.406919	0.000125262	1.99586e-05	1.79128e-05	-1.53e-05	1.37555e-05	1.93036e-05	-3.22208e-05	
252	1580406962.830698094	0.00248499	-0.928828	2.13524	-2.77702	-1.56957	-2.62322	2.05546e-05	9.17061e-06	-1.58104e-05	1.41171e-05	1.06925e-05	-2.89499e-05	4.63731e-05	-60.8409	-16.1762	-2.82096	0.406917	0.000124904	2.99183e-05	1.58383e-05	-1.33582e-05	1.81348e-05	2.02236e-05	-2.99738e-05	
253	1580406962.838742508	0.00248535	-0.928828	2.13524	-2.77702	-1.56957	-2.62322	2.15995e-05	1.07752e-05	-1.1876e-05	1.42937e-05	8.67572e-06	-2.77565e-05	5.07709e-05	-60.8409	-16.1762	-2.82096	0.406913	0.000125978	3.09936e-05	1.79411e-05	-7.41886e-06	1.81204e-05	1.69777e-05	-2.77837e-05	
254	1580406962.838742508	0.0024857	-0.928827	2.13525	-2.77702	-1.56957	-2.62322	2.25644e-05	1.22884e-05	-8.11213e-06	1.44414e-05	6.74617e-06	-2.65785e-05	5.47902e-05	-60.8409	-16.1762	-2.82096	0.406908	0.000126982	3.19357e-05	1.98781e-05	-1.82101e-06	1.80642e-05	1.39098e-05	-2.56508e-05	
255	1580406962.854735290	0.00248535	-0.928826	2.13525	-2.77702	-1.56958	-2.62322	2.06539e-05	1.64958e-05	-7.2986e-06	1.45613e-05	4.90203e-06	-2.82557e-05	5.82109e-05	-60.841	-16.1761	-2.82096	0.406904	0.00012793	2.86739e-05	2.57104e-05	-6.09171e-07	1.79687e-05	1.10144e-05	-2.77113e-05	
256	1580406962.862687909	0.00248638	-0.928825	2.13525	-2.77702	-1.56958	-2.62322	2.43933e-05	2.04787e-05	4.71383e-06	1.46546e-05	3.14154e-06	-1.86399e-05	7.11793e-05	-60.841	-16.176	-2.82096	0.406893	0.000131566	3.36899e-05	3.1125e-05	1.68899e-05	1.7836e-05	8.28604e-06	-1.32968e-05	
257	1580406962.870751092	0.00248532	-0.928825	2.13525	-2.77701	-1.56958	-2.62322	1.95541e-05	2.1469e-05	-6.07555e-07	1.7496e-05	4.23648e-06	-2.0607e-05	6.29991e-05	-60.841	-16.1761	-2.82096	0.406895	0.000131705	2.61452e-05	3.21009e-05	8.89356e-06	2.17045e-05	9.75529e-06	-1.59615e-05	
258	1580406962.878741197	0.00248428	-0.928825	2.13525	-2.77702	-1.56957	-2.62322	1.49206e-05	1.96142e-05	-5.66866e-06	1.45274e-05	8.04308e-06	-1.96226e-05	5.07136e-05	-60.841	-16.1761	-2.82096	0.406904	0.000130785	1.90171e-05	2.89247e-05	1.40022e-06	1.7064e-05	1.51451e-05	-1.42928e-05	
259	1580406962.886781797	0.00248464	-0.928824	2.13524	-2.77702	-1.56957	-2.62322	1.60461e-05	2.33503e-05	-1.32395e-05	1.45551e-05	8.89309e-06	-1.86541e-05	5.48634e-05	-60.8411	-16.1761	-2.82096	0.406907	0.000130146	2.03697e-05	3.39234e-05	-9.62419e-06	1.68503e-05	1.61546e-05	-1.26733e-05	
260	1580406962.894738787	0.0024843	-0.928825	2.13524	-2.77702	-1.56957	-2.62322	1.43211e-05	2.13571e-05	-1.21479e-05	1.16908e-05	9.69148e-06	-1.49427e-05	4.83203e-05	-60.8411	-16.1761	-2.82096	0.40691	0.000130302	1.75613e-05	3.05237e-05	-7.89615e-06	1.24397e-05	1.70735e-05	-7.09522e-06	
261	1580406962.902688717	0.00248465	-0.928824	2.13525	-2.77702	-1.56957	-2.62322	1.54276e-05	2.21853e-05	-5.46964e-06	8.94662e-06	1.60589e-05	-1.41387e-05	5.23446e-05	-60.8411	-16.1761	-2.82096	0.406912	0.000130772	1.89067e-05	3.12721e-05	1.91412e-06	8.27183e-06	2.6062e-05	-5.82379e-06	
262	1580406962.910706398	0.00248568	-0.928823	2.13525	-2.77702	-1.56957	-2.62322	1.92238e-05	2.56937e-05	-1.96043e-06	9.18014e-06	1.64911e-05	-7.84944e-06	6.25674e-05	-60.8411	-16.176	-2.82096	0.406908	0.00013235	2.4133e-05	3.58972e-05	6.9755e-06	8.48811e-06	2.63017e-05	3.38492e-06	
263	1580406962.918732982	0.00248668	-0.928824	2.13524	-2.77702	-1.56957	-2.62322	2.28113e-05	2.07637e-05	-9.59397e-06	9.38854e-06	1.68813e-05	-1.28813e-05	5.77991e-05	-60.8411	-16.1761	-2.82096	0.406916	0.000128826	2.89762e-05	2.8218e-05	-4.19504e-06	8.6647e-06	2.64772e-05	-3.961e-06	
264	1580406962.926686428	0.00248833	-0.928825	2.13525	-2.77702	-1.56957	-2.62322	2.89504e-05	1.60411e-05	7.92836e-06	6.72254e-06	1.17499e-05	-1.21143e-05	6.42478e-05	-60.8409	-16.176	-2.82095	0.406906	0.000129517	3.74419e-05	2.0958e-05	2.12531e-05	4.67416e-06	1.86506e-05	-2.79209e-06	
265	1580406962.934721747	0.00248857	-0.928827	2.13525	-2.77702	-1.56957	-2.62322	2.92553e-05	8.78598e-06	1.63988e-05	9.75448e-06	6.8486e-06	-1.68892e-05	5.5964e-05	-60.8408	-16.176	-2.82095	0.4069	0.000129308	3.73298e-05	1.01432e-05	3.32026e-05	8.99541e-06	1.12778e-05	-9.66557e-06	
266	1580406962.942698947	0.00248879	-0.928826	2.13525	-2.77702	-1.56957	-2.62322	2.9505e-05	1.27899e-05	1.88745e-05	4.32372e-06	4.90387e-06	-1.316e-05	6.2164e-05	-60.8408	-16.1759	-2.82095	0.406898	0.00013	3.714e-05	1.57873e-05	3.62939e-05	1.00433e-06	8.29698e-06	-4.12754e-06	
267	1580406962.950683479	0.00248695	-0.928827	2.13525	-2.77702	-1.56958	-2.62322	2.14781e-05	8.40466e-06	1.57568e-05	7.43364e-06	3.18986e-07	-1.23128e-05	4.16806e-05	-60.8408	-16.176	-2.82095	0.406898	0.000130742	2.4984e-05	9.21287e-06	3.1249e-05	5.4873e-06	1.54401e-06	-2.84235e-06	
268	1580406962.958723154	0.00248721	-0.928827	2.13525	-2.77702	-1.56958	-2.62322	2.20128e-05	9.66057e-06	1.54919e-05	2.10825e-06	-1.32539e-06	-1.4261e-05	4.43545e-05	-60.8408	-16.176	-2.82094	0.4069	0.000129526	2.5389e-05	1.08924e-05	3.04049e-05	-2.28985e-06	-8.55383e-07	-5.61717e-06	
269	1580406962.966704689	0.00248677	-0.928827	2.13525	-2.77702	-1.56958	-2.62322	1.97586e-05	8.1252e-06	2.0766e-05	2.57566e-06	-1.71718e-07	-5.16732e-06	3.8147e-05	-60.8407	-16.1759	-2.82094	0.406898	0.00013195	2.17598e-05	8.51459e-06	3.75746e-05	-1.58066e-06	8.23483e-07	7.59927e-06	
270	1580406962.974719463	0.00248635	-0.928827	2.13525	-2.77702	-1.56958	-2.62321	1.75832e-05	9.36415e-06	1.48034e-05	-7.94566e-06	-1.78546e-06	7.93017e-07	3.41886e-05	-60.8408	-16.176	-2.82094	0.406906	0.000130699	1.83e-05	1.0178e-05	2.84145e-05	-1.67447e-05	-1.51816e-06	1.60903e-05	
271	1580406962.982690390	0.00248593	-0.928828	2.13525	-2.77702	-1.56958	-2.62322	1.54854e-05	5.11338e-06	1.45242e-05	-7.01565e-06	-3.31987e-06	-4.41446e-06	2.48758e-05	-60.8407	-16.176	-2.82094	0.406907	0.000129517	1.50054e-05	3.89645e-06	2.75939e-05	-1.51567e-05	-3.70953e-06	8.34046e-06	
272	1580406962.990768391	0.00248687	-0.928827	2.13525	-2.77702	-1.56958	-2.62322	1.89014e-05	6.46478e-06	8.83304e-06	-6.12228e-06	-7.481e-06	-1.19724e-06	2.94195e-05	-60.8408	-16.176	-2.82094	0.406906	0.000129072	1.97108e-05	5.78792e-06	1.89833e-05	-1.3646e-05	-9.65454e-06	1.28556e-05	
273	1580406962.998732371	0.0024878	-0.928826	2.13525	-2.77702	-1.56958	-2.62321	2.21281e-05	1.04422e-05	-1.9975e-06	-8.07267e-06	-6.03514e-06	4.57397e-06	3.56296e-05	-60.8409	-16.176	-2.82093	0.406912	0.00012814	2.40718e-05	1.14344e-05	3.09905e-06	-1.6256e-05	-7.42981e-06	2.09819e-05	
274	1580406963.006702939	0.00248733	-0.928827	2.13525	-2.77702	-1.56958	-2.62321	1.9751e-05	8.82569e-06	-4.2245e-06	-7.11856e-06	-4.64938e-06	1.93092e-06	2.88234e-05	-60.8409	-16.1761	-2.82094	0.406915	0.000127587	2.02969e-05	8.93945e-06	-1.5366e-07	-1.46438e-05	-5.32562e-06	1.68678e-05	
275	1580406963.014763365	0.00248755	-0.928826	2.13525	-2.77702	-1.56958	-2.62321	2.01629e-05	9.96374e-06	-9.0296e-06	-6.20177e-06	-3.3226e-06	2.16003e-06	2.91512e-05	-60.8409	-16.1761	-2.82094	0.406917	0.000127158	2.05935e-05	1.04468e-05	-7.06711e-06	-1.311e-05	-3.3384e-06	1.69499e-05	
276	1580406963.022748880	0.00248708	-0.928826	2.13525	-2.77702	-1.56958	-2.62321	1.78252e-05	1.10337e-05	-8.22061e-06	5.15718e-08	-7.42688e-06	5.06688e-06	2.65237e-05	-60.8409	-16.1761	-2.82093	0.406909	0.000129506	1.69311e-05	1.18334e-05	-5.80074e-06	-3.92414e-06	-9.19293e-06	2.08824e-05	
277	1580406963.030753791	0.00248798	-0.928825	2.13524	-2.77702	-1.56958	-2.62321	2.09646e-05	1.47196e-05	-1.54838e-05	-2.14576e-06	-4.90926e-07	5.15238e-06	3.39953e-05	-60.841	-16.1761	-2.82094	0.406918	0.000127983	2.11974e-05	1.69593e-05	-1.61569e-05	-7.02516e-06	9.11065e-07	2.06998e-05	
278	1580406963.038735495	0.00248818	-0.928826	2.13524	-2.77702	-1.56958	-2.62321	2.12335e-05	1.01773e-05	-1.43484e-05	-1.45299e-06	6.56201e-07	5.23172e-06	2.72402e-05	-60.8409	-16.1761	-2.82094	0.40692	0.000127464	2.12753e-05	1.01872e-05	-1.42909e-05	-5.92733e-06	2.54562e-06	2.05113e-05	
279	1580406963.046711937	0.00248836	-0.928826	2.13524	-2.77702	-1.56958	-2.62321	2.14589e-05	1.11814e-05	-1.05721e-05	-7.92306e-07	1.74899e-06	5.30502e-06	2.97512e-05	-60.8409	-16.1761	-2.82094	0.406918	0.000128303	2.12899e-05	1.14809e-05	-8.66156e-06	-4.89225e-06	4.07741e-06	2.03172e-05	
280	1580406963.054764360	0.00248921	-0.928825	2.13524	-2.77702	-1.56957	-2.62321	2.43261e-05	1.21223e-05	-9.62689e-06	-1.62978e-07	5.45795e-06	5.37236e-06	3.50285e-05	-60.841	-16.1761	-2.82094	0.406919	0.000128198	2.50951e-05	1.26643e-05	-7.17981e-06	-3.91787e-06	9.33991e-06	2.01176e-05	
281	1580406963.062694954	0.00248869	-0.928824	2.13525	-2.77702	-1.56958	-2.62321	2.16652e-05	1.56666e-05	-8.71136e-06	5.76582e-06	3.65586e-06	2.7155e-06	3.64596e-05	-60.841	-16.1761	-2.82094	0.406912	0.000129966	2.09156e-05	1.75633e-05	-5.7631e-06	4.64128e-06	6.61995e-06	1.60147e-05	
282	1580406963.070722078	0.00248817	-0.928827	2.13525	-2.77702	-1.56958	-2.62321	1.90978e-05	5.71845e-06	-2.3972e-06	6.08581e-06	-7.26651e-07	2.89812e-06	1.91219e-05	-60.8408	-16.1761	-2.82094	0.406911	0.000129789	1.69334e-05	3.05151e-06	3.36932e-06	5.03279e-06	2.42957e-07	1.60433e-05	
283	1580406963.078785544	0.00248901	-0.928829	2.13525	-2.77702	-1.56958	-2.62321	2.1964e-05	-1.11543e-06	-4.44993e-06	6.38165e-06	4.11048e-07	8.38569e-06	1.111e-05	-60.8407	-16.1761	-2.82094	0.406917	0.000128777	2.07941e-05	-6.78071e-06	3.79882e-07	5.38387e-06	1.86891e-06	2.36701e-05	
284	1580406963.086752831	0.00248714	-0.928827	2.13525	-2.77702	-1.56958	-2.62321	1.3998e-05	5.63262e-06	-6.39836e-06	3.89564e-06	1.49532e-06	1.36092e-05	8.31363e-06	-60.8409	-16.1761	-2.82094	0.406916	0.000131292	9.09068e-06	2.97748e-06	-2.41521e-06	1.74752e-06	3.39389e-06	3.08041e-05	
285	1580406963.094725428	0.0024853	-0.928827	2.13525	-2.77702	-1.56958	-2.62321	6.38338e-06	4.11104e-06	-5.5968e-06	1.51975e-06	2.52731e-06	1.59262e-05	-5.16992e-06	-60.8409	-16.1761	-2.82094	0.406919	0.000132272	-1.93382e-06	7.57936e-07	-1.23399e-06	-1.67654e-06	4.82116e-06	3.3673e-05	
286	1580406963.102689651	0.00248419	-0.928828	2.13524	-2.77702	-1.56958	-2.62321	1.77116e-06	2.65363e-06	-1.01113e-05	2.00154e-06	8.6416e-07	2.61031e-05	-1.69064e-05	-60.8409	-16.1762	-2.82094	0.406921	0.000133828	-8.49975e-06	-1.33649e-06	-7.67143e-06	-9.63214e-07	2.37349e-06	4.77369e-05	
287	1580406963.110835103	0.00248378	-0.928827	2.13524	-2.77702	-1.56958	-2.62321	2.2399e-08	3.89906e-06	-9.11966e-06	5.0968e-06	-6.00169e-06	2.51619e-05	-1.68039e-05	-60.8409	-16.1761	-2.82093	0.406913	0.000134908	-1.08754e-05	4.62804e-07	-6.14423e-06	3.47396e-06	-7.47192e-06	4.57029e-05	
288	1580406963.118724738	0.00248405	-0.928826	2.13525	-2.77702	-1.56958	-2.62321	1.00124e-06	1.03511e-05	-1.47672e-07	2.66275e-06	-4.63158e-06	1.89117e-05	-1.6324e-06	-60.8409	-16.176	-2.82093	0.406906	0.000135611	-9.32004e-06	9.6708e-06	6.75706e-06	-5.19987e-08	-5.40763e-06	3.61176e-05	
289	1580406963.126775637	0.00248297	-0.928826	2.13525	-2.77702	-1.56958	-2.62321	-3.36172e-06	8.59212e-06	4.08065e-07	-4.9257e-06	-6.87443e-07	1.29321e-05	-9.17878e-06	-60.8409	-16.176	-2.82094	0.406915	0.000133593	-1.54125e-05	7.0214e-06	7.45256e-06	-1.0882e-05	2.99611e-07	2.70624e-05	
290	1580406963.134744028	0.00248393	-0.928828	2.13525	-2.77702	-1.56958	-2.62321	4.03819e-07	1.64734e-06	9.39723e-07	-6.90034e-06	-2.18094e-06	1.77804e-05	-1.45292e-05	-60.8408	-16.1761	-2.82093	0.406918	0.000132341	-9.81876e-06	-2.98576e-06	8.10337e-06	-1.35421e-05	-1.83522e-06	3.35888e-05	
291	1580406963.142705308	0.00248285	-0.928829	2.13525	-2.77702	-1.56958	-2.62321	-3.92226e-06	-2.35443e-06	9.42308e-06	-6.04707e-06	1.64527e-06	1.44602e-05	-2.37176e-05	-60.8407	-16.176	-2.82094	0.406918	0.000133091	-1.58446e-05	-8.64766e-06	2.00809e-05	-1.21309e-05	3.64589e-06	2.83725e-05	
292	1580406963.150788916	0.00248381	-0.928828	2.13525	-2.77702	-1.56958	-2.62321	-1.45605e-07	-9.29955e-07	1.21584e-05	-2.60759e-06	5.29533e-08	1.91894e-05	-1.58377e-05	-60.8407	-16.176	-2.82094	0.406913	0.000134478	-1.02355e-05	-6.49364e-06	2.36897e-05	-7.05603e-06	1.32473e-06	3.47032e-05	
293	1580406963.158756924	0.00248207	-0.928827	2.13525	-2.77702	-1.56958	-2.62321	-7.06483e-06	3.04309e-06	1.21378e-05	-1.94124e-06	-1.46498e-06	1.31631e-05	-1.86509e-05	-60.8408	-16.176	-2.82094	0.406909	0.000135261	-1.99412e-05	-7.42612e-07	2.33205e-05	-6.00581e-06	-8.5587e-07	2.56239e-05	
294	1580406963.166697293	0.00248305	-0.928828	2.13525	-2.77702	-1.56958	-2.62321	-3.15616e-06	1.60327e-06	1.47163e-05	-4.0203e-06	-2.98754e-07	4.79089e-06	-1.27592e-05	-60.8407	-16.176	-2.82094	0.406911	0.000132909	-1.40924e-05	-2.78079e-06	2.66559e-05	-8.87853e-06	8.16052e-07	1.33415e-05	
295	1580406963.174780186	0.00248267	-0.928827	2.13525	-2.77702	-1.56958	-2.62321	-4.67056e-06	2.83389e-06	1.71584e-05	-8.60625e-06	3.42152e-06	7.28505e-06	-1.2438e-05	-60.8407	-16.176	-2.82094	0.406914	0.000133194	-1.60443e-05	-9.90313e-07	2.9748e-05	-1.52743e-05	6.09591e-06	1.66979e-05	
296	1580406963.182737308	0.00248229	-0.928826	2.13525	-2.77702	-1.56957	-2.62321	-6.11204e-06	6.60555e-06	9.05387e-06	-7.65881e-06	6.96541e-06	9.65652e-06	-1.16245e-05	-60.8408	-16.176	-2.82094	0.406919	0.000133224	-1.78636e-05	4.38577e-06	1.78017e-05	-1.37091e-05	1.10466e-05	1.98302e-05	
297	1580406963.190708057	0.00248126	-0.928825	2.13525	-2.77702	-1.56957	-2.62321	-1.00954e-05	1.27919e-05	9.11331e-06	-1.46488e-05	5.13787e-06	1.71069e-05	-8.59016e-06	-60.8409	-16.1759	-2.82094	0.406918	0.000134904	-2.32675e-05	1.31127e-05	1.76319e-05	-2.34443e-05	8.29242e-06	3.01319e-05	
298	1580406963.198709702	0.00248093	-0.928824	2.13525	-2.77702	-1.56957	-2.62321	-1.12755e-05	1.34831e-05	3.96912e-06	-1.61068e-05	1.12791e-05	2.15974e-05	-1.14873e-05	-60.841	-16.176	-2.82094	0.406925	0.000134707	-2.46109e-05	1.39076e-05	1.00759e-05	-2.51802e-05	1.68943e-05	3.60783e-05	
299	1580406963.206699625	0.0024806	-0.928824	2.13525	-2.77702	-1.56957	-2.62321	-1.23897e-05	1.67153e-05	1.65088e-06	-1.74779e-05	6.65251e-06	1.80285e-05	-7.97443e-06	-60.841	-16.176	-2.82094	0.406922	0.000134267	-2.58412e-05	1.82967e-05	6.64224e-06	-2.67673e-05	1.0088e-05	3.04995e-05	
300	1580406963.214729351	0.00248029	-0.928825	2.13525	-2.77702	-1.56957	-2.62321	-1.34397e-05	1.20122e-05	-5.60877e-07	-2.13521e-05	4.81919e-06	1.46034e-05	-1.62764e-05	-60.841	-16.176	-2.82093	0.406927	0.000132071	-2.69623e-05	1.13664e-05	3.41052e-06	-3.18812e-05	7.34422e-06	2.52075e-05	
301	1580406963.222734348	0.00248131	-0.928824	2.13525	-2.77702	-1.56957	-2.62321	-9.23216e-06	1.26768e-05	5.18626e-06	-2.24374e-05	5.6484e-06	2.17065e-05	-8.37073e-06	-60.8409	-16.176	-2.82093	0.406924	0.000133327	-2.06144e-05	1.21474e-05	1.15084e-05	-3.29666e-05	8.41525e-06	3.49177e-05	
302	1580406963.230691036	0.00248098	-0.928825	2.13525	-2.77702	-1.56957	-2.62321	-1.03968e-05	8.13316e-06	7.98019e-06	-2.0762e-05	6.43245e-06	2.84562e-05	-1.70723e-05	-60.8409	-16.176	-2.82093	0.406925	0.000134497	-2.19713e-05	5.53824e-06	1.5303e-05	-3.01249e-05	9.40654e-06	4.39842e-05	
303	1580406963.238761108	0.00248	-0.928827	2.13525	-2.77702	-1.56957	-2.62321	-1.4087e-05	1.21057e-06	3.32565e-07	-1.65619e-05	7.17243e-06	2.71325e-05	-3.48172e-05	-60.8408	-16.1761	-2.82094	0.406932	0.000133192	-2.68843e-05	-4.34169e-06	4.25741e-06	-2.37508e-05	1.03209e-05	4.14861e-05	
304	1580406963.246702376	0.0024797	-0.928828	2.13525	-2.77702	-1.56958	-2.62321	-1.50062e-05	-2.8247e-06	-1.81772e-06	-1.51068e-05	2.72502e-06	2.58369e-05	-4.20519e-05	-60.8408	-16.1761	-2.82093	0.406931	0.000132441	-2.78038e-05	-9.99019e-06	1.15396e-06	-2.13553e-05	3.8811e-06	3.90648e-05	
305	1580406963.254698265	0.00247875	-0.928829	2.13525	-2.77702	-1.56957	-2.62321	-1.84487e-05	-4.1045e-06	6.51074e-06	-1.11315e-05	8.8551e-06	2.45695e-05	-4.60537e-05	-60.8407	-16.176	-2.82094	0.406929	0.000134316	-3.22788e-05	-1.16585e-05	1.29165e-05	-1.54307e-05	1.24961e-05	3.67195e-05	
306	1580406963.262715958	0.0024785	-0.92883	2.13525	-2.77702	-1.56957	-2.62321	-1.91339e-05	-7.88695e-06	4.08869e-06	-9.88943e-06	9.46069e-06	2.58951e-05	-5.30541e-05	-60.8407	-16.1761	-2.82094	0.406933	0.000133801	-3.27907e-05	-1.68399e-05	9.31007e-06	-1.34569e-05	1.31755e-05	3.8074e-05	
307	1580406963.270799076	0.00247825	-0.928828	2.13525	-2.77702	-1.56957	-2.62321	-1.97659e-05	-3.80545e-06	1.21196e-05	-8.69195e-06	7.46586e-06	2.71282e-05	-4.49144e-05	-60.8407	-16.176	-2.82094	0.406924	0.000136163	-3.32201e-05	-1.08357e-05	2.0524e-05	-1.15752e-05	1.01713e-05	3.92783e-05	
308	1580406963.278683468	0.00247867	-0.928828	2.13525	-2.77702	-1.56957	-2.62321	-1.77755e-05	-2.46534e-06	6.88081e-06	-7.53838e-06	8.11019e-06	2.57143e-05	-4.08508e-05	-60.8407	-16.176	-2.82094	0.406926	0.000135149	-2.99409e-05	-8.79034e-06	1.28373e-05	-9.7832e-06	1.09376e-05	3.67279e-05	
309	1580406963.286774812	0.00247842	-0.928827	2.13525	-2.77702	-1.56957	-2.62321	-1.84228e-05	1.36792e-06	6.9812e-06	-9.08348e-06	8.71478e-06	2.94402e-05	-3.59604e-05	-60.8408	-16.176	-2.82094	0.406924	0.000136161	-3.04322e-05	-3.25679e-06	1.27979e-05	-1.18258e-05	1.16366e-05	4.14681e-05	
310	1580406963.294737700	0.00247884	-0.928828	2.13525	-2.77702	-1.56957	-2.6232	-1.64562e-05	-7.69143e-08	4.51981e-06	-1.56454e-05	1.44818e-05	3.04094e-05	-3.5513e-05	-60.8408	-16.176	-2.82094	0.406935	0.000134123	-2.72298e-05	-5.24838e-06	9.14605e-06	-2.09141e-05	1.96065e-05	4.22513e-05	
311	1580406963.302756894	0.00247991	-0.928827	2.13525	-2.77702	-1.56957	-2.62321	-1.20012e-05	1.08856e-06	1.24516e-05	-1.4148e-05	1.47733e-05	2.87507e-05	-2.43996e-05	-60.8407	-16.176	-2.82094	0.406929	0.000134723	-2.05669e-05	-3.5314e-06	2.01978e-05	-1.85094e-05	1.97417e-05	3.93191e-05	
312	1580406963.310699040	0.00248096	-0.928827	2.13525	-2.77702	-1.56957	-2.62321	-7.7363e-06	2.19772e-06	1.48203e-05	-1.27012e-05	9.94861e-06	2.71321e-05	-1.52837e-05	-60.8407	-16.1759	-2.82094	0.406922	0.000134593	-1.42692e-05	-1.91888e-06	2.32511e-05	-1.62112e-05	1.26674e-05	3.64864e-05	
313	1580406963.318695387	0.00248198	-0.928826	2.13525	-2.77702	-1.56957	-2.6232	-3.65779e-06	5.79027e-06	1.70635e-05	-1.13043e-05	5.3316e-06	3.06302e-05	-3.70099e-06	-60.8408	-16.1759	-2.82094	0.406914	0.000135691	-8.32601e-06	3.16683e-06	2.60831e-05	-1.40168e-05	5.98872e-06	4.09e-05	
314	1580406963.318695387	0.00248297	-0.928825	2.13525	-2.77702	-1.56958	-2.6232	2.38036e-07	9.2101e-06	1.9184e-05	-9.95654e-06	9.1821e-07	3.39304e-05	7.1855e-06	-60.8408	-16.1758	-2.82094	0.406907	0.000136689	-2.72661e-06	7.93534e-06	2.87014e-05	-1.19238e-05	-3.05965e-07	4.49708e-05	
315	1580406963.334708824	0.00248263	-0.928826	2.13525	-2.77702	-1.56958	-2.6232	-1.13419e-06	4.86764e-06	1.86538e-05	-1.12897e-05	-3.29562e-06	2.93935e-05	-5.73621e-07	-60.8407	-16.1759	-2.82093	0.406908	0.000135087	-4.61825e-06	1.71686e-06	2.75535e-05	-1.3632e-05	-6.2283e-06	3.796e-05	
316	1580406963.342763736	0.00248294	-0.928824	2.13525	-2.77702	-1.56958	-2.6232	9.73473e-08	1.33528e-05	1.81253e-05	-1.25476e-05	-4.78649e-06	3.26592e-05	1.32659e-05	-60.8408	-16.1758	-2.82093	0.406903	0.000136437	-2.82225e-06	1.36209e-05	2.64249e-05	-1.52096e-05	-8.23681e-06	4.20197e-05	
317	1580406963.350730806	0.0024826	-0.928825	2.13525	-2.77702	-1.56958	-2.6232	-1.26551e-06	8.81428e-06	1.50751e-05	-1.11072e-05	1.46839e-06	3.06873e-05	3.51323e-06	-60.8408	-16.1759	-2.82094	0.406911	0.000135102	-4.69737e-06	7.05442e-06	2.17701e-05	-1.29735e-05	6.66247e-07	3.86621e-05	
318	1580406963.358705217	0.00248423	-0.928825	2.13525	-2.77702	-1.56957	-2.6232	5.03507e-06	6.98991e-06	1.46657e-05	-7.19765e-06	7.43656e-06	3.12863e-05	9.09045e-06	-60.8408	-16.1759	-2.82094	0.406915	0.000134281	4.21559e-06	4.39447e-06	2.08912e-05	-7.30268e-06	9.03744e-06	3.89636e-05	
319	1580406963.366714390	0.00248385	-0.928825	2.13525	-2.77702	-1.56957	-2.6232	3.4522e-06	7.75477e-06	1.93911e-05	-8.59002e-06	2.95666e-06	3.18183e-05	9.38528e-06	-60.8407	-16.1758	-2.82094	0.406909	0.000135183	1.93552e-06	5.40691e-06	2.72314e-05	-9.15504e-06	2.62426e-06	3.91669e-05	
320	1580406963.374728024	0.00248283	-0.928824	2.13525	-2.77702	-1.56958	-2.6232	-5.90425e-07	1.34998e-05	1.87517e-05	-4.78103e-06	1.18913e-06	2.72091e-05	1.24125e-05	-60.8408	-16.1758	-2.82094	0.406904	0.000136422	-3.7617e-06	1.33902e-05	2.5955e-05	-3.68491e-06	1.08538e-07	3.21562e-05	
321	1580406963.382752734	0.00248379	-0.928824	2.13525	-2.77702	-1.56958	-2.6232	3.11861e-06	1.14374e-05	2.57473e-05	-6.25745e-06	-5.51924e-06	2.78432e-05	1.67123e-05	-60.8407	-16.1757	-2.82093	0.406897	0.00013636	1.49054e-06	1.03128e-05	3.54008e-05	-5.70357e-06	-9.29733e-06	3.25978e-05	
322	1580406963.390730329	0.00248473	-0.928823	2.13526	-2.77702	-1.56958	-2.6232	6.65479e-06	1.44646e-05	2.72822e-05	-5.0521e-06	-9.4114e-06	2.59066e-05	2.68003e-05	-60.8408	-16.1757	-2.82093	0.406891	0.000136302	6.42465e-06	1.44112e-05	3.70589e-05	-3.93556e-06	-1.46214e-05	2.94313e-05	
323	1580406963.398727861	0.00248434	-0.928824	2.13526	-2.77702	-1.56958	-2.6232	4.99034e-06	9.82787e-06	2.87141e-05	-1.39172e-06	-8.11145e-06	2.90289e-05	1.68954e-05	-60.8407	-16.1757	-2.82093	0.406892	0.000136902	4.00467e-06	7.71811e-06	3.85492e-05	1.24488e-06	-1.25976e-05	3.33951e-05	
324	1580406963.406757472	0.00248396	-0.928825	2.13526	-2.77702	-1.56958	-2.6232	3.39416e-06	7.88598e-06	2.5048e-05	4.60473e-06	-6.86092e-06	3.44714e-05	9.23979e-06	-60.8407	-16.1757	-2.82093	0.406893	0.000137937	1.7152e-06	4.8934e-06	3.28829e-05	9.6202e-06	-1.06724e-05	4.05492e-05	
325	1580406963.414777658	0.00248424	-0.928825	2.13525	-2.77702	-1.56958	-2.6232	4.37369e-06	6.0203e-06	2.15167e-05	-2.25145e-06	-5.6829e-07	3.46326e-05	6.83994e-06	-60.8407	-16.1758	-2.82094	0.406905	0.000135546	3.06183e-06	2.21605e-06	2.74871e-05	-1.04365e-07	-1.72171e-06	4.02128e-05	
326	1580406963.422705176	0.00248385	-0.928827	2.13525	-2.77702	-1.56957	-2.6232	2.79752e-06	-7.5433e-07	2.31019e-05	-1.21864e-06	5.44045e-06	3.22501e-05	-4.93078e-06	-60.8406	-16.1758	-2.82094	0.406912	0.000134439	8.15913e-07	-7.28606e-06	2.93227e-05	1.3409e-06	6.70315e-06	3.6325e-05	
327	1580406963.430736437	0.00248348	-0.928827	2.13525	-2.77702	-1.56957	-2.6232	1.2881e-06	-2.24738e-06	1.71213e-05	-2.81799e-06	8.58308e-06	3.24218e-05	-1.10048e-05	-60.8406	-16.1758	-2.82094	0.40692	0.000133151	-1.30443e-06	-9.27117e-06	2.05599e-05	-9.12732e-07	1.10018e-05	3.60626e-05	
328	1580406963.438753306	0.00248377	-0.928829	2.13526	-2.77702	-1.56957	-2.6232	2.34235e-06	-8.64247e-06	2.39133e-05	-6.82583e-06	6.60328e-06	3.25436e-05	-1.65545e-05	-60.8404	-16.1758	-2.82094	0.40692	0.000132265	1.86193e-07	-1.80741e-05	2.97615e-05	-6.49775e-06	8.0847e-06	3.57346e-05	
329	1580406963.446718927	0.0024834	-0.928829	2.13526	-2.77702	-1.56957	-2.6232	8.50532e-07	-9.77783e-06	2.28252e-05	-5.58142e-06	4.70437e-06	3.50993e-05	-2.08276e-05	-60.8404	-16.1758	-2.82094	0.40692	0.00013274	-1.8986e-06	-1.94089e-05	2.78317e-05	-4.67111e-06	5.32241e-06	3.88088e-05	
330	1580406963.454702443	0.00248304	-0.928829	2.13526	-2.77702	-1.56957	-2.6232	-5.76161e-07	-8.37409e-06	2.17574e-05	-4.38532e-06	2.88491e-06	3.2538e-05	-2.04079e-05	-60.8405	-16.1758	-2.82094	0.406918	0.000132767	-3.86264e-06	-1.71822e-05	2.5958e-05	-2.93807e-06	2.71062e-06	3.47004e-05	
331	1580406963.462739518	0.00248398	-0.928829	2.13525	-2.77702	-1.56957	-2.6232	3.03674e-06	-9.50003e-06	1.57607e-05	-5.81044e-06	8.66663e-06	3.00495e-05	-1.81727e-05	-60.8405	-16.1759	-2.82094	0.406927	0.000130347	1.22863e-06	-1.85149e-05	1.72384e-05	-4.88493e-06	1.07353e-05	3.07524e-05	
332	1580406963.470730324	0.00248296	-0.92883	2.13525	-2.77702	-1.56957	-2.6232	-9.70773e-07	-1.30371e-05	1.49557e-05	-7.16348e-06	9.13609e-06	2.76331e-05	-2.86018e-05	-60.8404	-16.1759	-2.82094	0.40693	0.000129637	-4.37323e-06	-2.3189e-05	1.58794e-05	-6.7035e-06	1.12418e-05	2.69618e-05	
333	1580406963.478695550	0.00248261	-0.928831	2.13525	-2.77702	-1.56957	-2.6232	-2.31705e-06	-1.39334e-05	9.2315e-06	-5.87943e-06	9.57305e-06	2.27712e-05	-3.24416e-05	-60.8404	-16.176	-2.82094	0.406934	0.000128288	-6.18812e-06	-2.4118e-05	7.68771e-06	-4.82283e-06	1.16958e-05	1.9819e-05	
334	1580406963.486724524	0.00248421	-0.928832	2.13525	-2.77702	-1.56957	-2.6232	3.83186e-06	-1.97036e-05	8.68064e-06	-4.64487e-06	9.97843e-06	1.80963e-05	-3.1349e-05	-60.8404	-16.176	-2.82094	0.406937	0.000125809	2.4576e-06	-3.18193e-05	6.8154e-06	-3.03797e-06	1.20994e-05	1.30389e-05	
335	1580406963.494751406	0.00248318	-0.928833	2.13525	-2.77702	-1.56957	-2.6232	-1.97652e-07	-2.27318e-05	1.56245e-05	-3.45901e-06	1.03532e-05	1.85772e-05	-3.91756e-05	-60.8403	-16.176	-2.82094	0.406934	0.000127276	-3.18289e-06	-3.55954e-05	1.63842e-05	-1.34637e-06	1.24547e-05	1.35296e-05	
336	1580406963.502713404	0.00248347	-0.928833	2.13525	-2.77702	-1.56957	-2.6232	8.94498e-07	-2.06828e-05	1.47649e-05	-2.32103e-06	5.78236e-06	1.90103e-05	-3.43126e-05	-60.8403	-16.176	-2.82094	0.406929	0.000127695	-1.62015e-06	-3.2257e-05	1.49641e-05	2.54532e-07	5.92712e-06	1.3947e-05	
337	1580406963.510773151	0.00248246	-0.928834	2.13525	-2.77702	-1.56957	-2.6232	-2.9994e-06	-2.60658e-05	1.14699e-05	-3.78282e-06	6.31775e-06	1.69428e-05	-4.78253e-05	-60.8403	-16.176	-2.82094	0.406936	0.000126412	-7.01025e-06	-3.92967e-05	1.01792e-05	-1.78104e-06	6.59016e-06	1.08826e-05	
338	1580406963.518719487	0.00248342	-0.928834	2.13525	-2.77702	-1.56957	-2.6232	6.76256e-07	-2.62755e-05	1.0758e-05	-2.6243e-06	1.42727e-05	2.22972e-05	-4.36556e-05	-60.8403	-16.176	-2.82095	0.406941	0.000126692	-1.80758e-06	-3.90496e-05	9.05104e-06	-1.47344e-07	1.75516e-05	1.8173e-05	
339	1580406963.526801758	0.00248499	-0.928834	2.13525	-2.77702	-1.56957	-2.6232	6.64682e-06	-2.39977e-05	1.00632e-05	-1.51329e-06	7.06893e-06	2.73816e-05	-3.21171e-05	-60.8403	-16.176	-2.82094	0.406934	0.000127248	6.5077e-06	-3.53521e-05	7.96278e-06	1.39714e-06	7.30869e-06	2.49849e-05	
340	1580406963.534748940	0.00248459	-0.928835	2.13525	-2.77702	-1.56957	-2.6232	4.96911e-06	-2.91279e-05	9.38563e-06	-4.48973e-07	7.51164e-06	3.46958e-05	-4.29553e-05	-60.8402	-16.1761	-2.82094	0.406937	0.00012799	4.0905e-06	-4.19882e-05	6.91382e-06	2.85491e-06	7.82329e-06	3.47946e-05	
341	1580406963.542739171	0.00248291	-0.928837	2.13525	-2.77702	-1.56957	-2.6232	-1.54919e-06	-3.39951e-05	1.11665e-05	3.01089e-06	6.00771e-07	3.42652e-05	-5.8045e-05	-60.8401	-16.1761	-2.82094	0.406931	0.000129129	-5.00673e-06	-4.81658e-05	9.28997e-06	7.61486e-06	-1.86948e-06	3.37227e-05	
342	1580406963.550696329	0.0024832	-0.928836	2.13525	-2.77702	-1.56958	-2.6232	-4.22803e-07	-3.12913e-05	1.53884e-05	1.3403e-06	-1.1273e-06	3.13707e-05	-4.98869e-05	-60.8401	-16.176	-2.82094	0.406927	0.000129314	-3.37662e-06	-4.37597e-05	1.50166e-05	5.19466e-06	-4.23956e-06	2.92504e-05	
343	1580406963.558711467	0.00248478	-0.928835	2.13525	-2.77702	-1.56958	-2.6232	5.54854e-06	-2.62363e-05	1.44348e-05	-7.56086e-06	-3.43062e-07	2.12103e-05	-3.16896e-05	-60.8402	-16.176	-2.82094	0.40693	0.000126008	4.94382e-06	-3.61585e-05	1.34909e-05	-7.21034e-06	-3.09491e-06	1.47735e-05	
344	1580406963.566677149	0.00248503	-0.928834	2.13525	-2.77702	-1.56957	-2.6232	6.35751e-06	-2.13755e-05	1.1073e-05	-1.36878e-06	2.83741e-06	1.63358e-05	-2.36722e-05	-60.8403	-16.176	-2.82094	0.406928	0.000126394	5.99699e-06	-2.89339e-05	8.65148e-06	1.46339e-06	1.35217e-06	7.82209e-06	
345	1580406963.574741939	0.00248462	-0.928833	2.13525	-2.77702	-1.56957	-2.6232	4.68085e-06	-1.91341e-05	5.41712e-06	-3.06257e-07	5.87219e-06	1.65594e-05	-2.42526e-05	-60.8404	-16.1761	-2.82094	0.406932	0.000126407	3.59464e-06	-2.54374e-05	7.05104e-07	2.91404e-06	5.53474e-06	8.02604e-06	
346	1580406963.582741580	0.00248359	-0.928834	2.13526	-2.77702	-1.56957	-2.6232	6.34238e-07	-1.93946e-05	1.70774e-05	3.13566e-06	6.33913e-06	1.67488e-05	-2.6815e-05	-60.8403	-16.176	-2.82095	0.406924	0.000129271	-2.05263e-06	-2.5452e-05	1.6828e-05	7.63616e-06	6.10563e-06	8.17976e-06	
347	1580406963.590732767	0.00248386	-0.928832	2.13525	-2.77702	-1.56957	-2.6232	1.63532e-06	-1.47765e-05	1.11467e-05	8.84406e-06	6.77703e-06	9.59089e-06	-1.9246e-05	-60.8404	-16.176	-2.82095	0.406922	0.000128752	-6.40271e-07	-1.87202e-05	8.39873e-06	1.54258e-05	6.62835e-06	-1.82856e-06	
348	1580406963.598731850	0.00248413	-0.928831	2.13526	-2.77702	-1.56957	-2.6232	2.5891e-06	-7.92672e-06	1.76546e-05	9.4522e-06	4.76787e-06	1.48768e-05	-6.514e-06	-60.8404	-16.1759	-2.82095	0.406912	0.000131586	6.86801e-07	-8.99911e-06	1.72797e-05	1.60567e-05	3.76167e-06	5.50279e-06	
349	1580406963.606737694	0.00248439	-0.928831	2.13526	-2.77702	-1.56958	-2.6232	3.4966e-06	-8.61771e-06	1.65074e-05	2.67982e-06	-1.9899e-06	1.26591e-05	-5.57788e-06	-60.8404	-16.1759	-2.82094	0.406912	0.000129787	1.93126e-06	-9.83168e-06	1.5461e-05	6.48345e-06	-5.62429e-06	2.36553e-06	
350	1580406963.614714954	0.00248335	-0.92883	2.13525	-2.77702	-1.56957	-2.62321	-4.91646e-07	-6.85489e-06	1.29769e-05	3.53925e-06	3.71199e-06	5.64686e-06	-8.69505e-06	-60.8405	-16.1759	-2.82095	0.406917	0.000129039	-3.60125e-06	-7.26466e-06	1.03774e-05	7.58203e-06	2.32458e-06	-7.3474e-06	
351	1580406963.622802237	0.00248363	-0.928828	2.13526	-2.77702	-1.56957	-2.62321	5.40516e-07	2.0665e-06	1.69095e-05	4.35739e-06	-5.77483e-07	6.20969e-06	7.04254e-06	-60.8406	-16.1758	-2.82094	0.406906	0.000131112	-2.12796e-06	5.14489e-06	1.56642e-05	8.60822e-06	-3.6261e-06	-6.47036e-06	
352	1580406963.630693420	0.00248198	-0.928829	2.13526	-2.77702	-1.56958	-2.62321	-5.73138e-06	-1.43943e-06	2.06459e-05	2.26503e-07	-7.08356e-06	4.3293e-06	-5.12977e-06	-60.8405	-16.1758	-2.82094	0.406904	0.000131112	-1.07497e-05	2.39524e-07	2.06063e-05	2.794e-06	-1.25506e-05	-8.97556e-06	
353	1580406963.638713166	0.00248229	-0.928829	2.13526	-2.77702	-1.56958	-2.62321	-4.47282e-06	-2.38487e-06	1.92883e-05	-1.31812e-06	-1.56977e-05	2.52213e-06	-4.43807e-06	-60.8405	-16.1758	-2.82093	0.4069	0.000130111	-8.86921e-06	-1.06721e-06	1.84566e-05	6.26719e-07	-2.4256e-05	-1.13447e-05	
354	1580406963.646712813	0.00248323	-0.928828	2.13525	-2.77702	-1.56958	-2.62321	-8.52883e-07	1.51482e-06	1.31658e-05	-2.96227e-07	-9.41819e-06	7.87041e-07	4.59102e-06	-60.8406	-16.1759	-2.82094	0.406905	0.000129011	-3.76146e-06	4.32038e-06	9.77175e-06	2.02616e-06	-1.52759e-05	-1.35814e-05	
355	1580406963.654736401	0.00248159	-0.928831	2.13526	-2.77702	-1.56958	-2.62321	-7.03086e-06	-6.74287e-06	1.44861e-05	-1.81102e-06	-1.06922e-05	3.91652e-06	-1.60914e-05	-60.8404	-16.1759	-2.82094	0.406909	0.000129074	-1.22187e-05	-7.11037e-06	1.14587e-05	-8.74665e-08	-1.68242e-05	-9.08749e-06	
356	1580406963.662701566	0.00248127	-0.928833	2.13526	-2.77702	-1.56958	-2.6232	-8.11603e-06	-1.46277e-05	1.57286e-05	4.02088e-06	-9.50453e-06	6.89867e-06	-2.93138e-05	-60.8403	-16.1759	-2.82094	0.406911	0.000129521	-1.35476e-05	-1.7868e-05	1.3015e-05	7.94111e-06	-1.49625e-05	-4.85929e-06	
357	1580406963.670757116	0.00248096	-0.928833	2.13526	-2.77702	-1.56958	-2.62321	-9.14475e-06	-1.7366e-05	1.68953e-05	4.81048e-06	-1.31402e-05	4.95535e-06	-3.36312e-05	-60.8403	-16.1759	-2.82094	0.406909	0.000129248	-1.47803e-05	-2.13948e-05	1.44454e-05	8.92035e-06	-1.97628e-05	-7.46665e-06	
358	1580406963.678709523	0.00248066	-0.928833	2.13525	-2.77702	-1.56958	-2.62321	-1.01183e-05	-1.51875e-05	8.43787e-06	3.07738e-06	-1.42135e-05	3.08725e-06	-3.33986e-05	-60.8403	-16.176	-2.82094	0.406913	0.000127957	-1.59201e-05	-1.81114e-05	2.62161e-06	6.417e-06	-2.09727e-05	-9.93419e-06	
359	1580406963.686826314	0.00248164	-0.928832	2.13525	-2.77702	-1.56958	-2.62321	-6.24363e-06	-1.30866e-05	9.87828e-06	1.41774e-06	-1.76082e-05	3.67777e-06	-2.39749e-05	-60.8404	-16.176	-2.82093	0.406909	0.000127784	-1.03805e-05	-1.49805e-05	4.56657e-06	4.04957e-06	-2.53563e-05	-8.98822e-06	
360	1580406963.694742446	0.00248197	-0.928832	2.13525	-2.77702	-1.56958	-2.62321	-4.92694e-06	-1.1062e-05	8.8595e-06	2.30693e-06	-1.84522e-05	1.85198e-06	-1.8916e-05	-60.8404	-16.176	-2.82093	0.406907	0.000127607	-8.43217e-06	-1.19982e-05	3.10622e-06	5.21655e-06	-2.6175e-05	-1.13748e-05	
361	1580406963.702739028	0.00248101	-0.928833	2.13526	-2.77702	-1.56958	-2.62321	-8.4452e-06	-1.38696e-05	1.5103e-05	6.81428e-07	-1.92381e-05	-4.70476e-06	-2.47303e-05	-60.8403	-16.1759	-2.82093	0.406906	0.000127268	-1.31496e-05	-1.56923e-05	1.16375e-05	2.91454e-06	-2.69027e-05	-2.0224e-05	
362	1580406963.710711529	0.00248135	-0.928834	2.13526	-2.77702	-1.56958	-2.62321	-7.02361e-06	-1.89124e-05	1.6206e-05	-8.7282e-07	-2.2343e-05	-1.42321e-06	-2.97395e-05	-60.8402	-16.1759	-2.82093	0.406906	0.000126739	-1.10223e-05	-2.24025e-05	1.29957e-05	7.4237e-07	-3.0803e-05	-1.54486e-05	
363	1580406963.718799390	0.00247977	-0.928834	2.13526	-2.77702	-1.56958	-2.62321	-1.2812e-05	-1.65936e-05	1.48665e-05	1.1014e-07	-2.05412e-05	-7.82574e-06	-3.3548e-05	-60.8403	-16.1759	-2.82093	0.406907	0.000126886	-1.88142e-05	-1.89219e-05	1.09848e-05	2.08061e-06	-2.79188e-05	-2.4023e-05	
364	1580406963.726759359	0.00247887	-0.928833	2.13525	-2.77702	-1.56958	-2.62321	-1.59502e-05	-1.43562e-05	8.82675e-06	3.41996e-06	-1.87948e-05	-9.15651e-06	-3.59829e-05	-60.8403	-16.176	-2.82094	0.406909	0.000127136	-2.28647e-05	-1.56014e-05	2.5578e-06	6.59038e-06	-2.51507e-05	-2.55252e-05	
365	1580406963.734699325	0.00247863	-0.928833	2.13525	-2.77702	-1.56958	-2.62321	-1.65538e-05	-1.45657e-05	7.77148e-06	6.58144e-06	-1.71033e-05	-1.04227e-05	-3.6979e-05	-60.8403	-16.176	-2.82094	0.406909	0.000127305	-2.3386e-05	-1.568e-05	1.07806e-06	1.08343e-05	-2.24964e-05	-2.69181e-05	
366	1580406963.742726123	0.00248094	-0.928834	2.13525	-2.77702	-1.56958	-2.62321	-7.60815e-06	-1.4748e-05	4.38692e-06	7.23403e-06	-1.78295e-05	-1.16257e-05	-2.51428e-05	-60.8403	-16.176	-2.82094	0.40691	0.00012537	-1.08212e-05	-1.57203e-05	-3.57142e-06	1.15832e-05	-2.31904e-05	-2.82053e-05	
367	1580406963.750700926	0.00248128	-0.928834	2.13525	-2.77702	-1.56958	-2.62321	-6.16468e-06	-1.72645e-05	8.31845e-06	5.39537e-06	-2.08637e-05	-1.04061e-05	-2.53082e-05	-60.8403	-16.176	-2.82094	0.406908	0.000125286	-8.70059e-06	-1.89557e-05	1.85888e-06	8.91144e-06	-2.70346e-05	-2.61585e-05	
368	1580406963.758671443	0.00247972	-0.928833	2.13525	-2.77702	-1.56958	-2.62321	-1.18877e-05	-1.25771e-05	7.25597e-06	6.08338e-06	-1.66682e-05	-9.23195e-06	-2.67702e-05	-60.8404	-16.176	-2.82094	0.406908	0.000126968	-1.64152e-05	-1.22893e-05	3.80847e-07	9.73385e-06	-2.09333e-05	-2.42022e-05	
369	1580406963.766731221	0.00247947	-0.928831	2.13525	-2.77702	-1.56958	-2.62321	-1.26129e-05	-5.72384e-06	8.58325e-06	6.73486e-06	-1.73458e-05	-8.10232e-06	-1.73021e-05	-60.8404	-16.1759	-2.82094	0.406903	0.000128605	-1.71881e-05	-2.75322e-06	2.19149e-06	1.0495e-05	-2.15811e-05	-2.23341e-05	
370	1580406963.774703312	0.00247858	-0.928832	2.13525	-2.77702	-1.56958	-2.62321	-1.56563e-05	-6.21695e-06	7.48799e-06	7.35066e-06	-2.50286e-05	-9.36819e-06	-2.19077e-05	-60.8404	-16.1759	-2.82093	0.406898	0.000128806	-2.11193e-05	-3.39087e-06	6.65663e-07	1.11969e-05	-3.17957e-05	-2.37663e-05	
