terrinbabu/Matlab/log_filtering/UR10_35_KF/ijt_KF2_0kg_sinjall_v5_1.txt
seq	time	q0	q1	q2	q3	q4	q5	Dq0	Dq1	Dq2	Dq3	Dq4	Dq5	eff0	eff1	eff2	eff3	eff4	eff5	DDq0	DDq1	DDq2	DDq3	DDq4	DDq5	
25	1573229628.734693067	-1.24017	-2.11062	-1.72284	-1.57114	0.60054	0.732184	0.027341	0.0280106	0.0280859	0.0272235	0.0272911	0.0281822	0.000222084	68.1757	30.9305	2.24981	-0.566318	0.261224	0.0458927	0.0465051	0.0585436	0.043018	0.0458363	0.0647045	
26	1573229628.742694213	-1.24004	-2.11049	-1.72271	-1.57101	0.60068	0.732316	0.0271705	0.0278232	0.0279297	0.0270467	0.0272072	0.0280716	0.0182398	68.1746	30.9384	2.24487	-0.569615	0.256852	0.0496893	0.0486651	0.0478044	0.0368835	0.049753	0.0502284	
27	1573229628.750671542	-1.23992	-2.11036	-1.72258	-1.57088	0.600818	0.73245	0.0270066	0.0276713	0.0277739	0.0268532	0.0271029	0.0279489	0.0186149	68.1742	30.9456	2.24539	-0.570691	0.258033	0.0502229	0.048132	0.0486003	0.0382243	0.0449857	0.0584812	
28	1573229628.758694378	-1.23979	-2.11023	-1.72245	-1.57074	0.600956	0.732588	0.0268898	0.0274861	0.0274676	0.0266557	0.0270165	0.0279581	0.048161	68.24	30.988	2.24286	-0.579804	0.251892	0.0512346	0.0384621	0.0241964	0.0352231	0.0496854	0.0687759	
29	1573229628.766693625	-1.23966	-2.1101	-1.72232	-1.57061	0.601098	0.732725	0.0267926	0.0272847	0.0273254	0.0264697	0.0269165	0.027907	0.0112606	68.1648	30.9474	2.24355	-0.569572	0.259806	0.0519738	0.0425388	0.0653583	0.0422956	0.0355999	0.0502608	
30	1573229628.774685498	-1.23953	-2.10997	-1.7222	-1.57048	0.601236	0.732862	0.0266826	0.027113	0.027171	0.0263389	0.0267336	0.0278558	0.0188075	68.1948	30.9804	2.24378	-0.57711	0.256221	0.0472967	0.0450818	0.0376042	0.0434921	0.0331393	0.0617511	
31	1573229628.782644299	-1.2394	-2.10984	-1.72207	-1.57035	0.601371	0.733001	0.026591	0.0269262	0.0270619	0.0261686	0.0265425	0.0277775	0.0183104	68.1673	30.9628	2.24275	-0.573529	0.256665	0.0518692	0.0416556	0.0617647	0.0354742	0.0351984	0.0433583	
32	1573229628.790706556	-1.23927	-2.10971	-1.72193	-1.57022	0.601505	0.73314	0.0264679	0.0267288	0.0270218	0.026036	0.0263548	0.0276252	-0.00308029	68.1988	30.9904	2.2466	-0.574381	0.255767	0.0417413	0.0376193	0.0535631	0.047566	0.0322974	0.0414324	
33	1573229628.798699013	-1.23914	-2.10959	-1.7218	-1.57009	0.601641	0.73328	0.0263205	0.026513	0.0269554	0.0259232	0.0261734	0.0274811	0.00225993	68.2013	30.9978	2.24754	-0.57619	0.254415	0.0421119	0.0362095	0.0541421	0.0415424	0.0340731	0.0416527	
34	1573229628.806691423	-1.23901	-2.10946	-1.72167	-1.56996	0.601774	0.733418	0.0261848	0.0263392	0.0269525	0.02584	0.0260297	0.0273578	-0.0106107	68.1844	31.0003	2.25377	-0.569545	0.257539	0.0408114	0.040113	0.0592409	0.0474521	0.0420187	0.0440953	
35	1573229628.814701850	-1.23888	-2.10933	-1.72153	-1.56983	0.601908	0.733554	0.0260621	0.0261996	0.0268672	0.0257735	0.0259479	0.0271592	0.00501438	68.1915	31.0136	2.24737	-0.57495	0.25241	0.0426352	0.041872	0.0434769	0.0440965	0.0411301	0.0286831	
36	1573229628.822704719	-1.23875	-2.1092	-1.7214	-1.56969	0.602037	0.733691	0.0259463	0.026042	0.0268038	0.0256838	0.0257016	0.0269552	0.00473686	68.1874	31.0091	2.24194	-0.583917	0.253403	0.043163	0.0358685	0.0567162	0.0375605	0.0125811	0.0383677	
37	1573229628.830688231	-1.23862	-2.10907	-1.72126	-1.56956	0.602166	0.733826	0.0258046	0.0258785	0.0267783	0.0255504	0.0254135	0.026819	-0.00379594	68.1959	31.0279	2.25086	-0.581093	0.252943	0.0376259	0.0379892	0.0503571	0.0374987	0.0267249	0.0433974	
38	1573229628.838668024	-1.23849	-2.10894	-1.72113	-1.56943	0.602296	0.733963	0.0256983	0.0257206	0.0267448	0.0254405	0.0252136	0.0267029	0.00242037	68.1954	31.031	2.25058	-0.580944	0.252347	0.0403106	0.0349668	0.0562236	0.0337284	0.0290999	0.0396525	
39	1573229628.846665693	-1.23836	-2.10881	-1.72098	-1.5693	0.602428	0.734096	0.0255991	0.0255578	0.0267833	0.0253108	0.025062	0.0265685	0.00519067	68.1941	31.039	2.25219	-0.577801	0.253748	0.0428462	0.0354933	0.0559044	0.0384327	0.0344825	0.0430862	
40	1573229628.854685230	-1.23822	-2.10869	-1.72084	-1.56916	0.602557	0.734233	0.0255464	0.0253997	0.0268111	0.0252118	0.0249708	0.0264963	0.00736391	68.1981	31.0515	2.25596	-0.575301	0.253796	0.0431296	0.0362733	0.0525123	0.0396217	0.0442658	0.0459605	
41	1573229628.862678666	-1.23809	-2.10856	-1.7207	-1.56903	0.602687	0.73437	0.0254696	0.0252702	0.0268037	0.0252063	0.0248926	0.0263861	-0.00717566	68.1961	31.0608	2.25402	-0.57613	0.253222	0.0385697	0.0381934	0.0477272	0.0486212	0.0357588	0.0336473	
42	1573229628.870659311	-1.23796	-2.10843	-1.72055	-1.56889	0.602815	0.734507	0.0253453	0.0251658	0.0267647	0.0251383	0.0247805	0.0262254	-0.00520498	68.2023	31.0747	2.25857	-0.583013	0.248353	0.0322562	0.0395648	0.0405289	0.0303829	0.0389774	0.0340293	
43	1573229628.878684741	-1.23782	-2.1083	-1.72041	-1.56875	0.602945	0.734644	0.0252504	0.0250691	0.0266295	0.0250588	0.0247179	0.026139	0.0203138	68.219	31.0931	2.25356	-0.583441	0.248943	0.0413704	0.0390287	0.0260686	0.039948	0.0405032	0.0458035	
44	1573229628.886673194	-1.23769	-2.10817	-1.72027	-1.56862	0.603077	0.734781	0.0251347	0.0249918	0.0264686	0.0249876	0.0246286	0.0260352	-0.00900111	68.2055	31.0919	2.25766	-0.58645	0.247326	0.0299829	0.03885	0.0374427	0.0322209	0.0306641	0.0312303	
45	1573229628.894683384	-1.23756	-2.10803	-1.72013	-1.56848	0.603209	0.734916	0.0250256	0.0249085	0.0263578	0.0248165	0.0245169	0.0258933	0.0256042	68.2102	31.0981	2.25343	-0.591829	0.244169	0.0391267	0.036794	0.0331109	0.0174172	0.0341562	0.0363165	
46	1573229628.902662609	-1.23743	-2.1079	-1.71999	-1.56835	0.603341	0.735052	0.0249558	0.0248165	0.0262405	0.0246248	0.0244437	0.0258092	0.015945	68.2131	31.1078	2.2578	-0.587312	0.246894	0.038057	0.0352025	0.0377197	0.0260091	0.0377754	0.0417944	
47	1573229628.910706820	-1.2373	-2.10777	-1.71985	-1.56822	0.603475	0.735189	0.0248693	0.0247342	0.0261636	0.0244491	0.0244037	0.0257188	0.0146043	68.1942	31.1043	2.25837	-0.587819	0.24619	0.0381156	0.0374002	0.0434599	0.018719	0.0373041	0.0347864	
48	1573229628.918820026	-1.23716	-2.10764	-1.7197	-1.56808	0.603607	0.735327	0.0248105	0.0246414	0.0261631	0.0243449	0.0243065	0.0256331	-0.00134978	68.2073	31.1179	2.25852	-0.584149	0.24993	0.0363928	0.0329912	0.0467459	0.0389984	0.0296217	0.0379449	
49	1573229628.926666898	-1.23702	-2.10751	-1.71956	-1.56795	0.60374	0.735464	0.0247572	0.0245518	0.0260981	0.0242902	0.0242905	0.0255494	0.0147415	68.2207	31.1391	2.26323	-0.58343	0.24603	0.0371102	0.035493	0.0316566	0.0315377	0.0517989	0.036774	
50	1573229628.934676630	-1.23689	-2.10738	-1.71941	-1.56781	0.603877	0.735602	0.0246732	0.0244736	0.0260688	0.0242409	0.0243447	0.0254762	-0.00436537	68.208	31.1373	2.26496	-0.582183	0.249074	0.0339024	0.0342296	0.0446338	0.0366048	0.0408021	0.037625	
51	1573229628.942677122	-1.23676	-2.10724	-1.71927	-1.56767	0.604015	0.735739	0.0246064	0.0244103	0.0260063	0.0242109	0.0243315	0.0254376	0.0160961	68.2229	31.1567	2.26003	-0.588936	0.246274	0.0370274	0.0357468	0.025668	0.035385	0.035834	0.0442503	
52	1573229628.950680591	-1.23662	-2.10711	-1.71913	-1.56754	0.604152	0.735878	0.0245092	0.0243489	0.0258038	0.0241458	0.024333	0.0253914	0.00118149	68.241	31.1794	2.26743	-0.591393	0.241652	0.0255317	0.0355891	0.0170286	0.0287941	0.0447209	0.034626	
53	1573229628.958732737	-1.23649	-2.10697	-1.71899	-1.5674	0.604293	0.736018	0.024395	0.0243058	0.0256383	0.0240715	0.0243936	0.0253247	0.00377812	68.2209	31.1713	2.26677	-0.587657	0.244427	0.0312878	0.034597	0.0312281	0.0295413	0.0442416	0.0338762	
54	1573229628.966679789	-1.23635	-2.10684	-1.71885	-1.56726	0.604435	0.736157	0.0243744	0.0242551	0.0254423	0.0240314	0.0244163	0.0252061	0.0457686	68.2326	31.1825	2.25073	-0.593824	0.241126	0.0455465	0.0334802	0.0129405	0.0341805	0.0358392	0.0262194	
55	1573229628.974673358	-1.23622	-2.1067	-1.71871	-1.56712	0.604576	0.736296	0.0243788	0.024199	0.0252431	0.0239979	0.0244062	0.0251196	0.0211868	68.224	31.1871	2.26086	-0.591292	0.244172	0.0377743	0.0335547	0.0247747	0.03306	0.0357436	0.0379386	
56	1573229628.982675786	-1.23608	-2.10656	-1.71857	-1.56698	0.604715	0.736435	0.0243316	0.0242044	0.0250552	0.0239468	0.0243633	0.0250936	0.0125634	68.2017	31.191	2.26366	-0.595141	0.24274	0.0321188	0.042684	0.0171176	0.0249934	0.0312877	0.0381734	
57	1573229628.990698052	-1.23594	-2.10643	-1.71844	-1.56685	0.604857	0.736579	0.0242944	0.0241663	0.0248434	0.0238396	0.0243537	0.0250282	0.0274008	68.2461	31.2122	2.26164	-0.597519	0.238126	0.0339514	0.0281974	0.0193497	0.0217353	0.0389892	0.0259175	
58	1573229628.998698650	-1.2358	-2.10629	-1.7183	-1.56671	0.605005	0.736722	0.0242832	0.024108	0.024696	0.0237764	0.0244015	0.0249847	0.018487	68.2236	31.2106	2.26389	-0.591176	0.24443	0.037101	0.0322977	0.0258779	0.035227	0.0357394	0.0394242	
59	1573229629.006670374	-1.23566	-2.10615	-1.71817	-1.56657	0.605151	0.736865	0.0242756	0.0240642	0.0245329	0.0238092	0.0243943	0.0249443	0.0212661	68.2407	31.2254	2.2597	-0.594535	0.241639	0.0364223	0.0280514	0.0205307	0.0384643	0.0308603	0.02792	
60	1573229629.014695140	-1.23552	-2.10601	-1.71803	-1.56643	0.6053	0.737008	0.0243006	0.0240124	0.0244118	0.0237551	0.0244156	0.0248625	0.035388	68.2038	31.2108	2.26163	-0.594532	0.241143	0.0422016	0.0322988	0.0323889	0.0181249	0.0377058	0.0277042	
61	1573229629.022720435	-1.23538	-2.10587	-1.7179	-1.56629	0.605448	0.737151	0.0243017	0.0240146	0.0243118	0.0237115	0.024456	0.0247644	0.00318265	68.1994	31.2253	2.26675	-0.590382	0.243422	0.0325329	0.0373645	0.0267445	0.0354684	0.0349581	0.0237157	
62	1573229629.030677590	-1.23524	-2.10573	-1.71777	-1.56614	0.605598	0.737292	0.0242886	0.0240027	0.0241646	0.0237084	0.0244504	0.0246804	0.0241493	68.2256	31.2414	2.26266	-0.599359	0.240022	0.035222	0.0298117	0.0223223	0.0256693	0.027036	0.031538	
63	1573229629.038688066	-1.2351	-2.10559	-1.71763	-1.566	0.605745	0.737432	0.0242986	0.0240311	0.0240735	0.0235909	0.0244309	0.0246081	0.019086	68.1583	31.2174	2.2671	-0.595336	0.242156	0.0374324	0.0430582	0.0349783	0.0114836	0.0318816	0.0277485	
64	1573229629.046673881	-1.23496	-2.10544	-1.7175	-1.56586	0.605895	0.737571	0.0243247	0.024092	0.0240569	0.0234464	0.0244001	0.0245221	0.0191699	68.1745	31.2301	2.2637	-0.598459	0.241953	0.0374054	0.0373884	0.0349309	0.01727	0.0212876	0.0280205	
65	1573229629.054667398	-1.23481	-2.1053	-1.71736	-1.56572	0.606045	0.737712	0.0243579	0.024094	0.0239606	0.0233251	0.0243466	0.0244439	0.0317739	68.2139	31.2584	2.26191	-0.602509	0.238024	0.037101	0.0306322	0.0217921	0.0192203	0.0247368	0.0259124	
66	1573229629.062731505	-1.23466	-2.10515	-1.71722	-1.56558	0.606192	0.737854	0.0244225	0.0241055	0.0239392	0.0232809	0.0242482	0.0243798	0.0155861	68.1738	31.2437	2.26196	-0.594669	0.245571	0.0411421	0.0344786	0.0395509	0.0336672	0.0153961	0.0301606	
67	1573229629.070666195	-1.23451	-2.10501	-1.71708	-1.56544	0.606337	0.737995	0.0244652	0.024111	0.0239369	0.0233469	0.0241213	0.0243306	0.00474582	68.2108	31.2752	2.2653	-0.597261	0.243111	0.0327419	0.0299267	0.0272919	0.0409219	0.0160189	0.0297574	
68	1573229629.078691792	-1.23437	-2.10486	-1.71695	-1.5653	0.606482	0.738141	0.024465	0.0241093	0.023891	0.0233731	0.0239597	0.0243323	0.00528421	68.1915	31.2718	2.26674	-0.601777	0.242849	0.0319087	0.0319786	0.0336951	0.0275009	0.00823969	0.0364196	
69	1573229629.086705409	-1.23422	-2.10472	-1.71681	-1.56516	0.606626	0.738284	0.0244803	0.0240946	0.0238707	0.0233564	0.0238326	0.0243805	0.0132004	68.2114	31.2929	2.27176	-0.599456	0.242008	0.0324754	0.0296344	0.0273219	0.0282565	0.0234691	0.0427764	
70	1573229629.095022694	-1.23406	-2.10457	-1.71666	-1.56502	0.606768	0.738429	0.0244976	0.0240846	0.0237846	0.0233433	0.0237664	0.0244146	0.00965267	68.2093	31.3027	2.27081	-0.601137	0.239818	0.029872	0.0318258	0.0209738	0.0287217	0.0221939	0.0316511	
71	1573229629.102664638	-1.23391	-2.10442	-1.71652	-1.56487	0.606914	0.738573	0.0245565	0.0240841	0.0238047	0.0233438	0.02368	0.0243623	0.0187989	68.1793	31.2807	2.26442	-0.598015	0.243029	0.0410978	0.0265776	0.0481107	0.0270226	0.0138279	0.0230196	
72	1573229629.110684487	-1.23376	-2.10428	-1.71638	-1.56473	0.607059	0.738719	0.0246155	0.02407	0.0238756	0.0233548	0.0235416	0.0242872	0.00658941	68.1987	31.3055	2.26703	-0.602012	0.24073	0.0324122	0.02697	0.0346793	0.0308852	0.00994601	0.0228904	
73	1573229629.118747273	-1.23361	-2.10413	-1.71624	-1.56458	0.607202	0.738869	0.0246265	0.0240395	0.0238851	0.0233884	0.0233645	0.0242624	-0.000582843	68.2107	31.3206	2.27015	-0.603391	0.241066	0.0286421	0.0242362	0.0342977	0.0330437	0.00688323	0.0301301	
74	1573229629.126692406	-1.23345	-2.10398	-1.71609	-1.56444	0.607343	0.739014	0.0246267	0.0240077	0.0239561	0.0234566	0.023272	0.0242545	-0.0101068	68.2104	31.3311	2.28062	-0.594143	0.242993	0.0269812	0.0236633	0.0412911	0.0362614	0.028837	0.0313463	
75	1573229629.134694387	-1.2333	-2.10383	-1.71595	-1.56429	0.607484	0.739161	0.0246177	0.0239546	0.0240236	0.0234485	0.0232534	0.0242411	0.00846191	68.2253	31.3423	2.27807	-0.604387	0.236617	0.0267766	0.0186388	0.0380947	0.0152409	0.0257961	0.0262984	
76	1573229629.142701249	-1.23314	-2.10368	-1.7158	-1.56414	0.607623	0.739306	0.024593	0.0239237	0.0240866	0.0233926	0.0231938	0.0241779	-0.00965319	68.1921	31.3401	2.27908	-0.600951	0.239411	0.0242636	0.0281295	0.0371961	0.0245	0.0201329	0.021506	
77	1573229629.150669230	-1.23299	-2.10353	-1.71565	-1.56399	0.607763	0.739449	0.0245609	0.0239396	0.0243227	0.0233929	0.023097	0.0240771	-0.0333125	68.1473	31.3144	2.28374	-0.592593	0.24614	0.0257005	0.0258256	0.0757722	0.0246855	0.0148784	0.0191513	
78	1573229629.158673087	-1.23284	-2.10337	-1.7155	-1.56385	0.607905	0.739593	0.0245463	0.0239193	0.0244961	0.0233501	0.0230257	0.0239781	0.0217739	68.2293	31.3745	2.27482	-0.609115	0.233238	0.0286493	0.021057	0.021668	0.0161952	0.0234674	0.0205712	
79	1573229629.166661339	-1.23268	-2.10323	-1.71534	-1.5637	0.608051	0.739738	0.0245581	0.0238481	0.0245734	0.0233217	0.0230442	0.0239544	-0.00411495	68.2127	31.3714	2.28611	-0.59678	0.241194	0.027319	0.018568	0.0469744	0.0276014	0.0317693	0.0334443	
80	1573229629.174692261	-1.23253	-2.10308	-1.71519	-1.56355	0.608195	0.739883	0.0245709	0.0237831	0.0246021	0.0233735	0.0231005	0.0239668	0.0151406	68.2471	31.406	2.28134	-0.603306	0.235624	0.0272979	0.0196135	0.0156768	0.0317596	0.0340156	0.0299328	
81	1573229629.182686054	-1.23237	-2.10293	-1.71503	-1.5634	0.608345	0.740031	0.0245663	0.0236862	0.0245551	0.0234141	0.0231645	0.0239805	0.00939418	68.2428	31.4068	2.28261	-0.606192	0.235292	0.0250637	0.0160278	0.026709	0.0241343	0.0267994	0.0294705	
82	1573229629.190728521	-1.23221	-2.10279	-1.71488	-1.56325	0.608493	0.740176	0.0245582	0.0236546	0.0244462	0.0233889	0.0231993	0.0239447	0.0149929	68.2226	31.4182	2.28168	-0.610941	0.231028	0.0223406	0.0299675	0.00234857	0.0173163	0.0286709	0.0213184	
83	1573229629.198707445	-1.23206	-2.10264	-1.71473	-1.5631	0.608642	0.740322	0.0244891	0.0236993	0.0243058	0.0233603	0.0231807	0.0238579	-0.017001	68.1933	31.4096	2.2844	-0.608658	0.234795	0.0160086	0.0319697	0.0191965	0.0230405	0.0142755	0.0162432	
84	1573229629.206674189	-1.2319	-2.10249	-1.71458	-1.56295	0.608789	0.740469	0.0244146	0.0237148	0.0241346	0.0233112	0.0231006	0.0237783	0.0117734	68.2439	31.4436	2.28032	-0.619387	0.227752	0.017005	0.023937	-0.00123654	0.0141052	0.0150423	0.0193667	
85	1573229629.214689655	-1.23175	-2.10233	-1.71443	-1.5628	0.608935	0.740618	0.0243942	0.0237286	0.0240472	0.0232648	0.0230071	0.023729	0.00435062	68.1944	31.4174	2.28074	-0.610001	0.235396	0.0256822	0.024639	0.0299637	0.018994	0.0111252	0.0213014	
86	1573229629.222694502	-1.23159	-2.10218	-1.71428	-1.56265	0.609083	0.740765	0.0243458	0.0237101	0.0239456	0.0231869	0.0229458	0.0237142	0.00387301	68.2498	31.4646	2.28826	-0.61889	0.228244	0.0128842	0.021391	0.00292606	0.0114227	0.0197486	0.0285986	
87	1573229629.230681463	-1.23143	-2.10203	-1.71413	-1.5625	0.60923	0.740912	0.0243163	0.0237385	0.0239183	0.0231571	0.022912	0.023686	-0.0106615	68.1606	31.4206	2.28655	-0.601012	0.23966	0.0263386	0.0307667	0.0388809	0.0278442	0.0185955	0.0185766	
88	1573229629.238693175	-1.23128	-2.10187	-1.71398	-1.56235	0.609378	0.741059	0.024276	0.0237811	0.0239222	0.0232309	0.0228965	0.0236001	-0.0187548	68.2205	31.4672	2.28942	-0.606915	0.233817	0.0146041	0.0243897	0.0147491	0.0350477	0.0215509	0.0135666	
89	1573229629.246711448	-1.23113	-2.10172	-1.71383	-1.5622	0.609531	0.741206	0.0241863	0.0237638	0.0238191	0.0233571	0.0229003	0.0234942	-0.0151229	68.249	31.487	2.28817	-0.609933	0.232409	0.0139813	0.0162907	0.0130802	0.0383018	0.0178692	0.0147022	
90	1573229629.254750591	-1.23097	-2.10156	-1.71368	-1.56205	0.609677	0.741352	0.0241152	0.023772	0.0237325	0.0234874	0.0228304	0.0234492	-0.020173	68.2063	31.4769	2.28944	-0.60742	0.237104	0.0170035	0.025386	0.0189242	0.0398397	0.0107013	0.0262663	
91	1573229629.262664062	-1.23082	-2.1014	-1.71353	-1.56189	0.609826	0.741501	0.0240495	0.0237689	0.0236928	0.0235531	0.0227348	0.0234559	-0.0104039	68.2301	31.491	2.29081	-0.616571	0.231259	0.0134682	0.0163901	0.0222835	0.0185439	0.00972292	0.023689	
92	1573229629.270677986	-1.23066	-2.10125	-1.71338	-1.56174	0.609973	0.741648	0.0239732	0.0237137	0.0236182	0.0235344	0.0226962	0.0234052	0.00376953	68.2497	31.5111	2.2899	-0.616449	0.22777	0.0158005	0.0138871	0.0117371	0.0193155	0.0217432	0.0141075	
93	1573229629.279830361	-1.23051	-2.1011	-1.71324	-1.56158	0.61012	0.741796	0.023903	0.0236499	0.0235622	0.0234743	0.0226136	0.0233163	-0.006856	68.2179	31.4998	2.28888	-0.621407	0.228343	0.0132428	0.0168354	0.0235872	0.00905813	0.00369681	0.0130755	
94	1573229629.286686351	-1.23035	-2.10094	-1.71309	-1.56143	0.610268	0.74194	0.0238017	0.0235657	0.0235059	0.0234257	0.0225954	0.0232037	-0.00971561	68.2777	31.5436	2.29802	-0.615483	0.226167	0.00803273	0.00712788	0.0117353	0.022086	0.0305874	0.0122275	
95	1573229629.294670992	-1.2302	-2.10079	-1.71294	-1.56128	0.610416	0.742089	0.0236672	0.0235043	0.0233943	0.0234404	0.0225818	0.0231444	-0.0186309	68.2401	31.5377	2.29367	-0.619409	0.229022	0.00772989	0.0172641	0.00836946	0.0263043	0.00724354	0.0188921	
96	1573229629.302688084	-1.23005	-2.10063	-1.71279	-1.56112	0.610567	0.742237	0.0235869	0.0234524	0.0232149	0.0234386	0.02248	0.0231009	0.0195553	68.2583	31.549	2.28497	-0.626328	0.224604	0.0180629	0.010967	0.00177905	0.01626	0.00634897	0.016675	
97	1573229629.310711305	-1.2299	-2.10048	-1.71265	-1.56097	0.610718	0.742383	0.0235079	0.0233776	0.0230937	0.0234058	0.0224641	0.0230459	-0.00863799	68.2476	31.553	2.30005	-0.617013	0.227519	0.0101866	0.0102276	0.0195159	0.015342	0.0242388	0.0180757	
98	1573229629.318683812	-1.22975	-2.10032	-1.71251	-1.56082	0.610868	0.742532	0.0233895	0.0232906	0.0229613	0.0233274	0.02247	0.0230537	0.00703656	68.2758	31.5806	2.29678	-0.628443	0.22283	0.00798621	0.00925413	-0.00210023	0.00911313	0.0146343	0.02782	
99	1573229629.326737425	-1.2296	-2.10017	-1.71236	-1.56066	0.611019	0.742678	0.023291	0.023169	0.0228505	0.0232671	0.0224508	0.0230636	-0.00330481	68.2577	31.5706	2.298	-0.620357	0.227142	0.0119627	0.0043734	0.0221971	0.0163818	0.0160926	0.0203852	
100	1573229629.334677318	-1.22945	-2.10002	-1.71222	-1.56051	0.611168	0.742825	0.0232152	0.0231087	0.0228355	0.0232278	0.022391	0.0229412	-0.0142688	68.1881	31.5494	2.29359	-0.619305	0.227685	0.0126788	0.0214474	0.022093	0.014437	0.00650059	-0.00154362	
101	1573229629.342682830	-1.2293	-2.09987	-1.71207	-1.56036	0.611321	0.742974	0.0231217	0.0230835	0.0228684	0.0231436	0.0223385	0.0228695	-0.018199	68.2119	31.5665	2.30451	-0.619297	0.22946	0.00896006	0.0126016	0.03337	0.00731108	0.0129014	0.024463	
102	1573229629.350660942	-1.22915	-2.09971	-1.71193	-1.56021	0.61147	0.743123	0.0229945	0.0230319	0.0228246	0.0230743	0.0222729	0.0228219	-0.0139102	68.2365	31.5952	2.29812	-0.625234	0.224186	0.00555904	0.0141406	0.00670607	0.0163303	0.00784625	0.00844785	
103	1573229629.358688483	-1.22901	-2.09956	-1.71178	-1.56005	0.611619	0.743272	0.0228463	0.0229919	0.0227988	0.0230268	0.0222148	0.022915	-0.0299219	68.2191	31.5935	2.31473	-0.618597	0.233161	0.00389066	0.0131409	0.0312956	0.0122607	0.0128558	0.054148	
104	1573229629.366698001	-1.22886	-2.0994	-1.71163	-1.5599	0.611768	0.743424	0.0227458	0.0229623	0.0228113	0.0229519	0.0221888	0.0230538	0.00662346	68.2225	31.6014	2.3002	-0.622465	0.226105	0.0152219	0.0131714	0.0150572	0.0100903	0.0167307	0.0205883	
105	1573229629.374686748	-1.22871	-2.09925	-1.71149	-1.55976	0.61192	0.743574	0.0226822	0.0229176	0.022924	0.0228982	0.0221912	0.0230212	-0.0310561	68.1796	31.5801	2.30789	-0.609402	0.234069	0.0131499	0.0120613	0.0524597	0.0201866	0.0168075	0.0135238	
106	1573229629.382710335	-1.22857	-2.09909	-1.71134	-1.55961	0.612071	0.743726	0.0225998	0.0229039	0.0230232	0.0228987	0.0223223	0.0229793	-0.0119928	68.2141	31.6243	2.3144	-0.609383	0.228388	0.010708	0.0182952	0.014348	0.0206325	0.0463898	0.0172719	
107	1573229629.390711494	-1.22842	-2.09894	-1.71118	-1.55945	0.612226	0.743877	0.0225225	0.0228603	0.0230338	0.0229043	0.0224118	0.0230983	-0.0129196	68.2254	31.6282	2.30911	-0.62105	0.232487	0.0112151	0.00882325	0.0266101	0.0203397	0.0058221	0.0514296	
108	1573229629.398709390	-1.22828	-2.09879	-1.71103	-1.5593	0.61238	0.744033	0.0224495	0.0227517	0.0231069	0.022939	0.0223441	0.0232262	-0.0147227	68.2317	31.6353	2.30318	-0.620211	0.2285	0.0113662	0.00439896	0.0274982	0.0254393	0.00746267	0.0160626	
109	1573229629.406717916	-1.22813	-2.09864	-1.71087	-1.55915	0.612533	0.74419	0.0224038	0.0226577	0.0231237	0.0229651	0.0222684	0.0232093	0.00633405	68.223	31.6424	2.2985	-0.623563	0.226379	0.017344	0.00911656	0.015574	0.020947	0.00745916	0.0151883	
110	1573229629.414710187	-1.22798	-2.09849	-1.71072	-1.559	0.612684	0.744343	0.0223684	0.022575	0.0231047	0.0230951	0.0223531	0.0231746	-0.016191	68.2435	31.669	2.31401	-0.603887	0.231352	0.0139886	0.00689835	0.0177395	0.0476335	0.0451126	0.0155326	
111	1573229629.422683956	-1.22783	-2.09834	-1.71057	-1.55884	0.612841	0.744499	0.022318	0.0225034	0.0231297	0.0232238	0.0224794	0.0231557	-0.0139562	68.2175	31.6577	2.30803	-0.620074	0.227276	0.0105212	0.00821066	0.0248923	0.0202847	0.0141661	0.0140652	
112	1573229629.430718039	-1.22769	-2.09819	-1.71041	-1.55869	0.612996	0.744654	0.0222198	0.0224707	0.0231018	0.0231918	0.0224423	0.0230349	-0.012913	68.1985	31.6644	2.30315	-0.629155	0.221147	0.00563747	0.0183475	0.00643336	0.00948392	0.00463552	-0.00534564	
113	1573229629.438711789	-1.22754	-2.09803	-1.71025	-1.55853	0.613152	0.744807	0.0221145	0.022433	0.0230832	0.0231394	0.0223047	0.022936	-0.0167368	68.2182	31.6733	2.30599	-0.630293	0.225283	0.0062894	0.0065134	0.0238633	0.0122257	-0.00674332	0.0188271	
114	1573229629.446678775	-1.2274	-2.09789	-1.7101	-1.55838	0.613304	0.74496	0.0220476	0.02234	0.0232123	0.0230633	0.0223292	0.0230564	-0.0120281	68.2006	31.6732	2.32802	-0.609844	0.232763	0.0136579	0.00661851	0.0477234	0.00780675	0.0429858	0.0467457	
115	1573229629.454780680	-1.22725	-2.09774	-1.70995	-1.55822	0.613459	0.745112	0.0219637	0.0222393	0.023318	0.0230212	0.022438	0.0231122	-0.0198192	68.2408	31.7064	2.31215	-0.625106	0.223151	0.00338921	0.00379076	0.0159513	0.0200796	0.0135779	0.00792497	
116	1573229629.462710807	-1.22711	-2.09759	-1.70979	-1.55807	0.613613	0.745268	0.0218569	0.0221704	0.0233053	0.023032	0.0225393	0.0230723	-0.0125816	68.2142	31.7086	2.32207	-0.614031	0.226191	0.00878	0.0124207	0.0166867	0.0189832	0.042417	0.0169494	
117	1573229629.470697127	-1.22696	-2.09744	-1.70963	-1.55791	0.613768	0.745422	0.0218079	0.0221522	0.0233461	0.0231509	0.0226449	0.0230764	-0.0285772	68.1804	31.6969	2.31417	-0.610113	0.234341	0.0140267	0.0157173	0.027759	0.0440464	0.0149054	0.0210685	
118	1573229629.478869734	-1.22682	-2.09729	-1.70947	-1.55775	0.613921	0.745574	0.0217624	0.0221446	0.0235153	0.0232849	0.0226097	0.0230718	-0.0345074	68.1546	31.6862	2.31749	-0.614242	0.232657	0.0108355	0.015805	0.0445016	0.0224036	0.0101049	0.0161061	
119	1573229629.486674027	-1.22667	-2.09713	-1.70931	-1.55759	0.614076	0.74573	0.0217093	0.0221231	0.0235487	0.0233246	0.0225603	0.023026	0.00465732	68.2337	31.7412	2.30689	-0.631008	0.220391	0.0101807	0.00797	-0.000852157	0.0188948	0.00815742	0.00767209	
120	1573229629.494702876	-1.22653	-2.09698	-1.70915	-1.55743	0.614233	0.745885	0.0216614	0.0220475	0.0234886	0.0233417	0.0225085	0.0229749	-0.0031461	68.2227	31.738	2.31134	-0.626768	0.223979	0.0114853	0.00412919	0.0180713	0.0188038	0.0088647	0.0142629	
121	1573229629.502668077	-1.22638	-2.09683	-1.70899	-1.55727	0.614386	0.746041	0.0216328	0.0219948	0.0235151	0.0233601	0.022579	0.0229638	-0.00143144	68.1808	31.7332	2.32195	-0.61364	0.22721	0.0162594	0.0160055	0.0217001	0.0168793	0.0398505	0.0158068	
122	1573229629.510666024	-1.22624	-2.09668	-1.70883	-1.55711	0.614542	0.746196	0.0216228	0.0219941	0.0235037	0.0233789	0.0226651	0.0229247	-0.00101038	68.1966	31.7497	2.31197	-0.625726	0.223662	0.0127932	0.014042	0.00809046	0.0199045	0.0120322	0.00964285	
123	1573229629.518666706	-1.22609	-2.09653	-1.70867	-1.55695	0.6147	0.746353	0.0215957	0.0219581	0.0234451	0.0234139	0.0226534	0.0229269	0.0110056	68.2201	31.7662	2.31281	-0.626805	0.223849	0.0160792	0.00642064	0.00968892	0.0200697	0.0139582	0.021625	
124	1573229629.526709786	-1.22595	-2.09638	-1.70851	-1.55679	0.614855	0.746508	0.021577	0.0218865	0.0234257	0.0234427	0.0227432	0.0229429	-0.00686701	68.2099	31.7742	2.32639	-0.618219	0.224174	0.00971376	0.00920782	0.0169411	0.0163546	0.0387842	0.0159312	
125	1573229629.534691080	-1.2258	-2.09624	-1.70835	-1.55663	0.615016	0.746665	0.0215486	0.0219614	0.0234067	0.0233747	0.0228478	0.0229159	-0.00408109	68.1006	31.7387	2.31883	-0.625959	0.224281	0.0130024	0.0395601	0.00793641	-0.00353578	0.0143936	0.00997416	
126	1573229629.542689283	-1.22565	-2.09608	-1.70819	-1.55647	0.615177	0.746824	0.0215687	0.022036	0.0232845	0.0232446	0.0229548	0.0230047	0.0351091	68.2267	31.8026	2.32351	-0.627936	0.220856	0.0182288	0.00925228	-0.00215771	0.00277265	0.0383801	0.0400369	
127	1573229629.550681938	-1.2255	-2.09593	-1.70803	-1.55631	0.615339	0.746983	0.0216771	0.0219707	0.023221	0.023138	0.0230724	0.023043	0.0620602	68.184	31.7693	2.30014	-0.628161	0.220867	0.0386013	0.00548215	0.0183592	0.00610117	0.0165562	0.000853135	
128	1573229629.558738260	-1.22535	-2.09578	-1.70787	-1.55615	0.6155	0.747142	0.0217813	0.0220394	0.0231569	0.0230626	0.023061	0.0230891	0.00706477	68.1138	31.7751	2.32071	-0.626582	0.22806	0.0177898	0.0383634	-0.000972901	0.00859081	0.00929355	0.0405216	
129	1573229629.566681839	-1.2252	-2.09563	-1.70771	-1.556	0.615661	0.747302	0.0218035	0.0221249	0.0230636	0.0231252	0.0230401	0.0232017	-0.00399168	68.1983	31.812	2.31758	-0.621735	0.226639	0.0154326	0.0104633	0.00915656	0.0370232	0.0128564	0.0168503	
130	1573229629.574654100	-1.22505	-2.09548	-1.70755	-1.55584	0.61582	0.747464	0.0218067	0.0220936	0.0231396	0.0231646	0.0230055	0.0231889	-0.0113299	68.1498	31.7857	2.32244	-0.62565	0.225114	0.0129038	0.0119017	0.0382586	0.00382812	0.00851065	0.00882913	
131	1573229629.582672110	-1.2249	-2.09532	-1.70739	-1.55568	0.615981	0.747624	0.0219049	0.0220924	0.0231519	0.0230754	0.0229715	0.0231765	0.0678696	68.1711	31.8106	2.30319	-0.633541	0.220287	0.0372806	0.0158144	-0.00361264	0.00648753	0.0110436	0.0175126	
132	1573229629.590708391	-1.22474	-2.09517	-1.70723	-1.55552	0.616144	0.747785	0.0221059	0.0220783	0.0230682	0.0230042	0.0230628	0.0232006	0.060494	68.1759	31.8183	2.31416	-0.623587	0.221897	0.0367799	0.0102826	0.012314	0.00606881	0.0357474	0.0158254	
133	1573229629.598722559	-1.22459	-2.09502	-1.70708	-1.55536	0.616312	0.747948	0.0222134	0.0221633	0.0230543	0.0229609	0.0231813	0.0231318	-0.0121721	68.0872	31.7993	2.32168	-0.621046	0.225649	0.0156215	0.0364213	0.0142174	0.0133496	0.0139757	-0.00475535	
134	1573229629.606682284	-1.22443	-2.09486	-1.70692	-1.5552	0.616475	0.74811	0.0222237	0.0222606	0.0230094	0.0230338	0.0232708	0.0230375	-0.0125789	68.2013	31.8635	2.33	-0.617911	0.223911	0.00954755	0.0107531	0.00518448	0.0356446	0.0342632	0.00793249	
135	1573229629.614657643	-1.22427	-2.0947	-1.70676	-1.55505	0.616641	0.748271	0.0222264	0.0222284	0.0229208	0.0231972	0.0233123	0.0231082	0.000165145	68.2065	31.8696	2.32174	-0.629655	0.226097	0.0138202	0.00694466	0.0044049	0.0347937	6.61782e-05	0.0363862	
136	1573229629.622703461	-1.22411	-2.09455	-1.7066	-1.55488	0.616803	0.74843	0.0222167	0.0222915	0.0229599	0.0232501	0.0231943	0.0231354	-0.0442558	68.0635	31.8094	2.32995	-0.622883	0.228363	0.00613378	0.0347857	0.0357162	0.00797543	-0.00151215	0.00101191	
137	1573229629.630679097	-1.22395	-2.09439	-1.70644	-1.55472	0.616964	0.748591	0.022291	0.0223475	0.0229791	0.0232993	0.0231049	0.0230419	0.051081	68.2049	31.8768	2.30485	-0.629935	0.220788	0.0343017	0.0026444	-0.00156425	0.0341616	0.0075429	0.00337883	
138	1573229629.638690465	-1.22379	-2.09423	-1.70629	-1.55456	0.617125	0.748752	0.0223528	0.0222683	0.0228592	0.0233518	0.0230409	0.0229642	0.00164315	68.2071	31.8938	2.32347	-0.639657	0.215698	0.00575206	0.00449617	0.00272872	0.00764845	0.00328125	0.00452607	
139	1573229629.646667321	-1.22363	-2.09408	-1.70613	-1.5544	0.617288	0.748912	0.022421	0.022193	0.0228788	0.0232564	0.0229517	0.0229079	0.0444724	68.1479	31.8534	2.31222	-0.633395	0.221843	0.0337109	0.0036583	0.0342965	-0.000253117	0.00029953	0.00922224	
140	1573229629.654677980	-1.22348	-2.09392	-1.70598	-1.55424	0.61745	0.749072	0.0224807	0.0221324	0.0228756	0.0231834	0.0229808	0.022976	0.00740449	68.2203	31.9272	2.33888	-0.6316	0.218743	0.00643877	0.00569819	-0.00307251	0.0104956	0.0320228	0.0343748	
141	1573229629.662667563	-1.22331	-2.09376	-1.70582	-1.55408	0.617612	0.749231	0.0225598	0.0221903	0.0227428	0.0231301	0.0230249	0.0230088	0.0420374	68.0818	31.8623	2.31263	-0.630782	0.222187	0.0337383	0.033151	0.00242569	0.00643102	0.00456672	0.00292164	
142	1573229629.670692562	-1.22315	-2.09361	-1.70566	-1.55392	0.617774	0.749393	0.0227401	0.0222503	0.0227755	0.0230789	0.0229628	0.0229412	0.0350383	68.1288	31.8749	2.31627	-0.627964	0.224101	0.0337659	0.00836195	0.033505	0.0103715	0.00483732	0.00656338	
143	1573229629.678686831	-1.22299	-2.09345	-1.70551	-1.55376	0.617934	0.749552	0.0229293	0.0223214	0.0228163	0.023135	0.0228878	0.022895	0.0234197	68.0809	31.882	2.31648	-0.622409	0.227858	0.0331637	0.0325045	0.00605087	0.0307728	0.00442664	0.00886836	
144	1573229629.686680681	-1.22282	-2.09329	-1.70535	-1.5536	0.618095	0.749711	0.0230362	0.0223908	0.0228591	0.0231237	0.0228204	0.0228267	-0.00172061	68.1404	31.9049	2.33069	-0.634757	0.219437	0.0119407	0.00785472	0.032655	-0.00458339	0.00432509	0.00358962	
145	1573229629.694735664	-1.22265	-2.09313	-1.70519	-1.55344	0.618254	0.74987	0.023136	0.0224597	0.0228862	0.0230366	0.0227563	0.0228678	0.03937	68.085	31.9033	2.32274	-0.630205	0.225688	0.0326021	0.0321753	0.00248177	0.00983692	0.00570667	0.0331421	
146	1573229629.702676351	-1.22248	-2.09297	-1.70503	-1.55328	0.618416	0.750032	0.0232283	0.0225517	0.0228027	0.0229889	0.0226777	0.023031	0.00482779	68.1625	31.9464	2.33304	-0.63898	0.220608	0.0105391	0.0112275	0.00751806	0.00707791	-0.00116502	0.0329835	
147	1573229629.710664208	-1.22231	-2.09281	-1.70487	-1.55312	0.618577	0.750196	0.0232322	0.0226352	0.0228555	0.0230355	0.0227021	0.0231982	-0.0393066	68.0734	31.9216	2.35079	-0.610234	0.23383	0.0109948	0.0315209	0.030905	0.0304203	0.0289727	0.0324937	
148	1573229629.718700345	-1.22214	-2.09264	-1.70471	-1.55296	0.61874	0.75036	0.0232245	0.0227158	0.022843	0.0231728	0.0227265	0.0232712	-0.00863103	68.1839	31.9803	2.33109	-0.63589	0.219008	0.00628958	0.00903455	-0.00548712	0.0300487	0.000418211	0.0107136	
149	1573229629.726671768	-1.22197	-2.09248	-1.70455	-1.55279	0.618902	0.750523	0.0232107	0.0227873	0.0228431	0.0233122	0.0227562	0.0232175	-0.0441095	68.0663	31.9344	2.34796	-0.611274	0.22976	0.00890074	0.0309148	0.0307692	0.0296496	0.0287824	0.0027717	
150	1573229629.734673438	-1.22181	-2.09232	-1.70439	-1.55263	0.619065	0.750687	0.0232952	0.0228525	0.0228657	0.0233616	0.0228017	0.0232534	0.0542119	68.1567	31.9736	2.32393	-0.638722	0.21933	0.0309163	0.00809794	0.00289659	0.0074355	0.00541582	0.0305318	
151	1573229629.742672358	-1.22164	-2.09215	-1.70424	-1.55246	0.619227	0.750851	0.0233715	0.0229289	0.0228898	0.0233147	0.0227377	0.02326	-0.0318948	68.0548	31.9408	2.33997	-0.627927	0.223984	0.0078829	0.0299	0.0298313	0.00650145	0.00155556	-0.00260966	
152	1573229629.750655776	-1.22147	-2.09199	-1.70407	-1.5523	0.619389	0.751018	0.0234446	0.0229643	0.0229045	0.0233637	0.0227644	0.0232839	0.0489257	68.1924	32.0131	2.33161	-0.62862	0.220742	0.0303105	0.000568684	-0.000779278	0.0283574	0.0281848	0.0297173	
153	1573229629.758693878	-1.22129	-2.09182	-1.70391	-1.55213	0.619553	0.751182	0.0235146	0.0230092	0.022917	0.0233891	0.0229027	0.0232783	-0.0295299	68.0593	31.9652	2.34978	-0.622459	0.222369	0.00678681	0.0295807	0.028825	0.0023674	0.0268719	-0.00567658	
154	1573229629.766661640	-1.22112	-2.09165	-1.70375	-1.55196	0.619721	0.751348	0.023585	0.0230566	0.0229024	0.0233283	0.0229146	0.0231735	0.0595217	68.1625	32.0112	2.31677	-0.646402	0.212965	0.0299618	0.00444017	-0.0060778	0.00729745	-0.00559909	0.00206101	
155	1573229629.774670138	-1.22095	-2.09149	-1.70359	-1.5518	0.619884	0.751511	0.023658	0.0231203	0.0229026	0.0233822	0.0229071	0.023077	-0.0393991	68.0604	31.9873	2.35101	-0.614918	0.227344	0.00898571	0.0291607	0.0278698	0.0273948	0.026896	-0.000615784	
156	1573229629.782680095	-1.22078	-2.09132	-1.70343	-1.55163	0.620047	0.751673	0.0237362	0.0231837	0.0228766	0.0234043	0.0229364	0.0229482	0.063604	68.1583	32.0301	2.31966	-0.646618	0.210366	0.0294261	0.00573919	-0.00991721	0.00202835	0.0030057	-0.00560475	
157	1573229629.790734745	-1.22061	-2.09115	-1.70326	-1.55146	0.620211	0.751835	0.0238085	0.023242	0.0228573	0.0234281	0.0228674	0.0229462	-0.0405843	68.0572	32.0043	2.35062	-0.623018	0.230108	0.00804621	0.0287812	0.0274018	0.0270202	0.00217155	0.0279569	
158	1573229629.798691008	-1.22043	-2.09098	-1.7031	-1.5513	0.620373	0.751997	0.0238804	0.0233149	0.0228396	0.0234599	0.0228034	0.0229449	0.0578302	68.1483	32.0458	2.32375	-0.644179	0.211841	0.0288222	0.00724469	-0.00804877	0.00555449	0.00537085	-0.00247729	
159	1573229629.806673644	-1.22026	-2.09081	-1.70294	-1.55113	0.62054	0.752158	0.0239421	0.0232916	0.0228376	0.0235013	0.0227783	0.0228481	-0.0309934	68.1264	32.046	2.3472	-0.628846	0.222203	0.00543774	0.00637919	0.0280034	0.026527	0.00573486	0.00320978	
160	1573229629.814689846	-1.22008	-2.09064	-1.70277	-1.55096	0.620705	0.75232	0.0238908	0.0232483	0.0229732	0.0235388	0.0228271	0.0227888	-0.0209487	68.1371	32.0619	2.35617	-0.631063	0.217662	0.00239682	0.00437475	0.0270625	0.00548044	0.0250679	0.00569057	
161	1573229629.822687792	-1.21991	-2.09047	-1.7026	-1.55079	0.620871	0.752479	0.0239341	0.0233012	0.0230028	0.0234659	0.0228394	0.0228161	0.0419029	68.0668	32.0436	2.33493	-0.641489	0.218971	0.0278274	0.0275079	-0.000957698	-0.00261331	-0.00086552	0.0269884	
162	1573229629.830664539	-1.21974	-2.0903	-1.70244	-1.55063	0.621037	0.752642	0.0239776	0.0233491	0.0229382	0.0233332	0.0228653	0.0228492	0.00472195	68.154	32.0942	2.35264	-0.641371	0.210888	0.00358845	0.00515056	0.00458297	-0.00614222	0.0244622	0.00429769	
163	1573229629.838684549	-1.21956	-2.09013	-1.70228	-1.55046	0.621204	0.752802	0.0240303	0.0233123	0.0228206	0.0232231	0.0228739	0.0227756	0.057611	68.1413	32.0897	2.32707	-0.649105	0.210576	0.0271821	0.00584355	-0.00877138	0.00224258	-0.00226227	0.00132984	
164	1573229629.846682397	-1.21938	-2.08997	-1.70211	-1.55029	0.621371	0.752962	0.024071	0.0233689	0.0228047	0.0231004	0.0228971	0.022666	-0.0281381	68.0506	32.0669	2.36108	-0.631708	0.217321	0.00129584	0.026527	0.0245486	-0.0101528	0.0239484	-0.00318229	
165	1573229629.854673882	-1.21921	-2.0898	-1.70195	-1.55013	0.621537	0.753123	0.0241014	0.0234043	0.0227349	0.0229493	0.0228999	0.0226653	0.0709542	68.1619	32.1221	2.33116	-0.655407	0.209451	0.0267362	0.00314844	-0.0187023	-0.00424204	-0.0033887	0.0258875	
166	1573229629.862679317	-1.21903	-2.08963	-1.70179	-1.54997	0.621705	0.753284	0.0241406	0.0234479	0.0226766	0.0229311	0.0228161	0.022778	-0.0490824	68.0507	32.089	2.36062	-0.628088	0.226943	0.00151861	0.0262021	0.0247871	0.0239331	4.82984e-05	0.0258974	
167	1573229629.870703721	-1.21886	-2.08945	-1.70162	-1.54981	0.621869	0.753448	0.0240445	0.0234998	0.0226819	0.0230303	0.0227335	0.0228995	-0.0287692	68.1582	32.1522	2.35735	-0.642953	0.216567	-0.00575998	0.0056171	-0.00355543	0.0235303	-0.00136847	0.0259201	
168	1573229629.878686809	-1.21869	-2.08928	-1.70146	-1.54964	0.622033	0.753613	0.0239384	0.0235516	0.0226987	0.0230323	0.0225941	0.0230221	-0.0371604	68.0421	32.1003	2.35848	-0.639461	0.222297	0.000720215	0.0256429	0.0242263	0.00255753	-0.0122871	0.0254736	
169	1573229629.886721258	-1.21851	-2.08911	-1.70129	-1.54948	0.622197	0.753781	0.0238651	0.0236059	0.0226903	0.0230481	0.0225643	0.0231519	-0.0120154	68.1624	32.1738	2.36222	-0.637071	0.215901	0.000378503	0.00359527	-0.00412715	0.0227203	0.0217542	0.0252816	
170	1573229629.894680690	-1.21834	-2.08893	-1.70113	-1.54931	0.62236	0.753948	0.0237457	0.0235616	0.0226989	0.023038	0.0225163	0.0232698	-0.0399675	68.1225	32.1524	2.36277	-0.649256	0.215535	-0.0101106	0.00300176	0.0229924	-0.00237334	-0.0137873	0.0245979	
171	1573229629.902691382	-1.21817	-2.08876	-1.70097	-1.54915	0.622523	0.754118	0.0236155	0.0235118	0.0226394	0.0229429	0.0223379	0.0232969	0.00597993	68.1628	32.1872	2.34672	-0.659102	0.205729	-0.00130338	0.00132929	-0.0162281	0.000551726	-0.0125896	0.00183584	
172	1573229629.910692538	-1.218	-2.08859	-1.7008	-1.54899	0.622685	0.754285	0.0235085	0.0235393	0.0226075	0.0229473	0.0222014	0.0233188	-0.06154	68.0497	32.1487	2.36862	-0.632283	0.22449	-0.00618452	0.0238693	0.0228049	0.0223206	-0.00298054	0.0237179	
173	1573229629.918675240	-1.21783	-2.08842	-1.70063	-1.54882	0.622844	0.754455	0.0233887	0.023528	0.0225878	0.0230351	0.0221923	0.023315	-0.0071323	68.1949	32.2233	2.35933	-0.643417	0.208002	-0.00301684	-0.0081283	-0.00969266	0.0213971	0.0216631	-0.00472661	
174	1573229629.926668668	-1.21766	-2.08825	-1.70047	-1.54866	0.623002	0.754623	0.0232759	0.0234285	0.0225702	0.0229969	0.0222773	0.0233112	-0.0221254	68.1173	32.1911	2.37334	-0.640799	0.21442	-0.00403832	0.00319757	0.0220887	-0.00625808	0.0208302	0.0234308	
175	1573229629.934661372	-1.21749	-2.08808	-1.70031	-1.5485	0.623164	0.754792	0.0231761	0.0233357	0.0225265	0.0229681	0.0222745	0.0233237	0.00161652	68.1766	32.2309	2.35096	-0.651156	0.208252	0.00127237	-0.00589199	-0.0127373	0.0211918	-0.00281872	-0.000587539	
176	1573229629.942669502	-1.21733	-2.08791	-1.70014	-1.54833	0.623325	0.754962	0.0230981	0.0233373	0.0224975	0.0229566	0.0222715	0.0233407	-0.0359446	68.0444	32.1842	2.37675	-0.633512	0.219536	-0.00213995	0.0230782	0.0214105	0.000109502	0.0209374	0.0232372	
177	1573229629.950667625	-1.21716	-2.08774	-1.69998	-1.54817	0.623486	0.755132	0.0229793	0.0233519	0.0224353	0.0229573	0.0223607	0.023448	-0.0130753	68.1739	32.26	2.3698	-0.644138	0.211075	-0.00593053	-0.000943477	-0.0149293	0.0208723	0.0208086	0.0231871	
178	1573229629.958713374	-1.217	-2.08757	-1.69982	-1.54801	0.623647	0.755301	0.0228827	0.0232682	0.0223846	0.0230342	0.0224442	0.0235476	-0.0263758	68.1141	32.2285	2.37312	-0.63312	0.218699	0.00104906	0.00151562	0.0210903	0.0208378	0.0211212	0.0221628	
179	1573229629.966726065	-1.21683	-2.0874	-1.69965	-1.54784	0.623812	0.755473	0.0228102	0.0232865	0.0223626	0.0231087	0.0225486	0.0235268	-0.0218896	68.0711	32.2329	2.36589	-0.636462	0.213211	0.000134391	0.0224136	-0.00969645	0.020209	0.020422	-0.00886058	
180	1573229629.974700802	-1.21667	-2.08723	-1.69949	-1.54768	0.623974	0.755642	0.0226899	0.0233031	0.0223417	0.0230911	0.0226282	0.0234009	-0.0381456	68.1061	32.2436	2.37694	-0.641697	0.210817	-0.0104623	0.00224928	0.0209763	-0.00189882	0.0201432	-0.00295458	
181	1573229629.982666256	-1.2165	-2.08706	-1.69933	-1.54751	0.624143	0.755811	0.0226561	0.0233287	0.0223437	0.0229957	0.0227302	0.0232788	0.0295633	68.0402	32.2251	2.35611	-0.640598	0.211516	0.0205614	0.0223958	-0.00280387	-0.000415117	0.0199597	-0.00703464	
182	1573229629.990691948	-1.21634	-2.08689	-1.69916	-1.54735	0.62431	0.755981	0.0226226	0.0234398	0.0223516	0.0229783	0.022824	0.0232675	-0.0607897	68.0407	32.2444	2.38472	-0.629177	0.221946	-0.00836874	0.022196	0.0199587	0.0211449	0.0195803	0.0214541	
183	1573229629.998772872	-1.21618	-2.08672	-1.699	-1.54719	0.624479	0.756152	0.0224547	0.0235481	0.0223098	0.0230572	0.0228323	0.0232851	-0.0439649	68.0714	32.2743	2.37064	-0.645387	0.212476	-0.0113042	0.0215289	-0.0126493	0.0199139	-0.00100408	0.000367099	
184	1573229630.006714033	-1.21602	-2.08655	-1.69884	-1.54702	0.624645	0.756319	0.0223085	0.0235628	0.0222856	0.0231372	0.0228373	0.0231907	-0.0334137	68.1064	32.2812	2.37494	-0.63677	0.213704	-0.00360608	-0.000901101	0.0190725	0.0195385	0.0191351	-0.00331908	
185	1573229630.014696659	-1.21586	-2.08637	-1.69867	-1.54685	0.624815	0.756488	0.0221702	0.0235829	0.0222067	0.0232144	0.0228457	0.0231874	-0.0339472	68.0786	32.3003	2.37353	-0.648439	0.213016	-0.00987115	0.0211254	-0.0198074	0.0190363	-0.00234581	0.0205348	
186	1573229630.022692809	-1.2157	-2.0862	-1.69851	-1.54669	0.624986	0.756656	0.0221256	0.0235912	0.0221503	0.023278	0.0227806	0.0231848	0.0146531	68.0778	32.2754	2.35565	-0.642327	0.214474	0.019326	-0.000602994	0.0188241	0.0186638	-0.00182145	-0.00203875	
187	1573229630.030735531	-1.21554	-2.08603	-1.69835	-1.54652	0.625154	0.756824	0.0221997	0.0235948	0.0220997	0.0232678	0.0226966	0.0230804	0.0374248	68.0402	32.283	2.35242	-0.653372	0.207698	0.0192954	0.0201147	-0.0144716	-0.00300101	-0.00320129	-0.0053058	
188	1573229630.038704882	-1.21538	-2.08586	-1.69818	-1.54635	0.625321	0.756991	0.0222693	0.0235555	0.0220621	0.0231329	0.022696	0.0230618	0.0406839	68.114	32.309	2.36702	-0.648978	0.209095	0.0186376	-0.0113253	0.0200322	-0.0107979	0.0183177	0.0195654	
189	1573229630.046677749	-1.21522	-2.08569	-1.69802	-1.54618	0.625487	0.757158	0.0222395	0.0233637	0.022165	0.0230934	0.0227737	0.0230441	-0.0281119	68.1411	32.3406	2.37791	-0.642467	0.20978	-0.00599372	-0.0147657	0.0191881	0.0186587	0.0175881	-0.00486185	
190	1573229630.054681868	-1.21506	-2.08552	-1.69785	-1.54601	0.625654	0.757323	0.0222237	0.0231977	0.0222654	0.0231742	0.0227304	0.0229167	0.0140078	68.0778	32.3101	2.35586	-0.646604	0.212861	0.0183193	-0.00490218	0.0204008	0.0182383	-0.0105392	-0.00566904	
191	1573229630.062659828	-1.2149	-2.08536	-1.69769	-1.54584	0.625823	0.757486	0.0222084	0.0230698	0.0223695	0.0232415	0.022706	0.0227833	-0.0273807	68.1067	32.3456	2.3788	-0.640595	0.211151	-0.00314173	-0.00661228	0.0186793	0.0183337	0.0175355	-0.00561067	
192	1573229630.070700614	-1.21474	-2.08519	-1.69752	-1.54567	0.62599	0.757652	0.0221995	0.0230331	0.0223716	0.0233191	0.0226972	0.0227654	0.0143861	68.0268	32.3248	2.36445	-0.644817	0.215823	0.017673	0.0186753	-0.00194357	0.0168657	-0.0034675	0.0188761	
193	1573229630.078696597	-1.21458	-2.08502	-1.69735	-1.5455	0.626156	0.757819	0.0221762	0.0230037	0.0223996	0.0232542	0.0226858	0.0228499	-0.0165589	68.102	32.3627	2.38784	-0.650659	0.208031	-0.00709874	-0.00595181	0.0196063	-0.0122648	0.0175992	0.0186506	
194	1573229630.086677708	-1.21441	-2.08486	-1.69718	-1.54533	0.626325	0.757986	0.0220712	0.0229758	0.0225081	0.0232128	0.0227693	0.0229294	-0.0428188	68.0194	32.3445	2.38962	-0.634359	0.218686	-0.00277364	0.0180179	0.0193849	0.0168444	0.0175814	0.018547	
195	1573229630.094667596	-1.21425	-2.08469	-1.69701	-1.54516	0.62649	0.758154	0.0219718	0.0229293	0.0226273	0.0232006	0.0228334	0.0230081	-0.0140352	68.1052	32.3813	2.38737	-0.648814	0.208939	-0.00419815	-0.0088603	0.0205812	-0.00431134	0.0176171	0.0178111	
196	1573229630.102920571	-1.21409	-2.08453	-1.69684	-1.54499	0.626662	0.758323	0.0219552	0.0228899	0.0228603	0.0230809	0.0229237	0.0229807	-0.00360974	67.9639	32.3172	2.3781	-0.635654	0.21593	0.0166876	0.0180891	0.0422469	-0.00864605	0.0170512	-0.00720853	
197	1573229630.110665763	-1.21394	-2.08436	-1.69666	-1.54482	0.626833	0.75849	0.0219235	0.0229549	0.0230784	0.0230403	0.0230055	0.022953	-0.0497793	68.0152	32.3716	2.39415	-0.635138	0.218128	-0.00598368	0.017582	0.0204572	0.0163496	0.0173581	0.0177449	
198	1573229630.118684508	-1.21377	-2.0842	-1.69648	-1.54465	0.627004	0.758662	0.02191	0.0229336	0.0232148	0.0231004	0.0230858	0.0230415	0.0156731	68.0724	32.3906	2.37725	-0.640334	0.214296	0.0171313	-0.00431031	0.0195226	0.0162544	0.0176762	0.0182538	
199	1573229630.126703590	-1.21361	-2.08403	-1.6963	-1.54449	0.627176	0.758832	0.0219816	0.0229032	0.0233436	0.0231564	0.0231707	0.0231265	-7.53423e-05	67.9977	32.374	2.38125	-0.634993	0.218398	0.0166125	0.017385	0.0185142	0.0157672	0.0170667	0.0179001	
200	1573229630.134690483	-1.21345	-2.08387	-1.69612	-1.54431	0.627348	0.759004	0.0220509	0.0229588	0.0234643	0.0231379	0.0232496	0.0232079	0.0125098	67.9901	32.377	2.38198	-0.641597	0.214688	0.0169873	0.0175573	0.0198904	-0.0048568	0.0165009	0.0182283	
201	1573229630.142673474	-1.21329	-2.0837	-1.69594	-1.54414	0.627523	0.759179	0.0221279	0.0230198	0.0235951	0.0231324	0.0233321	0.0233067	0.000726675	67.9951	32.3922	2.38255	-0.635384	0.218119	0.0168872	0.0174034	0.0172829	0.0167658	0.0168722	0.0178273	
202	1573229630.150673025	-1.21312	-2.08354	-1.69575	-1.54397	0.627698	0.759353	0.0222115	0.0230835	0.0235589	0.023203	0.0234124	0.0233939	0.027191	68.0329	32.4302	2.37672	-0.645782	0.210989	0.0171007	0.0177664	-0.0174878	0.0154413	0.016185	0.0173565	
203	1573229630.158706653	-1.21296	-2.08337	-1.69557	-1.5438	0.627874	0.759529	0.022288	0.0231469	0.0235345	0.0232686	0.0234918	0.023485	0.0006774	67.9917	32.4093	2.38418	-0.636165	0.217696	0.0167108	0.0168779	0.0179385	0.015961	0.0162022	0.0175125	
204	1573229630.166670788	-1.21279	-2.0832	-1.69539	-1.54362	0.62805	0.759708	0.0223747	0.0232067	0.0236419	0.0233464	0.0235692	0.0235842	0.00125987	67.9889	32.418	2.38505	-0.636553	0.217323	0.0166633	0.0172864	0.017217	0.0152301	0.0165552	0.0170384	
205	1573229630.174681170	-1.21262	-2.08303	-1.69521	-1.54345	0.628228	0.759887	0.0224548	0.0232758	0.0236286	0.0234135	0.0236566	0.0236767	0.0223229	68.0227	32.4524	2.38086	-0.64467	0.211639	0.016653	0.0167787	-0.0111688	0.0154423	0.0167367	0.0174288	
206	1573229630.183208903	-1.21245	-2.08286	-1.69503	-1.54327	0.628408	0.760067	0.0225441	0.0233402	0.0235311	0.0234836	0.0237455	0.0237724	0.0173976	68.0113	32.4546	2.38255	-0.643338	0.212759	0.0166564	0.0170332	-0.00465452	0.0152385	0.0156689	0.0170532	
207	1573229630.190690855	-1.21228	-2.08269	-1.69485	-1.5431	0.62859	0.760244	0.0226327	0.0234121	0.0235485	0.0235562	0.02375	0.0238525	-0.000825058	67.9777	32.4388	2.38096	-0.643624	0.216823	0.0161985	0.0167938	0.0174577	0.0150721	-0.00497418	0.0169969	
208	1573229630.198676067	-1.21211	-2.08251	-1.69467	-1.54292	0.62877	0.760424	0.0227293	0.023484	0.0236545	0.0236408	0.0237528	0.0239388	0.00124736	67.9831	32.4543	2.38816	-0.637699	0.216557	0.0164163	0.0164411	0.0167005	0.0157713	0.0157357	0.0163026	
209	1573229630.206674857	-1.21194	-2.08234	-1.69449	-1.54274	0.628951	0.760603	0.0228227	0.0235518	0.0236457	0.0237274	0.0238397	0.0239196	0.0184487	68.0063	32.4805	2.38017	-0.645183	0.208555	0.0160965	0.0162062	-0.00807816	0.0148063	0.0158281	-0.00766946	
210	1573229630.214663711	-1.21176	-2.08217	-1.69431	-1.54256	0.629128	0.760783	0.0229213	0.0236223	0.0236425	0.0238001	0.0239053	0.0239022	0.000865392	67.9791	32.4721	2.39035	-0.63825	0.216353	0.0161222	0.016123	0.0171777	0.0152132	0.0155454	0.0174881	
211	1573229630.222690519	-1.21158	-2.08199	-1.69413	-1.54237	0.629311	0.760964	0.0230147	0.0236904	0.0237428	0.023879	0.0239909	0.0239991	0.00166017	67.9764	32.4806	2.39106	-0.638715	0.215885	0.0161716	0.0161667	0.0169748	0.0142238	0.0157736	0.0164114	
212	1573229630.230678896	-1.21141	-2.08181	-1.69395	-1.54219	0.629494	0.761146	0.0231126	0.0237629	0.0238319	0.0238583	0.0240774	0.0240837	0.0166916	67.9698	32.4847	2.39146	-0.646818	0.211175	0.0163168	0.0161837	0.0170232	-0.00946429	0.0149934	0.015879	
213	1573229630.238680916	-1.21123	-2.08164	-1.69377	-1.54201	0.629676	0.761327	0.0232152	0.0238394	0.0239274	0.0238483	0.0240653	0.0240785	-0.000132169	67.962	32.489	2.38172	-0.645318	0.213055	0.0163054	0.0160776	0.0162459	0.01476	-0.00508646	-0.00512446	
214	1573229630.246675713	-1.21105	-2.08146	-1.69358	-1.54183	0.629861	0.76151	0.0233148	0.0239094	0.0239318	0.0239342	0.0240779	0.0240773	0.0180149	67.9952	32.5266	2.38929	-0.645468	0.211118	0.0163216	0.016264	-0.00562724	0.0147965	0.0152674	0.0154744	
215	1573229630.254675856	-1.21087	-2.08128	-1.6934	-1.54164	0.630044	0.761693	0.0234267	0.0239934	0.0239439	0.0240195	0.0241609	0.0240727	0.00126883	67.9616	32.5119	2.38995	-0.639682	0.212662	0.0163941	0.0161429	0.0165756	0.0142679	0.0151671	-0.00633206	
216	1573229630.262696361	-1.21068	-2.0811	-1.69322	-1.54146	0.630228	0.761876	0.0235322	0.0240793	0.0240455	0.0240963	0.024239	0.0240679	0.00269374	67.9643	32.5256	2.39494	-0.639951	0.215058	0.0164933	0.0160647	0.016191	0.0144217	0.0150231	0.0158452	
217	1573229630.271064306	-1.2105	-2.08091	-1.69303	-1.54127	0.630412	0.762058	0.0236528	0.0241639	0.0241398	0.0241793	0.0243148	0.0241481	0.00168482	67.9598	32.5339	2.39601	-0.639934	0.215056	0.01631	0.0165163	0.0164658	0.0145153	0.0148975	0.0155803	
218	1573229630.278698120	-1.21031	-2.08073	-1.69284	-1.54108	0.630599	0.762242	0.0237671	0.0242571	0.024244	0.0242677	0.0244009	0.0242345	0.00175727	67.9591	32.544	2.39718	-0.64007	0.214889	0.0162026	0.0159904	0.0165234	0.0146243	0.0153648	0.0159903	
219	1573229630.286680805	-1.21012	-2.08054	-1.69266	-1.5409	0.630788	0.762427	0.0238909	0.024357	0.0243405	0.0243549	0.0244947	0.0243199	0.00289919	67.9562	32.553	2.39768	-0.640566	0.214502	0.0164748	0.016011	0.016136	0.0140431	0.0151953	0.0152624	
220	1573229630.294696752	-1.20994	-2.08035	-1.69247	-1.54071	0.630979	0.762613	0.024005	0.0244578	0.0244445	0.0244414	0.0245938	0.0244043	0.00153599	67.9535	32.5624	2.3992	-0.640616	0.214578	0.0160158	0.0158827	0.0167907	0.0140995	0.0151493	0.0162794	
221	1573229630.302684471	-1.20974	-2.08016	-1.69228	-1.54052	0.63117	0.7628	0.0241314	0.024561	0.024548	0.0245228	0.0246896	0.0244981	0.00262889	67.9512	32.5721	2.39985	-0.640825	0.214277	0.0163299	0.0158909	0.0161075	0.0141659	0.0155186	0.0157419	
222	1573229630.310669136	-1.20955	-2.07997	-1.69209	-1.54033	0.631361	0.76299	0.0242569	0.0246674	0.0246528	0.0246086	0.0247824	0.0245976	0.00214333	67.9485	32.5814	2.40087	-0.640999	0.214138	0.0161845	0.0156311	0.0166284	0.0140793	0.0154023	0.0155022	
223	1573229630.318691142	-1.20936	-2.07978	-1.6919	-1.54014	0.631552	0.763177	0.0243718	0.0247685	0.0247528	0.024694	0.0248745	0.0246806	0.00251672	67.946	32.591	2.40169	-0.641412	0.213952	0.0162236	0.0155844	0.0163422	0.0139566	0.0150373	0.0158159	
224	1573229630.326671201	-1.20916	-2.07958	-1.69171	-1.53995	0.631748	0.763368	0.024502	0.0248689	0.0248566	0.0247785	0.0249815	0.024776	0.00301605	67.9431	32.6003	2.4026	-0.6416	0.21383	0.016426	0.0154883	0.016479	0.0137797	0.015098	0.0160958	
225	1573229630.334711287	-1.20897	-2.07939	-1.69151	-1.53975	0.631945	0.763561	0.0246296	0.0249741	0.0249584	0.0248706	0.0250878	0.0248796	0.00124433	67.9382	32.6089	2.40381	-0.641421	0.213883	0.0160818	0.0158296	0.0171975	0.0141315	0.0149726	0.0154641	
226	1573229630.342699335	-1.20877	-2.07919	-1.69132	-1.53956	0.632142	0.763755	0.0247622	0.025081	0.0250716	0.0249618	0.0251915	0.0249839	0.00272798	67.9375	32.6195	2.40459	-0.641982	0.21358	0.0163249	0.0153617	0.0165526	0.0138896	0.0149373	0.0162816	
227	1573229630.350688968	-1.20857	-2.079	-1.69112	-1.53936	0.632339	0.76395	0.0249005	0.0251769	0.0251846	0.0250504	0.0252874	0.0250905	0.00218581	67.9349	32.6291	2.40525	-0.642446	0.213285	0.0160738	0.0151903	0.0165459	0.0139309	0.0141439	0.0153007	
228	1573229630.358745341	-1.20837	-2.0788	-1.69093	-1.53917	0.632538	0.764145	0.0250373	0.0252707	0.0252994	0.0251384	0.0253846	0.0251855	0.00254489	67.9317	32.6385	2.40608	-0.642609	0.213175	0.0162853	0.0152126	0.016584	0.0139523	0.0140577	0.015329	
229	1573229630.366752451	-1.20817	-2.07861	-1.69073	-1.53897	0.632737	0.764343	0.0251732	0.0253725	0.0254185	0.0252316	0.0254792	0.0252916	0.00368805	67.9295	32.6486	2.40665	-0.642766	0.213002	0.0167565	0.0151076	0.016013	0.0144512	0.014105	0.0152015	
230	1573229630.374693561	-1.20796	-2.07841	-1.69053	-1.53877	0.632937	0.764543	0.0253305	0.0254718	0.0255368	0.0253331	0.0255753	0.025401	0.00272036	67.9246	32.6579	2.40824	-0.642714	0.212925	0.0163916	0.0157516	0.0161365	0.0139435	0.0147841	0.0153695	
231	1573229630.382661176	-1.20775	-2.07821	-1.69032	-1.53857	0.633138	0.764744	0.0254806	0.0255863	0.0256623	0.0254288	0.0256776	0.0255124	0.00236872	67.9224	32.6682	2.40932	-0.643068	0.212717	0.0161308	0.0155557	0.0160768	0.0138767	0.0145703	0.0154922	
232	1573229630.390690083	-1.20754	-2.078	-1.69012	-1.53837	0.633341	0.764946	0.0256184	0.0256966	0.0257783	0.0255337	0.0257786	0.0256282	0.00243691	67.9193	32.6779	2.41023	-0.643344	0.212585	0.0161909	0.0154468	0.0162962	0.0137713	0.0142426	0.0155832	
233	1573229630.398682938	-1.20734	-2.0778	-1.68991	-1.53817	0.633544	0.76515	0.0257586	0.0258032	0.0259078	0.0256348	0.0258801	0.0257447	0.00244269	67.9169	32.6882	2.41121	-0.643815	0.212248	0.0159803	0.0153287	0.0161216	0.0133238	0.0140824	0.0152638	
234	1573229630.406673353	-1.20713	-2.0776	-1.6897	-1.53797	0.633748	0.765354	0.0259046	0.0259151	0.0260407	0.0257269	0.0259773	0.0258585	0.00365416	67.9134	32.6981	2.41178	-0.643912	0.212148	0.016581	0.01554	0.0155529	0.0137767	0.0140607	0.0152659	
235	1573229630.414661481	-1.20691	-2.07739	-1.6895	-1.53776	0.633952	0.765558	0.0260533	0.0260371	0.026156	0.0258228	0.0260712	0.0259659	0.00298422	67.91	32.708	2.41304	-0.644078	0.21195	0.0163017	0.0154319	0.0160835	0.0133688	0.0142291	0.0149138	
236	1573229630.422695569	-1.2067	-2.07719	-1.68929	-1.53756	0.634156	0.765765	0.0261945	0.0261482	0.0262775	0.0259155	0.0261664	0.0260792	0.00315149	67.9072	32.7183	2.41427	-0.644359	0.211725	0.0161989	0.0154332	0.0159844	0.0128935	0.0145369	0.0152378	
237	1573229630.430688074	-1.20649	-2.07698	-1.68908	-1.53736	0.63436	0.765972	0.0263355	0.0262703	0.0263939	0.0259034	0.0262579	0.026194	0.018361	67.9004	32.7245	2.41516	-0.652783	0.206726	0.0159868	0.0156087	0.0152828	-0.0116023	0.0142891	0.0149169	
238	1573229630.438690376	-1.20628	-2.07676	-1.68887	-1.53715	0.634564	0.766179	0.0264723	0.0263978	0.0264257	0.0259024	0.0263443	0.0263021	0.0181275	67.9252	32.7566	2.41222	-0.650414	0.207493	0.0164139	0.0151358	-0.00429748	0.013656	0.0139423	0.0146887	
239	1573229630.446730787	-1.20606	-2.07655	-1.68866	-1.53694	0.63477	0.766386	0.0266186	0.0265167	0.0264545	0.026003	0.0264338	0.0264016	0.00349907	67.8982	32.7496	2.41708	-0.644967	0.211098	0.0162426	0.0153912	0.0151046	0.0133932	0.0147044	0.0144083	
240	1573229630.454696436	-1.20585	-2.07634	-1.68845	-1.53674	0.634975	0.766593	0.0267544	0.0266327	0.0265632	0.0261095	0.0265228	0.026498	0.00263056	67.8945	32.7598	2.41838	-0.645279	0.210988	0.0158566	0.0154986	0.0152348	0.0131788	0.0143746	0.0148495	
241	1573229630.462668779	-1.20563	-2.07613	-1.68825	-1.53653	0.63518	0.766803	0.0268898	0.0267619	0.0266657	0.026207	0.0266088	0.0266056	0.00354837	67.8919	32.7701	2.41908	-0.645838	0.210654	0.0160602	0.0150696	0.0153648	0.0126267	0.0139598	0.0146756	
242	1573229630.470688829	-1.20541	-2.07591	-1.68804	-1.53632	0.635387	0.767011	0.0270292	0.0268877	0.0267738	0.0261982	0.0266939	0.0267015	0.0188623	67.8842	32.776	2.42023	-0.653923	0.205828	0.016076	0.0153104	0.0151843	-0.0118869	0.0142844	0.0148241	
243	1573229630.478697305	-1.20519	-2.0757	-1.68783	-1.53611	0.635596	0.76722	0.0271592	0.0270093	0.0268785	0.0261967	0.0267865	0.0268003	0.00328247	67.8839	32.7908	2.42131	-0.646121	0.210332	0.015946	0.0155635	0.0148592	0.0126365	0.0143044	0.0144927	
244	1573229630.486701979	-1.20497	-2.07548	-1.68761	-1.53591	0.635804	0.767431	0.0272991	0.0271298	0.0268894	0.02629	0.0268723	0.0268976	0.0188548	67.908	32.8209	2.41852	-0.652407	0.205833	0.0157132	0.0149086	-0.0065516	0.0128369	0.0144336	0.0140543	
245	1573229630.494689342	-1.20475	-2.07526	-1.68741	-1.5357	0.636014	0.767643	0.0274297	0.0272449	0.0268913	0.0263869	0.0269666	0.0269105	0.00280873	67.8748	32.8084	2.41907	-0.646516	0.20737	0.0160058	0.0149176	0.014391	0.0132433	0.0145984	-0.00738502	
246	1573229630.502687562	-1.20453	-2.07505	-1.6872	-1.53549	0.636226	0.767854	0.0275527	0.0273568	0.0268701	0.026491	0.0270664	0.0269194	0.0226884	67.9056	32.8457	2.42003	-0.654034	0.204638	0.0157775	0.0152843	-0.0116844	0.0125649	0.014989	0.0147739	
247	1573229630.510706851	-1.20432	-2.07483	-1.68699	-1.53528	0.63644	0.768065	0.0276701	0.0274825	0.0268611	0.0264954	0.0271729	0.0270192	0.0150704	67.8684	32.8295	2.42587	-0.65375	0.205605	0.0152854	0.0149702	0.0149615	-0.00802383	0.0145351	0.0143985	
248	1573229630.518685262	-1.20409	-2.07461	-1.68678	-1.53507	0.636652	0.768278	0.0277094	0.0275988	0.0269605	0.0265011	0.0272674	0.0271198	-0.0389684	67.8826	32.8585	2.43918	-0.648763	0.208445	-0.00462415	0.0147998	0.0147611	0.0127692	0.0142578	0.0141999	
249	1573229630.526697104	-1.20387	-2.07439	-1.68657	-1.53486	0.636871	0.76849	0.0277451	0.027721	0.027051	0.0265972	0.0273802	0.0272107	0.00203534	67.8623	32.8531	2.42769	-0.647504	0.209334	0.0154164	0.0151909	0.0152967	0.0124802	0.0137184	0.0141926	
250	1573229630.534694406	-1.20366	-2.07416	-1.68636	-1.53465	0.637087	0.768703	0.0278533	0.0278388	0.0271497	0.0266863	0.0274767	0.0273052	0.00225809	67.862	32.8654	2.42874	-0.647865	0.209045	0.015212	0.0144955	0.0145438	0.0131332	0.0138354	0.014576	
251	1573229630.542640671	-1.20344	-2.07394	-1.68614	-1.53443	0.637302	0.768915	0.0279617	0.0279495	0.0272548	0.0267875	0.0275681	0.0273917	0.00153351	67.8575	32.8752	2.42997	-0.64785	0.209004	0.0151453	0.0143984	0.0154955	0.013015	0.0138593	0.0143643	
252	1573229630.550750788	-1.20322	-2.07372	-1.68593	-1.53422	0.637523	0.76913	0.0280655	0.0280604	0.0273619	0.0268826	0.0276766	0.027486	0.00187299	67.8543	32.8862	2.4309	-0.648271	0.20877	0.0151285	0.0144035	0.0149066	0.0130565	0.0135748	0.0146254	
253	1573229630.559011039	-1.203	-2.0735	-1.68571	-1.53401	0.637742	0.769346	0.0281595	0.028161	0.027473	0.0269785	0.027773	0.0275852	0.00170278	67.8497	32.896	2.43187	-0.648533	0.208664	0.0152026	0.0143158	0.0156889	0.0126589	0.0130871	0.0145405	
254	1573229630.566706615	-1.20278	-2.07328	-1.6855	-1.53379	0.637959	0.769563	0.0282589	0.0282566	0.0275726	0.0270717	0.0277662	0.0276864	0.000514133	67.8414	32.9018	2.42567	-0.655578	0.208297	0.0149526	0.0144373	0.0140874	0.0128846	-0.00894123	0.0148318	
255	1573229630.574659878	-1.20256	-2.07306	-1.68528	-1.53358	0.638175	0.769782	0.0283551	0.0283488	0.0275857	0.0271614	0.0277623	0.0277949	0.0170848	67.8686	32.9364	2.43022	-0.65491	0.204096	0.0150154	0.0139805	-0.00569277	0.0129114	0.0131717	0.014206	
256	1573229630.582661492	-1.20234	-2.07283	-1.68506	-1.53336	0.638394	0.770002	0.0284419	0.0283478	0.0276161	0.0272572	0.0278514	0.0278945	0.0182601	67.9207	32.9572	2.43163	-0.65591	0.203018	0.0148227	-0.0098395	0.0149394	0.0132831	0.0134312	0.0143748	
257	1573229630.590663460	-1.20212	-2.07261	-1.68484	-1.53315	0.638612	0.770222	0.0284501	0.0283445	0.027726	0.0273531	0.027939	0.0279971	-0.0401733	67.8523	32.9548	2.44873	-0.65116	0.206798	-0.00546833	0.013707	0.0149397	0.0128381	0.0131029	0.0140952	
258	1573229630.598660460	-1.2019	-2.07239	-1.68462	-1.53293	0.638831	0.770443	0.0284578	0.0283284	0.0278349	0.0274536	0.0280232	0.0280935	0.0185264	67.9161	32.9794	2.43386	-0.656639	0.202476	0.0145776	-0.0106527	0.014982	0.0129299	0.0135012	0.0145206	
259	1573229630.606667247	-1.20167	-2.07217	-1.6844	-1.53271	0.639052	0.770665	0.0285464	0.0282305	0.027943	0.0275455	0.0281154	0.0281976	0.0170308	67.9005	32.9857	2.43502	-0.655981	0.202999	0.014975	-0.00703972	0.0145621	0.0129506	0.0131969	0.0143319	
260	1573229630.614695804	-1.20145	-2.07195	-1.68418	-1.53249	0.639272	0.770888	0.028631	0.0281224	0.0280604	0.0276428	0.0282012	0.0282983	0.0201852	67.918	33.0038	2.43565	-0.657774	0.201484	0.0144469	-0.0134507	0.015162	0.0127762	0.0137307	0.0138342	
261	1573229630.622690959	-1.20123	-2.07173	-1.68396	-1.53227	0.639495	0.771112	0.0286324	0.0281015	0.0281748	0.0277433	0.0282954	0.028399	-0.039631	67.8397	32.9982	2.4529	-0.652176	0.206018	-0.00549399	0.0133357	0.0144768	0.0129729	0.0130809	0.014112	
262	1573229630.630658578	-1.20101	-2.07152	-1.68373	-1.53205	0.639716	0.771337	0.0286339	0.0281746	0.0282956	0.0278411	0.0283773	0.0284995	0.000988217	67.821	32.9935	2.44159	-0.650669	0.206859	0.014465	0.013489	0.0149609	0.0130172	0.0131085	0.0137573	
263	1573229630.638666073	-1.20079	-2.0713	-1.6835	-1.53183	0.639939	0.771559	0.0287111	0.0282596	0.028409	0.0279435	0.0284665	0.0285867	0.000947824	67.8179	33.0046	2.44286	-0.650955	0.206619	0.0142752	0.0135443	0.0146293	0.0128028	0.0133305	0.0139747	
264	1573229630.646676217	-1.20057	-2.07108	-1.68328	-1.5316	0.640162	0.771785	0.0287884	0.0283355	0.0285174	0.0280425	0.0285499	0.028685	0.00134123	67.8163	33.0159	2.44364	-0.651359	0.206346	0.0143287	0.0129781	0.0144881	0.0130827	0.0129648	0.0138127	
265	1573229630.654656714	-1.20035	-2.07086	-1.68305	-1.53138	0.640386	0.77201	0.0288649	0.028409	0.0286277	0.0281501	0.0286343	0.0287766	0.000916662	67.811	33.026	2.44483	-0.651413	0.206246	0.0142843	0.0134909	0.0145433	0.0129401	0.013053	0.0135961	
266	1573229630.662654024	-1.20013	-2.07064	-1.68282	-1.53115	0.640611	0.772236	0.0289424	0.0284854	0.0287383	0.0282486	0.0287228	0.0288668	0.00182426	67.8091	33.0374	2.44567	-0.651841	0.205911	0.0144376	0.0131362	0.0140849	0.0129058	0.0130266	0.0135403	
267	1573229630.670672745	-1.19991	-2.07042	-1.6826	-1.53093	0.640838	0.772462	0.0290111	0.0285552	0.0288367	0.0283503	0.0288116	0.0289514	0.000362822	67.8061	33.0484	2.44725	-0.651936	0.205784	0.0138266	0.013047	0.0143817	0.0129955	0.0132143	0.0136195	
268	1573229630.678661311	-1.19969	-2.0702	-1.68237	-1.5307	0.641063	0.772688	0.029082	0.0286288	0.0289348	0.0284474	0.0288965	0.0290369	0.00111575	67.8016	33.0586	2.44807	-0.652298	0.205566	0.0141127	0.0132592	0.0142467	0.0125881	0.0129359	0.0135645	
269	1573229630.686663022	-1.19946	-2.06997	-1.68214	-1.53048	0.641289	0.772914	0.0291617	0.0287083	0.0290344	0.0285443	0.0289741	0.0291168	0.00129805	67.7997	33.0705	2.44909	-0.652674	0.205292	0.0139766	0.0130725	0.0134828	0.0129422	0.0128639	0.0137301	
270	1573229630.694657152	-1.19923	-2.06975	-1.68191	-1.53025	0.641516	0.773141	0.029241	0.02879	0.0290163	0.0286386	0.0290572	0.0292038	0.0214677	67.8266	33.1043	2.4454	-0.660307	0.19991	0.0142495	0.0130178	-0.012784	0.0125733	0.0130517	0.0136679	
271	1573229630.702996673	-1.19901	-2.06953	-1.68169	-1.53002	0.641742	0.773369	0.0293173	0.0288637	0.0290049	0.0287357	0.0291335	0.0292874	0.00111233	67.7918	33.0918	2.45149	-0.652901	0.205014	0.0139819	0.0130667	0.0139164	0.0127537	0.0132341	0.013797	
272	1573229630.710663246	-1.19878	-2.0693	-1.68146	-1.52979	0.64197	0.773598	0.0293919	0.0289358	0.0291018	0.0288338	0.0292173	0.0293746	0.000202615	67.79	33.1033	2.45275	-0.653261	0.204693	0.0134367	0.0125729	0.0140008	0.0128156	0.0131357	0.0133453	
273	1573229630.718669576	-1.19856	-2.06908	-1.68123	-1.52956	0.642198	0.773827	0.0293728	0.0290104	0.0291905	0.0289292	0.0292999	0.0294552	-0.0424129	67.8002	33.1294	2.46673	-0.655299	0.203599	-0.00742979	0.012955	0.0135394	0.0126709	0.0126654	0.013846	
274	1573229630.726660992	-1.19833	-2.06885	-1.681	-1.52933	0.642427	0.774056	0.0293608	0.0290858	0.0292728	0.0290227	0.0293786	0.0295392	0.00091944	67.7807	33.1241	2.45486	-0.653892	0.204278	0.0136283	0.0129808	0.0139994	0.0118149	0.0130016	0.0134691	
275	1573229630.734663783	-1.19811	-2.06863	-1.68077	-1.5291	0.64266	0.774288	0.0294287	0.0291672	0.0293695	0.028995	0.0294704	0.0296252	0.0179596	67.7728	33.1302	2.45593	-0.66319	0.198765	0.0135664	0.0130146	0.0138246	-0.0156988	0.012842	0.0133175	
276	1573229630.742665408	-1.19788	-2.0684	-1.68054	-1.52887	0.642892	0.77452	0.0294966	0.0292433	0.029456	0.0289687	0.029557	0.0297118	0.000809811	67.7739	33.1463	2.45658	-0.654077	0.204096	0.0138792	0.01282	0.013597	0.0133322	0.0124935	0.0131617	
277	1573229630.750680023	-1.19765	-2.06817	-1.68031	-1.52864	0.643124	0.774754	0.0295756	0.0293208	0.0295453	0.0290639	0.029637	0.0298014	0.000978195	67.7698	33.1571	2.45778	-0.654514	0.203827	0.0137734	0.012891	0.0135921	0.0126222	0.0124173	0.0134109	
278	1573229630.758655406	-1.19743	-2.06794	-1.68008	-1.52841	0.643355	0.774989	0.0296535	0.029404	0.0296337	0.0291583	0.0297099	0.029894	0.00154041	67.7666	33.1685	2.45882	-0.654848	0.203543	0.0138356	0.0128162	0.0131686	0.0125038	0.0125306	0.0134693	
279	1573229630.766701887	-1.1972	-2.06771	-1.67985	-1.52818	0.643588	0.775226	0.0297342	0.0294885	0.0296302	0.0292508	0.0297911	0.0299906	0.0179095	67.788	33.1983	2.456	-0.661099	0.199135	0.014073	0.012491	-0.00795601	0.0123317	0.0125776	0.0133725	
280	1573229630.774725242	-1.19696	-2.06748	-1.67961	-1.52795	0.643822	0.775463	0.0298268	0.0295723	0.0296368	0.0293437	0.0298741	0.0300815	0.00132663	67.759	33.1908	2.46112	-0.655076	0.203175	0.0137773	0.0127166	0.0131493	0.0127623	0.0129372	0.0130872	
281	1573229630.782679042	-1.19673	-2.06725	-1.67938	-1.52772	0.644061	0.775701	0.0299156	0.0296513	0.0297186	0.0294387	0.0299745	0.0301762	0.00125817	67.7547	33.2014	2.4623	-0.65545	0.202998	0.013703	0.0126589	0.0134977	0.0122431	0.0126349	0.0134625	
282	1573229630.790667929	-1.19649	-2.06701	-1.67915	-1.52748	0.644295	0.775937	0.0299996	0.029737	0.0298023	0.0295255	0.0300509	0.0302603	0.00109321	67.75	33.212	2.46319	-0.655554	0.20285	0.0138089	0.0126973	0.0136917	0.0124825	0.0124167	0.0128514	
283	1573229630.798651966	-1.19626	-2.06678	-1.67892	-1.52725	0.644532	0.776174	0.0300885	0.0298188	0.0298864	0.0296155	0.0301376	0.0303404	0.000680565	67.7461	33.2232	2.46442	-0.655875	0.20265	0.0135594	0.0127294	0.0135924	0.0123691	0.0122319	0.0130189	
284	1573229630.806676544	-1.19602	-2.06654	-1.67868	-1.52701	0.64477	0.776411	0.0301762	0.0299023	0.0299713	0.0297057	0.0302178	0.0304223	0.000478765	67.7414	33.234	2.46556	-0.65592	0.202599	0.0136369	0.012828	0.0137852	0.0125876	0.012191	0.0131936	
285	1573229630.814655393	-1.19578	-2.06631	-1.67845	-1.52678	0.645008	0.77665	0.0302759	0.0299901	0.0300616	0.0297959	0.0303008	0.030506	0.00033009	67.7382	33.2457	2.46692	-0.656211	0.202308	0.0133719	0.0126773	0.0136488	0.0123094	0.0125131	0.0132855	
286	1573229630.822656919	-1.19554	-2.06607	-1.67822	-1.52654	0.645244	0.776887	0.0303707	0.0300748	0.030141	0.0298901	0.0303732	0.0305852	-5.06929e-05	67.7331	33.2565	2.46789	-0.656193	0.202274	0.0134717	0.0129116	0.0136134	0.0129497	0.0122932	0.0130417	
287	1573229630.830664961	-1.1953	-2.06583	-1.67798	-1.5263	0.645482	0.777126	0.0304714	0.0301647	0.0302267	0.0299898	0.0304527	0.0306654	-0.000198457	67.7284	33.2673	2.46901	-0.656463	0.201972	0.0133606	0.0130008	0.0137112	0.0125331	0.0123395	0.0123882	
288	1573229630.838680866	-1.19506	-2.0656	-1.67774	-1.52606	0.645722	0.777365	0.0305653	0.0302582	0.0303114	0.030089	0.0305327	0.0306432	-0.00183285	67.7195	33.2742	2.46572	-0.65664	0.199036	0.0130986	0.0129408	0.0136724	0.0126482	0.0122747	-0.011201	
289	1573229630.846691370	-1.19482	-2.06535	-1.6775	-1.52582	0.64596	0.777604	0.0306566	0.0303593	0.0304072	0.0301783	0.0306069	0.0305374	-0.00169391	67.7152	33.2857	2.46742	-0.6565	0.199165	0.0132504	0.0129809	0.0139893	0.0126954	0.0129696	-0.00928133	
290	1573229630.854653731	-1.19458	-2.06511	-1.67726	-1.52558	0.646202	0.77784	0.0307431	0.0304546	0.0305053	0.0302707	0.0306975	0.0305174	-0.000621811	67.7156	33.3015	2.47262	-0.657041	0.201447	0.0131476	0.0130661	0.0135591	0.0125552	0.0124331	0.0126933	
291	1573229630.862661854	-1.19434	-2.06487	-1.67702	-1.52534	0.646446	0.77808	0.0308365	0.030558	0.0305971	0.0303646	0.0307886	0.0306016	-0.000298422	67.711	33.3125	2.47367	-0.657237	0.201257	0.0133251	0.0129902	0.0138308	0.0123388	0.0124271	0.0125858	
292	1573229630.870696633	-1.19409	-2.06462	-1.67678	-1.5251	0.64669	0.77832	0.0309303	0.0306676	0.0306933	0.0304643	0.030876	0.0306794	0.000183991	67.7077	33.3248	2.47484	-0.657514	0.200912	0.0132906	0.0128711	0.0131981	0.0123538	0.0128615	0.012471	
293	1573229630.878695503	-1.19385	-2.06438	-1.67654	-1.52485	0.646932	0.77856	0.0310253	0.0307772	0.0307786	0.0305658	0.0309578	0.0307563	-0.000295774	67.7026	33.3359	2.47593	-0.657717	0.200809	0.0132292	0.0129531	0.0134106	0.0124877	0.0124208	0.0124515	
294	1573229630.886678556	-1.1936	-2.06413	-1.6763	-1.52461	0.647178	0.778798	0.0311159	0.0308856	0.0308731	0.0306618	0.0310513	0.0308248	-0.000117239	67.6993	33.3482	2.47693	-0.658311	0.20043	0.0130318	0.0127559	0.0128628	0.0123353	0.0119971	0.0123767	
295	1573229630.894664681	-1.19336	-2.06388	-1.67605	-1.52436	0.647427	0.779039	0.0312115	0.0309876	0.0309675	0.0307608	0.0311451	0.0308982	8.41748e-05	67.6955	33.3599	2.47806	-0.658392	0.200236	0.0131442	0.0124857	0.012976	0.0125447	0.0122692	0.012216	
296	1573229630.902688473	-1.19311	-2.06363	-1.67581	-1.52412	0.647674	0.77928	0.0313087	0.0310855	0.0310614	0.0308547	0.0312364	0.0309726	0.00032019	67.6915	33.3718	2.4793	-0.658649	0.200008	0.013127	0.0124646	0.0127401	0.0124256	0.0124463	0.0124997	
297	1573229630.910724369	-1.19286	-2.06338	-1.67556	-1.52387	0.647919	0.779522	0.0314064	0.0311839	0.031144	0.0309517	0.031314	0.0310461	0.000143781	67.6871	33.3835	2.48029	-0.658994	0.199829	0.0130628	0.012459	0.0124826	0.0127086	0.0118883	0.0125468	
298	1573229630.918678385	-1.19261	-2.06313	-1.67532	-1.52363	0.648168	0.779764	0.0315092	0.0312827	0.0312182	0.0310492	0.0314016	0.0311222	0.000184439	67.6824	33.3951	2.48141	-0.6595	0.199465	0.012873	0.0125448	0.0122127	0.0121624	0.0116628	0.0122881	
299	1573229630.926716218	-1.19236	-2.06289	-1.67508	-1.52338	0.648417	0.78001	0.0315998	0.0313745	0.0311884	0.031138	0.0314827	0.0312058	0.0182476	67.7076	33.4293	2.47826	-0.666818	0.194282	0.0125929	0.0123618	-0.0130294	0.0123001	0.0117396	0.0120374	
300	1573229630.934670410	-1.19211	-2.06264	-1.67483	-1.52313	0.648665	0.780255	0.0316937	0.0314653	0.0310634	0.0312211	0.0315598	0.0312834	0.0173187	67.7015	33.44	2.47972	-0.666615	0.194374	0.0125839	0.0124658	-0.0120311	0.0124699	0.0118877	0.0122818	
301	1573229630.942731599	-1.19186	-2.06239	-1.67459	-1.52289	0.648912	0.780502	0.0317796	0.0315548	0.0310331	0.0313094	0.0316335	0.0313642	-0.0004619	67.669	33.4301	2.485	-0.660223	0.198824	0.012502	0.012419	0.0120542	0.0122104	0.0115876	0.0121353	
302	1573229630.950674989	-1.19161	-2.06214	-1.67435	-1.52264	0.649161	0.780747	0.0318624	0.0316442	0.0310992	0.0314017	0.0317083	0.0314397	-0.000599921	67.6647	33.4418	2.48618	-0.660428	0.198638	0.012436	0.012302	0.0120182	0.0123653	0.0115492	0.0121892	
303	1573229630.958683278	-1.19136	-2.06188	-1.67411	-1.52239	0.649412	0.78099	0.0319448	0.0317354	0.0311648	0.0314879	0.0317886	0.031501	-0.00152574	67.6589	33.4528	2.48754	-0.660415	0.198538	0.0122339	0.0124158	0.0125663	0.0123814	0.0116537	0.0118617	
304	1573229630.966675998	-1.19111	-2.06163	-1.67387	-1.52214	0.649661	0.781238	0.0319296	0.0318272	0.0312396	0.0315749	0.0318593	0.0315773	-0.0456306	67.6698	33.4806	2.50217	-0.662605	0.19731	-0.00969505	0.012364	0.0124411	0.0123913	0.0115242	0.0117864	
305	1573229630.974663363	-1.19086	-2.06138	-1.67362	-1.52189	0.64991	0.781487	0.0319075	0.0319209	0.0313177	0.0316648	0.0319269	0.0316563	-0.00111935	67.6498	33.4761	2.48992	-0.661075	0.198024	0.0121782	0.0122173	0.0125617	0.0117797	0.0116665	0.0120465	
306	1573229630.982673935	-1.19061	-2.06112	-1.67338	-1.52164	0.650159	0.781734	0.0319763	0.0320154	0.0313929	0.0317474	0.0319936	0.0317274	-0.002131	67.6451	33.4881	2.49126	-0.661131	0.197872	0.0118266	0.0122426	0.0124891	0.0122895	0.0117279	0.0117443	
307	1573229630.990729904	-1.19036	-2.06087	-1.67313	-1.52139	0.650408	0.781982	0.0319483	0.0321092	0.0314664	0.0318342	0.0320589	0.0317969	-0.0503896	67.658	33.5181	2.50739	-0.663429	0.196488	-0.0123182	0.0121219	0.0121637	0.0123282	0.0121913	0.0116336	
308	1573229630.998688260	-1.19012	-2.06061	-1.67289	-1.52113	0.650659	0.78223	0.0318275	0.0321906	0.0315387	0.0319239	0.0321335	0.0318662	-0.0420386	67.6505	33.5264	2.5059	-0.663371	0.196482	-0.00814959	0.0118094	0.0126363	0.0121891	0.0118726	0.0115454	
309	1573229631.006697052	-1.18987	-2.06036	-1.67264	-1.52088	0.65091	0.78248	0.0318143	0.0321834	0.0316211	0.032007	0.0322056	0.0319354	0.0137784	67.7048	33.5491	2.49145	-0.668306	0.192411	0.0116734	-0.0102584	0.0121981	0.0120084	0.0118337	0.0116529	
310	1573229631.014659838	-1.18962	-2.06011	-1.67239	-1.52063	0.651164	0.78273	0.0318776	0.0320849	0.0316929	0.0320909	0.0322825	0.0320084	0.013866	67.7023	33.5616	2.4926	-0.668716	0.192066	0.0115096	-0.0110439	0.0123851	0.0119843	0.0117953	0.0115422	
311	1573229631.022688812	-1.18937	-2.05986	-1.67214	-1.52037	0.651416	0.782978	0.0319431	0.0319605	0.0317853	0.0321793	0.0323536	0.0320651	0.0172893	67.7105	33.5776	2.49294	-0.670116	0.190974	0.0117659	-0.0150222	0.012303	0.0118633	0.0117215	0.011293	
312	1573229631.030686216	-1.18912	-2.05961	-1.67189	-1.52012	0.65167	0.783224	0.0320111	0.0319085	0.0318715	0.0322583	0.0324238	0.0321156	-0.00156412	67.621	33.5599	2.49818	-0.663036	0.196225	0.0113739	0.0110344	0.0119198	0.0119376	0.0116684	0.0112664	
313	1573229631.038682565	-1.18887	-2.05936	-1.67164	-1.51987	0.651926	0.783474	0.0320738	0.0318707	0.0319443	0.0323372	0.0325035	0.0321772	0.0148434	67.6938	33.5981	2.49596	-0.669866	0.19111	0.0113932	-0.0127628	0.0126001	0.0116878	0.0117667	0.0115647	
314	1573229631.046703708	-1.18863	-2.05912	-1.67139	-1.51961	0.65218	0.783724	0.0321319	0.0317444	0.0320279	0.0324085	0.0325752	0.0322389	0.0142353	67.6835	33.6081	2.4971	-0.669883	0.191127	0.0114283	-0.0106857	0.0115447	0.0116301	0.011455	0.0114198	
315	1573229631.054714539	-1.18838	-2.05887	-1.67114	-1.51936	0.652438	0.783975	0.0321858	0.0317091	0.0321082	0.0324813	0.0326539	0.0322997	-0.00173866	67.6074	33.5944	2.50174	-0.663779	0.195635	0.0112564	0.0109177	0.0122322	0.0115754	0.0114384	0.0114468	
316	1573229631.062666162	-1.18813	-2.05863	-1.67088	-1.5191	0.652691	0.784227	0.0322442	0.0317645	0.0321833	0.0325455	0.0327131	0.032366	-0.00166612	67.6033	33.6062	2.50261	-0.664269	0.195357	0.011189	0.0109054	0.0117614	0.0116931	0.010775	0.0113379	
317	1573229631.070694878	-1.18788	-2.05838	-1.67063	-1.51885	0.652946	0.784478	0.0322947	0.0318107	0.0322493	0.0326104	0.032669	0.0324237	-0.00422378	67.5928	33.6109	2.49551	-0.671842	0.195244	0.0110618	0.0105136	0.0119467	0.0119185	-0.0145911	0.0114425	
318	1573229631.078715599	-1.18763	-2.05814	-1.67038	-1.5186	0.653198	0.78473	0.0323474	0.031858	0.0323169	0.0326715	0.0326187	0.0324872	-0.00174438	67.5954	33.6296	2.50481	-0.66497	0.194798	0.0109488	0.0106895	0.0113862	0.0116268	0.0104137	0.0110798	
319	1573229631.086688695	-1.18738	-2.05789	-1.67013	-1.51834	0.653452	0.784983	0.0323231	0.0319105	0.0323954	0.0327352	0.0325684	0.0325476	-0.0442956	67.5979	33.6486	2.50965	-0.674801	0.193712	-0.00919773	0.0105141	0.0115076	0.0114449	-0.0161255	0.011009	
320	1573229631.095233075	-1.18713	-2.05764	-1.66987	-1.51809	0.653704	0.785237	0.0322904	0.0319677	0.032474	0.0327894	0.032511	0.0326096	-0.0021616	67.5855	33.6525	2.5073	-0.665262	0.194494	0.010873	0.0108732	0.0116314	0.011569	0.0104545	0.0111838	
321	1573229631.102692687	-1.18688	-2.05739	-1.66961	-1.51784	0.653955	0.78549	0.0323454	0.0320208	0.0325549	0.0328519	0.0325589	0.0326674	-0.00239565	67.5831	33.6651	2.5085	-0.665584	0.194179	0.0105875	0.0104281	0.0113134	0.0118905	0.0104893	0.0110744	
322	1573229631.110653376	-1.18663	-2.05715	-1.66936	-1.51758	0.654204	0.785744	0.0323143	0.0320685	0.0326345	0.0329113	0.0325996	0.0327264	-0.0432009	67.594	33.6924	2.52218	-0.668042	0.192887	-0.0101144	0.0102241	0.0109542	0.0116665	0.0100781	0.0110758	
323	1573229631.118668179	-1.18638	-2.0569	-1.6691	-1.51733	0.654453	0.785998	0.0322805	0.0321155	0.0325947	0.0329709	0.0325406	0.0327823	0.0148656	67.5965	33.7044	2.49849	-0.680391	0.188664	0.0105969	0.010454	-0.0146324	0.0113664	-0.0132795	0.0108389	
324	1573229631.126696164	-1.18613	-2.05665	-1.66885	-1.51707	0.654703	0.786252	0.0323269	0.0321575	0.0324577	0.0330299	0.0324861	0.0328359	0.0149556	67.5967	33.7213	2.50787	-0.673224	0.188784	0.0102874	0.0105042	-0.01298	0.0116828	0.0101718	0.0109354	
325	1573229631.134664034	-1.18588	-2.0564	-1.66859	-1.51682	0.654953	0.786507	0.0323764	0.0322085	0.0324213	0.0330905	0.0325287	0.0328922	-0.00171322	67.5653	33.7119	2.51306	-0.666837	0.193108	0.0104743	0.0104378	0.0105343	0.0112858	0.0104478	0.0108947	
326	1573229631.142714854	-1.18563	-2.05615	-1.66834	-1.51656	0.655201	0.786761	0.0324252	0.0322595	0.0323876	0.0331419	0.0325637	0.0329448	0.0140761	67.5841	33.7422	2.51035	-0.673213	0.188689	0.010467	0.010721	-0.0112093	0.0112597	0.0100795	0.0107236	
327	1573229631.151084990	-1.18538	-2.0559	-1.66809	-1.51631	0.655452	0.787017	0.0324716	0.0323107	0.0323515	0.03319	0.0326067	0.032998	-0.00284555	67.5549	33.7344	2.51546	-0.666976	0.192936	0.0103375	0.0104273	0.0112133	0.0117971	0.0101575	0.0108267	
328	1573229631.158676804	-1.18513	-2.05566	-1.66784	-1.51605	0.655704	0.787274	0.0325172	0.0323548	0.0324083	0.0332443	0.032653	0.0330586	-0.00170205	67.5512	33.7464	2.51644	-0.667484	0.192492	0.0104768	0.0102779	0.010601	0.0113003	0.0103309	0.0107738	
329	1573229631.166668732	-1.18488	-2.05541	-1.66759	-1.51579	0.655957	0.787532	0.0325692	0.032401	0.0324605	0.0333014	0.032703	0.0331176	-0.00231993	67.5448	33.7571	2.5176	-0.667443	0.192529	0.0105349	0.0106458	0.0108679	0.0117086	0.0100404	0.0109491	
330	1573229631.174696280	-1.18463	-2.05515	-1.66734	-1.51554	0.65621	0.78779	0.0326265	0.0324604	0.0325226	0.033358	0.0327505	0.0331765	-0.00223045	67.5398	33.7683	2.5187	-0.667712	0.192256	0.0105776	0.0104061	0.0114145	0.011258	0.00997353	0.0105518	
331	1573229631.182678351	-1.18437	-2.0549	-1.66708	-1.51528	0.656462	0.788049	0.0326837	0.0325151	0.0325985	0.0334124	0.0327896	0.0332358	-0.00211242	67.5345	33.78	2.51961	-0.667759	0.192093	0.0107454	0.0107209	0.0108002	0.0119349	0.00994176	0.010142	
332	1573229631.190675566	-1.18412	-2.05465	-1.66682	-1.51502	0.656715	0.788308	0.0327464	0.0325695	0.0326659	0.03358	0.0328334	0.0332902	-0.017778	67.5332	33.7955	2.52089	-0.659939	0.196627	0.0104884	0.010522	0.0115518	0.0359333	0.00990396	0.0101619	
333	1573229631.198675762	-1.18386	-2.05439	-1.66656	-1.51475	0.65697	0.788568	0.0328111	0.0326246	0.0328402	0.0337472	0.0328816	0.0333432	-0.018245	67.5003	33.7838	2.52592	-0.662081	0.19596	0.0106539	0.0105395	0.0330709	0.0113791	0.00994427	0.010621	
334	1573229631.206722318	-1.1836	-2.05414	-1.6663	-1.51449	0.657225	0.788826	0.0328784	0.0326894	0.0330064	0.0338138	0.0329294	0.0333931	-0.00204045	67.5205	33.8149	2.52323	-0.668652	0.191265	0.0105483	0.0103239	0.0113616	0.0108867	0.00989259	0.00983744	
335	1573229631.214707973	-1.18334	-2.05388	-1.66604	-1.51423	0.657483	0.789083	0.0329409	0.032749	0.0330829	0.0338713	0.0329835	0.0333352	-0.0027204	67.5101	33.822	2.51955	-0.668981	0.188153	0.0106013	0.0105611	0.0108329	0.0106677	0.00961144	-0.0143582	
336	1573229631.222678801	-1.18308	-2.05363	-1.66578	-1.51396	0.657742	0.789341	0.0330198	0.0328119	0.0331607	0.0339247	0.0330416	0.0332875	-0.0015402	67.5116	33.8392	2.52544	-0.669436	0.190725	0.0104787	0.010305	0.0105423	0.0107685	0.00947572	0.0103088	
337	1573229631.230682751	-1.18282	-2.05337	-1.66552	-1.5137	0.657999	0.789599	0.033088	0.0328792	0.0332361	0.033974	0.0330896	0.0333363	-0.00204549	67.5056	33.8507	2.52672	-0.669549	0.190615	0.0103945	0.0105389	0.0107459	0.0107719	0.00935385	0.0103756	
338	1573229631.238693857	-1.18256	-2.05311	-1.66526	-1.51344	0.658257	0.789857	0.0331584	0.0329417	0.0333057	0.0340262	0.0331355	0.0333843	-0.00123157	67.5005	33.8623	2.52776	-0.669708	0.1903	0.010695	0.0104633	0.010784	0.0104588	0.00975635	0.00991458	
339	1573229631.246744579	-1.1823	-2.05285	-1.66499	-1.51317	0.658514	0.790118	0.0332315	0.0330073	0.0333783	0.0340859	0.0331808	0.0334396	-0.00202773	67.496	33.8744	2.52898	-0.670142	0.190124	0.0103337	0.0103206	0.01083	0.010583	0.00900738	0.0102638	
340	1573229631.254696723	-1.18203	-2.05259	-1.66473	-1.51291	0.658769	0.790378	0.0333044	0.03307	0.0334563	0.0341386	0.0331326	0.0334931	-0.00369526	67.4849	33.8804	2.52337	-0.676182	0.189903	0.0104456	0.0103972	0.0106915	0.0104913	-0.0110641	0.00965503	
341	1573229631.262678465	-1.18177	-2.05233	-1.66446	-1.51264	0.659024	0.790639	0.0333804	0.0331367	0.033545	0.0341903	0.0330882	0.0335424	-0.00178999	67.4852	33.8978	2.53135	-0.670432	0.189731	0.0105261	0.0104059	0.0110702	0.0103934	0.00918007	0.0101501	
342	1573229631.270724228	-1.1815	-2.05207	-1.66419	-1.51238	0.659282	0.790901	0.0334568	0.0332064	0.0336306	0.0342383	0.0331341	0.0335961	-0.0015725	67.4806	33.9103	2.53245	-0.670974	0.189246	0.0102929	0.0104862	0.0103394	0.0100003	0.00913021	0.00959687	
343	1573229631.278719081	-1.18123	-2.05181	-1.66392	-1.51211	0.65954	0.791164	0.0335356	0.0332793	0.0337069	0.0342003	0.0331808	0.0336508	0.0120202	67.4732	33.9191	2.53378	-0.678201	0.184849	0.0104126	0.0102451	0.0101979	-0.0113522	0.00944895	0.00973702	
344	1573229631.286694681	-1.18097	-2.05154	-1.66365	-1.51185	0.659798	0.791427	0.033612	0.0333528	0.0337811	0.0341685	0.0332262	0.0337041	-0.00186737	67.4707	33.9347	2.53489	-0.671376	0.188801	0.0101402	0.0104375	0.0101484	0.010205	0.00916775	0.00949443	
345	1573229631.294739365	-1.1807	-2.05128	-1.66339	-1.51158	0.660055	0.791692	0.0336806	0.0334274	0.0338538	0.0342241	0.0332631	0.0337605	-0.00196701	67.4661	33.947	2.53607	-0.671692	0.188575	0.0100585	0.0101964	0.0102317	0.0102239	0.00891708	0.0096437	
346	1573229631.302679425	-1.18043	-2.05101	-1.66312	-1.51131	0.660315	0.791955	0.0337552	0.0335071	0.0339139	0.0342791	0.0333117	0.0338103	-0.00189076	67.4601	33.9587	2.53711	-0.67197	0.188372	0.0101286	0.0103595	0.010108	0.010204	0.00857995	0.00960573	
347	1573229631.310705527	-1.18017	-2.05074	-1.66285	-1.51105	0.660573	0.79222	0.0338267	0.0335897	0.033975	0.0343309	0.0333485	0.0338646	-0.00255581	67.4548	33.9708	2.5385	-0.671986	0.188101	0.00988049	0.0102068	0.0104465	0.0102486	0.0090391	0.00884254	
348	1573229631.318704352	-1.1799	-2.05047	-1.66259	-1.51078	0.660834	0.792484	0.0339002	0.0336724	0.0340331	0.0343799	0.0333949	0.0337881	-0.00370823	67.4428	33.9773	2.53396	-0.672248	0.184318	0.00977638	0.0104437	0.00990148	0.00994541	0.00902348	-0.0208077	
349	1573229631.326741688	-1.17963	-2.0502	-1.66232	-1.51051	0.661095	0.792748	0.0339665	0.0337483	0.0339945	0.0344284	0.0334419	0.0337203	0.0151281	67.4711	34.016	2.53694	-0.679498	0.182889	0.00970152	0.00990796	-0.0130586	0.0093725	0.00875975	0.00933403	
350	1573229631.334714064	-1.17936	-2.04993	-1.66205	-1.51024	0.661355	0.793011	0.0340411	0.0338263	0.0339697	0.0343823	0.0334825	0.0337674	0.0134038	67.4355	34.0035	2.54231	-0.681259	0.182397	0.0097426	0.010162	0.00964818	-0.0153722	0.00904395	0.00934631	
351	1573229631.342714351	-1.17909	-2.04966	-1.66179	-1.50998	0.661615	0.793275	0.0341143	0.0338999	0.0339224	0.03432	0.0335262	0.0338195	0.0154654	67.4611	34.0409	2.53925	-0.680077	0.182257	0.00960776	0.00967509	-0.0136146	0.00937889	0.00896238	0.00891934	
352	1573229631.350748068	-1.17881	-2.04939	-1.66153	-1.50971	0.661876	0.793539	0.0341821	0.0339733	0.0338784	0.0343718	0.0335699	0.0338632	-0.00178977	67.4295	34.0325	2.54459	-0.673808	0.186523	0.00939781	0.00977644	0.00934942	0.00911277	0.00911669	0.00903728	
353	1573229631.359246035	-1.17854	-2.04912	-1.66126	-1.50944	0.66214	0.793803	0.0341508	0.0340459	0.0338347	0.0343288	0.033625	0.0339078	-0.0172974	67.4642	34.08	2.55664	-0.690774	0.176074	-0.0147425	0.00973952	-0.0147606	-0.0137443	0.00925959	0.00919766	
354	1573229631.367200172	-1.17828	-2.04885	-1.661	-1.50917	0.662407	0.794067	0.0339847	0.0341119	0.0336869	0.034197	0.0336884	0.0339535	-0.0307166	67.4624	34.096	2.56154	-0.690644	0.176159	-0.0206426	0.00947278	-0.0137447	-0.0115429	0.00933161	0.00908036	
355	1573229631.374779806	-1.17801	-2.04858	-1.66074	-1.50891	0.662674	0.794332	0.0338258	0.0341744	0.0336386	0.0341569	0.0337542	0.0340006	-0.0488431	67.4297	34.0867	2.5629	-0.677336	0.184583	-0.0150336	0.00959372	0.00897201	0.00855902	0.00889086	0.0090648	
356	1573229631.382732153	-1.17775	-2.04831	-1.66048	-1.50864	0.662941	0.794598	0.0336581	0.0342437	0.0336798	0.0340974	0.0338131	0.0340472	-0.044806	67.425	34.0988	2.56769	-0.686289	0.17934	-0.0207095	0.00921265	0.00918006	-0.0160034	0.00880245	0.00918939	
357	1573229631.382732153	-1.1775	-2.04806	-1.66023	-1.50839	0.663195	0.794849	0.0334181	0.034255	0.0336699	0.0339873	0.0338174	0.0340413	-0.058145	67.4229	34.114	2.56806	-0.678409	0.183894	-0.0199514	0.00910345	0.0090419	0.00866381	0.00868891	0.00905649	
358	1573229631.398751874	-1.17724	-2.04779	-1.65996	-1.50813	0.663466	0.795118	0.0332417	0.0343078	0.0337297	0.034031	0.0338906	0.0340995	-0.0534029	67.4163	34.1244	2.56781	-0.678655	0.18368	-0.0177506	0.00890685	0.0089856	0.0082965	0.00844687	0.0091903	
359	1573229631.406766682	-1.17698	-2.04752	-1.6597	-1.50786	0.663736	0.795387	0.0330857	0.0342645	0.0337837	0.0340763	0.0339504	0.0341576	-0.0327998	67.4891	34.1623	2.56404	-0.685754	0.178278	-0.0159031	-0.0161184	0.00954495	0.00813744	0.00823892	0.0088181	
360	1573229631.414692036	-1.17672	-2.04725	-1.65943	-1.50759	0.664008	0.795657	0.0330282	0.0341213	0.0338368	0.0340198	0.034017	0.0342139	0.0271362	67.4581	34.1513	2.55115	-0.690827	0.174891	0.00788662	-0.0142144	0.0088192	-0.0152673	0.00845514	0.00891554	
361	1573229631.422776518	-1.17646	-2.04698	-1.65917	-1.50733	0.664279	0.795925	0.0330688	0.0339764	0.033884	0.0339678	0.0340811	0.0342649	0.0144745	67.4639	34.1696	2.55162	-0.684019	0.178692	0.00794859	-0.0169434	0.00926386	0.00819432	0.00819972	0.00854511	
362	1573229631.430691336	-1.1762	-2.04671	-1.6589	-1.50706	0.66455	0.796196	0.0331132	0.0339201	0.0339343	0.0340087	0.0341368	0.034319	-0.00283694	67.3775	34.1538	2.55669	-0.677219	0.183737	0.00776983	0.00830855	0.00881458	0.00799546	0.00824983	0.00877512	
363	1573229631.438681449	-1.17594	-2.04645	-1.65864	-1.5068	0.66482	0.796469	0.0331522	0.0338726	0.0339929	0.0340454	0.0341914	0.0343807	0.0117797	67.4383	34.188	2.55453	-0.68326	0.179141	0.00805093	-0.0125823	0.00941277	0.00778785	0.00812354	0.00847119	
364	1573229631.446706735	-1.17568	-2.04619	-1.65837	-1.50653	0.665089	0.796739	0.0331966	0.033828	0.0340504	0.0339934	0.0342388	0.0344284	0.0117352	67.3631	34.1732	2.5591	-0.685432	0.178692	0.00785958	0.00813303	0.00902524	-0.015762	0.00816311	0.00855438	
365	1573229631.454729029	-1.17542	-2.04592	-1.6581	-1.50627	0.665359	0.79701	0.0332376	0.0338693	0.0341088	0.0338338	0.0342903	0.0344827	0.0122194	67.3554	34.1837	2.56045	-0.686006	0.178292	0.00786588	0.00847076	0.00974478	-0.0178299	0.00816569	0.00854952	
366	1573229631.462664146	-1.17517	-2.04566	-1.65783	-1.506	0.665631	0.797281	0.0332674	0.0339154	0.0341741	0.0336591	0.0343428	0.0345303	0.0132397	67.3521	34.1969	2.56153	-0.686975	0.177549	0.00755452	0.00812989	0.00866974	-0.0188687	0.00816954	0.00827339	
367	1573229631.470695302	-1.17491	-2.04539	-1.65756	-1.50574	0.665904	0.797552	0.0332961	0.0339489	0.0342366	0.0335894	0.0344009	0.0345767	-0.00305503	67.3494	34.2123	2.56268	-0.678253	0.18255	0.00763109	0.00820928	0.00948726	0.00712277	0.00846648	0.00826742	
368	1573229631.478723489	-1.17465	-2.04513	-1.65729	-1.50548	0.666175	0.797825	0.0333288	0.0339853	0.0343014	0.0335399	0.0344546	0.0346262	0.0095549	67.3425	34.2216	2.56379	-0.685432	0.178261	0.00753389	0.00788801	0.00891476	-0.0129613	0.00807639	0.00825989	
369	1573229631.486743242	-1.17439	-2.04487	-1.65701	-1.50522	0.666447	0.798097	0.033364	0.0339387	0.0343601	0.0334955	0.0345036	0.0346738	0.0115123	67.406	34.2599	2.5617	-0.684985	0.177504	0.00741791	-0.0125468	0.00857172	0.00699558	0.00804109	0.00829121	
370	1573229631.494666796	-1.17413	-2.0446	-1.65674	-1.50495	0.666718	0.79837	0.0334012	0.0338911	0.0344145	0.0335276	0.034546	0.0347223	-0.00256865	67.3339	34.2486	2.56602	-0.67911	0.18176	0.00758196	0.00811199	0.00877915	0.00709339	0.0082923	0.0084117	
371	1573229631.502712815	-1.17387	-2.04434	-1.65647	-1.50469	0.666988	0.798641	0.0334401	0.033929	0.0344759	0.0335584	0.0345889	0.034765	-0.00175482	67.3298	34.2609	2.56682	-0.679753	0.181273	0.00762	0.00775676	0.00829815	0.00675211	0.00788076	0.0080748	
372	1573229631.510702503	-1.17361	-2.04407	-1.6562	-1.50443	0.667261	0.798912	0.0334749	0.0339615	0.0344271	0.0334965	0.0346368	0.034801	0.0288633	67.3475	34.2906	2.56432	-0.693911	0.172114	0.00742065	0.00786585	-0.0158097	-0.0151265	0.00813447	0.00817469	
373	1573229631.518670482	-1.17335	-2.04381	-1.65593	-1.50417	0.667535	0.799184	0.0335063	0.0339995	0.0343781	0.0334407	0.0346896	0.0348388	-0.00164399	67.3182	34.2846	2.56923	-0.680022	0.180793	0.00761434	0.00798842	0.00798831	0.00669437	0.00839665	0.00782992	
374	1573229631.526691947	-1.17309	-2.04354	-1.65566	-1.50391	0.66781	0.799454	0.0335374	0.0340405	0.0343216	0.03347	0.0347471	0.034778	0.016944	67.3377	34.3155	2.56127	-0.687668	0.172684	0.00769148	0.00755965	-0.0181532	0.00676772	0.0081058	-0.0152956	
375	1573229631.534689839	-1.17282	-2.04328	-1.65539	-1.50365	0.668085	0.799724	0.0335698	0.0340751	0.0341632	0.0335028	0.0347999	0.0347165	0.0163091	67.3346	34.3302	2.56714	-0.687655	0.175531	0.00752023	0.00770816	-0.0166089	0.00684461	0.00754499	0.00802734	
376	1573229631.542677341	-1.17256	-2.04301	-1.65512	-1.50338	0.668359	0.799995	0.0336062	0.0341105	0.0340099	0.0335365	0.0347432	0.0347563	0.0124906	67.3188	34.3327	2.56026	-0.694412	0.175861	0.00773312	0.00784368	-0.01462	0.00678181	-0.0174629	0.00793967	
377	1573229631.550684768	-1.1723	-2.04274	-1.65486	-1.50312	0.668631	0.800264	0.0336443	0.0341512	0.0339649	0.0335676	0.0345943	0.0347867	-0.00361459	67.2896	34.3253	2.56598	-0.687362	0.180029	0.00785611	0.00755096	0.00794707	0.00706465	-0.0146872	0.0077187	
378	1573229631.558723470	-1.17203	-2.04248	-1.65459	-1.50286	0.668903	0.800536	0.0336884	0.0341866	0.0340171	0.0336037	0.0344491	0.0348213	-0.00356429	67.2822	34.336	2.56621	-0.688426	0.179801	0.00795416	0.00782276	0.00781208	0.00663762	-0.0174745	0.00791206	
379	1573229631.566666168	-1.17177	-2.04221	-1.65432	-1.50259	0.669171	0.800805	0.0337352	0.0342281	0.0340625	0.0336411	0.0342555	0.0348488	-0.00547134	67.2735	34.3453	2.5652	-0.690456	0.179768	0.00770028	0.00790993	0.00833583	0.00689478	-0.0247553	0.00778653	
380	1573229631.574702476	-1.1715	-2.04194	-1.65405	-1.50233	0.669438	0.801075	0.0337797	0.034267	0.0341111	0.0336827	0.0341597	0.034879	-0.000767208	67.2781	34.3666	2.57634	-0.681901	0.179145	0.00798485	0.00762347	0.00762287	0.00681944	0.00665147	0.00760881	
381	1573229631.582687786	-1.17124	-2.04167	-1.65379	-1.50206	0.669706	0.801347	0.033833	0.0343029	0.0341461	0.0337231	0.034103	0.0349133	-0.0034665	67.265	34.3716	2.57044	-0.688175	0.179141	0.0079818	0.00779709	0.00798302	0.00670921	-0.0150255	0.00762921	
382	1573229631.590725782	-1.17097	-2.04141	-1.65352	-1.5018	0.669973	0.801619	0.0338807	0.0343393	0.0341858	0.0337623	0.0340517	0.0349461	-0.000902211	67.2654	34.3895	2.57874	-0.682054	0.178836	0.00810874	0.00772777	0.00804952	0.00679964	0.00679358	0.00780199	
383	1573229631.598681720	-1.1707	-2.04114	-1.65325	-1.50153	0.67024	0.801891	0.0340257	0.0343813	0.0342324	0.0338041	0.034085	0.0349763	0.0422396	67.2441	34.3849	2.5662	-0.679867	0.179507	0.0304612	0.00785398	0.00757139	0.00682915	0.00677157	0.00731633	
384	1573229631.606682924	-1.17043	-2.04087	-1.65298	-1.50126	0.670507	0.802162	0.0341807	0.0344254	0.0342765	0.0338431	0.0341174	0.0350011	-0.000760727	67.2531	34.4127	2.5809	-0.682468	0.178328	0.00818561	0.00774506	0.008113	0.00657476	0.00668023	0.00744713	
385	1573229631.614676423	-1.17016	-2.04059	-1.65271	-1.501	0.670776	0.802432	0.0342424	0.0344813	0.0343307	0.0338818	0.0341529	0.0350232	-0.000598984	67.2464	34.4243	2.58184	-0.682685	0.178153	0.00835821	0.00783606	0.00810946	0.00665995	0.00628156	0.00745257	
386	1573229631.622672306	-1.16988	-2.04032	-1.65244	-1.50073	0.671044	0.802703	0.0344108	0.0345265	0.0343831	0.0339275	0.0340924	0.0350487	0.0461865	67.2168	34.4111	2.55994	-0.686628	0.17911	0.0339327	0.00783911	0.00766437	0.00670203	-0.0163964	0.00719546	
387	1573229631.630758023	-1.1696	-2.04005	-1.65216	-1.50046	0.671311	0.802975	0.0346835	0.0345771	0.0344351	0.0339748	0.0340334	0.0350753	0.0431171	67.2184	34.431	2.57043	-0.680226	0.178781	0.0313212	0.00789854	0.00823031	0.00684195	0.00673555	0.00726681	
388	1573229631.638789703	-1.16932	-2.03977	-1.65189	-1.50019	0.671578	0.803248	0.0348465	0.0346355	0.0344942	0.0340219	0.0340649	0.0351031	0.000410625	67.2298	34.4609	2.58508	-0.683637	0.177172	0.00840392	0.0075983	0.00715423	0.00636329	0.00620891	0.00740645	
389	1573229631.649243863	-1.16904	-2.0395	-1.65162	-1.49992	0.671845	0.80352	0.0349198	0.0346868	0.034457	0.0340593	0.0340964	0.0351279	0.0151038	67.2453	34.4909	2.58287	-0.68957	0.17289	0.0082456	0.00790581	-0.0134876	0.00634132	0.00637272	0.00689118	
390	1573229631.654826405	-1.16876	-2.03922	-1.65134	-1.49965	0.672111	0.803793	0.0349929	0.0347406	0.0344237	0.0341025	0.0341191	0.0350689	-0.00178353	67.2122	34.4803	2.58358	-0.683648	0.174287	0.0079884	0.00779563	0.00737291	0.00654698	0.006477	-0.0143948	
391	1573229631.662865577	-1.16848	-2.03895	-1.65107	-1.49938	0.67238	0.804063	0.0350626	0.0347957	0.034468	0.0341413	0.0341561	0.0349147	-0.000711237	67.2074	34.4927	2.58433	-0.684276	0.173775	0.00814222	0.00732235	0.00702151	0.00609799	0.00613321	-0.0147419	
392	1573229631.670839112	-1.16819	-2.03867	-1.6508	-1.49911	0.67265	0.804332	0.0351392	0.0348539	0.0345102	0.0340907	0.0341917	0.0348478	0.0126357	67.2013	34.5048	2.59003	-0.691325	0.172057	0.00814611	0.00758838	0.00724763	-0.0149789	0.00639186	0.00670426	
393	1573229631.678753371	-1.16793	-2.0384	-1.65054	-1.49885	0.672906	0.804588	0.0351609	0.0348604	0.0345018	0.0339885	0.0341773	0.0348155	-1.46954e-05	67.1987	34.5198	2.59088	-0.6847	0.175845	0.00806827	0.00749724	0.00714079	0.00591996	0.00628823	0.00657227	
394	1573229631.686774242	-1.16764	-2.03812	-1.65027	-1.49858	0.673176	0.804857	0.0352246	0.0349305	0.0345397	0.034027	0.0342168	0.0348299	-0.000476085	67.1928	34.5322	2.59197	-0.684893	0.17567	0.00791456	0.00736721	0.00693483	0.00650735	0.00593015	0.00664481	
395	1573229631.694793114	-1.16736	-2.03784	-1.65	-1.49831	0.673447	0.805127	0.0352972	0.0349936	0.0345768	0.0340736	0.034252	0.0348533	-0.000558206	67.1863	34.5442	2.59314	-0.685143	0.175351	0.00779771	0.00737439	0.0068236	0.00635694	0.0059722	0.00632221	
396	1573229631.702747482	-1.16708	-2.03756	-1.64973	-1.49804	0.673717	0.805399	0.035365	0.035065	0.0346072	0.0341224	0.0342841	0.0348751	-0.00117617	67.1754	34.5542	2.59481	-0.683914	0.175931	0.00854505	0.00829114	0.0081249	0.00739888	0.00719093	0.00741701	
397	1573229631.710759962	-1.16679	-2.03728	-1.64946	-1.49777	0.673991	0.80567	0.0354321	0.0352398	0.0347588	0.0343216	0.0344519	0.035004	-0.0550385	67.0827	34.5358	2.61782	-0.651325	0.195053	0.00735396	0.0325395	0.0336104	0.0413441	0.0340813	0.0316635	
398	1573229631.718684907	-1.16651	-2.03699	-1.64919	-1.49749	0.674262	0.805943	0.0353979	0.0352273	0.0346368	0.0345054	0.0344982	0.0351307	0.0276895	67.3827	34.6942	2.58588	-0.725218	0.152269	-0.0156793	-0.0365055	-0.0555651	0.00674126	-0.0177445	0.00639011	
399	1573229631.726658425	-1.16622	-2.03671	-1.64892	-1.49722	0.674533	0.806218	0.0353695	0.0351096	0.0344252	0.034558	0.0343206	0.0351569	-0.00457447	67.1529	34.5848	2.58876	-0.694076	0.174519	0.00723332	0.00697456	0.00676897	0.00640436	-0.0222232	0.0062978	
400	1573229631.734713231	-1.16594	-2.03643	-1.64865	-1.49694	0.674805	0.80649	0.0353367	0.0351648	0.0344567	0.0346008	0.0342471	0.0351757	-0.0411299	67.1686	34.62	2.6118	-0.688641	0.173146	-0.0137195	0.00684431	0.006906	0.00635646	0.00589708	0.00622983	
401	1573229631.742667063	-1.16566	-2.03615	-1.64838	-1.49667	0.675075	0.806765	0.0353067	0.0352134	0.0344927	0.0346458	0.0342802	0.0352013	-0.00109667	67.1477	34.6164	2.60034	-0.68656	0.173798	0.0072316	0.00684963	0.00682772	0.00602698	0.00584823	0.00633105	
402	1573229631.750724457	-1.16538	-2.03587	-1.64811	-1.49639	0.675346	0.807038	0.0353542	0.0352633	0.0345222	0.0346041	0.034314	0.0352186	0.0102564	67.1382	34.6249	2.60196	-0.693628	0.169569	0.00675991	0.0067583	0.00707363	-0.0146119	0.00560947	0.00630463	
403	1573229631.758674157	-1.1651	-2.03559	-1.64784	-1.49612	0.675615	0.807314	0.0352713	0.0352198	0.034564	0.0345605	0.0343398	0.0352454	-0.0452574	67.226	34.6869	2.61786	-0.696689	0.167331	-0.0237815	-0.0156263	0.00728138	0.00650366	0.00559847	0.00613291	
404	1573229631.766706895	-1.16483	-2.03531	-1.64756	-1.49585	0.675887	0.807589	0.0351851	0.0350832	0.0346103	0.0345981	0.0343737	0.0352708	0.0132749	67.2037	34.6783	2.60061	-0.693882	0.168038	0.00641407	-0.0170924	0.0070344	0.00631698	0.00578899	0.00588021	
405	1573229631.774692677	-1.16455	-2.03503	-1.64729	-1.49557	0.676158	0.807863	0.0350848	0.0349074	0.0346549	0.0346348	0.0344029	0.035192	-0.0447779	67.2339	34.7163	2.6156	-0.69951	0.162361	-0.0259338	-0.0232931	0.00680347	0.00659919	0.0054105	-0.0172561	
406	1573229631.782675660	-1.16428	-2.03476	-1.64701	-1.4953	0.676429	0.808136	0.0348993	0.0347134	0.0346979	0.0346766	0.0343503	0.0351164	-0.0282222	67.2086	34.7151	2.60872	-0.703284	0.166202	-0.0152358	-0.0199222	0.00696784	0.00668318	-0.0145857	0.0057193	
407	1573229631.790665150	-1.164	-2.03449	-1.64674	-1.49502	0.6767	0.808406	0.0348412	0.0346378	0.0347401	0.0347214	0.0342999	0.0351215	-0.00261386	67.1122	34.6889	2.60754	-0.688161	0.172164	0.00609308	0.00578377	0.00685092	0.00621281	0.00538265	0.00580866	
408	1573229631.798687209	-1.16373	-2.03422	-1.64646	-1.49475	0.67697	0.808676	0.0347655	0.0345719	0.0347862	0.0347648	0.0343289	0.0351284	-0.0333885	67.1991	34.7451	2.62018	-0.697919	0.165787	-0.0187815	-0.0184427	0.00713677	0.00636311	0.00573493	0.00612563	
409	1573229631.806661632	-1.16346	-2.03394	-1.64619	-1.49447	0.677238	0.808947	0.0346868	0.0345029	0.0348345	0.0348116	0.0343481	0.0351411	-0.00259172	67.0997	34.7125	2.60994	-0.688499	0.171715	0.00602259	0.00588398	0.00658825	0.00628403	0.00557298	0.00597153	
410	1573229631.814657525	-1.16319	-2.03367	-1.64591	-1.49419	0.67751	0.809221	0.0347081	0.0345346	0.0348806	0.0348551	0.0343811	0.0351602	-0.00236274	67.094	34.7243	2.61113	-0.688631	0.171483	0.00611277	0.00559234	0.00690485	0.00616953	0.00577068	0.00610767	
411	1573229631.822659125	-1.16292	-2.0334	-1.64563	-1.49392	0.67778	0.809494	0.0347288	0.0344715	0.0349287	0.0348929	0.0344096	0.0351785	0.012136	67.1563	34.7598	2.60906	-0.695114	0.166547	0.00586834	-0.0158993	0.00637224	0.00612953	0.00577696	0.00601008	
412	1573229631.830689668	-1.16265	-2.03313	-1.64535	-1.49364	0.678052	0.809766	0.0347463	0.0344074	0.0349767	0.0349326	0.0344438	0.035192	-0.00237592	67.0819	34.7479	2.61356	-0.688968	0.17091	0.00595489	0.00557476	0.00672861	0.00601243	0.0062239	0.00576832	
413	1573229631.838693249	-1.16238	-2.03286	-1.64508	-1.49336	0.678324	0.810039	0.0347633	0.0344305	0.03502	0.0349734	0.0345638	0.0352064	0.000631214	67.0833	34.7664	2.62139	-0.683557	0.170347	0.00588639	0.00528457	0.00600924	0.00606409	0.0268216	0.00584103	
414	1573229631.846703965	-1.16211	-2.03259	-1.6448	-1.49309	0.678598	0.810314	0.0347763	0.0343594	0.0349732	0.0350075	0.0346817	0.0352264	0.0295164	67.1663	34.8165	2.60855	-0.702401	0.161116	0.00578506	-0.0172269	-0.0163341	0.00626023	0.00591731	0.00575495	
415	1573229631.854679090	-1.16184	-2.03233	-1.64452	-1.49281	0.678873	0.810589	0.0347897	0.0342862	0.0349193	0.0350384	0.0347184	0.0352504	-0.00250838	67.0646	34.7836	2.61693	-0.689832	0.17002	0.00557597	0.00538615	0.00611307	0.00597101	0.00600669	0.00553192	
416	1573229631.862711932	-1.16157	-2.03206	-1.64425	-1.49254	0.679147	0.810866	0.0347085	0.0343074	0.03495	0.0350718	0.0347536	0.0352747	-0.0446777	67.0752	34.8126	2.63151	-0.692931	0.168641	-0.0171619	0.00506572	0.00562284	0.00607636	0.00592842	0.0055938	
417	1573229631.870724086	-1.1613	-2.03179	-1.64397	-1.49226	0.679424	0.811143	0.0346323	0.0343207	0.0348619	0.0351013	0.0347974	0.0352993	0.0187305	67.0828	34.8319	2.61428	-0.69818	0.164033	0.00580357	0.00530736	-0.0223235	0.00629663	0.00595809	0.00545401	
