terrinbabu/Matlab/log_filtering/UR10_35_KF/mjt_0kg_lift_drop.txt
seq	time	q0	q1	q2	q3	q4	q5	Dq0	Dq1	Dq2	Dq3	Dq4	Dq5	eff0	eff1	eff2	eff3	eff4	eff5	
53628	1580406960.478737342	0.00245265	-0.928822	2.13527	-2.777	-1.56958	-2.62323	0	0	-0	0	0	0	17.0174	-56.6326	-14.1973	0.190569	1.48445	-1.18347	
53629	1580406960.486716131	0.00246463	-0.928834	2.13527	-2.77702	-1.56956	-2.62324	0	0	-0	0	0	0	16.9493	-56.3291	-14.1474	0.309674	1.28652	-1.13202	
53630	1580406960.494696716	0.00246463	-0.92881	2.13524	-2.77702	-1.56956	-2.62325	0	0	-0	0	0	0	16.9493	-57.1182	-14.2223	0.166748	1.55867	-1.10629	
53631	1580406960.502678006	0.00247662	-0.928834	2.13525	-2.77702	-1.56958	-2.62321	0	0	-0	0	0	0	17.1535	-56.5112	-14.1474	0.21439	1.53393	-1.02911	
53632	1580406960.510700974	0.00247662	-0.928834	2.13523	-2.77702	-1.56957	-2.6232	0	0	-0	0	0	0	17.2216	-56.5719	-14.2472	0.238211	1.43496	-1.00338	
53633	1580406960.518729349	0.00250058	-0.92887	2.13525	-2.77702	-1.56957	-2.62319	0	0	-0	0	0	0	16.5409	-56.3898	-14.1973	0.262032	1.41022	-1.10629	
53634	1580406960.526721669	0.00245265	-0.928822	2.13525	-2.777	-1.5696	-2.62321	0	0	-0	0	0	0	16.7451	-56.8754	-14.2223	0.190569	1.4597	-1.00338	
53635	1580406960.534740292	0.00247662	-0.928846	2.13526	-2.77703	-1.56954	-2.6232	0	0	-0	0	0	0	17.1535	-56.6933	-14.0476	0.238211	1.4597	-0.951925	
53636	1580406960.542754248	0.00247662	-0.928834	2.13527	-2.777	-1.56956	-2.62319	0	0	-0	0	0	0	16.7451	-56.754	-13.9977	0.285853	1.48445	-1.02911	
53637	1580406960.550820222	0.00247662	-0.92887	2.13525	-2.77704	-1.56958	-2.62321	0	0	-0	0	0	0	17.1535	-56.3291	-14.0975	0.262032	1.43496	-1.23493	
53638	1580406960.558724703	0.0024886	-0.928786	2.13526	-2.77704	-1.56957	-2.62321	0	0	-0	0	0	0	17.0854	-56.8147	-14.1973	0.21439	1.28652	-1.13202	
53639	1580406960.566719568	0.00247662	-0.92881	2.13529	-2.77702	-1.5696	-2.62325	0	0	-0	0	0	0	16.6089	-56.8147	-13.9977	0.262032	1.4597	-1.05484	
53640	1580406960.574729963	0.00246463	-0.928858	2.13521	-2.77703	-1.56962	-2.62321	0	0	-0	0	0	0	17.2216	-56.3291	-14.1724	0.21439	1.48445	-0.951925	
53641	1580406960.582729033	0.00250058	-0.92881	2.13523	-2.77703	-1.56961	-2.62323	0	0	-0	0	0	0	16.8812	-56.9361	-14.2223	0.285853	1.50919	-1.2092	
53642	1580406960.590721655	0.0024886	-0.92881	2.13523	-2.77704	-1.56958	-2.6232	0	0	-0	0	0	0	17.2216	-56.2684	-14.1724	0.285853	1.336	-0.951925	
53643	1580406960.598727021	0.00250058	-0.928834	2.13525	-2.777	-1.56958	-2.6232	0	0	-0	0	0	0	16.4728	-56.5719	-14.0975	0.238211	1.48445	-1.05484	
53644	1580406960.606731910	0.00250058	-0.92881	2.13527	-2.77699	-1.56957	-2.6232	0	0	-0	0	0	0	16.8812	-56.3291	-14.1724	0.238211	1.43496	-1.2092	
53645	1580406960.614697891	0.00246463	-0.928822	2.13523	-2.77702	-1.56961	-2.62324	0	0	-0	0	0	0	16.8812	-56.5112	-14.0476	0.238211	1.50919	-1.2092	
53646	1580406960.622716260	0.00246463	-0.92881	2.13526	-2.77702	-1.5696	-2.6232	0	0	-0	0	0	0	17.2216	-57.1789	-14.2722	0.285853	1.41022	-1.00338	
53647	1580406960.630716470	0.0024886	-0.928834	2.13527	-2.77703	-1.56957	-2.62318	0	0	-0	0	0	0	16.7451	-56.6326	-14.1474	0.238211	1.336	-0.977652	
53648	1580406960.638718449	0.00250058	-0.92881	2.13526	-2.77703	-1.5696	-2.6232	0	0	-0	0	0	0	16.5409	-56.6326	-14.1225	0.166748	1.41022	-1.15775	
53649	1580406960.646773701	0.0024886	-0.928834	2.13524	-2.777	-1.5696	-2.6232	0	0	-0	0	0	0	17.3577	-56.8754	-14.2722	0.333496	1.53393	-1.02911	
53650	1580406960.654728894	0.00247662	-0.928846	2.13526	-2.77702	-1.56958	-2.62318	0	0	-0	0	0	0	17.1535	-56.3898	-14.347	0.166748	1.41022	-1.00338	
53651	1580406960.662679933	0.00245265	-0.928846	2.13526	-2.77704	-1.56956	-2.62319	0	0	-0	0	0	0	17.1535	-56.2684	-14.0975	0.21439	1.48445	-1.02911	
53652	1580406960.670725056	0.0024886	-0.928822	2.13526	-2.777	-1.56955	-2.62323	0	0	-0	0	0	0	16.9493	-56.6326	-14.1724	0.285853	1.50919	-1.18347	
53653	1580406960.678707860	0.0024886	-0.92881	2.13525	-2.77703	-1.5696	-2.6232	0	0	-0	0	0	0	16.7451	-55.9649	-14.1225	0.262032	1.43496	-1.26066	
53654	1580406960.686722578	0.0024886	-0.928822	2.13526	-2.77703	-1.5696	-2.62321	0	0	-0	0	0	0	16.7451	-56.8147	-14.2223	0.238211	1.48445	-1.00338	
53655	1580406960.694723071	0.00247662	-0.928846	2.13529	-2.77702	-1.5696	-2.62319	0	0	-0	0	0	0	17.4258	-56.5719	-14.2971	0.262032	1.4597	-1.08056	
53656	1580406960.702704028	0.00247662	-0.92881	2.13525	-2.77704	-1.5696	-2.62321	0	0	-0	0	0	0	17.0854	-56.6326	-14.2223	0.190569	1.41022	-1.10629	
53657	1580406960.710729966	0.00250058	-0.928822	2.13525	-2.77702	-1.5696	-2.62323	0	0	-0	0	0	0	16.8132	-56.0256	-14.0975	0.262032	1.36074	-1.10629	
53658	1580406960.718684153	0.00247662	-0.92881	2.13525	-2.77703	-1.56958	-2.62323	0	0	-0	0	0	0	17.4939	-56.8147	-14.1474	0.500243	1.36074	-1.10629	
53659	1580406960.726668176	0.00245265	-0.928834	2.13521	-2.77703	-1.56957	-2.62323	0	0	-0	0	0	0	16.7451	-56.3898	-14.1973	0.309674	1.43496	-1.08056	
53660	1580406960.734697687	0.0024886	-0.928846	2.13523	-2.77704	-1.56957	-2.62324	0	0	-0	0	0	0	17.2896	-56.4505	-14.0975	0.309674	1.50919	-1.00338	
53661	1580406960.742741002	0.00247662	-0.92881	2.1352	-2.77702	-1.56957	-2.62321	0	0	-0	0	0	0	16.9493	-57.1789	-14.2223	0.190569	1.28652	-1.02911	
53662	1580406960.750698302	0.0024886	-0.928822	2.13525	-2.77703	-1.5696	-2.62325	0	0	-0	0	0	0	16.4728	-55.9649	-14.2971	0.262032	1.41022	-1.10629	
53663	1580406960.758750015	0.00247662	-0.928846	2.13525	-2.77702	-1.56958	-2.6232	0	0	-0	0	0	0	16.2686	-56.8147	-14.1973	0.262032	1.31126	-1.08056	
53664	1580406960.766711083	0.0024886	-0.928834	2.13525	-2.77703	-1.5696	-2.62321	0	0	-0	0	0	0	16.677	-56.2684	-14.0975	0.238211	1.41022	-1.18347	
53665	1580406960.774687878	0.00247662	-0.928858	2.13529	-2.77703	-1.56958	-2.62319	0	0	-0	0	0	0	17.5619	-56.2684	-14.1724	0.238211	1.4597	-1.36357	
53666	1580406960.782748073	0.0024886	-0.928786	2.13523	-2.77704	-1.56956	-2.62318	0	0	-0	0	0	0	17.0174	-56.6933	-14.2472	0.285853	1.4597	-0.977652	
53667	1580406960.790737380	0.00250058	-0.928834	2.13523	-2.77703	-1.5696	-2.62321	0	0	-0	0	0	0	16.9493	-57.0575	-14.1973	0.190569	1.50919	-1.31211	
53668	1580406960.798709166	0.00252455	-0.928846	2.13523	-2.77703	-1.56958	-2.6232	0	0	-0	0	0	0	16.7451	-56.5719	-14.0476	0.190569	1.336	-1.18347	
53669	1580406960.806753214	0.0024886	-0.928834	2.13525	-2.77703	-1.56957	-2.62321	0	0	-0	0	0	0	17.1535	-56.2684	-14.1724	0.262032	1.53393	-1.02911	
53670	1580406960.814757007	0.0024886	-0.928858	2.13523	-2.77703	-1.56961	-2.62324	0	0	-0	0	0	0	16.3367	-57.361	-14.1724	0.238211	1.48445	-1.2092	
53671	1580406960.822703702	0.0024886	-0.928798	2.13524	-2.777	-1.56956	-2.62321	0	0	-0	0	0	0	16.5409	-56.5112	-14.2223	0.333496	1.336	-0.977652	
53672	1580406960.830737855	0.00247662	-0.928834	2.13524	-2.77702	-1.56962	-2.62319	0	0	-0	0	0	0	17.2216	-56.754	-14.0726	0.64317	1.4597	-1.13202	
53673	1580406960.838774301	0.00250058	-0.928846	2.13529	-2.77705	-1.56957	-2.62321	0	0	-0	0	0	0	17.4258	-56.6326	-14.1225	0.21439	1.36074	-1.05484	
53674	1580406960.846778003	0.00247662	-0.928846	2.13523	-2.77704	-1.56957	-2.62324	0	0	-0	0	0	0	16.3367	-56.5112	-14.1973	0.119106	1.50919	-0.951925	
53675	1580406960.854685056	0.00246463	-0.928834	2.13526	-2.777	-1.5696	-2.62318	0	0	-0	0	0	0	16.5409	-56.2077	-14.1225	0.190569	1.38548	-1.02911	
53676	1580406960.862700048	0.0024886	-0.928834	2.13527	-2.77703	-1.56955	-2.62319	0	0	-0	0	0	0	17.0174	-56.754	-14.1973	0.262032	1.38548	-1.13202	
53677	1580406960.870753984	0.00250058	-0.928786	2.13529	-2.77702	-1.56958	-2.6232	0	0	-0	0	0	0	16.6089	-56.6933	-14.1474	0.238211	1.4597	-1.08056	
53678	1580406960.878729783	0.00247662	-0.928846	2.13525	-2.77702	-1.56957	-2.62321	0	0	-0	0	0	0	17.0854	-57.3003	-14.1474	0.21439	1.38548	-0.977652	
53679	1580406960.886754232	0.00244066	-0.928834	2.13523	-2.77703	-1.5696	-2.62324	0	0	-0	0	0	0	17.63	-56.8754	-14.0975	0.21439	1.38548	-1.15775	
53680	1580406960.894684120	0.00245265	-0.928858	2.13529	-2.77702	-1.5696	-2.62318	0	0	-0	0	0	0	17.2896	-56.6933	-14.0476	0.190569	1.38548	-1.05484	
53681	1580406960.902735307	0.00246463	-0.928858	2.13527	-2.777	-1.56956	-2.62321	0	0	-0	0	0	0	17.1535	-56.5112	-14.1474	0.238211	1.36074	-1.10629	
53682	1580406960.910753088	0.00251257	-0.928834	2.13524	-2.77703	-1.56957	-2.62319	0	0	-0	0	0	0	16.8812	-56.4505	-14.2223	0.21439	1.48445	-1.18347	
53683	1580406960.918664366	0.00244066	-0.928846	2.13526	-2.77699	-1.5696	-2.62321	0	0	-0	0	0	0	16.9493	-56.5719	-14.0726	0.21439	1.41022	-1.13202	
53684	1580406960.926718513	0.00247662	-0.928822	2.13529	-2.77702	-1.56957	-2.62318	0	0	-0	0	0	0	17.4258	-56.6933	-14.1724	0.21439	1.31126	-1.13202	
53685	1580406960.934761823	0.0024886	-0.928834	2.13526	-2.77702	-1.56955	-2.62321	0	0	-0	0	0	0	17.2216	-56.2684	-14.1973	0.262032	1.43496	-1.10629	
53686	1580406960.942687818	0.00250058	-0.928834	2.13529	-2.77704	-1.56958	-2.62321	0	0	-0	0	0	0	16.6089	-56.3898	-14.1973	0.0714633	1.336	-1.02911	
53687	1580406960.950681434	0.00250058	-0.928822	2.13523	-2.77702	-1.56958	-2.62318	0	0	-0	0	0	0	16.9493	-56.6933	-14.2971	0.21439	1.336	-1.08056	
53688	1580406960.958712371	0.00247662	-0.928846	2.13523	-2.77702	-1.56963	-2.62324	0	0	-0	0	0	0	16.4047	-56.4505	-14.2472	0.262032	1.50919	-0.900469	
53689	1580406960.966727179	0.00247662	-0.928858	2.13526	-2.77702	-1.5696	-2.6232	0	0	-0	0	0	0	17.3577	-56.3898	-14.0726	0.190569	1.43496	-1.18347	
53690	1580406960.974728896	0.00247662	-0.928846	2.13526	-2.77702	-1.56955	-2.62321	0	0	-0	0	0	0	17.4258	-56.3291	-14.2223	0.21439	1.50919	-1.05484	
53691	1580406960.982758525	0.00246463	-0.928822	2.13524	-2.77702	-1.5696	-2.6232	0	0	-0	0	0	0	17.0174	-56.6933	-14.2971	0.309674	1.41022	-1.05484	
53692	1580406960.990744641	0.0024886	-0.928834	2.13527	-2.77703	-1.56961	-2.62323	0	0	-0	0	0	0	16.9493	-56.3898	-14.2722	0.21439	1.36074	-1.00338	
53693	1580406960.998748599	0.00247662	-0.928858	2.13521	-2.77702	-1.56956	-2.6232	0	0	-0	0	0	0	17.1535	-56.4505	-14.0726	0.285853	1.4597	-1.05484	
53694	1580406961.006766946	0.00247662	-0.92881	2.13524	-2.77702	-1.5696	-2.62324	0	0	-0	0	0	0	17.7661	-56.5112	-14.1973	0.119106	1.43496	-1.10629	
53695	1580406961.014743211	0.00247662	-0.928858	2.13525	-2.77703	-1.56958	-2.6232	0	0	-0	0	0	0	17.1535	-56.8754	-14.4219	0.166748	1.4597	-1.33784	
53696	1580406961.022702951	0.00250058	-0.92887	2.13523	-2.77703	-1.56957	-2.62323	0	0	-0	0	0	0	17.3577	-56.3291	-14.2722	0.190569	1.38548	-1.00338	
53697	1580406961.030733128	0.00247662	-0.928834	2.13523	-2.77703	-1.56958	-2.6232	0	0	-0	0	0	0	17.4258	-56.6933	-14.3969	0.21439	1.53393	-0.951925	
53698	1580406961.038730524	0.00247662	-0.928834	2.13525	-2.77703	-1.56957	-2.62325	0	0	-0	0	0	0	16.7451	-56.5719	-14.0227	0.119106	1.336	-1.10629	
53699	1580406961.046748466	0.00250058	-0.928834	2.13527	-2.77704	-1.5696	-2.62318	0	0	-0	0	0	0	16.6089	-57.1789	-14.2971	0.166748	1.4597	-1.13202	
53700	1580406961.054733744	0.00247662	-0.928822	2.13523	-2.77699	-1.56957	-2.62321	0	0	-0	0	0	0	16.8132	-56.4505	-14.2223	0.238211	1.43496	-1.13202	
53701	1580406961.062697647	0.00250058	-0.928822	2.13529	-2.77702	-1.56958	-2.62319	0	0	-0	0	0	0	16.4728	-56.3898	-14.0476	0.190569	1.48445	-0.951925	
53702	1580406961.070752507	0.00246463	-0.928858	2.13524	-2.77703	-1.56957	-2.62324	0	0	-0	0	0	0	16.9493	-56.5112	-14.2223	0.142927	1.41022	-1.08056	
53703	1580406961.078734866	0.00247662	-0.928834	2.13527	-2.77702	-1.56958	-2.62323	0	0	-0	0	0	0	16.4047	-56.754	-14.2472	0.262032	1.48445	-1.13202	
53704	1580406961.086708382	0.00247662	-0.928846	2.13525	-2.77702	-1.56956	-2.6232	0	0	-0	0	0	0	17.0854	-56.754	-14.3221	0.21439	1.36074	-0.977652	
53705	1580406961.094780623	0.00246463	-0.928798	2.13525	-2.77699	-1.56958	-2.62321	0	0	-0	0	0	0	16.7451	-56.9361	-14.1474	0.262032	1.43496	-1.15775	
53706	1580406961.102717642	0.00250058	-0.928858	2.13525	-2.77704	-1.56958	-2.62321	0	0	-0	0	0	0	16.6089	-56.5112	-14.3221	0.142927	1.4597	-1.02911	
53707	1580406961.110745653	0.00246463	-0.92881	2.13527	-2.77704	-1.5696	-2.62323	0	0	-0	0	0	0	16.9493	-56.6933	-14.0726	0.0476422	1.43496	-1.05484	
53708	1580406961.118715327	0.00247662	-0.928858	2.13524	-2.77702	-1.56958	-2.62319	0	0	-0	0	0	0	16.4728	-57.4217	-14.1973	0.238211	1.41022	-1.08056	
53709	1580406961.126722114	0.00247662	-0.928822	2.13526	-2.77702	-1.5696	-2.62319	0	0	-0	0	0	0	16.5409	-56.5112	-14.3221	0.0476422	1.48445	-1.05484	
53710	1580406961.134747469	0.00245265	-0.928822	2.13525	-2.77702	-1.5696	-2.6232	0	0	-0	0	0	0	16.9493	-56.5112	-14.2223	0.262032	1.36074	-0.977652	
53711	1580406961.142704275	0.00245265	-0.928786	2.13525	-2.77702	-1.56961	-2.62323	0	0	-0	0	0	0	17.1535	-56.5112	-14.4219	0.285853	1.4597	-1.23493	
53712	1580406961.150738658	0.00247662	-0.928846	2.13525	-2.77703	-1.56957	-2.62321	0	0	-0	0	0	0	16.9493	-56.9968	-14.2472	0.309674	1.50919	-0.977652	
53713	1580406961.158786407	0.00250058	-0.928798	2.13524	-2.77702	-1.56958	-2.62324	0	0	-0	0	0	0	17.4258	-56.5719	-14.0476	0.166748	1.53393	-1.18347	
53714	1580406961.166735277	0.00245265	-0.928846	2.13525	-2.77705	-1.5696	-2.6232	0	0	-0	0	0	0	16.9493	-56.5112	-14.2722	0.262032	1.36074	-1.00338	
53715	1580406961.174696223	0.00244066	-0.928846	2.13524	-2.77702	-1.56956	-2.62324	0	0	-0	0	0	0	16.7451	-56.9968	-14.1474	0.262032	1.43496	-1.00338	
53716	1580406961.182689230	0.00247662	-0.928822	2.13521	-2.777	-1.56955	-2.62321	0	0	-0	0	0	0	16.8812	-56.6326	-14.1724	0.238211	1.36074	-1.08056	
53717	1580406961.190745469	0.00247662	-0.928822	2.13527	-2.77703	-1.56958	-2.62324	0	0	-0	0	0	0	16.6089	-56.2684	-14.3221	0.238211	1.38548	-1.00338	
53718	1580406961.198707406	0.00247662	-0.928822	2.13531	-2.777	-1.56957	-2.62319	0	0	-0	0	0	0	16.5409	-56.3898	-14.1724	0.21439	1.36074	-1.08056	
53719	1580406961.206722673	0.0024886	-0.928858	2.13524	-2.77699	-1.56957	-2.62321	0	0	-0	0	0	0	16.9493	-56.3291	-14.1225	0.21439	1.36074	-0.900469	
53720	1580406961.214683076	0.00250058	-0.928798	2.13525	-2.77702	-1.56955	-2.62321	0	0	-0	0	0	0	17.5619	-56.8147	-14.347	0.238211	1.41022	-1.15775	
53721	1580406961.222721795	0.0024886	-0.928834	2.13524	-2.77703	-1.56957	-2.62321	0	0	-0	0	0	0	16.677	-57.2396	-14.0975	0.21439	1.28652	-0.977652	
53722	1580406961.230745098	0.00246463	-0.92887	2.13524	-2.77705	-1.56954	-2.62324	0	0	-0	0	0	0	17.2216	-56.5112	-14.2223	0.21439	1.41022	-0.951925	
53723	1580406961.238727427	0.00250058	-0.928846	2.13527	-2.777	-1.56955	-2.6232	0	0	-0	0	0	0	17.63	-56.9361	-14.0975	0.142927	1.48445	-1.00338	
53724	1580406961.246686151	0.00246463	-0.92881	2.13529	-2.777	-1.56958	-2.62321	0	0	-0	0	0	0	17.0854	-56.5719	-14.2472	0.21439	1.41022	-0.926197	
53725	1580406961.254789901	0.00246463	-0.928846	2.13525	-2.77702	-1.56957	-2.62321	0	0	-0	0	0	0	17.1535	-56.8754	-14.1225	0.190569	1.31126	-1.18347	
53726	1580406961.262755037	0.00246463	-0.928834	2.13524	-2.77702	-1.56957	-2.62321	0	0	-0	0	0	0	16.8812	-56.0256	-14.1225	0.238211	1.31126	-1.10629	
53727	1580406961.270724451	0.00247662	-0.928822	2.13525	-2.77702	-1.56957	-2.62318	0	0	-0	0	0	0	17.2216	-56.3291	-14.2223	0.21439	1.43496	-1.15775	
53728	1580406961.278717672	0.00250058	-0.928822	2.13524	-2.77702	-1.56961	-2.62321	0	0	-0	0	0	0	16.9493	-56.9361	-14.2722	0.166748	1.38548	-1.08056	
53729	1580406961.286778829	0.0024886	-0.928786	2.13527	-2.77702	-1.56956	-2.62324	0	0	-0	0	0	0	17.1535	-56.3898	-14.2971	0.262032	1.38548	-1.28638	
53730	1580406961.294668554	0.00247662	-0.928834	2.13524	-2.77702	-1.56958	-2.6232	0	0	-0	0	0	0	16.677	-56.6326	-14.2223	0.21439	1.36074	-1.18347	
53731	1580406961.302714606	0.00245265	-0.928834	2.13529	-2.77702	-1.5696	-2.6232	0	0	-0	0	0	0	17.1535	-56.2684	-14.1474	0.21439	1.36074	-1.02911	
53732	1580406961.310659775	0.0024886	-0.928846	2.13524	-2.77704	-1.56956	-2.62323	0	0	-0	0	0	0	16.5409	-56.5112	-14.2472	0.309674	1.48445	-1.02911	
53733	1580406961.318712611	0.00245265	-0.92881	2.13529	-2.777	-1.5696	-2.62321	0	0	-0	0	0	0	16.6089	-56.9968	-14.3221	0.190569	1.38548	-0.874742	
53734	1580406961.326650435	0.00244066	-0.928846	2.13529	-2.77702	-1.56955	-2.6232	0	0	-0	0	0	0	17.2216	-56.5112	-14.1973	0.190569	1.36074	-1.08056	
53735	1580406961.334695492	0.00247662	-0.928846	2.13527	-2.77704	-1.56958	-2.62323	0	0	-0	0	0	0	17.1535	-56.6933	-14.372	0.333496	1.43496	-1.05484	
53736	1580406961.342673012	0.00246463	-0.928834	2.13527	-2.77702	-1.56957	-2.62319	0	0	-0	0	0	0	16.9493	-57.1182	-14.1724	0.21439	1.4597	-0.926197	
53737	1580406961.350701383	0.00242905	-0.928858	2.13525	-2.77702	-1.56961	-2.6232	0	0	-0	0	0	0	17.3577	-56.754	-14.372	0.21439	1.4597	-1.05484	
53738	1580406961.358691732	0.0024886	-0.928798	2.13526	-2.777	-1.5696	-2.62321	0	0	-0	0	0	0	17.0854	-56.3898	-14.1973	0.142927	1.50919	-1.08056	
53739	1580406961.366712871	0.00247662	-0.928786	2.13526	-2.77702	-1.56958	-2.62321	0	0	-0	0	0	0	17.0854	-56.5719	-14.2722	0.0952844	1.70711	-1.00338	
53740	1580406961.374704901	0.0024886	-0.928846	2.13524	-2.77704	-1.56954	-2.62321	0	0	-0	0	0	0	16.4728	-56.2684	-14.1973	0.21439	1.43496	-1.08056	
53741	1580406961.382666806	0.00250058	-0.92881	2.13525	-2.77704	-1.56958	-2.62319	0	0	-0	0	0	0	16.7451	-56.6933	-14.3221	0.309674	1.36074	-1.02911	
53742	1580406961.390729552	0.00251257	-0.928846	2.13521	-2.777	-1.56957	-2.62321	0	0	-0	0	0	0	16.7451	-56.8147	-14.1973	0.262032	1.4597	-0.977652	
53743	1580406961.398745870	0.0024886	-0.928822	2.13525	-2.77703	-1.56958	-2.6232	0	0	-0	0	0	0	16.4047	-56.2077	-14.2223	0.190569	1.38548	-0.926197	
53744	1580406961.406687903	0.00250058	-0.928822	2.13525	-2.77704	-1.56957	-2.6232	0	0	-0	0	0	0	17.3577	-56.4505	-14.2472	0.262032	1.43496	-1.05484	
53745	1580406961.414789473	0.00247662	-0.928846	2.13525	-2.77702	-1.56958	-2.62321	0	0	-0	0	0	0	16.7451	-56.3898	-14.2223	0.190569	1.43496	-1.26066	
53746	1580406961.422745335	0.00247662	-0.928882	2.13526	-2.77702	-1.56958	-2.62323	0	0	-0	0	0	0	17.0854	-57.1182	-14.2223	0.333496	1.36074	-1.28638	
53747	1580406961.430763984	0.00247662	-0.928846	2.13525	-2.77702	-1.56956	-2.62323	0	0	-0	0	0	0	16.8812	-56.0256	-14.1225	0.285853	1.41022	-0.977652	
53748	1580406961.438682228	0.00246463	-0.92881	2.13524	-2.77702	-1.56957	-2.62317	0	0	-0	0	0	0	17.1535	-56.5112	-14.1474	0.190569	1.38548	-1.23493	
53749	1580406961.447161981	0.0024886	-0.928846	2.13524	-2.777	-1.5696	-2.62321	0	0	-0	0	0	0	17.0854	-56.5719	-14.1474	0.190569	1.41022	-1.15775	
53750	1580406961.454719705	0.00245265	-0.928834	2.13529	-2.77703	-1.56957	-2.62321	0	0	-0	0	0	0	16.5409	-56.147	-14.2722	0.166748	1.4597	-1.2092	
53751	1580406961.462695452	0.00247662	-0.928834	2.13526	-2.77702	-1.56956	-2.62323	0	0	-0	0	0	0	17.1535	-56.4505	-14.1225	0.262032	1.31126	-1.18347	
53752	1580406961.470748500	0.0024886	-0.928846	2.13525	-2.77702	-1.56958	-2.6232	0	0	-0	0	0	0	17.2896	-56.754	-14.0726	0.190569	1.43496	-1.26066	
53753	1580406961.478775866	0.0024886	-0.928822	2.13524	-2.77703	-1.56957	-2.6232	0	0	-0	0	0	0	17.3577	-56.3291	-14.1474	0.21439	1.336	-1.02911	
53754	1580406961.486740599	0.0024886	-0.928834	2.13523	-2.77703	-1.56958	-2.6232	0	0	-0	0	0	0	17.2896	-56.9968	-14.0476	0.595528	1.336	-1.10629	
53755	1580406961.494712285	0.00247662	-0.928798	2.13523	-2.77704	-1.56957	-2.62318	0	0	-0	0	0	0	17.0174	-56.6933	-14.2472	0.166748	1.31126	-1.15775	
53756	1580406961.502690539	0.00245265	-0.928846	2.13527	-2.777	-1.56958	-2.62321	0	0	-0	0	0	0	16.5409	-56.6326	-14.1724	0.285853	1.336	-1.05484	
53757	1580406961.510820129	0.00247662	-0.928846	2.13525	-2.77704	-1.56956	-2.62323	0	0	-0	0	0	0	16.9493	-56.3898	-14.0975	0.333496	1.36074	-1.10629	
53758	1580406961.518702285	0.00245265	-0.928834	2.13523	-2.77702	-1.56958	-2.62319	0	0	-0	0	0	0	16.677	-56.6933	-14.1973	0.357317	1.36074	-1.28638	
53759	1580406961.526770565	0.00247662	-0.92881	2.13521	-2.77702	-1.56955	-2.62324	0	0	-0	0	0	0	17.3577	-56.2077	-14.1973	0.190569	1.36074	-1.08056	
53760	1580406961.534713045	0.00250058	-0.928846	2.13524	-2.777	-1.56958	-2.62324	0	0	-0	0	0	0	17.1535	-56.5112	-13.9977	0.21439	1.41022	-0.951925	
53761	1580406961.542702693	0.00250058	-0.928822	2.13523	-2.77704	-1.56958	-2.62321	0	0	-0	0	0	0	17.4939	-56.6933	-14.0476	0.190569	1.28652	-1.2092	
53762	1580406961.550711562	0.00251257	-0.928822	2.13525	-2.77702	-1.56956	-2.6232	0	0	-0	0	0	0	17.1535	-56.754	-14.1474	0.21439	1.36074	-1.15775	
53763	1580406961.558734774	0.00251257	-0.928834	2.13525	-2.777	-1.56958	-2.62319	0	0	-0	0	0	0	16.7451	-56.6326	-14.1973	0.285853	1.28652	-1.15775	
53764	1580406961.566721036	0.0024886	-0.928858	2.13525	-2.77702	-1.56957	-2.62323	0	0	-0	0	0	0	16.677	-56.9361	-14.1973	0.21439	1.36074	-1.05484	
53765	1580406961.574734388	0.0024886	-0.928798	2.13525	-2.77704	-1.56955	-2.62323	0	0	-0	0	0	0	17.2216	-56.754	-14.2223	0.21439	1.36074	-1.00338	
53766	1580406961.582761004	0.00245265	-0.92881	2.13529	-2.77702	-1.56956	-2.62319	0	0	-0	0	0	0	16.9493	-57.1182	-14.1724	0.190569	1.28652	-1.00338	
53767	1580406961.590764291	0.00250058	-0.928834	2.13527	-2.777	-1.56958	-2.62323	0	0	-0	0	0	0	17.3577	-56.0256	-14.347	0.238211	1.43496	-1.18347	
53768	1580406961.598721656	0.00247662	-0.928798	2.13527	-2.77704	-1.56956	-2.62323	0	0	-0	0	0	0	17.4258	-56.8754	-14.347	0.42878	1.336	-1.10629	
53769	1580406961.606773210	0.00246463	-0.928834	2.13525	-2.77702	-1.56958	-2.62321	0	0	-0	0	0	0	16.4728	-56.5719	-14.1225	0.262032	1.48445	-1.00338	
53770	1580406961.614736496	0.00247662	-0.928834	2.13525	-2.77702	-1.56961	-2.6232	0	0	-0	0	0	0	16.3367	-56.8147	-14.1225	0.21439	1.41022	-1.13202	
53771	1580406961.622672559	0.00251257	-0.928822	2.13525	-2.77703	-1.56958	-2.62319	0	0	-0	0	0	0	17.1535	-56.9361	-14.2472	0.21439	1.41022	-1.15775	
53772	1580406961.630709536	0.0024886	-0.92881	2.13527	-2.77699	-1.56962	-2.62321	0	0	-0	0	0	0	17.0174	-56.9968	-14.1724	0.262032	1.336	-1.18347	
53773	1580406961.638709316	0.00250058	-0.928846	2.13525	-2.77702	-1.56958	-2.62324	0	0	-0	0	0	0	17.0174	-56.3898	-14.372	0.21439	1.4597	-1.10629	
53774	1580406961.646723427	0.00247662	-0.928846	2.13524	-2.777	-1.56962	-2.62318	0	0	-0	0	0	0	16.9493	-56.3898	-13.9229	0.262032	1.43496	-1.08056	
53775	1580406961.654742575	0.00247662	-0.928834	2.13521	-2.777	-1.56957	-2.62319	0	0	-0	0	0	0	16.3367	-56.5112	-14.1724	0.262032	1.4597	-1.10629	
53776	1580406961.662696953	0.00245265	-0.928834	2.13529	-2.77704	-1.5696	-2.6232	0	0	-0	0	0	0	17.4258	-57.1789	-14.0726	0.262032	1.48445	-0.926197	
53777	1580406961.670778173	0.0024886	-0.92881	2.13527	-2.77704	-1.56957	-2.62323	0	0	-0	0	0	0	17.0854	-56.6326	-14.2722	0.21439	1.43496	-1.23493	
53778	1580406961.678746506	0.00247662	-0.928822	2.13526	-2.77699	-1.56958	-2.62321	0	0	-0	0	0	0	16.8132	-56.6933	-14.1474	0.309674	1.58341	-1.2092	
53779	1580406961.686735402	0.00247662	-0.928834	2.13525	-2.77703	-1.56958	-2.6232	0	0	-0	0	0	0	16.2686	-56.9968	-14.2722	0.190569	1.4597	-1.23493	
53780	1580406961.694693346	0.0024886	-0.92881	2.13526	-2.77703	-1.56958	-2.62319	0	0	-0	0	0	0	16.0644	-56.8147	-14.2223	0.190569	1.41022	-1.05484	
53781	1580406961.702759015	0.0024886	-0.928858	2.13525	-2.77699	-1.56958	-2.62321	0	0	-0	0	0	0	16.8132	-56.3291	-14.1225	0.166748	1.48445	-1.10629	
53782	1580406961.710753607	0.0024886	-0.92887	2.13525	-2.77704	-1.56957	-2.6232	0	0	-0	0	0	0	16.6089	-56.9968	-14.2722	0.262032	1.48445	-1.13202	
53783	1580406961.718716313	0.00247662	-0.928834	2.13525	-2.77703	-1.56956	-2.6232	0	0	-0	0	0	0	16.7451	-56.4505	-14.2223	0.166748	1.50919	-0.926197	
53784	1580406961.726684200	0.00247662	-0.928762	2.13526	-2.77704	-1.56958	-2.62321	0	0	-0	0	0	0	16.9493	-56.5112	-14.0726	0.0952844	1.4597	-0.951925	
53785	1580406961.734765396	0.00245265	-0.928822	2.13526	-2.77702	-1.56957	-2.6232	0	0	-0	0	0	0	17.0174	-56.5112	-14.2223	0.262032	1.4597	-1.02911	
53786	1580406961.742724775	0.00247662	-0.928834	2.13529	-2.77702	-1.56958	-2.6232	0	0	-0	0	0	0	17.1535	-56.9361	-14.1973	0.285853	1.48445	-1.13202	
53787	1580406961.750681281	0.0024886	-0.928822	2.13527	-2.77702	-1.56958	-2.62319	0	0	-0	0	0	0	16.8132	-56.3291	-14.2223	0.262032	1.48445	-0.926197	
53788	1580406961.758694223	0.0024886	-0.92881	2.13524	-2.77702	-1.5696	-2.62323	0	0	-0	0	0	0	17.2216	-56.6326	-14.1474	0.190569	1.36074	-1.10629	
53789	1580406961.766706692	0.00250058	-0.928822	2.13526	-2.777	-1.56955	-2.62319	0	0	-0	0	0	0	16.8132	-56.3898	-14.1225	0.21439	1.336	-1.05484	
53790	1580406961.774758584	0.00247662	-0.928798	2.13525	-2.77702	-1.56957	-2.62319	0	0	-0	0	0	0	17.63	-56.2684	-14.1724	0.21439	1.53393	-1.13202	
53791	1580406961.782749414	0.00246463	-0.92881	2.13523	-2.77704	-1.56955	-2.6232	0	0	-0	0	0	0	17.0174	-56.5719	-14.2722	0.238211	1.41022	-1.13202	
53792	1580406961.790739308	0.0024886	-0.928834	2.13527	-2.77703	-1.56961	-2.62323	0	0	-0	0	0	0	16.8132	-56.9361	-14.2722	0.0952844	1.48445	-1.02911	
53793	1580406961.798844679	0.00246463	-0.928822	2.13521	-2.77699	-1.5696	-2.62318	0	0	-0	0	0	0	15.8602	-56.5112	-14.1474	0.119106	1.43496	-1.10629	
53794	1580406961.806734616	0.00247662	-0.928858	2.13526	-2.777	-1.56957	-2.62321	0	0	-0	0	0	0	17.4258	-56.8754	-14.2472	0.190569	1.38548	-1.00338	
53795	1580406961.814748736	0.0024886	-0.928846	2.13527	-2.77704	-1.56962	-2.62323	0	0	-0	0	0	0	17.0174	-57.0575	-14.1474	0.309674	1.53393	-1.10629	
53796	1580406961.822705624	0.0024886	-0.928846	2.13526	-2.77703	-1.56956	-2.62321	0	0	-0	0	0	0	16.8132	-56.5112	-14.1724	0.142927	1.41022	-1.31211	
53797	1580406961.830810511	0.00245265	-0.928822	2.13525	-2.77703	-1.5696	-2.6232	0	0	-0	0	0	0	17.2216	-56.9361	-14.0975	0.166748	1.41022	-1.13202	
53798	1580406961.838761655	0.00246463	-0.928882	2.13523	-2.77704	-1.56954	-2.62323	0	0	-0	0	0	0	16.7451	-56.147	-14.2223	0.119106	1.43496	-1.15775	
53799	1580406961.846679686	0.00250058	-0.928834	2.1353	-2.777	-1.56955	-2.62324	0	0	-0	0	0	0	16.8812	-56.4505	-14.1973	0.285853	1.28652	-1.00338	
53800	1580406961.854735252	0.00250058	-0.928846	2.13525	-2.77702	-1.56961	-2.6232	0	0	-0	0	0	0	17.0174	-56.4505	-14.1225	0.166748	1.31126	-1.10629	
53801	1580406961.862753336	0.00250058	-0.928834	2.13526	-2.77702	-1.56958	-2.62319	0	0	-0	0	0	0	16.9493	-56.4505	-14.0476	0.190569	1.36074	-1.05484	
53802	1580406961.870684250	0.00246463	-0.928834	2.13523	-2.77702	-1.56958	-2.6232	0	0	-0	0	0	0	16.8132	-56.3898	-14.0476	0.21439	1.41022	-1.10629	
53803	1580406961.878682609	0.00246463	-0.928834	2.13524	-2.77702	-1.56961	-2.62319	0	0	-0	0	0	0	16.9493	-56.6933	-14.1225	0.357317	1.36074	-1.23493	
53804	1580406961.886735654	0.00242905	-0.928786	2.13527	-2.77703	-1.56955	-2.6232	0	0	-0	0	0	0	16.8132	-56.6326	-14.2472	0.238211	1.53393	-1.18347	
53805	1580406961.894790915	0.00250058	-0.928834	2.13523	-2.777	-1.56958	-2.62319	0	0	-0	0	0	0	16.7451	-56.6933	-14.3221	0.166748	1.36074	-1.08056	
53806	1580406961.902736534	0.00251257	-0.928834	2.13526	-2.77703	-1.56957	-2.62323	0	0	-0	0	0	0	17.4258	-56.4505	-14.0726	0.333496	1.41022	-1.13202	
53807	1580406961.910735627	0.0024886	-0.928846	2.13525	-2.777	-1.56955	-2.62323	0	0	-0	0	0	0	16.8812	-56.6326	-14.2971	0.404959	1.336	-1.08056	
53808	1580406961.918686959	0.0024886	-0.928822	2.13524	-2.77702	-1.56956	-2.62318	0	0	-0	0	0	0	16.8132	-56.9361	-14.2722	0.166748	1.41022	-1.02911	
53809	1580406961.926796266	0.00247662	-0.928846	2.13525	-2.77704	-1.56957	-2.62323	0	0	-0	0	0	0	16.7451	-56.4505	-14.3969	0.333496	1.31126	-1.18347	
53810	1580406961.934752648	0.00246463	-0.928858	2.13525	-2.77704	-1.56956	-2.6232	0	0	-0	0	0	0	16.8812	-56.8147	-14.0975	0.142927	1.36074	-0.900469	
53811	1580406961.942685239	0.00247662	-0.928822	2.13525	-2.77703	-1.56961	-2.62321	0	0	-0	0	0	0	16.7451	-56.3898	-14.2971	0.21439	1.36074	-0.977652	
53812	1580406961.950706247	0.0024886	-0.928834	2.1353	-2.77703	-1.56958	-2.62321	0	0	-0	0	0	0	17.63	-56.5112	-14.3221	0.238211	1.36074	-0.977652	
53813	1580406961.958764272	0.0024886	-0.928858	2.13525	-2.77703	-1.56957	-2.62319	0	0	-0	0	0	0	16.6089	-56.3291	-14.2722	0.21439	1.36074	-0.900469	
53814	1580406961.966699057	0.00250058	-0.92881	2.13524	-2.77703	-1.56957	-2.62323	0	0	-0	0	0	0	16.677	-56.6933	-14.0975	0.262032	1.23704	-1.2092	
53815	1580406961.974707818	0.00250058	-0.92881	2.13526	-2.777	-1.56955	-2.62319	0	0	-0	0	0	0	16.5409	-56.5112	-14.2722	0.238211	1.38548	-1.18347	
53816	1580406961.982687655	0.0024886	-0.928834	2.13526	-2.77703	-1.5696	-2.62323	0	0	-0	0	0	0	16.9493	-57.3003	-14.2472	0.285853	1.41022	-0.977652	
53817	1580406961.990724172	0.0024886	-0.928798	2.13523	-2.777	-1.56957	-2.6232	0	0	-0	0	0	0	16.9493	-56.4505	-14.1474	0.190569	1.36074	-1.00338	
53818	1580406961.998744533	0.0024886	-0.928834	2.13525	-2.77702	-1.56957	-2.62321	0	0	-0	0	0	0	17.4258	-56.9968	-14.1724	0.309674	1.41022	-0.926197	
53819	1580406962.006747697	0.00247662	-0.928846	2.13525	-2.77702	-1.56958	-2.62323	0	0	-0	0	0	0	16.8132	-56.6933	-14.2223	0.262032	1.28652	-1.28638	
53820	1580406962.014704106	0.0024886	-0.928822	2.13519	-2.77702	-1.56958	-2.6232	0	0	-0	0	0	0	16.4047	-56.147	-14.1225	0.190569	1.38548	-1.08056	
53821	1580406962.022834104	0.00246463	-0.928822	2.13527	-2.77702	-1.56954	-2.62324	0	0	-0	0	0	0	16.8812	-56.2684	-14.2472	0.238211	1.28652	-1.15775	
53822	1580406962.030762939	0.00246463	-0.928798	2.13526	-2.77702	-1.56958	-2.62321	0	0	-0	0	0	0	16.2005	-56.3898	-14.372	0.262032	1.336	-0.977652	
53823	1580406962.038691579	0.0024886	-0.928822	2.13526	-2.777	-1.56957	-2.62321	0	0	-0	0	0	0	16.9493	-56.4505	-14.1225	0.21439	1.336	-1.2092	
53824	1580406962.046703818	0.00247662	-0.928846	2.13527	-2.777	-1.56957	-2.6232	0	0	-0	0	0	0	16.4728	-56.5719	-14.2472	0.238211	1.31126	-1.26066	
53825	1580406962.054727640	0.00245265	-0.928834	2.13526	-2.77704	-1.56956	-2.6232	0	0	-0	0	0	0	16.4728	-56.5112	-14.1225	0.262032	1.38548	-1.13202	
53826	1580406962.062728188	0.00250058	-0.92881	2.13524	-2.77703	-1.56956	-2.62321	0	0	-0	0	0	0	17.4939	-56.8754	-14.2223	0.166748	1.38548	-0.900469	
53827	1580406962.070745575	0.00242905	-0.928858	2.13525	-2.77702	-1.5696	-2.6232	0	0	-0	0	0	0	17.2216	-56.5719	-14.0476	0.21439	1.38548	-0.977652	
53828	1580406962.078739685	0.00246463	-0.928858	2.13523	-2.77704	-1.56957	-2.62318	0	0	-0	0	0	0	16.2686	-56.8754	-14.2971	0.21439	1.31126	-1.13202	
53829	1580406962.086762903	0.0024886	-0.928822	2.13524	-2.77702	-1.56958	-2.6232	0	0	-0	0	0	0	16.677	-56.5112	-14.1474	0.238211	1.41022	-1.00338	
53830	1580406962.094738727	0.00247662	-0.928822	2.13524	-2.77704	-1.56957	-2.6232	0	0	-0	0	0	0	17.0174	-56.4505	-14.1474	0.21439	1.38548	-1.10629	
53831	1580406962.102775451	0.00247662	-0.928798	2.13525	-2.777	-1.56957	-2.62318	0	0	-0	0	0	0	16.8812	-57.1789	-14.0227	0.285853	1.38548	-1.10629	
53832	1580406962.110732317	0.00247662	-0.928822	2.13525	-2.77702	-1.56956	-2.62319	0	0	-0	0	0	0	16.677	-56.6326	-14.0726	0.309674	1.31126	-1.08056	
53833	1580406962.118842553	0.00247662	-0.928798	2.13525	-2.77699	-1.56956	-2.6232	0	0	-0	0	0	0	17.0854	-56.5112	-14.2472	0.309674	1.31126	-1.05484	
53834	1580406962.126762255	0.0024886	-0.928846	2.13525	-2.777	-1.56955	-2.62321	0	0	-0	0	0	0	16.7451	-56.6933	-14.2223	0.238211	1.28652	-0.977652	
53835	1580406962.134697533	0.00247662	-0.928822	2.13521	-2.77704	-1.5696	-2.62318	0	0	-0	0	0	0	17.1535	-56.2684	-14.2971	0.262032	1.38548	-0.951925	
53836	1580406962.142712683	0.0024886	-0.928834	2.13529	-2.77702	-1.56961	-2.62324	0	0	-0	0	0	0	16.6089	-56.3898	-14.2722	0.238211	1.38548	-1.15775	
53837	1580406962.150698290	0.00247662	-0.928822	2.1353	-2.77703	-1.56956	-2.62323	0	0	-0	0	0	0	17.3577	-56.9361	-14.3221	0.285853	1.36074	-1.13202	
53838	1580406962.158704281	0.0024886	-0.928846	2.13523	-2.77702	-1.56958	-2.62321	0	0	-0	0	0	0	16.4728	-56.3898	-14.2472	0.142927	1.4597	-1.2092	
53839	1580406962.166736875	0.00246463	-0.928846	2.13525	-2.77702	-1.56958	-2.6232	0	0	-0	0	0	0	17.0854	-56.4505	-14.0476	0.21439	1.336	-1.18347	
53840	1580406962.174727831	0.00246463	-0.928858	2.13525	-2.77703	-1.56958	-2.62319	0	0	-0	0	0	0	16.8132	-56.3898	-14.2722	0.285853	1.336	-1.10629	
53841	1580406962.182780494	0.0024886	-0.928846	2.13525	-2.77702	-1.56958	-2.62321	0	0	-0	0	0	0	16.2005	-56.754	-14.1474	0.21439	1.28652	-1.10629	
53842	1580406962.190780150	0.0024886	-0.928822	2.13529	-2.77702	-1.56962	-2.62321	0	0	-0	0	0	0	17.4939	-56.6933	-14.3969	0.262032	1.43496	-1.10629	
53843	1580406962.198779856	0.00247662	-0.928846	2.13525	-2.777	-1.56956	-2.62324	0	0	-0	0	0	0	16.3367	-56.3898	-14.2223	0.190569	1.4597	-1.08056	
53844	1580406962.206702804	0.00246463	-0.928846	2.13526	-2.77702	-1.5696	-2.62323	0	0	-0	0	0	0	17.0854	-56.4505	-14.1973	0.238211	1.336	-1.18347	
53845	1580406962.214777811	0.0024886	-0.928846	2.13529	-2.77702	-1.56958	-2.62321	0	0	-0	0	0	0	16.3367	-56.754	-14.2223	0.21439	1.36074	-1.18347	
53846	1580406962.222756062	0.0024886	-0.92881	2.13525	-2.77702	-1.5696	-2.62319	0	0	-0	0	0	0	16.8132	-56.4505	-14.1225	-0.0238211	1.41022	-1.15775	
53847	1580406962.230696799	0.00245265	-0.928822	2.13521	-2.77703	-1.56958	-2.62321	0	0	-0	0	0	0	16.4047	-56.6326	-14.1474	0.238211	1.50919	-1.10629	
53848	1580406962.238737056	0.00246463	-0.928822	2.13525	-2.77702	-1.56957	-2.62321	0	0	-0	0	0	0	16.5409	-56.6326	-14.372	0.0952844	1.38548	-1.05484	
53849	1580406962.246732866	0.00245265	-0.928834	2.13524	-2.77702	-1.56956	-2.6232	0	0	-0	0	0	0	17.4258	-56.3898	-14.3221	0.238211	1.36074	-1.02911	
53850	1580406962.254695266	0.00246463	-0.928822	2.13525	-2.77703	-1.56956	-2.62324	0	0	-0	0	0	0	17.4258	-56.5112	-14.2472	0.309674	1.43496	-1.10629	
53851	1580406962.262675362	0.00250058	-0.928798	2.13523	-2.77704	-1.56957	-2.6232	0	0	-0	0	0	0	16.7451	-56.6326	-14.2722	0.238211	1.48445	-1.10629	
53852	1580406962.270716697	0.00247662	-0.928834	2.13524	-2.77702	-1.56958	-2.62323	0	0	-0	0	0	0	16.677	-56.9968	-14.0975	0.190569	1.48445	-1.13202	
53853	1580406962.278772467	0.00250058	-0.928822	2.13525	-2.777	-1.56956	-2.62324	0	0	-0	0	0	0	16.9493	-56.6326	-14.1474	0.190569	1.336	-1.10629	
53854	1580406962.286779816	0.00247662	-0.928846	2.13525	-2.77702	-1.56958	-2.62319	0	0	-0	0	0	0	16.9493	-56.5719	-14.0726	0.190569	1.16282	-1.02911	
53855	1580406962.294681711	0.0024886	-0.92881	2.13521	-2.77703	-1.56957	-2.62321	0	0	-0	0	0	0	16.7451	-56.3291	-14.2472	0.381138	1.41022	-1.2092	
53856	1580406962.302696914	0.00247662	-0.92881	2.13526	-2.777	-1.56957	-2.6232	0	0	-0	0	0	0	17.0854	-56.8147	-14.1973	0.309674	1.38548	-0.977652	
53857	1580406962.310706093	0.00250058	-0.928846	2.13529	-2.77703	-1.56955	-2.62318	0	0	-0	0	0	0	17.0174	-56.754	-14.1973	0.238211	1.336	-0.926197	
53858	1580406962.318715456	0.00247662	-0.928834	2.13524	-2.77703	-1.56957	-2.62319	0	0	-0	0	0	0	17.1535	-56.5719	-14.0975	0.190569	1.38548	-1.02911	
53859	1580406962.326710541	0.0024886	-0.928822	2.13529	-2.77703	-1.56958	-2.62321	0	0	-0	0	0	0	16.5409	-56.2684	-14.1724	0.309674	1.41022	-1.05484	
53860	1580406962.334702428	0.00250058	-0.928834	2.13527	-2.77702	-1.56957	-2.62324	0	0	-0	0	0	0	17.0174	-56.9968	-14.1724	0.21439	1.31126	-1.05484	
53861	1580406962.342704811	0.00250058	-0.928798	2.13525	-2.77703	-1.56956	-2.62324	0	0	-0	0	0	0	16.5409	-57.1182	-14.2971	0.285853	1.48445	-0.977652	
53862	1580406962.350806055	0.00247662	-0.928822	2.13525	-2.77702	-1.56958	-2.62323	0	0	-0	0	0	0	17.0854	-56.4505	-14.0975	0.190569	1.38548	-1.15775	
53863	1580406962.358760412	0.00251257	-0.92881	2.13527	-2.77703	-1.56956	-2.62321	0	0	-0	0	0	0	17.0854	-57.4217	-13.9478	0.21439	1.4597	-0.900469	
53864	1580406962.366717557	0.0024886	-0.928858	2.13523	-2.77704	-1.56958	-2.62321	0	0	-0	0	0	0	16.9493	-56.6933	-14.372	0.262032	1.41022	-1.13202	
53865	1580406962.374747918	0.00246463	-0.928822	2.13526	-2.77702	-1.5696	-2.62321	0	0	-0	0	0	0	16.5409	-57.0575	-14.1474	0.190569	1.4597	-1.2092	
53866	1580406962.382759786	0.0024886	-0.92881	2.13524	-2.777	-1.56955	-2.62321	0	0	-0	0	0	0	17.0174	-56.2684	-14.2223	0.190569	1.48445	-1.08056	
53867	1580406962.390683277	0.00246463	-0.928822	2.13521	-2.77703	-1.5696	-2.62321	0	0	-0	0	0	0	17.6981	-56.3898	-14.2472	0.166748	1.26178	-1.13202	
53868	1580406962.398708817	0.00247662	-0.928846	2.13525	-2.77703	-1.56957	-2.62317	0	0	-0	0	0	0	17.1535	-56.5719	-14.3969	0.119106	1.38548	-1.08056	
53869	1580406962.406815115	0.00246463	-0.928834	2.13527	-2.77703	-1.56956	-2.62321	0	0	-0	0	0	0	16.677	-56.4505	-14.1724	0.119106	1.38548	-1.00338	
53870	1580406962.414686649	0.00246463	-0.928822	2.13526	-2.77702	-1.56957	-2.62321	0	0	-0	0	0	0	16.5409	-56.3291	-14.1474	0.285853	1.41022	-1.2092	
53871	1580406962.422733194	0.00247662	-0.928834	2.13525	-2.77705	-1.56958	-2.62326	0	0	-0	0	0	0	17.4939	-56.0256	-14.2722	0.285853	1.26178	-0.951925	
53872	1580406962.430724508	0.0024886	-0.928858	2.13529	-2.777	-1.56957	-2.62321	0	0	-0	0	0	0	16.8812	-56.3291	-14.0975	0.309674	1.38548	-1.10629	
53873	1580406962.438806278	0.00247662	-0.928798	2.13526	-2.77702	-1.5696	-2.62319	0	0	-0	0	0	0	16.7451	-56.754	-14.1724	0.190569	1.38548	-0.977652	
53874	1580406962.446668156	0.00250058	-0.928858	2.13525	-2.77703	-1.5696	-2.62318	0	0	-0	0	0	0	17.1535	-56.3291	-14.1724	0.309674	1.48445	-1.10629	
53875	1580406962.454684860	0.00247662	-0.928834	2.13524	-2.77703	-1.56956	-2.6232	0	0	-0	0	0	0	16.9493	-56.3291	-14.1973	0.238211	1.43496	-1.05484	
53876	1580406962.462718140	0.00246463	-0.928786	2.13523	-2.77703	-1.56957	-2.62321	0	0	-0	0	0	0	17.4258	-56.754	-14.1973	0.21439	1.36074	-1.13202	
53877	1580406962.470818280	0.00246463	-0.928846	2.13521	-2.77703	-1.56957	-2.62321	0	0	-0	0	0	0	17.2216	-56.6933	-14.1225	0.333496	1.36074	-1.26066	
53878	1580406962.478725253	0.00247662	-0.928858	2.13524	-2.77703	-1.56957	-2.62324	0	0	-0	0	0	0	16.677	-56.5112	-14.0476	0.238211	1.55867	-1.08056	
53879	1580406962.486677280	0.00246463	-0.928882	2.13525	-2.77704	-1.56956	-2.6232	0	0	-0	0	0	0	17.2896	-56.9968	-14.372	0.21439	1.38548	-1.13202	
53880	1580406962.494710065	0.00250058	-0.928846	2.13526	-2.77703	-1.56957	-2.62318	0	0	-0	0	0	0	17.3577	-56.5719	-14.1474	0.238211	1.26178	-1.02911	
53881	1580406962.502796023	0.0024886	-0.928846	2.13524	-2.77698	-1.56958	-2.62319	0	0	-0	0	0	0	16.2686	-56.5719	-13.9478	0.309674	1.31126	-1.08056	
53882	1580406962.510701725	0.00246463	-0.928858	2.13525	-2.77702	-1.56956	-2.62321	0	0	-0	0	0	0	17.2216	-56.4505	-14.2223	0.190569	1.336	-1.18347	
53883	1580406962.518747783	0.00247662	-0.928834	2.13527	-2.77702	-1.56957	-2.62324	0	0	-0	0	0	0	17.0854	-56.8147	-14.1225	0.166748	1.36074	-0.977652	
53884	1580406962.526738573	0.00245265	-0.928822	2.13526	-2.77704	-1.56957	-2.62323	0	0	-0	0	0	0	16.6089	-56.6933	-14.1474	0.238211	1.36074	-0.951925	
53885	1580406962.534760681	0.00250058	-0.928834	2.13523	-2.777	-1.56958	-2.62321	0	0	-0	0	0	0	16.3367	-56.4505	-14.347	0.262032	1.48445	-1.05484	
53886	1580406962.542753896	0.00251257	-0.928822	2.13525	-2.77703	-1.56958	-2.6232	0	0	-0	0	0	0	17.5619	-56.9361	-14.0975	0.21439	1.4597	-1.2092	
53887	1580406962.550747317	0.00247662	-0.928822	2.13523	-2.77702	-1.56957	-2.62323	0	0	-0	0	0	0	16.3367	-56.2077	-14.1973	0.166748	1.41022	-1.15775	
53888	1580406962.558680885	0.00247662	-0.928858	2.13527	-2.77704	-1.56956	-2.6232	0	0	-0	0	0	0	17.0174	-56.5112	-14.1724	0.262032	1.38548	-1.02911	
53889	1580406962.566721514	0.00247662	-0.928834	2.13524	-2.77702	-1.56958	-2.6232	0	0	-0	0	0	0	17.2216	-56.8147	-13.9478	0.262032	1.43496	-0.977652	
53890	1580406962.574704198	0.00250058	-0.928834	2.13525	-2.77702	-1.56957	-2.62319	0	0	-0	0	0	0	17.4258	-56.5719	-14.2223	0.238211	1.43496	-1.02911	
53891	1580406962.582712104	0.00250058	-0.92881	2.13529	-2.77703	-1.5696	-2.62321	0	0	-0	0	0	0	16.8132	-56.3898	-14.1474	0.238211	1.48445	-1.00338	
53892	1580406962.590689519	0.0024886	-0.928858	2.13524	-2.77703	-1.56958	-2.62321	0	0	-0	0	0	0	17.2896	-56.2077	-14.2223	0.238211	1.38548	-0.900469	
53893	1580406962.598699719	0.0024886	-0.928834	2.13527	-2.777	-1.56963	-2.62318	0	0	-0	0	0	0	17.0854	-56.4505	-14.1724	0.142927	1.36074	-0.951925	
53894	1580406962.606687612	0.00245265	-0.928798	2.13526	-2.77698	-1.5696	-2.62321	0	0	-0	0	0	0	16.4728	-56.6326	-14.2722	0.21439	1.58341	-1.05484	
53895	1580406962.614706059	0.00246463	-0.928858	2.13524	-2.77702	-1.56957	-2.62318	0	0	-0	0	0	0	17.0174	-57.1182	-14.1474	0.285853	1.336	-1.02911	
53896	1580406962.622706635	0.00247662	-0.928786	2.13525	-2.77703	-1.5696	-2.6232	0	0	-0	0	0	0	17.1535	-56.2077	-14.1474	0.262032	1.28652	-1.05484	
53897	1580406962.630705429	0.0024886	-0.92881	2.13525	-2.777	-1.56958	-2.62325	0	0	-0	0	0	0	17.2896	-56.5719	-14.1474	0.21439	1.4597	-1.2092	
53898	1580406962.638709731	0.0024886	-0.928786	2.13525	-2.77702	-1.5696	-2.62324	0	0	-0	0	0	0	17.4258	-56.6933	-14.2971	0.21439	1.48445	-1.08056	
53899	1580406962.646781802	0.00246463	-0.92887	2.13524	-2.777	-1.56956	-2.62319	0	0	-0	0	0	0	16.8812	-56.3291	-14.1724	0.404959	1.48445	-0.874742	
53900	1580406962.654678124	0.0024886	-0.928822	2.13525	-2.77702	-1.56957	-2.62323	0	0	-0	0	0	0	17.2896	-56.6326	-14.2472	0.262032	1.50919	-1.26066	
53901	1580406962.662761377	0.00247662	-0.92881	2.13525	-2.77703	-1.56956	-2.62318	0	0	-0	0	0	0	17.4939	-56.754	-14.1225	0.238211	1.36074	-1.08056	
53902	1580406962.670742110	0.00246463	-0.928846	2.13526	-2.77702	-1.56958	-2.62321	0	0	-0	0	0	0	17.0854	-56.3898	-14.1474	0.166748	1.38548	-1.10629	
53903	1580406962.678670490	0.00246463	-0.928822	2.13527	-2.77704	-1.56957	-2.62325	0	0	-0	0	0	0	16.8812	-56.6326	-14.1973	0.333496	1.36074	-1.15775	
53904	1580406962.686718655	0.00247662	-0.928822	2.13524	-2.77702	-1.56957	-2.62323	0	0	-0	0	0	0	16.8132	-56.3898	-14.2971	0.238211	1.41022	-1.10629	
53905	1580406962.694747682	0.00245265	-0.928858	2.13523	-2.77702	-1.56958	-2.62321	0	0	-0	0	0	0	16.9493	-56.5719	-14.2472	0.166748	1.41022	-1.02911	
53906	1580406962.702722356	0.0024886	-0.928834	2.13524	-2.77703	-1.5696	-2.6232	0	0	-0	0	0	0	17.9703	-56.4505	-14.1724	0.238211	1.4597	-1.08056	
53907	1580406962.710724485	0.00245265	-0.928798	2.1352	-2.777	-1.56957	-2.62326	0	0	-0	0	0	0	16.8812	-56.8147	-14.0975	0.190569	1.43496	-0.977652	
53908	1580406962.718728469	0.00251257	-0.928846	2.13525	-2.77702	-1.56958	-2.62324	0	0	-0	0	0	0	16.8812	-56.6933	-14.1474	0.262032	1.50919	-1.13202	
53909	1580406962.726739626	0.00250058	-0.92881	2.13526	-2.777	-1.5696	-2.62323	0	0	-0	0	0	0	16.8812	-56.3898	-14.0975	0.285853	1.38548	-1.00338	
53910	1580406962.734732535	0.00246463	-0.92881	2.13526	-2.777	-1.56957	-2.6232	0	0	-0	0	0	0	16.9493	-56.3898	-14.0726	0.262032	1.31126	-1.08056	
53911	1580406962.742745160	0.0024886	-0.928822	2.13523	-2.777	-1.56958	-2.62321	0	0	-0	0	0	0	16.9493	-56.6933	-14.2223	0.142927	1.38548	-1.00338	
53912	1580406962.750676023	0.00250058	-0.928858	2.13523	-2.77702	-1.56958	-2.62321	0	0	-0	0	0	0	16.9493	-56.147	-14.0476	0.166748	1.36074	-0.849014	
53913	1580406962.758786842	0.0024886	-0.92887	2.13524	-2.77702	-1.56958	-2.62321	0	0	-0	0	0	0	17.0174	-56.5112	-14.1474	0.262032	1.36074	-1.08056	
53914	1580406962.766746253	0.0024886	-0.928834	2.13521	-2.77703	-1.56958	-2.62323	0	0	-0	0	0	0	16.7451	-56.5719	-14.2722	0.142927	1.43496	-1.15775	
53915	1580406962.774756588	0.0024886	-0.928846	2.13521	-2.77702	-1.56956	-2.62323	0	0	-0	0	0	0	16.8132	-56.5719	-14.2223	0.333496	1.41022	-0.951925	
53916	1580406962.782681681	0.00247662	-0.92881	2.13525	-2.77704	-1.56956	-2.62323	0	0	-0	0	0	0	16.9493	-56.2684	-14.1225	0.238211	1.38548	-0.694648	
53917	1580406962.790796976	0.00246463	-0.92881	2.13525	-2.77703	-1.5696	-2.6232	0	0	-0	0	0	0	16.677	-56.4505	-14.2223	0.190569	1.38548	-1.15775	
53918	1580406962.798720581	0.00250058	-0.928834	2.13525	-2.77702	-1.56955	-2.62323	0	0	-0	0	0	0	17.1535	-56.8147	-14.1474	0.309674	1.36074	-1.00338	
53919	1580406962.806731403	0.00246463	-0.92881	2.13525	-2.77702	-1.56956	-2.62321	0	0	-0	0	0	0	16.8132	-56.5112	-14.1225	0.238211	1.336	-1.05484	
53920	1580406962.814682661	0.00250058	-0.92881	2.13527	-2.777	-1.56954	-2.62323	0	0	-0	0	0	0	16.7451	-56.9361	-14.1474	0.381138	1.4597	-1.31211	
53921	1580406962.822684573	0.00250058	-0.928834	2.13526	-2.77703	-1.56956	-2.62323	0	0	-0	0	0	0	16.677	-57.1182	-14.1474	0.238211	1.41022	-1.13202	
53922	1580406962.830698094	0.00251257	-0.928834	2.13525	-2.777	-1.56957	-2.62321	0	0	-0	0	0	0	17.1535	-56.5112	-14.1225	0.119106	1.41022	-1.00338	
53923	1580406962.838742508	0.0024886	-0.928822	2.13526	-2.77702	-1.56958	-2.62321	0	0	-0	0	0	0	17.4258	-56.5719	-14.1225	0.238211	1.41022	-1.18347	
53924	1580406962.846696994	0.00245265	-0.928822	2.13525	-2.77702	-1.56956	-2.62324	0	0	-0	0	0	0	17.0174	-56.0863	-14.2223	0.238211	1.2123	-1.15775	
53925	1580406962.854735290	0.00247662	-0.92881	2.13525	-2.77702	-1.56958	-2.62323	0	0	-0	0	0	0	16.9493	-56.8147	-14.1973	0.166748	1.36074	-0.951925	
53926	1580406962.862687909	0.00250058	-0.92881	2.1353	-2.77702	-1.56958	-2.62318	0	0	-0	0	0	0	17.3577	-56.754	-14.1973	0.238211	1.31126	-1.00338	
53927	1580406962.870751092	0.00246463	-0.928822	2.13523	-2.777	-1.56957	-2.62323	0	0	-0	0	0	0	17.2216	-56.6933	-14.1225	0.190569	1.38548	-1.05484	
53928	1580406962.878741197	0.00246463	-0.928834	2.13523	-2.77703	-1.56956	-2.62321	0	0	-0	0	0	0	17.0854	-56.8754	-14.0476	0.166748	1.36074	-1.05484	
53929	1580406962.886781797	0.0024886	-0.92881	2.13521	-2.77702	-1.56957	-2.62321	0	0	-0	0	0	0	16.7451	-56.0863	-14.2472	0.166748	1.36074	-0.951925	
53930	1580406962.894738787	0.00247662	-0.928834	2.13525	-2.77703	-1.56957	-2.6232	0	0	-0	0	0	0	16.2686	-56.9968	-14.1724	0.333496	1.28652	-1.15775	
53931	1580406962.902688717	0.0024886	-0.928822	2.13527	-2.77703	-1.56955	-2.62321	0	0	-0	0	0	0	17.0854	-56.8754	-14.0726	0.262032	1.31126	-1.08056	
53932	1580406962.910706398	0.00250058	-0.92881	2.13526	-2.77702	-1.56957	-2.62319	0	0	-0	0	0	0	17.1535	-56.2684	-14.1474	0.190569	1.18756	-1.10629	
53933	1580406962.918732982	0.00250058	-0.928846	2.13521	-2.77702	-1.56957	-2.62324	0	0	-0	0	0	0	17.2896	-56.5719	-14.2971	0.238211	1.31126	-1.02911	
53934	1580406962.926686428	0.00251257	-0.928846	2.13532	-2.77703	-1.5696	-2.62321	0	0	-0	0	0	0	17.2216	-56.5112	-14.0975	0.285853	1.18756	-1.08056	
53935	1580406962.934721747	0.0024886	-0.928858	2.13529	-2.777	-1.5696	-2.62324	0	0	-0	0	0	0	17.0174	-56.2077	-14.1225	0.142927	1.336	-1.10629	
53936	1580406962.942698947	0.0024886	-0.92881	2.13526	-2.77704	-1.56958	-2.6232	0	0	-0	0	0	0	17.1535	-56.6933	-14.1724	0.190569	1.48445	-1.15775	
53937	1580406962.950683479	0.00245265	-0.928846	2.13524	-2.777	-1.5696	-2.62321	0	0	-0	0	0	0	16.8812	-57.1182	-14.1474	0.357317	1.36074	-1.10629	
53938	1580406962.958723154	0.0024886	-0.928822	2.13525	-2.77704	-1.56958	-2.62323	0	0	-0	0	0	0	16.7451	-56.6933	-14.1225	0.262032	1.36074	-1.10629	
53939	1580406962.966704689	0.00247662	-0.928834	2.13527	-2.77702	-1.56957	-2.62318	0	0	-0	0	0	0	17.1535	-56.6933	-14.1225	0.476422	1.43496	-0.926197	
53940	1580406962.974719463	0.00247662	-0.928822	2.13523	-2.77706	-1.56958	-2.62319	0	0	-0	0	0	0	17.5619	-56.2077	-14.2472	0.666991	1.4597	-1.00338	
53941	1580406962.982690390	0.00247662	-0.928846	2.13525	-2.77702	-1.56958	-2.62324	0	0	-0	0	0	0	16.9493	-56.8754	-14.1474	0.166748	1.41022	-1.13202	
53942	1580406962.990768391	0.00250058	-0.928822	2.13523	-2.77702	-1.5696	-2.6232	0	0	-0	0	0	0	16.4728	-56.9361	-14.3969	0.285853	1.336	-1.08056	
53943	1580406962.998732371	0.00250058	-0.92881	2.1352	-2.77703	-1.56957	-2.62319	0	0	-0	0	0	0	17.3577	-56.754	-14.1474	0.333496	1.41022	-1.08056	
53944	1580406963.006702939	0.00247662	-0.928834	2.13524	-2.77702	-1.56957	-2.62323	0	0	-0	0	0	0	17.2896	-56.9361	-14.2223	0.166748	1.43496	-1.02911	
53945	1580406963.014763365	0.0024886	-0.928822	2.13523	-2.77702	-1.56957	-2.62321	0	0	-0	0	0	0	16.6089	-56.3291	-14.347	0.309674	1.38548	-0.823286	
53946	1580406963.022748880	0.00247662	-0.928822	2.13525	-2.77699	-1.5696	-2.6232	0	0	-0	0	0	0	16.677	-56.5719	-14.1724	0.238211	1.43496	-1.2092	
53947	1580406963.030753791	0.00250058	-0.92881	2.13521	-2.77703	-1.56955	-2.62321	0	0	-0	0	0	0	17.2896	-56.6326	-14.1474	0.238211	1.38548	-1.08056	
53948	1580406963.038735495	0.0024886	-0.928846	2.13525	-2.77702	-1.56957	-2.62321	0	0	-0	0	0	0	17.1535	-56.9968	-14.0476	0.238211	1.55867	-1.02911	
53949	1580406963.046711937	0.0024886	-0.928822	2.13526	-2.77702	-1.56957	-2.62321	0	0	-0	0	0	0	17.0854	-56.8754	-14.0975	0.21439	1.26178	-1.08056	
53950	1580406963.054764360	0.00250058	-0.928822	2.13525	-2.77702	-1.56956	-2.62321	0	0	-0	0	0	0	16.7451	-56.8754	-14.1225	0.21439	1.31126	-1.15775	
53951	1580406963.062694954	0.00247662	-0.92881	2.13525	-2.77699	-1.56958	-2.62323	0	0	-0	0	0	0	16.8132	-57.1182	-14.1225	0.285853	1.36074	-1.00338	
53952	1580406963.070722078	0.00247662	-0.92887	2.13527	-2.77702	-1.5696	-2.62321	0	0	-0	0	0	0	17.2896	-56.2684	-14.1724	0.238211	1.31126	-0.951925	
53953	1580406963.078785544	0.00250058	-0.928858	2.13524	-2.77702	-1.56957	-2.62319	0	0	-0	0	0	0	16.4728	-56.3291	-14.1973	0.333496	1.50919	-1.08056	
53954	1580406963.086752831	0.00245265	-0.928798	2.13524	-2.77703	-1.56957	-2.62319	0	0	-0	0	0	0	17.1535	-56.6326	-14.1474	0.238211	1.4597	-1.10629	
53955	1580406963.094725428	0.00245265	-0.928834	2.13525	-2.77703	-1.56957	-2.6232	0	0	-0	0	0	0	17.63	-56.5719	-13.9728	0.238211	1.4597	-1.05484	
53956	1580406963.102689651	0.00246463	-0.928834	2.13523	-2.77702	-1.56958	-2.62317	0	0	-0	0	0	0	17.0174	-56.6326	-14.2722	0.166748	1.4597	-1.2092	
53957	1580406963.110835103	0.00247662	-0.928822	2.13525	-2.777	-1.56961	-2.62321	0	0	-0	0	0	0	17.3577	-57.3003	-14.0726	0.262032	1.41022	-1.2092	
53958	1580406963.118724738	0.0024886	-0.928798	2.13529	-2.77703	-1.56957	-2.62324	0	0	-0	0	0	0	17.3577	-56.6326	-14.2722	0.21439	1.58341	-1.00338	
53959	1580406963.126775637	0.00246463	-0.928834	2.13525	-2.77705	-1.56956	-2.62324	0	0	-0	0	0	0	17.5619	-56.4505	-14.2971	0.166748	1.36074	-1.00338	
53960	1580406963.134744028	0.00250058	-0.928858	2.13525	-2.77703	-1.56958	-2.62319	0	0	-0	0	0	0	17.0174	-56.5112	-14.1724	0.262032	1.48445	-0.977652	
53961	1580406963.142705308	0.00246463	-0.928846	2.13529	-2.77702	-1.56956	-2.62323	0	0	-0	0	0	0	16.4728	-56.5112	-14.1973	0.190569	1.43496	-1.08056	
53962	1580406963.150788916	0.00250058	-0.928822	2.13526	-2.777	-1.56958	-2.62319	0	0	-0	0	0	0	16.7451	-56.754	-14.2722	0.166748	1.41022	-0.951925	
53963	1580406963.158756924	0.00245265	-0.92881	2.13525	-2.77702	-1.56958	-2.62324	0	0	-0	0	0	0	17.0174	-56.3291	-14.1724	0.333496	1.50919	-1.02911	
53964	1580406963.166697293	0.00250058	-0.928834	2.13526	-2.77703	-1.56957	-2.62325	0	0	-0	0	0	0	16.677	-56.4505	-14.2722	0.166748	1.41022	-1.13202	
53965	1580406963.174780186	0.00247662	-0.928822	2.13526	-2.77704	-1.56956	-2.6232	0	0	-0	0	0	0	16.677	-56.6933	-13.9728	0.190569	1.43496	-0.900469	
53966	1580406963.182737308	0.00247662	-0.92881	2.13521	-2.77702	-1.56956	-2.6232	0	0	-0	0	0	0	17.2216	-56.3898	-14.2472	0.262032	1.43496	-0.874742	
53967	1580406963.190708057	0.00246463	-0.928798	2.13525	-2.77705	-1.56958	-2.62318	0	0	-0	0	0	0	16.677	-56.754	-14.2722	0.238211	1.38548	-1.15775	
53968	1580406963.198709702	0.00247662	-0.928822	2.13523	-2.77703	-1.56955	-2.62319	0	0	-0	0	0	0	16.677	-56.6933	-14.1474	0.166748	1.31126	-0.951925	
53969	1580406963.206699625	0.00247662	-0.92881	2.13524	-2.77703	-1.5696	-2.62323	0	0	-0	0	0	0	16.8812	-56.8754	-14.1724	0.21439	1.41022	-1.05484	
53970	1580406963.214729351	0.00247662	-0.928846	2.13524	-2.77704	-1.56958	-2.62323	0	0	-0	0	0	0	16.9493	-56.3898	-14.1474	0.21439	1.36074	-1.05484	
53971	1580406963.222734348	0.00250058	-0.928822	2.13527	-2.77703	-1.56957	-2.62318	0	0	-0	0	0	0	16.9493	-56.2684	-14.347	0.238211	1.41022	-1.05484	
53972	1580406963.230691036	0.00247662	-0.928846	2.13526	-2.77702	-1.56957	-2.62318	0	0	-0	0	0	0	17.63	-56.147	-14.1225	0.357317	1.43496	-1.15775	
53973	1580406963.238761108	0.00246463	-0.928858	2.13521	-2.777	-1.56957	-2.62321	0	0	-0	0	0	0	17.0854	-56.3898	-14.2223	0.21439	1.38548	-1.08056	
53974	1580406963.246702376	0.00247662	-0.928846	2.13524	-2.77702	-1.5696	-2.62321	0	0	-0	0	0	0	16.5409	-56.6326	-14.0975	0.166748	1.336	-1.2092	
53975	1580406963.254698265	0.00246463	-0.928834	2.13529	-2.777	-1.56955	-2.62321	0	0	-0	0	0	0	16.8132	-56.6326	-14.0476	0.21439	1.36074	-1.13202	
53976	1580406963.262715958	0.00247662	-0.928846	2.13524	-2.77702	-1.56957	-2.6232	0	0	-0	0	0	0	17.5619	-56.3898	-14.1724	0.190569	1.36074	-1.13202	
53977	1580406963.270799076	0.00247662	-0.92881	2.13529	-2.77702	-1.56958	-2.6232	0	0	-0	0	0	0	17.4258	-56.6326	-14.0476	0.238211	1.41022	-0.977652	
53978	1580406963.278683468	0.0024886	-0.928822	2.13523	-2.77702	-1.56957	-2.62321	0	0	-0	0	0	0	17.4939	-56.3898	-14.1973	0.21439	1.41022	-1.13202	
53979	1580406963.286774812	0.00247662	-0.92881	2.13525	-2.77703	-1.56957	-2.62319	0	0	-0	0	0	0	17.0174	-56.5112	-14.2472	0.21439	1.63289	-0.977652	
53980	1580406963.294737700	0.0024886	-0.928834	2.13524	-2.77705	-1.56955	-2.6232	0	0	-0	0	0	0	16.7451	-56.5719	-14.1225	0.309674	1.41022	-1.08056	
53981	1580406963.302756894	0.00250058	-0.928822	2.13529	-2.77702	-1.56957	-2.62321	0	0	-0	0	0	0	17.4258	-56.2077	-14.1724	0.238211	1.36074	-0.951925	
53982	1580406963.310699040	0.00250058	-0.928822	2.13526	-2.77702	-1.5696	-2.62321	0	0	-0	0	0	0	16.9493	-56.0863	-14.1724	0.309674	1.41022	-1.02911	
53983	1580406963.318695387	0.00250058	-0.92881	2.13526	-2.77702	-1.5696	-2.62319	0	0	-0	0	0	0	17.63	-56.8147	-14.1225	0.238211	1.36074	-0.874742	
53984	1580406963.326722562	0.00247662	-0.928822	2.13525	-2.77703	-1.56956	-2.62321	0	0	-0	0	0	0	17.0174	-56.147	-14.2472	0.262032	1.43496	-1.10629	
53985	1580406963.334708824	0.00247662	-0.928846	2.13525	-2.77703	-1.5696	-2.62323	0	0	-0	0	0	0	17.2216	-56.5719	-14.2971	0.21439	1.41022	-1.05484	
53986	1580406963.342763736	0.0024886	-0.928786	2.13525	-2.77703	-1.56958	-2.62319	0	0	-0	0	0	0	16.8132	-56.9968	-14.0726	0.166748	1.38548	-0.951925	
53987	1580406963.350730806	0.00247662	-0.928846	2.13524	-2.77702	-1.56955	-2.62321	0	0	-0	0	0	0	16.9493	-57.1182	-14.3221	0.190569	1.48445	-1.00338	
53988	1580406963.358705217	0.00251257	-0.928834	2.13525	-2.777	-1.56955	-2.6232	0	0	-0	0	0	0	17.0174	-56.5112	-14.1474	0.142927	1.31126	-1.00338	
53989	1580406963.366714390	0.00247662	-0.928822	2.13527	-2.77703	-1.5696	-2.6232	0	0	-0	0	0	0	17.0174	-56.4505	-14.347	0.285853	1.38548	-1.18347	
53990	1580406963.374728024	0.00246463	-0.928798	2.13525	-2.777	-1.56958	-2.62323	0	0	-0	0	0	0	16.9493	-56.8147	-14.1973	0.404959	1.38548	-1.05484	
53991	1580406963.382752734	0.00250058	-0.928834	2.13529	-2.77703	-1.56961	-2.6232	0	0	-0	0	0	0	16.7451	-56.3898	-14.2223	0.262032	1.43496	-1.13202	
53992	1580406963.390730329	0.00250058	-0.92881	2.13526	-2.77702	-1.5696	-2.62321	0	0	-0	0	0	0	16.7451	-56.5112	-14.3221	0.190569	1.36074	-1.13202	
53993	1580406963.398727861	0.00247662	-0.928846	2.13526	-2.777	-1.56957	-2.62319	0	0	-0	0	0	0	17.3577	-56.5719	-14.1973	0.190569	1.43496	-1.23493	
53994	1580406963.406757472	0.00247662	-0.928834	2.13524	-2.77699	-1.56957	-2.62318	0	0	-0	0	0	0	16.9493	-56.9968	-14.1474	0.262032	1.36074	-0.951925	
53995	1580406963.414777658	0.0024886	-0.928834	2.13524	-2.77705	-1.56955	-2.6232	0	0	-0	0	0	0	16.3367	-56.3291	-14.2472	0.190569	1.36074	-1.15775	
53996	1580406963.422705176	0.00247662	-0.928858	2.13526	-2.77702	-1.56955	-2.62321	0	0	-0	0	0	0	16.7451	-56.6933	-14.1474	0.262032	1.50919	-1.05484	
53997	1580406963.430736437	0.00247662	-0.928834	2.13523	-2.77703	-1.56956	-2.6232	0	0	-0	0	0	0	16.8812	-56.5719	-14.2722	0.262032	1.2123	-1.10629	
53998	1580406963.438753306	0.0024886	-0.928858	2.13529	-2.77704	-1.56958	-2.6232	0	0	-0	0	0	0	16.9493	-56.6933	-14.1225	0.166748	1.43496	-1.13202	
53999	1580406963.446718927	0.00247662	-0.928834	2.13525	-2.77702	-1.56958	-2.62319	0	0	-0	0	0	0	16.5409	-56.5112	-14.2971	0.142927	1.41022	-0.926197	
54000	1580406963.454702443	0.00247662	-0.928822	2.13525	-2.77702	-1.56958	-2.62321	0	0	-0	0	0	0	16.9493	-56.6326	-14.1225	0.142927	1.36074	-1.02911	
54001	1580406963.462739518	0.00250058	-0.928834	2.13523	-2.77703	-1.56955	-2.62321	0	0	-0	0	0	0	16.7451	-56.5112	-14.0726	0.262032	1.336	-0.977652	
54002	1580406963.470730324	0.00246463	-0.928846	2.13525	-2.77703	-1.56957	-2.62321	0	0	-0	0	0	0	16.9493	-56.3291	-14.3221	0.262032	1.11333	-1.26066	
54003	1580406963.478695550	0.00247662	-0.928834	2.13523	-2.77702	-1.56957	-2.62323	0	0	-0	0	0	0	16.4728	-56.6933	-14.1724	0.262032	1.336	-1.13202	
54004	1580406963.486724524	0.00251257	-0.928858	2.13525	-2.77702	-1.56957	-2.62323	0	0	-0	0	0	0	16.677	-56.6933	-14.1474	0.238211	1.38548	-0.900469	
54005	1580406963.494751406	0.00246463	-0.928846	2.13529	-2.77702	-1.56957	-2.6232	0	0	-0	0	0	0	17.4939	-57.0575	-13.9977	0.262032	1.4597	-1.08056	
54006	1580406963.502713404	0.0024886	-0.928822	2.13525	-2.77702	-1.5696	-2.6232	0	0	-0	0	0	0	16.8132	-56.0256	-14.2472	0.21439	1.31126	-0.977652	
54007	1580406963.510773151	0.00246463	-0.928858	2.13524	-2.77703	-1.56957	-2.62321	0	0	-0	0	0	0	16.8812	-56.5112	-14.2223	0.238211	1.4597	-1.10629	
54008	1580406963.518719487	0.00250058	-0.928834	2.13525	-2.77702	-1.56954	-2.62318	0	0	-0	0	0	0	16.2005	-57.7859	-14.2472	0.190569	1.41022	-0.951925	
54009	1580406963.526801758	0.00251257	-0.928822	2.13525	-2.77702	-1.56961	-2.62318	0	0	-0	0	0	0	16.677	-56.6326	-14.2472	0.262032	1.38548	-1.05484	
54010	1580406963.534748940	0.00247662	-0.928858	2.13525	-2.77702	-1.56957	-2.62317	0	0	-0	0	0	0	16.9493	-57.1182	-14.1225	0.333496	1.60815	-1.18347	
54011	1580406963.542739171	0.00245265	-0.928858	2.13526	-2.777	-1.56961	-2.6232	0	0	-0	0	0	0	17.2216	-56.3291	-14.1973	0.190569	1.48445	-1.10629	
54012	1580406963.550696329	0.0024886	-0.928822	2.13527	-2.77703	-1.56958	-2.62321	0	0	-0	0	0	0	16.9493	-56.8147	-14.1225	0.190569	1.48445	-1.18347	
54013	1580406963.558711467	0.00251257	-0.92881	2.13525	-2.77706	-1.56957	-2.62325	0	0	-0	0	0	0	16.8812	-56.6933	-14.0726	0.238211	1.336	-1.13202	
54014	1580406963.566677149	0.0024886	-0.92881	2.13524	-2.77699	-1.56956	-2.62323	0	0	-0	0	0	0	16.677	-56.3898	-14.0975	0.357317	1.38548	-1.08056	
54015	1580406963.574741939	0.00247662	-0.928822	2.13523	-2.77702	-1.56956	-2.6232	0	0	-0	0	0	0	17.4939	-56.3291	-14.0227	0.285853	1.2123	-1.02911	
54016	1580406963.582741580	0.00246463	-0.928834	2.13531	-2.777	-1.56957	-2.6232	0	0	-0	0	0	0	16.8132	-56.5112	-14.1474	0.357317	1.38548	-1.00338	
54017	1580406963.590732767	0.0024886	-0.92881	2.13523	-2.77699	-1.56957	-2.62324	0	0	-0	0	0	0	16.9493	-56.754	-14.2223	0.285853	1.26178	-0.977652	
54018	1580406963.598731850	0.0024886	-0.928798	2.13529	-2.77702	-1.56958	-2.62318	0	0	-0	0	0	0	17.5619	-56.6933	-14.1225	0.21439	1.41022	-1.02911	
54019	1580406963.606737694	0.0024886	-0.928834	2.13525	-2.77705	-1.56961	-2.62321	0	0	-0	0	0	0	16.8812	-57.0575	-14.1724	0.262032	1.36074	-1.13202	
54020	1580406963.614714954	0.00246463	-0.928822	2.13524	-2.77702	-1.56955	-2.62324	0	0	-0	0	0	0	16.8132	-55.9649	-14.0726	0.262032	1.55867	-1.05484	
54021	1580406963.622802237	0.0024886	-0.928786	2.13527	-2.77702	-1.5696	-2.6232	0	0	-0	0	0	0	16.8132	-56.9968	-14.0975	0.119106	1.50919	-0.977652	
54022	1580406963.630693420	0.00245265	-0.928846	2.13527	-2.77704	-1.56961	-2.62321	0	0	-0	0	0	0	17.8342	-56.5112	-14.3221	0.309674	1.43496	-1.02911	
54023	1580406963.638713166	0.0024886	-0.928834	2.13525	-2.77703	-1.56962	-2.62321	0	0	-0	0	0	0	16.5409	-56.5719	-14.1724	0.262032	1.41022	-1.15775	
54024	1580406963.646712813	0.00250058	-0.92881	2.13523	-2.77702	-1.56955	-2.62321	0	0	-0	0	0	0	17.3577	-56.3898	-14.1225	0.21439	1.41022	-1.00338	
54025	1580406963.654736401	0.00245265	-0.92887	2.13526	-2.77703	-1.56958	-2.62319	0	0	-0	0	0	0	17.0854	-56.4505	-14.1973	0.190569	1.36074	-0.977652	
54026	1580406963.662701566	0.00247662	-0.92887	2.13526	-2.77699	-1.56957	-2.62319	0	0	-0	0	0	0	17.0854	-56.754	-14.2472	0.238211	1.4597	-1.02911	
54027	1580406963.670757116	0.00247662	-0.928846	2.13526	-2.77702	-1.5696	-2.62321	0	0	-0	0	0	0	17.4939	-56.5719	-14.1724	0.166748	1.48445	-1.10629	
54028	1580406963.678709523	0.00247662	-0.928822	2.13521	-2.77703	-1.56958	-2.62321	0	0	-0	0	0	0	16.9493	-56.754	-14.2223	0.190569	1.53393	-1.00338	
54029	1580406963.686826314	0.00250058	-0.928822	2.13526	-2.77703	-1.5696	-2.6232	0	0	-0	0	0	0	17.2216	-56.147	-14.1973	0.238211	1.41022	-1.02911	
54030	1580406963.694742446	0.0024886	-0.928822	2.13525	-2.77702	-1.56958	-2.62321	0	0	-0	0	0	0	17.4258	-56.8147	-14.3221	0.238211	1.41022	-1.05484	
54031	1580406963.702739028	0.00246463	-0.928846	2.13529	-2.77703	-1.56958	-2.62324	0	0	-0	0	0	0	16.9493	-56.4505	-14.2472	0.21439	1.55867	-1.08056	
54032	1580406963.710711529	0.0024886	-0.928858	2.13526	-2.77703	-1.5696	-2.62319	0	0	-0	0	0	0	16.3367	-56.3898	-14.0726	0.21439	1.336	-1.00338	
54033	1580406963.718799390	0.00245265	-0.928822	2.13525	-2.77702	-1.56957	-2.62324	0	0	-0	0	0	0	16.4728	-56.5719	-14.1724	0.238211	1.43496	-1.13202	
54034	1580406963.726759359	0.00246463	-0.928822	2.13523	-2.777	-1.56957	-2.62321	0	0	-0	0	0	0	17.0854	-56.5719	-14.1724	0.309674	1.41022	-1.26066	
54035	1580406963.734699325	0.00247662	-0.928834	2.13525	-2.777	-1.56957	-2.62321	0	0	-0	0	0	0	16.7451	-56.0863	-14.1724	0.21439	1.58341	-1.18347	
54036	1580406963.742726123	0.00252455	-0.928834	2.13524	-2.77702	-1.56958	-2.62321	0	0	-0	0	0	0	16.3367	-56.3898	-14.2472	0.238211	1.38548	-1.05484	
54037	1580406963.750700926	0.0024886	-0.928846	2.13527	-2.77703	-1.5696	-2.6232	0	0	-0	0	0	0	17.0854	-56.6326	-14.0975	0.166748	1.4597	-0.823286	
54038	1580406963.758671443	0.00245265	-0.92881	2.13525	-2.77702	-1.56956	-2.6232	0	0	-0	0	0	0	16.8812	-56.5112	-14.2722	0.166748	1.48445	-1.31211	
54039	1580406963.766731221	0.00247662	-0.928798	2.13526	-2.77702	-1.56958	-2.6232	0	0	-0	0	0	0	17.3577	-56.6933	-14.0476	0.21439	1.4597	-1.08056	
54040	1580406963.774703312	0.00246463	-0.928834	2.13525	-2.77702	-1.56962	-2.62321	0	0	-0	0	0	0	17.0854	-56.6326	-14.1724	0.285853	1.43496	-1.23493	
54041	1580406963.782729711	0.00246463	-0.928834	2.13524	-2.77703	-1.56957	-2.6232	0	0	-0	0	0	0	17.2216	-56.8754	-14.2472	0.309674	1.41022	-1.10629	
54042	1580406963.790749763	0.0024886	-0.92887	2.13526	-2.77703	-1.56956	-2.62324	0	0	-0	0	0	0	16.8812	-57.0575	-14.2223	0.285853	1.38548	-1.08056	
54043	1580406963.798744768	0.00247662	-0.928834	2.13525	-2.77705	-1.56955	-2.6232	0	0	-0	0	0	0	17.0854	-56.4505	-14.2472	0.666991	1.36074	-1.02911	
54044	1580406963.806696167	0.00247662	-0.928846	2.13525	-2.777	-1.5696	-2.62319	0	0	-0	0	0	0	17.0174	-56.3898	-14.2223	0.190569	1.36074	-1.13202	
54045	1580406963.814736656	0.00251257	-0.928822	2.13527	-2.777	-1.56955	-2.62321	0	0	-0	0	0	0	17.0174	-56.754	-14.3221	0.190569	1.4597	-1.00338	
54046	1580406963.822782195	0.0024886	-0.928822	2.13524	-2.77702	-1.5696	-2.6232	0	0	-0	0	0	0	16.8132	-56.8754	-14.0975	0.262032	1.336	-0.977652	
54047	1580406963.830691698	0.00250058	-0.928834	2.13526	-2.777	-1.56958	-2.62325	0	0	-0	0	0	0	16.677	-56.8147	-14.2722	0.142927	1.48445	-1.18347	
54048	1580406963.838724934	0.00247662	-0.928834	2.13525	-2.77705	-1.56961	-2.6232	0	0	-0	0	0	0	17.4939	-56.8147	-14.2722	0.21439	1.41022	-0.900469	
54049	1580406963.846750262	0.00247662	-0.928834	2.13529	-2.777	-1.56957	-2.62323	0	0	-0	0	0	0	16.677	-56.5112	-14.1474	0.309674	1.48445	-1.02911	
54050	1580406963.854688303	0.00247662	-0.928858	2.13521	-2.77704	-1.56957	-2.62325	0	0	-0	0	0	0	17.4258	-56.3291	-13.9977	0.190569	1.23704	-1.2092	
54051	1580406963.862737270	0.00247662	-0.928846	2.13523	-2.77702	-1.56957	-2.62319	0	0	-0	0	0	0	17.1535	-56.4505	-14.1724	0.500243	1.50919	-1.13202	
54052	1580406963.870712046	0.0024886	-0.928822	2.13525	-2.777	-1.5696	-2.62319	0	0	-0	0	0	0	17.2896	-56.6933	-14.1225	0.190569	1.48445	-1.08056	
54053	1580406963.878776995	0.00247662	-0.928798	2.13527	-2.77704	-1.56957	-2.62321	0	0	-0	0	0	0	16.677	-56.754	-14.1225	0.238211	1.36074	-1.00338	
54054	1580406963.886738707	0.00250058	-0.928846	2.13526	-2.77702	-1.56957	-2.62321	0	0	-0	0	0	0	17.0174	-56.8754	-14.2223	0.21439	1.48445	-1.23493	
54055	1580406963.894745604	0.0024886	-0.928834	2.13524	-2.77702	-1.56958	-2.62321	0	0	-0	0	0	0	16.8812	-56.6326	-14.1225	0.262032	1.26178	-1.08056	
54056	1580406963.902713289	0.00250058	-0.928834	2.13527	-2.77702	-1.56958	-2.62319	0	0	-0	0	0	0	17.0854	-56.3291	-14.3969	0.500243	1.31126	-1.08056	
54057	1580406963.910790004	0.00246463	-0.928798	2.13525	-2.77702	-1.5696	-2.62323	0	0	-0	0	0	0	17.63	-56.3291	-14.2472	0.190569	1.50919	-1.08056	
54058	1580406963.918733828	0.00247662	-0.928822	2.13523	-2.77702	-1.5696	-2.6232	0	0	-0	0	0	0	16.2686	-56.6326	-14.1724	0.238211	1.31126	-1.15775	
54059	1580406963.926777057	0.00247662	-0.92887	2.1352	-2.77703	-1.56958	-2.62323	0	0	-0	0	0	0	16.3367	-56.2684	-14.1724	0.238211	1.41022	-1.23493	
54060	1580406963.934741605	0.00250058	-0.92881	2.13526	-2.77703	-1.56961	-2.62321	0	0	-0	0	0	0	16.8812	-56.5719	-14.1973	0.166748	1.336	-1.05484	
54061	1580406963.942775972	0.00251257	-0.92887	2.1353	-2.77703	-1.56956	-2.62319	0	0	-0	0	0	0	16.7451	-56.5719	-14.1474	0.381138	1.50919	-1.26066	
54062	1580406963.950744529	0.00250058	-0.928858	2.13523	-2.777	-1.5696	-2.62321	0	0	-0	0	0	0	16.2686	-56.5112	-14.2223	0.21439	1.4597	-0.951925	
54063	1580406963.958748829	0.00250058	-0.92887	2.13526	-2.77703	-1.56957	-2.62323	0	0	-0	0	0	0	16.6089	-56.754	-14.2722	0.238211	1.36074	-1.00338	
54064	1580406963.967350183	0.00246463	-0.928822	2.13524	-2.77702	-1.56955	-2.62323	0	0	-0	0	0	0	16.6089	-56.6326	-14.2722	0.333496	1.43496	-1.05484	
54065	1580406963.974786618	0.00250058	-0.928822	2.13529	-2.77702	-1.56961	-2.62323	0	0	-0	0	0	0	16.8132	-56.6933	-14.1973	0.166748	1.4597	-1.08056	
54066	1580406963.982690692	0.00241707	-0.928822	2.13526	-2.77702	-1.5696	-2.62321	0	0	-0	0	0	0	16.5409	-56.5112	-14.1724	0.119106	1.43496	-1.15775	
54067	1580406963.990751692	0.00245265	-0.928834	2.13525	-2.77702	-1.56958	-2.62323	0	0	-0	0	0	0	16.5409	-56.6326	-14.2223	0.190569	1.336	-0.977652	
54068	1580406963.998716918	0.00245265	-0.928822	2.13524	-2.77703	-1.56957	-2.62324	0	0	-0	0	0	0	16.6089	-56.9361	-14.0975	0.21439	1.43496	-1.10629	
54069	1580406964.006705608	0.0024886	-0.928858	2.13525	-2.77702	-1.56955	-2.62321	0	0	-0	0	0	0	16.8812	-56.2077	-14.2472	0.166748	1.41022	-0.874742	
54070	1580406964.014775288	0.00251257	-0.928846	2.13525	-2.77703	-1.56957	-2.62324	0	0	-0	0	0	0	16.4728	-56.6326	-14.2722	0.21439	1.38548	-1.00338	
54071	1580406964.022710863	0.00247662	-0.928834	2.13524	-2.77702	-1.5696	-2.62323	0	0	-0	0	0	0	16.9493	-56.5719	-14.2722	0.404959	1.38548	-1.05484	
54072	1580406964.030719682	0.00247662	-0.928834	2.13523	-2.77702	-1.5696	-2.62324	0	0	-0	0	0	0	16.4728	-56.2684	-14.1225	0.500243	1.4597	-1.08056	
54073	1580406964.038761474	0.00247662	-0.928822	2.13526	-2.77703	-1.56958	-2.6232	0	0	-0	0	0	0	16.677	-56.5112	-14.0476	0.309674	1.43496	-1.02911	
54074	1580406964.046759184	0.00246463	-0.928834	2.13519	-2.777	-1.56956	-2.62323	0	0	-0	0	0	0	16.3367	-56.6933	-14.2722	0.21439	1.50919	-1.10629	
54075	1580406964.054729351	0.0024886	-0.928858	2.13525	-2.77703	-1.56958	-2.62323	0	0	-0	0	0	0	16.8132	-56.3291	-14.0975	0.309674	1.43496	-1.13202	
54076	1580406964.062701847	0.00250058	-0.928834	2.13523	-2.77702	-1.5696	-2.62319	0	0	-0	0	0	0	17.2896	-56.6326	-14.2472	0.21439	1.36074	-1.10629	
54077	1580406964.070768132	0.00250058	-0.928798	2.13526	-2.77702	-1.56956	-2.6232	0	0	-0	0	0	0	16.677	-56.754	-14.2223	0.238211	1.336	-1.00338	
54078	1580406964.078796003	0.0024886	-0.928822	2.13525	-2.77703	-1.56957	-2.6232	0	0	-0	0	0	0	16.5409	-56.5112	-14.2472	0.21439	1.4597	-1.23493	
54079	1580406964.086768920	0.00245265	-0.928846	2.13527	-2.777	-1.56957	-2.62321	0	0	-0	0	0	0	16.5409	-56.0256	-14.0975	0.21439	1.336	-1.13202	
54080	1580406964.094693283	0.0024886	-0.92881	2.13524	-2.77702	-1.56956	-2.62323	0	0	-0	0	0	0	16.9493	-56.3291	-14.2472	0.238211	1.43496	-1.15775	
54081	1580406964.102719113	0.00247662	-0.92881	2.13521	-2.77702	-1.56958	-2.6232	0	0	-0	0	0	0	17.0174	-56.4505	-14.2472	0.0952844	1.4597	-1.08056	
54082	1580406964.110758521	0.00246463	-0.92887	2.13525	-2.77702	-1.5696	-2.6232	0	0	-0	0	0	0	17.4258	-56.5719	-14.2722	0.333496	1.48445	-1.08056	
54083	1580406964.118785478	0.0024886	-0.928822	2.13525	-2.77702	-1.56961	-2.62323	0	0	-0	0	0	0	16.8812	-56.6933	-14.2223	0.21439	1.41022	-1.15775	
54084	1580406964.126692439	0.00246463	-0.928882	2.13525	-2.77704	-1.5696	-2.6232	0	0	-0	0	0	0	16.8132	-56.5112	-14.1225	0.21439	1.31126	-0.926197	
54085	1580406964.134817450	0.0024886	-0.928858	2.13529	-2.77703	-1.5696	-2.62321	0	0	-0	0	0	0	17.2896	-56.5112	-14.2722	0.381138	1.38548	-1.13202	
54086	1580406964.142736717	0.0024886	-0.92887	2.1352	-2.77703	-1.56957	-2.6232	0	0	-0	0	0	0	16.7451	-56.4505	-14.347	0.285853	1.41022	-0.951925	
54087	1580406964.150760105	0.00247662	-0.928846	2.13525	-2.777	-1.56961	-2.6232	0	0	-0	0	0	0	16.8812	-56.754	-14.0227	0.190569	1.28652	-0.926197	
54088	1580406964.158680546	0.00251257	-0.928822	2.13527	-2.77702	-1.5696	-2.62323	0	0	-0	0	0	0	17.2216	-56.147	-14.2223	0.119106	1.38548	-1.05484	
54089	1580406964.166812415	0.00250058	-0.928834	2.13523	-2.77702	-1.56962	-2.62319	0	0	-0	0	0	0	17.0174	-56.5112	-14.1973	0.238211	1.48445	-1.08056	
54090	1580406964.174771351	0.00250058	-0.92881	2.13527	-2.777	-1.56957	-2.62318	0	0	-0	0	0	0	16.4728	-56.9968	-14.1474	0.238211	1.50919	-1.2092	
54091	1580406964.182727913	0.00247662	-0.928858	2.13525	-2.77702	-1.5696	-2.6232	0	0	-0	0	0	0	17.0174	-57.1182	-14.0726	0.476422	1.43496	-1.08056	
54092	1580406964.190742032	0.00250058	-0.928846	2.13524	-2.77702	-1.56958	-2.62319	0	0	-0	0	0	0	16.6089	-56.6933	-14.2722	0.238211	1.43496	-1.31211	
54093	1580406964.198803180	0.00247662	-0.928846	2.13525	-2.777	-1.56955	-2.62319	0	0	-0	0	0	0	17.1535	-56.2077	-14.2472	0.21439	1.43496	-0.900469	
54094	1580406964.206730713	0.00247662	-0.928834	2.13524	-2.77703	-1.56957	-2.62319	0	0	-0	0	0	0	16.7451	-56.5719	-14.1474	0.238211	1.38548	-1.13202	
54095	1580406964.214734386	0.00251257	-0.928774	2.13524	-2.77703	-1.56956	-2.62317	0	0	-0	0	0	0	17.4258	-56.8147	-14.2472	0.262032	1.336	-1.23493	
54096	1580406964.222682128	0.00247662	-0.928858	2.13519	-2.77703	-1.56957	-2.62321	0	0	-0	0	0	0	16.4728	-56.8147	-13.9977	0.21439	1.38548	-1.00338	
54097	1580406964.230738145	0.00245265	-0.92881	2.13526	-2.77704	-1.56958	-2.62319	0	0	-0	0	0	0	16.9493	-56.5112	-14.2722	0.21439	1.48445	-1.05484	
54098	1580406964.238740401	0.00247662	-0.928834	2.13525	-2.77702	-1.56957	-2.6232	0	0	-0	0	0	0	17.2216	-56.3898	-14.2472	0.238211	1.36074	-1.05484	
54099	1580406964.246777721	0.00244066	-0.928822	2.13527	-2.77702	-1.56961	-2.62321	0	0	-0	0	0	0	17.0174	-56.5112	-14.2722	0.238211	1.336	-1.23493	
54100	1580406964.254716055	0.0024886	-0.928834	2.13523	-2.77704	-1.56958	-2.62323	0	0	-0	0	0	0	16.8132	-56.5719	-14.2472	0.262032	1.4597	-1.00338	
54101	1580406964.262775106	0.00247662	-0.928834	2.13525	-2.77699	-1.56961	-2.62323	0	0	-0	0	0	0	16.8132	-57.1789	-14.1225	0.166748	1.38548	-1.13202	
54102	1580406964.270741905	0.00246463	-0.928834	2.13527	-2.77702	-1.5696	-2.62323	0	0	-0	0	0	0	16.7451	-56.5719	-14.1474	0.142927	1.4597	-1.08056	
54103	1580406964.278731858	0.00246463	-0.928846	2.13525	-2.777	-1.56957	-2.62319	0	0	-0	0	0	0	17.1535	-56.5112	-14.1225	0.262032	1.4597	-1.05484	
54104	1580406964.286736461	0.0024886	-0.92881	2.13526	-2.77703	-1.56956	-2.62321	0	0	-0	0	0	0	17.2216	-56.2077	-14.1724	0.238211	1.36074	-1.05484	
54105	1580406964.294792210	0.00250058	-0.92881	2.13524	-2.77702	-1.56958	-2.62323	0	0	-0	0	0	0	17.2896	-56.8754	-14.1724	0.166748	1.43496	-1.28638	
54106	1580406964.302699878	0.0024886	-0.928822	2.13523	-2.77702	-1.56958	-2.62324	0	0	-0	0	0	0	17.2216	-56.5112	-14.347	0.21439	1.4597	-0.951925	
54107	1580406964.310732985	0.0024886	-0.92881	2.13524	-2.777	-1.5696	-2.62321	0	0	-0	0	0	0	16.9493	-56.5719	-14.2971	0.238211	1.43496	-1.10629	
54108	1580406964.318702237	0.00247662	-0.928858	2.13525	-2.77702	-1.56955	-2.62323	0	0	-0	0	0	0	16.2005	-56.2684	-14.2472	0.500243	1.4597	-0.977652	
54109	1580406964.326729041	0.00251257	-0.928858	2.1353	-2.77702	-1.56957	-2.62321	0	0	-0	0	0	0	17.2896	-56.8147	-14.2722	0.238211	1.36074	-1.10629	
54110	1580406964.334719515	0.0024886	-0.928846	2.13525	-2.777	-1.56957	-2.62323	0	0	-0	0	0	0	16.8812	-56.5719	-14.0975	0.262032	1.36074	-1.2092	
54111	1580406964.342692386	0.00244066	-0.928822	2.1353	-2.77702	-1.56958	-2.62321	0	0	-0	0	0	0	16.677	-56.3898	-14.1973	0.309674	1.4597	-0.951925	
54112	1580406964.350658199	0.0024886	-0.92887	2.13527	-2.77703	-1.5696	-2.62318	0	0	-0	0	0	0	16.4728	-56.5112	-14.1724	0.262032	1.38548	-1.00338	
54113	1580406964.358733494	0.0024886	-0.928822	2.13521	-2.77703	-1.56958	-2.62321	0	0	-0	0	0	0	16.4728	-56.6933	-14.0975	0.190569	1.2123	-0.926197	
54114	1580406964.366717161	0.00247662	-0.928786	2.13524	-2.777	-1.56957	-2.62319	0	0	-0	0	0	0	17.0854	-56.9361	-14.1724	0.166748	1.38548	-0.977652	
54115	1580406964.374724022	0.00247662	-0.928834	2.13524	-2.77705	-1.56956	-2.62324	0	0	-0	0	0	0	16.9493	-56.754	-14.2223	0.285853	1.50919	-1.18347	
54116	1580406964.382713770	0.00250058	-0.928822	2.13527	-2.77702	-1.5696	-2.62319	0	0	-0	0	0	0	17.0174	-56.5719	-14.1474	0.285853	1.4597	-1.28638	
54117	1580406964.390731249	0.00250058	-0.928858	2.13524	-2.77704	-1.56956	-2.62324	0	0	-0	0	0	0	16.8812	-56.3898	-14.1973	0.119106	1.4597	-1.08056	
54118	1580406964.398656787	0.00247662	-0.928846	2.13525	-2.77702	-1.56958	-2.62324	0	0	-0	0	0	0	17.7661	-56.5112	-14.1225	0.21439	1.38548	-1.05484	
54119	1580406964.406709374	0.00247662	-0.928834	2.13525	-2.77704	-1.56957	-2.62321	0	0	-0	0	0	0	17.0854	-56.3291	-14.3221	0.166748	1.03911	-1.00338	
54120	1580406964.414699736	0.0024886	-0.928846	2.13525	-2.77699	-1.56955	-2.62325	0	0	-0	0	0	0	16.8132	-56.6933	-14.0726	0.262032	1.43496	-1.15775	
54121	1580406964.422687218	0.00247662	-0.928846	2.13525	-2.77703	-1.56962	-2.62323	0	0	-0	0	0	0	17.1535	-57.1182	-14.2722	0.262032	1.336	-1.05484	
54122	1580406964.430705942	0.0024886	-0.928822	2.13523	-2.77703	-1.56958	-2.62321	0	0	-0	0	0	0	16.8132	-56.6326	-14.1474	0.381138	1.38548	-1.13202	
54123	1580406964.438712642	0.00247662	-0.928822	2.13526	-2.77699	-1.5696	-2.62323	0	0	-0	0	0	0	16.7451	-56.4505	-14.2472	0.190569	1.36074	-1.02911	
54124	1580406964.446684881	0.00247662	-0.92881	2.13524	-2.77703	-1.56957	-2.62324	0	0	-0	0	0	0	17.3577	-56.4505	-13.9728	0.21439	1.41022	-1.05484	
54125	1580406964.454703286	0.0024886	-0.928822	2.13525	-2.77703	-1.56958	-2.62321	0	0	-0	0	0	0	17.0174	-56.4505	-14.2722	0.238211	1.336	-0.977652	
54126	1580406964.462711593	0.00247662	-0.928834	2.13523	-2.77702	-1.56961	-2.6232	0	0	-0	0	0	0	16.9493	-56.6933	-14.1724	0.285853	1.38548	-1.05484	
54127	1580406964.470752225	0.00246463	-0.92881	2.13529	-2.77702	-1.56957	-2.62318	0	0	-0	0	0	0	16.8132	-56.3898	-14.2722	0.333496	1.4597	-1.2092	
54128	1580406964.478684715	0.00250058	-0.92881	2.13523	-2.777	-1.5696	-2.62321	0	0	-0	0	0	0	16.4728	-56.3898	-14.2223	0.690812	1.41022	-1.00338	
54129	1580406964.486736805	0.00245265	-0.92881	2.13523	-2.77703	-1.56955	-2.62319	0	0	-0	0	0	0	17.5619	-56.5112	-14.2472	0.285853	1.43496	-1.08056	
54130	1580406964.494741279	0.0024886	-0.928834	2.13524	-2.77702	-1.56956	-2.62323	0	0	-0	0	0	0	16.7451	-56.5112	-14.3221	0.0476422	1.43496	-1.02911	
54131	1580406964.502731858	0.00245265	-0.92881	2.13526	-2.777	-1.56958	-2.62319	0	0	-0	0	0	0	17.0854	-56.6326	-14.2722	0.476422	1.38548	-1.05484	
54132	1580406964.510712412	0.0024886	-0.92881	2.13525	-2.77703	-1.56961	-2.62319	0	0	-0	0	0	0	17.0174	-57.2396	-14.0726	0.238211	1.43496	-1.13202	
54133	1580406964.518776354	0.00247662	-0.92887	2.13523	-2.77699	-1.56958	-2.6232	0	0	-0	0	0	0	16.8812	-56.3291	-14.1724	0.238211	1.43496	-1.15775	
54134	1580406964.526743624	0.00247662	-0.92881	2.13524	-2.77703	-1.56957	-2.6232	0	0	-0	0	0	0	17.2896	-56.754	-14.1474	0.190569	1.31126	-1.02911	
54135	1580406964.534726024	0.00245265	-0.928786	2.13524	-2.77703	-1.56958	-2.62321	0	0	-0	0	0	0	16.8132	-56.6326	-14.2223	0.21439	1.38548	-1.18347	
54136	1580406964.542712188	0.00251257	-0.928834	2.13523	-2.77703	-1.56956	-2.62319	0	0	-0	0	0	0	17.7661	-56.6933	-14.2223	0.262032	1.48445	-1.18347	
54137	1580406964.550760600	0.00247662	-0.928846	2.13525	-2.77702	-1.5696	-2.62323	0	0	-0	0	0	0	16.4728	-56.3898	-14.2971	-0.0238211	1.38548	-1.10629	
54138	1580406964.558753441	0.00251257	-0.928846	2.13526	-2.77702	-1.5696	-2.62323	0	0	-0	0	0	0	17.0854	-57.0575	-14.0476	0.262032	1.41022	-1.05484	
54139	1580406964.566796613	0.00247662	-0.92881	2.13525	-2.77699	-1.56956	-2.62319	0	0	-0	0	0	0	16.4047	-56.2684	-14.2722	0.262032	1.41022	-1.10629	
54140	1580406964.574716614	0.0024886	-0.928846	2.13525	-2.777	-1.56961	-2.62321	0	0	-0	0	0	0	16.6089	-56.2684	-14.1225	0.262032	1.43496	-1.2092	
54141	1580406964.582738911	0.00250058	-0.928798	2.13527	-2.77698	-1.56957	-2.62321	0	0	-0	0	0	0	16.7451	-56.3898	-14.372	0.21439	1.336	-1.08056	
54142	1580406964.590716757	0.00245265	-0.928846	2.13526	-2.77703	-1.56957	-2.62319	0	0	-0	0	0	0	17.2216	-56.6326	-14.2971	0.142927	1.38548	-1.02911	
54143	1580406964.598781319	0.00247662	-0.928846	2.13525	-2.77702	-1.56956	-2.6232	0	0	-0	0	0	0	16.8812	-56.5719	-14.1724	0.285853	1.48445	-1.15775	
54144	1580406964.606687393	0.00246463	-0.928846	2.13526	-2.77702	-1.56955	-2.6232	0	0	-0	0	0	0	17.0854	-56.9361	-14.2223	0.262032	1.41022	-1.08056	
54145	1580406964.614742021	0.00247662	-0.928858	2.13525	-2.777	-1.56958	-2.62323	0	0	-0	0	0	0	16.7451	-56.2684	-14.1724	0.21439	1.41022	-1.2092	
54146	1580406964.622746634	0.00250058	-0.928822	2.13529	-2.777	-1.56961	-2.62323	0	0	-0	0	0	0	16.3367	-57.0575	-14.0975	0.262032	1.28652	-1.31211	
54147	1580406964.630756855	0.00247662	-0.928846	2.13525	-2.77703	-1.56957	-2.62321	0	0	-0	0	0	0	16.8132	-56.9968	-14.2971	0.21439	1.28652	-1.15775	
54148	1580406964.638712373	0.0024886	-0.928834	2.13529	-2.77702	-1.5696	-2.62324	0	0	-0	0	0	0	16.8132	-56.6326	-14.2722	0.262032	1.31126	-0.951925	
54149	1580406964.647662946	0.00247662	-0.92887	2.13525	-2.77702	-1.56958	-2.6232	0	0	-0	0	0	0	16.9493	-56.2684	-14.347	0.285853	1.41022	-1.15775	
54150	1580406964.654735187	0.00246463	-0.92881	2.13525	-2.77699	-1.56957	-2.6232	0	0	-0	0	0	0	16.6089	-56.5112	-14.0975	0.142927	1.50919	-1.15775	
54151	1580406964.662723133	0.00246463	-0.928822	2.13525	-2.77705	-1.5696	-2.6232	0	0	-0	0	0	0	16.9493	-56.5112	-14.2223	0.238211	1.38548	-0.900469	
54152	1580406964.670724121	0.00251257	-0.928858	2.13524	-2.77699	-1.56958	-2.6232	0	0	-0	0	0	0	17.0854	-57.1789	-14.1973	0.238211	1.48445	-1.08056	
54153	1580406964.678740422	0.00252455	-0.928834	2.1353	-2.77699	-1.56955	-2.62321	0	0	-0	0	0	0	17.3577	-56.6933	-14.1724	0.262032	1.38548	-1.02911	
54154	1580406964.686716217	0.00247662	-0.928846	2.13525	-2.77703	-1.56955	-2.62325	0	0	-0	0	0	0	17.0854	-56.5112	-14.1973	0.21439	1.336	-1.08056	
54155	1580406964.694767373	0.00246463	-0.928834	2.13526	-2.77704	-1.56954	-2.62319	0	0	-0	0	0	0	16.677	-56.0256	-14.372	0.333496	1.43496	-1.18347	
54156	1580406964.702681861	0.00246463	-0.928846	2.13527	-2.77704	-1.56958	-2.62324	0	0	-0	0	0	0	17.2896	-56.5719	-14.2472	0.404959	1.41022	-0.951925	
54157	1580406964.710778830	0.00246463	-0.92881	2.13527	-2.77702	-1.5696	-2.62321	0	0	-0	0	0	0	16.6089	-56.8754	-14.1973	0.309674	1.38548	-0.951925	
54158	1580406964.718753847	0.0024886	-0.928846	2.13527	-2.77705	-1.56957	-2.62321	0	0	-0	0	0	0	17.1535	-56.5719	-14.1225	0.142927	1.43496	-1.13202	
54159	1580406964.726776758	0.00247662	-0.928798	2.13529	-2.77702	-1.56956	-2.62318	0	0	-0	0	0	0	16.677	-56.754	-14.347	0.166748	1.48445	-1.2092	
54160	1580406964.734741095	0.00247662	-0.928834	2.13524	-2.77702	-1.5696	-2.62323	0	0	-0	0	0	0	16.5409	-56.8754	-14.1225	0.357317	1.36074	-1.10629	
54161	1580406964.742841271	0.00250058	-0.928846	2.13525	-2.77702	-1.56954	-2.6232	0	0	-0	0	0	0	17.0854	-56.3291	-14.1724	0.238211	1.50919	-0.977652	
54162	1580406964.750751157	0.00250058	-0.928858	2.13525	-2.77702	-1.56957	-2.62321	0	0	-0	0	0	0	16.0644	-56.3291	-14.1474	0.357317	1.55867	-0.900469	
54163	1580406964.758699731	0.00247662	-0.92887	2.13526	-2.77703	-1.56961	-2.62323	0	0	-0	0	0	0	17.2216	-56.8147	-14.1225	0.262032	1.53393	-1.00338	
54164	1580406964.766710220	0.00247662	-0.928822	2.13526	-2.77704	-1.56958	-2.62321	0	0	-0	0	0	0	16.6089	-56.5112	-14.1225	0.262032	1.38548	-1.10629	
54165	1580406964.774698478	0.00247662	-0.928858	2.13527	-2.77702	-1.56958	-2.62321	0	0	-0	0	0	0	16.677	-56.6933	-14.0975	0.262032	1.48445	-1.33784	
54166	1580406964.782675803	0.00246463	-0.928834	2.13525	-2.77703	-1.56958	-2.62321	0	0	-0	0	0	0	17.0174	-56.5719	-14.1724	0.262032	1.50919	-1.05484	
54167	1580406964.790755448	0.00246463	-0.928822	2.13524	-2.77704	-1.56961	-2.62317	0	0	-0	0	0	0	16.8812	-56.6326	-14.2971	0.262032	1.43496	-1.18347	
54168	1580406964.798714465	0.00247662	-0.928822	2.13525	-2.77704	-1.56957	-2.6232	0	0	-0	0	0	0	16.7451	-56.5719	-14.2722	0.238211	1.53393	-1.10629	
54169	1580406964.806861933	0.00244066	-0.92881	2.13523	-2.77702	-1.56958	-2.62319	0	0	-0	0	0	0	16.677	-56.3898	-14.1474	0.142927	1.4597	-1.31211	
54170	1580406964.814735578	0.00247662	-0.928834	2.13526	-2.77702	-1.5696	-2.62323	0	0	-0	0	0	0	16.6089	-56.5719	-14.2223	0.381138	1.336	-1.13202	
54171	1580406964.822814157	0.00250058	-0.92887	2.13525	-2.77702	-1.56957	-2.62323	0	0	-0	0	0	0	16.7451	-56.754	-14.0476	0.190569	1.4597	-1.15775	
54172	1580406964.830722458	0.00247662	-0.928822	2.13525	-2.77703	-1.56955	-2.62319	0	0	-0	0	0	0	16.7451	-57.0575	-14.2722	0.166748	1.38548	-0.977652	
54173	1580406964.838792153	0.00247662	-0.928822	2.13526	-2.77703	-1.56958	-2.62324	0	0	-0	0	0	0	16.3367	-56.4505	-14.2472	0.309674	1.36074	-1.02911	
54174	1580406964.846750975	0.00250058	-0.92881	2.13525	-2.77704	-1.56958	-2.62318	0	0	-0	0	0	0	16.9493	-56.3898	-14.3221	0.190569	1.41022	-1.08056	
54175	1580406964.854707465	0.0024886	-0.928834	2.13526	-2.77702	-1.56958	-2.62317	0	0	-0	0	0	0	17.0854	-56.147	-13.9977	0.285853	1.41022	-1.02911	
54176	1580406964.862737658	0.00251257	-0.928834	2.13527	-2.77702	-1.56958	-2.62321	0	0	-0	0	0	0	17.2216	-56.4505	-14.1474	0.42878	1.36074	-1.13202	
54177	1580406964.870843016	0.00245265	-0.928846	2.13525	-2.77703	-1.56958	-2.62321	0	0	-0	0	0	0	16.677	-56.3291	-14.1474	0.262032	1.336	-1.05484	
54178	1580406964.878751939	0.00250058	-0.92881	2.13525	-2.77703	-1.56956	-2.6232	0	0	-0	0	0	0	16.4047	-56.6326	-14.2971	0.262032	1.336	-1.08056	
54179	1580406964.886693333	0.00247662	-0.92881	2.13527	-2.77704	-1.56958	-2.6232	0	0	-0	0	0	0	17.1535	-57.1182	-14.2223	0.262032	1.43496	-1.00338	
54180	1580406964.894700486	0.00250058	-0.928834	2.13525	-2.77703	-1.5696	-2.62318	0	0	-0	0	0	0	17.4939	-56.3291	-14.0227	0.190569	1.43496	-1.08056	
54181	1580406964.902758213	0.0024886	-0.92887	2.13525	-2.77702	-1.5696	-2.62323	0	0	-0	0	0	0	17.2896	-56.4505	-14.0227	0.166748	1.336	-1.23493	
54182	1580406964.910754049	0.00247662	-0.928846	2.13526	-2.77703	-1.56957	-2.6232	0	0	-0	0	0	0	17.63	-57.1182	-14.3221	0.21439	1.336	-1.00338	
54183	1580406964.918677332	0.00250058	-0.928858	2.13526	-2.77703	-1.56957	-2.62321	0	0	-0	0	0	0	16.6089	-57.1182	-14.2472	0.142927	1.23704	-1.05484	
54184	1580406964.926736116	0.00245265	-0.928846	2.13524	-2.77702	-1.56957	-2.62318	0	0	-0	0	0	0	16.677	-56.6326	-14.1474	0.21439	1.38548	-1.15775	
54185	1580406964.934764919	0.00250058	-0.92887	2.13525	-2.77702	-1.56958	-2.62323	0	0	-0	0	0	0	16.8132	-56.3898	-14.2223	0.21439	1.31126	-1.31211	
54186	1580406964.942742954	0.00245265	-0.928834	2.13525	-2.777	-1.56961	-2.6232	0	0	-0	0	0	0	17.0174	-56.8147	-14.1724	0.238211	1.41022	-1.13202	
54187	1580406964.950761691	0.00246463	-0.928834	2.13524	-2.77703	-1.56961	-2.62321	0	0	-0	0	0	0	17.0174	-56.754	-14.0726	0.21439	1.36074	-1.10629	
54188	1580406964.958733742	0.00246463	-0.928846	2.13527	-2.77703	-1.56956	-2.62323	0	0	-0	0	0	0	17.0174	-56.754	-14.2971	0.285853	1.31126	-1.02911	
54189	1580406964.966772626	0.00247662	-0.92881	2.13526	-2.77705	-1.56955	-2.62319	0	0	-0	0	0	0	17.2216	-56.6933	-14.1973	0.238211	1.336	-1.02911	
54190	1580406964.974771318	0.00247662	-0.928846	2.13524	-2.77702	-1.56961	-2.62315	0	0	-0	0	0	0	16.9493	-57.2396	-14.0726	0.166748	1.36074	-0.951925	
54191	1580406964.982727546	0.0024886	-0.928834	2.13525	-2.77702	-1.5696	-2.6232	0	0	-0	0	0	0	16.677	-56.8147	-14.1474	0.190569	1.38548	-1.00338	
54192	1580406964.990737684	0.00250058	-0.928846	2.13525	-2.77704	-1.5696	-2.6232	0	0	-0	0	0	0	17.3577	-56.8754	-14.1724	0.142927	1.4597	-1.05484	
54193	1580406964.998772270	0.00250058	-0.928834	2.13526	-2.777	-1.56956	-2.62323	0	0	-0	0	0	0	16.2686	-56.8754	-14.2223	0.285853	1.336	-1.10629	
54194	1580406965.006755087	0.0024886	-0.928846	2.1353	-2.77703	-1.56957	-2.62324	0	0	-0	0	0	0	17.0854	-56.3291	-14.2722	0.190569	1.38548	-1.00338	
54195	1580406965.014744846	0.0024886	-0.928834	2.13526	-2.77702	-1.56956	-2.6232	0	0	-0	0	0	0	17.0174	-57.2396	-14.1973	0.238211	1.38548	-1.02911	
54196	1580406965.022731083	0.00247662	-0.92881	2.13525	-2.777	-1.56956	-2.62319	0	0	-0	0	0	0	17.2896	-56.6326	-14.1973	0.262032	1.4597	-1.13202	
54197	1580406965.030771107	0.00252455	-0.92887	2.13524	-2.77703	-1.56956	-2.62325	0	0	-0	0	0	0	16.8132	-56.5112	-14.0975	0.238211	1.28652	-1.18347	
54198	1580406965.038747402	0.00247662	-0.92881	2.13525	-2.77702	-1.56958	-2.62321	0	0	-0	0	0	0	17.0854	-56.2684	-14.347	0.21439	1.28652	-1.00338	
54199	1580406965.046752298	0.00250058	-0.92881	2.13526	-2.77705	-1.56957	-2.62319	0	0	-0	0	0	0	16.4728	-56.5112	-14.2223	0.166748	1.4597	-0.977652	
54200	1580406965.054730948	0.00247662	-0.928882	2.13526	-2.77702	-1.5696	-2.62319	0	0	-0	0	0	0	16.6089	-57.0575	-14.2223	0.21439	1.4597	-1.08056	
54201	1580406965.062724332	0.00251257	-0.928822	2.13525	-2.77705	-1.56958	-2.62321	0	0	-0	0	0	0	16.6089	-56.8147	-14.347	0.166748	1.38548	-1.08056	
54202	1580406965.070713428	0.0024886	-0.92881	2.13524	-2.77702	-1.5696	-2.62323	0	0	-0	0	0	0	17.0174	-56.9361	-14.2472	0.21439	1.36074	-1.10629	
54203	1580406965.078707511	0.00245265	-0.928822	2.13526	-2.77702	-1.56961	-2.6232	0	0	-0	0	0	0	16.6089	-56.147	-14.1474	0.21439	1.43496	-1.05484	
54204	1580406965.086735714	0.00246463	-0.92887	2.13525	-2.77704	-1.5696	-2.6232	0	0	-0	0	0	0	17.0854	-56.754	-14.0975	0.190569	1.36074	-1.00338	
54205	1580406965.094693996	0.00246463	-0.92881	2.13526	-2.77702	-1.56958	-2.62321	0	0	-0	0	0	0	16.6089	-56.9361	-14.0975	0.262032	1.43496	-1.15775	
54206	1580406965.102704817	0.00245265	-0.928846	2.13525	-2.77703	-1.5696	-2.62323	0	0	-0	0	0	0	16.4728	-56.9361	-14.2223	0.119106	1.58341	-1.08056	
54207	1580406965.110769819	0.00246463	-0.928834	2.13525	-2.77703	-1.56956	-2.62319	0	0	-0	0	0	0	16.8812	-56.5719	-14.1973	0.21439	1.38548	-0.926197	
54208	1580406965.118727977	0.00246463	-0.928798	2.13524	-2.77703	-1.5696	-2.62319	0	0	-0	0	0	0	17.0174	-56.4505	-14.1973	0.21439	1.41022	-1.10629	
54209	1580406965.126717864	0.0024886	-0.928846	2.13526	-2.77703	-1.5696	-2.62321	0	0	-0	0	0	0	16.2686	-56.6326	-14.1724	0.166748	1.43496	-1.26066	
54210	1580406965.134746551	0.00250058	-0.928834	2.13524	-2.77703	-1.56957	-2.62323	0	0	-0	0	0	0	16.8132	-56.5112	-14.3221	0.262032	1.36074	-0.977652	
54211	1580406965.142749099	0.00246463	-0.928846	2.13527	-2.77702	-1.5696	-2.62324	0	0	-0	0	0	0	17.0174	-56.5719	-14.2472	0.309674	1.36074	-1.23493	
54212	1580406965.150695482	0.0024886	-0.928846	2.13523	-2.777	-1.56957	-2.6232	0	0	-0	0	0	0	17.2896	-56.8754	-14.1225	0.285853	1.36074	-0.951925	
54213	1580406965.158756476	0.00251257	-0.928834	2.13526	-2.77702	-1.56958	-2.62321	0	0	-0	0	0	0	17.3577	-56.4505	-14.1724	0.21439	1.4597	-1.18347	
54214	1580406965.166753532	0.00251257	-0.928786	2.13526	-2.77703	-1.56957	-2.6232	0	0	-0	0	0	0	17.3577	-56.3898	-14.2722	0.238211	1.38548	-1.02911	
54215	1580406965.174685597	0.00247662	-0.928822	2.13527	-2.77703	-1.56958	-2.62319	0	0	-0	0	0	0	16.677	-57.1789	-14.3221	0.21439	1.38548	-1.18347	
54216	1580406965.182717145	0.0024886	-0.928834	2.13524	-2.77703	-1.56957	-2.6232	0	0	-0	0	0	0	17.2216	-56.3291	-14.2722	0.21439	1.4597	-1.13202	
54217	1580406965.190788278	0.00247662	-0.928834	2.13529	-2.77704	-1.5696	-2.6232	0	0	-0	0	0	0	17.0854	-56.6933	-14.347	0.238211	1.31126	-1.15775	
54218	1580406965.198734580	0.00247662	-0.928822	2.13526	-2.777	-1.56954	-2.62321	0	0	-0	0	0	0	16.8132	-56.8147	-14.2971	0.262032	1.41022	-1.13202	
54219	1580406965.206734500	0.00246463	-0.928822	2.13525	-2.777	-1.56956	-2.62321	0	0	-0	0	0	0	16.677	-56.0863	-14.2722	0.524064	1.43496	-1.02911	
54220	1580406965.214724869	0.00246463	-0.928834	2.13524	-2.77702	-1.5696	-2.62323	0	0	-0	0	0	0	17.0854	-56.6933	-14.2722	0.21439	1.336	-1.13202	
54221	1580406965.222781144	0.00247662	-0.928798	2.13526	-2.77699	-1.56955	-2.62323	0	0	-0	0	0	0	16.677	-56.0256	-14.0975	0.285853	1.41022	-0.977652	
54222	1580406965.230771448	0.00247662	-0.928846	2.13521	-2.77702	-1.56958	-2.6232	0	0	-0	0	0	0	16.5409	-56.8147	-14.372	0.309674	1.4597	-1.2092	
54223	1580406965.238736212	0.00251257	-0.92887	2.13524	-2.777	-1.56957	-2.62321	0	0	-0	0	0	0	16.8132	-56.6326	-14.0476	0.166748	1.36074	-1.05484	
54224	1580406965.246711608	0.00245265	-0.928822	2.13527	-2.777	-1.56958	-2.6232	0	0	-0	0	0	0	17.4258	-56.6933	-14.0975	0.404959	1.43496	-1.15775	
54225	1580406965.254707295	0.00250058	-0.928834	2.13525	-2.77702	-1.56957	-2.6232	0	0	-0	0	0	0	17.5619	-56.2684	-14.0726	0.21439	1.38548	-1.15775	
54226	1580406965.262674549	0.00250058	-0.928846	2.13525	-2.77704	-1.56958	-2.62321	0	0	-0	0	0	0	16.8132	-56.9968	-14.1724	0.238211	1.41022	-1.02911	
54227	1580406965.270725062	0.0024886	-0.928834	2.13525	-2.77702	-1.56957	-2.6232	0	0	-0	0	0	0	16.5409	-56.4505	-14.2472	0.21439	1.31126	-1.10629	
54228	1580406965.278734125	0.0024886	-0.92881	2.13525	-2.77702	-1.56958	-2.62323	0	0	-0	0	0	0	17.4939	-56.6326	-14.1225	0.190569	1.41022	-1.13202	
54229	1580406965.286725751	0.0024886	-0.92881	2.13524	-2.77702	-1.56956	-2.62321	0	0	-0	0	0	0	16.4047	-56.2684	-14.0476	0.190569	1.41022	-1.08056	
54230	1580406965.294698862	0.0024886	-0.928798	2.13526	-2.77704	-1.56957	-2.62319	0	0	-0	0	0	0	17.4939	-56.4505	-14.1724	0.285853	1.43496	-1.13202	
54231	1580406965.302660348	0.00246463	-0.928798	2.13526	-2.777	-1.56956	-2.62319	0	0	-0	0	0	0	17.4258	-56.2684	-14.3221	0.262032	1.43496	-0.951925	
54232	1580406965.310738473	0.0024886	-0.928822	2.13523	-2.777	-1.5696	-2.62319	0	0	-0	0	0	0	16.0644	-56.8147	-14.0975	0.309674	1.48445	-1.08056	
54233	1580406965.318732918	0.00247662	-0.92881	2.13526	-2.77703	-1.56961	-2.62321	0	0	-0	0	0	0	17.2896	-56.9361	-14.1724	0.262032	1.36074	-1.10629	
54234	1580406965.326733563	0.00250058	-0.928786	2.13525	-2.777	-1.56958	-2.6232	0	0	-0	0	0	0	17.0174	-56.8147	-14.1474	0.357317	1.28652	-1.26066	
54235	1580406965.334720372	0.0024886	-0.928822	2.1352	-2.77702	-1.56961	-2.6232	0	0	-0	0	0	0	17.0174	-56.754	-14.1973	0.190569	1.38548	-1.05484	
54236	1580406965.342686097	0.00245265	-0.928846	2.13524	-2.77702	-1.56957	-2.6232	0	0	-0	0	0	0	16.5409	-56.3898	-14.1474	0.238211	1.31126	-1.13202	
54237	1580406965.350680942	0.00250058	-0.928846	2.13526	-2.77704	-1.56956	-2.62321	0	0	-0	0	0	0	17.0174	-56.3291	-14.1973	0.262032	1.41022	-1.33784	
54238	1580406965.358707820	0.00250058	-0.92881	2.13524	-2.777	-1.56957	-2.62321	0	0	-0	0	0	0	17.5619	-56.3898	-14.0975	0.285853	1.336	-1.08056	
54239	1580406965.366678674	0.00246463	-0.928798	2.13529	-2.77702	-1.56956	-2.62324	0	0	-0	0	0	0	16.677	-56.9361	-14.0975	0.238211	1.38548	-1.05484	
54240	1580406965.374680810	0.00250058	-0.928822	2.13521	-2.77699	-1.56958	-2.6232	0	0	-0	0	0	0	16.9493	-56.754	-14.1225	0.309674	1.43496	-0.977652	
54241	1580406965.382718631	0.00245265	-0.928834	2.13523	-2.77703	-1.56956	-2.62319	0	0	-0	0	0	0	17.3577	-56.0863	-14.1474	0.238211	1.31126	-1.18347	
54242	1580406965.390676632	0.00245265	-0.928858	2.13521	-2.77703	-1.5696	-2.6232	0	0	-0	0	0	0	16.7451	-57.3003	-14.1724	0.333496	1.36074	-1.18347	
54243	1580406965.398744032	0.00247662	-0.928846	2.13527	-2.77705	-1.56958	-2.6232	0	0	-0	0	0	0	16.8132	-56.8754	-14.347	0.262032	1.36074	-0.900469	
54244	1580406965.406763395	0.00247662	-0.928822	2.13525	-2.77702	-1.56956	-2.62324	0	0	-0	0	0	0	17.3577	-56.147	-14.1225	0.142927	1.55867	-1.13202	
54245	1580406965.414819076	0.00246463	-0.928798	2.13525	-2.77702	-1.56957	-2.62324	0	0	-0	0	0	0	16.4728	-56.9968	-14.2223	0.21439	1.4597	-1.05484	
54246	1580406965.422742439	0.00244066	-0.92881	2.13527	-2.77702	-1.56961	-2.6232	0	0	-0	0	0	0	17.2896	-56.6326	-14.0975	0.190569	1.43496	-0.926197	
54247	1580406965.430752482	0.00246463	-0.928822	2.13529	-2.77703	-1.56958	-2.62323	0	0	-0	0	0	0	16.8812	-57.0575	-14.0975	0.238211	1.41022	-1.05484	
54248	1580406965.438740833	0.00250058	-0.92887	2.13524	-2.777	-1.56956	-2.6232	0	0	-0	0	0	0	16.8812	-56.754	-14.0975	0.21439	1.336	-0.874742	
54249	1580406965.446796469	0.00247662	-0.928822	2.13525	-2.77702	-1.56957	-2.62321	0	0	-0	0	0	0	17.3577	-56.2684	-14.0975	0.238211	1.38548	-1.00338	
54250	1580406965.454732973	0.00246463	-0.928846	2.13527	-2.77703	-1.5696	-2.62319	0	0	-0	0	0	0	17.4939	-56.8754	-14.2971	0.166748	1.41022	-1.00338	
54251	1580406965.462727849	0.00251257	-0.92881	2.13527	-2.77702	-1.56958	-2.62325	0	0	-0	0	0	0	17.4939	-56.8147	-14.347	0.238211	1.36074	-1.10629	
54252	1580406965.470701616	0.00251257	-0.928858	2.13527	-2.77699	-1.56958	-2.62324	0	0	-0	0	0	0	16.9493	-56.9968	-14.1724	0.21439	1.4597	-0.900469	
54253	1580406965.478842570	0.00247662	-0.92881	2.13521	-2.777	-1.56961	-2.62323	0	0	-0	0	0	0	17.4258	-56.3291	-14.1225	0.309674	1.28652	-1.08056	
54254	1580406965.486680287	0.0024886	-0.928822	2.13524	-2.77702	-1.56956	-2.6232	0	0	-0	0	0	0	16.9493	-56.5719	-14.2722	0.238211	1.41022	-1.05484	
54255	1580406965.494680085	0.00246463	-0.92881	2.13525	-2.77703	-1.5696	-2.62319	0	0	-0	0	0	0	16.7451	-56.8147	-14.1474	0.262032	1.48445	-0.951925	
54256	1580406965.502753630	0.00247662	-0.928846	2.13524	-2.777	-1.56957	-2.62321	0	0	-0	0	0	0	17.0174	-56.9968	-14.1973	0.21439	1.28652	-1.13202	
54257	1580406965.510781146	0.0024886	-0.928834	2.13526	-2.77705	-1.56956	-2.6232	0	0	-0	0	0	0	17.6981	-56.6326	-14.1724	0.262032	1.43496	-1.15775	
54258	1580406965.518752103	0.00246463	-0.928846	2.13524	-2.77703	-1.56961	-2.62321	0	0	-0	0	0	0	16.9493	-56.2684	-14.0476	0.238211	1.336	-1.13202	
54259	1580406965.526725960	0.00245265	-0.928822	2.13525	-2.77703	-1.56954	-2.6232	0	0	-0	0	0	0	16.8812	-56.6326	-14.2223	0.262032	1.4597	-0.926197	
54260	1580406965.534715839	0.00247662	-0.92881	2.13525	-2.77702	-1.56958	-2.62319	0	0	-0	0	0	0	16.677	-56.5719	-14.1225	0.190569	1.43496	-1.10629	
54261	1580406965.542700705	0.0024886	-0.92881	2.13525	-2.77702	-1.5696	-2.62321	0	0	-0	0	0	0	16.9493	-56.6933	-14.3221	0.238211	1.53393	-1.00338	
54262	1580406965.550759567	0.00245265	-0.928858	2.13525	-2.77702	-1.56958	-2.6232	0	0	-0	0	0	0	16.8812	-56.3898	-14.1724	0.190569	1.4597	-1.05484	
54263	1580406965.558712426	0.00251257	-0.928834	2.13527	-2.77702	-1.56957	-2.62324	0	0	-0	0	0	0	17.8342	-56.3898	-14.2223	0.285853	1.41022	-1.15775	
54264	1580406965.566741729	0.00250058	-0.928786	2.13525	-2.77702	-1.56955	-2.62324	0	0	-0	0	0	0	17.1535	-56.6933	-14.1474	0.238211	1.28652	-1.08056	
54265	1580406965.574732592	0.00247662	-0.92881	2.13527	-2.77702	-1.5696	-2.62323	0	0	-0	0	0	0	16.8812	-56.6933	-14.2472	0.21439	1.4597	-0.951925	
54266	1580406965.582715368	0.00247662	-0.928858	2.13524	-2.77704	-1.56957	-2.62319	0	0	-0	0	0	0	16.9493	-56.4505	-14.1973	0.285853	1.38548	-1.00338	
54267	1580406965.590747172	0.00246463	-0.92887	2.13524	-2.77702	-1.56957	-2.6232	0	0	-0	0	0	0	17.6981	-56.6326	-14.2472	0.285853	1.43496	-1.02911	
54268	1580406965.598692947	0.00246463	-0.928834	2.13529	-2.77702	-1.5696	-2.62321	0	0	-0	0	0	0	17.0854	-56.6326	-14.2722	0.262032	1.43496	-1.08056	
54269	1580406965.606724685	0.0024886	-0.928858	2.13525	-2.77703	-1.5696	-2.62321	0	0	-0	0	0	0	17.2896	-56.4505	-14.2472	0.238211	1.50919	-1.08056	
54270	1580406965.614757380	0.00246463	-0.928822	2.13527	-2.777	-1.56955	-2.62321	0	0	-0	0	0	0	16.8132	-57.0575	-14.1724	0.404959	1.48445	-1.05484	
54271	1580406965.622747551	0.00250058	-0.92881	2.13524	-2.77703	-1.56958	-2.6232	0	0	-0	0	0	0	17.0174	-56.147	-14.0975	0.238211	1.38548	-1.00338	
54272	1580406965.630745562	0.00247662	-0.928846	2.13526	-2.77704	-1.56956	-2.62321	0	0	-0	0	0	0	17.0174	-56.6933	-14.2971	0.285853	1.4597	-1.08056	
54273	1580406965.638784941	0.0024886	-0.928834	2.13525	-2.77702	-1.56961	-2.62321	0	0	-0	0	0	0	16.4047	-56.6326	-14.1225	0.262032	1.4597	-0.926197	
54274	1580406965.646768768	0.0024886	-0.928822	2.13526	-2.77702	-1.56957	-2.62319	0	0	-0	0	0	0	17.4939	-57.3003	-14.1724	0.309674	1.41022	-1.10629	
54275	1580406965.654673342	0.00247662	-0.928858	2.13527	-2.77704	-1.56958	-2.62321	0	0	-0	0	0	0	17.2216	-56.9968	-14.0227	0.285853	1.41022	-1.15775	
54276	1580406965.662709466	0.00251257	-0.928846	2.13523	-2.77702	-1.56955	-2.62321	0	0	-0	0	0	0	17.1535	-56.8147	-14.1724	0.21439	1.31126	-1.00338	
54277	1580406965.670778352	0.00251257	-0.928834	2.13526	-2.77703	-1.56958	-2.62318	0	0	-0	0	0	0	17.4258	-56.3291	-14.2971	0.190569	1.4597	-1.08056	
54278	1580406965.678696548	0.0024886	-0.928846	2.1352	-2.77702	-1.56957	-2.62324	0	0	-0	0	0	0	16.5409	-56.5719	-14.2472	0.262032	1.50919	-1.08056	
54279	1580406965.686748733	0.00247662	-0.928846	2.13525	-2.77703	-1.56962	-2.62321	0	0	-0	0	0	0	16.677	-56.5719	-14.1973	0.285853	1.31126	-0.900469	
54280	1580406965.694693613	0.00250058	-0.928846	2.1352	-2.77702	-1.5696	-2.62319	0	0	-0	0	0	0	17.2896	-56.9361	-14.1474	0.21439	1.41022	-1.10629	
54281	1580406965.702763433	0.0024886	-0.928834	2.13527	-2.777	-1.56955	-2.62321	0	0	-0	0	0	0	17.0174	-56.4505	-14.2223	0.262032	1.58341	-0.951925	
54282	1580406965.710753177	0.00247662	-0.928846	2.13527	-2.77704	-1.56956	-2.62319	0	0	-0	0	0	0	17.2216	-56.4505	-14.2223	0.190569	1.41022	-0.926197	
54283	1580406965.718765526	0.00247662	-0.928846	2.13526	-2.77702	-1.56961	-2.62323	0	0	-0	0	0	0	16.7451	-56.5112	-14.1724	0.357317	1.43496	-1.05484	
54284	1580406965.726738876	0.00250058	-0.928846	2.13524	-2.77702	-1.56957	-2.6232	0	0	-0	0	0	0	17.5619	-56.147	-14.2223	0.309674	1.4597	-1.08056	
54285	1580406965.734784308	0.00250058	-0.928834	2.13523	-2.77703	-1.56958	-2.6232	0	0	-0	0	0	0	16.8812	-56.6326	-14.1973	0.21439	1.48445	-1.15775	
54286	1580406965.742753085	0.00250058	-0.928846	2.13525	-2.77703	-1.56958	-2.62319	0	0	-0	0	0	0	16.4728	-56.3898	-14.2722	0.238211	1.4597	-1.00338	
54287	1580406965.750730119	0.00251257	-0.928846	2.13526	-2.77703	-1.56958	-2.62321	0	0	-0	0	0	0	16.8132	-56.6326	-14.0726	0.190569	1.48445	-0.951925	
54288	1580406965.758727321	0.00246463	-0.928846	2.13525	-2.77703	-1.56958	-2.62321	0	0	-0	0	0	0	17.1535	-56.754	-14.1973	0.285853	1.36074	-1.05484	
54289	1580406965.766816930	0.0024886	-0.928834	2.13524	-2.77702	-1.56956	-2.6232	0	0	-0	0	0	0	17.4939	-56.8754	-14.3969	0.166748	1.36074	-1.08056	
54290	1580406965.774736414	0.00246463	-0.928822	2.13525	-2.77702	-1.5696	-2.62321	0	0	-0	0	0	0	17.5619	-56.8754	-14.1724	0.119106	1.4597	-1.08056	
54291	1580406965.782679056	0.00246463	-0.928822	2.13525	-2.77703	-1.56956	-2.62318	0	0	-0	0	0	0	16.677	-56.8147	-14.1724	0.166748	1.36074	-1.00338	
54292	1580406965.790731526	0.00246463	-0.928846	2.13524	-2.77702	-1.56958	-2.6232	0	0	-0	0	0	0	16.7451	-56.0256	-14.1225	0.262032	1.4597	-1.10629	
54293	1580406965.798731321	0.00250058	-0.92881	2.13525	-2.777	-1.56954	-2.6232	0	0	-0	0	0	0	17.0854	-56.6326	-14.3221	0.238211	1.38548	-1.23493	
54294	1580406965.806742596	0.0024886	-0.92887	2.13524	-2.777	-1.56958	-2.62326	0	0	-0	0	0	0	16.9493	-56.5112	-14.0726	0.262032	1.41022	-1.15775	
54295	1580406965.814749195	0.00250058	-0.928822	2.13524	-2.77703	-1.56956	-2.62325	0	0	-0	0	0	0	16.5409	-57.3003	-14.2971	0.142927	1.50919	-1.00338	
54296	1580406965.822712915	0.00245265	-0.928846	2.13525	-2.77703	-1.56961	-2.62324	0	0	-0	0	0	0	16.6089	-56.8147	-14.1474	0.262032	1.31126	-0.926197	
54297	1580406965.830754392	0.0024886	-0.928822	2.13526	-2.777	-1.5696	-2.6232	0	0	-0	0	0	0	17.0854	-56.8147	-14.0476	0.190569	1.38548	-1.10629	
54298	1580406965.838732661	0.0024886	-0.928834	2.13526	-2.77702	-1.5696	-2.62324	0	0	-0	0	0	0	17.0174	-56.4505	-14.3221	0.309674	1.38548	-1.2092	
54299	1580406965.846724843	0.00247662	-0.92881	2.13529	-2.77703	-1.56957	-2.62319	0	0	-0	0	0	0	16.9493	-56.9361	-14.1724	0.21439	1.41022	-1.10629	
54300	1580406965.854682683	0.0024886	-0.928822	2.13525	-2.77704	-1.56957	-2.62323	0	0	-0	0	0	0	16.677	-56.6326	-14.0726	0.0952844	1.2123	-0.951925	
54301	1580406965.862692562	0.0024886	-0.928846	2.13525	-2.777	-1.56956	-2.62324	0	0	-0	0	0	0	17.6981	-56.9968	-14.1973	0.142927	1.38548	-0.926197	
54302	1580406965.870655402	0.00246463	-0.928882	2.13525	-2.777	-1.5696	-2.62324	0	0	-0	0	0	0	17.8342	-56.3898	-14.1724	0.238211	1.38548	-0.900469	
54303	1580406965.878708953	0.0024886	-0.928822	2.13521	-2.77702	-1.56956	-2.6232	0	0	-0	0	0	0	17.0854	-56.4505	-14.1724	0.190569	1.28652	-1.02911	
54304	1580406965.886656943	0.00250058	-0.928786	2.13523	-2.77703	-1.56954	-2.62319	0	0	-0	0	0	0	17.4939	-56.6326	-14.0227	0.333496	1.43496	-1.13202	
54305	1580406965.894723653	0.00247662	-0.928882	2.13527	-2.77702	-1.56957	-2.62323	0	0	-0	0	0	0	17.1535	-56.5719	-14.1973	0.42878	1.31126	-1.05484	
