terrinbabu/Matlab/log_filtering/UR10_35_KF/mjt_0kg_sinjall_v5_1.txt
seq	time	q0	q1	q2	q3	q4	q5	Dq0	Dq1	Dq2	Dq3	Dq4	Dq5	eff0	eff1	eff2	eff3	eff4	eff5	
5624	1573229628.230666392	-1.24954	-2.12005	-1.73215	-1.58041	0.591279	0.722909	0.014854	0.0147006	0.0170655	0.0169313	0.0167587	0.0167204	15.9963	83.9474	37.4769	4.21634	1.50919	2.4184	
5625	1573229628.238692223	-1.24944	-2.11994	-1.73202	-1.58029	0.591375	0.723053	0.0149563	0.0153654	0.0149691	0.0160876	0.0167396	0.0154549	17.0174	83.9474	37.1775	4.21634	1.85556	2.5985	
5626	1573229628.246668620	-1.2493	-2.11982	-1.73192	-1.58014	0.591519	0.723161	0.0161068	0.0162091	0.0139976	0.0170655	0.0146495	0.0155124	16.4728	84.9793	37.6017	4.02577	1.85556	2.23831	
5627	1573229628.254677492	-1.24917	-2.11965	-1.7318	-1.58005	0.591626	0.723293	0.0152887	0.0152887	0.0169505	0.0157233	0.0165478	0.0170272	17.4258	85.6469	37.1027	4.31162	2.05348	2.18685	
5628	1573229628.262726985	-1.24905	-2.11954	-1.73163	-1.57991	0.591782	0.723401	0.0164264	0.0160557	0.0133584	0.0171806	0.0155699	0.0141126	17.9703	85.6469	37.5767	4.24016	2.32563	2.28976	
5629	1573229628.270692590	-1.2489	-2.11942	-1.7315	-1.57977	0.591854	0.723508	0.0162346	0.0162346	0.0176536	0.0150522	0.0140359	0.0168163	18.3788	87.4679	37.5518	4.38308	2.44933	1.80094	
5630	1573229628.278665662	-1.24878	-2.11926	-1.73142	-1.57965	0.591986	0.723664	0.0163752	0.0161196	0.0147006	0.0169697	0.0177558	0.0149371	19.604	87.4679	37.452	4.19251	2.15245	2.03249	
5631	1573229628.286684992	-1.24867	-2.11918	-1.73132	-1.57953	0.592178	0.723796	0.015685	0.0154549	0.0153782	0.0172189	0.0170272	0.0157233	20.7612	88.9854	37.6266	4.47837	2.49882	1.69803	
5632	1573229628.294710610	-1.24855	-2.11904	-1.7312	-1.57939	0.592286	0.723964	0.0158	0.0165159	0.0169633	0.0153015	0.0177942	0.0170847	20.1486	89.1068	37.0029	4.4069	2.57304	2.10967	
5633	1573229628.302699329	-1.24838	-2.11894	-1.73101	-1.57927	0.592406	0.724048	0.0162858	0.0166565	0.0166437	0.0167587	0.0161068	0.0135757	19.3998	88.1963	37.2773	4.24016	2.672	2.05822	
5634	1573229628.310693660	-1.24829	-2.11879	-1.73093	-1.57915	0.592538	0.724215	0.015327	0.0165798	0.0158767	0.0165478	0.0173915	0.0161643	20.8293	88.1356	37.3771	4.81186	2.86993	1.80094	
5635	1573229628.318863852	-1.24811	-2.11865	-1.73076	-1.57904	0.592669	0.724287	0.0165286	0.0167332	0.017807	0.0146495	0.0164136	0.0153782	20.6931	86.8002	36.429	4.6213	2.74622	2.21258	
5636	1573229628.326677857	-1.248	-2.1185	-1.73062	-1.57888	0.592802	0.724455	0.0162602	0.017628	0.0157105	0.0176408	0.0170464	0.0149947	21.3057	85.04	36.3042	4.69276	2.77096	2.00676	
5637	1573229628.334653136	-1.24788	-2.11837	-1.73051	-1.57876	0.592897	0.724586	0.0172956	0.0171039	0.0180754	0.0166053	0.0168354	0.0156274	20.1486	84.3116	36.928	4.76422	3.01837	2.23831	
5638	1573229628.342701440	-1.24775	-2.11825	-1.73033	-1.57865	0.593065	0.724682	0.0156338	0.0166309	0.0135374	0.0176024	0.0179476	0.0160301	19.8763	83.9474	36.3042	4.59747	2.72148	2.28976	
5639	1573229628.350660260	-1.24757	-2.11812	-1.73026	-1.57852	0.593209	0.724826	0.0171422	0.0172701	0.0173723	0.0161835	0.0161835	0.0149371	19.9444	82.6727	36.1545	4.54983	2.59778	2.52131	
5640	1573229628.358670680	-1.24746	-2.11799	-1.7301	-1.57833	0.593353	0.724994	0.0171934	0.0172189	0.0157617	0.0178134	0.0183311	0.0155124	18.7191	81.8836	36.2793	4.54983	2.69674	2.64995	
5641	1573229628.366696250	-1.24733	-2.11783	-1.72999	-1.57823	0.593485	0.725065	0.0170528	0.0175002	0.0139976	0.0151097	0.0169121	0.0171806	19.1275	82.005	36.6286	4.93097	3.2163	2.57277	
5642	1573229628.374687342	-1.24719	-2.11771	-1.72987	-1.57811	0.593569	0.725221	0.0161963	0.0162091	0.0175129	0.0177175	0.0171039	0.014918	18.7191	81.9443	36.9779	4.33544	2.5483	2.85577	
5643	1573229628.382658205	-1.24703	-2.11759	-1.72975	-1.57799	0.593701	0.725293	0.0174235	0.0168099	0.0155955	0.0165286	0.0165862	0.0161643	17.4939	82.6727	36.7034	4.76422	2.79571	2.39268	
5644	1573229628.390673993	-1.24692	-2.11745	-1.72959	-1.57781	0.593857	0.725461	0.0172317	0.0170528	0.015327	0.0170464	0.0156658	0.0172765	17.2216	82.5513	37.0029	4.57365	2.672	2.90723	
5645	1573229628.398734202	-1.2468	-2.1173	-1.72948	-1.57773	0.594013	0.725604	0.0159662	0.0170911	0.0168354	0.0168546	0.0179668	0.0139401	17.7661	83.3404	37.0029	4.38308	2.52356	2.75286	
5646	1573229628.406823219	-1.24667	-2.11717	-1.72933	-1.57757	0.594157	0.725736	0.0167971	0.0158895	0.0153782	0.0147454	0.0175066	0.0166437	16.3367	85.3435	37.3272	4.64512	2.44933	2.44413	
5647	1573229628.414773170	-1.24651	-2.11708	-1.72923	-1.57745	0.594252	0.725856	0.0169888	0.0169377	0.0166693	0.0158575	0.0161068	0.0155316	17.3577	84.1902	37.9011	4.33544	2.52356	3.0616	
5648	1573229628.422731276	-1.24638	-2.11698	-1.72909	-1.57732	0.594396	0.725976	0.0172956	0.0172189	0.0155316	0.0162602	0.0159534	0.0151289	16.8132	84.433	37.1775	4.19251	1.78133	2.54704	
5649	1573229628.430737674	-1.24629	-2.11682	-1.72894	-1.57718	0.594504	0.726131	0.0163625	0.0174107	0.017449	0.0188296	0.0171231	0.0153206	17.3577	83.4618	37.6765	3.90666	2.1277	2.98441	
5650	1573229628.442541070	-1.24612	-2.11669	-1.72882	-1.57709	0.594684	0.726227	0.0169505	0.0169888	0.0179348	0.0179284	0.016682	0.0158	17.3577	83.8867	37.427	4.50219	1.70711	2.57277	
5651	1573229628.446740102	-1.24598	-2.11654	-1.72867	-1.57695	0.594816	0.726371	0.0171295	0.0178964	0.0179859	0.0150714	0.0160301	0.017775	16.7451	83.219	37.7763	4.14487	1.75659	2.95868	
5652	1573229628.454742844	-1.24584	-2.11641	-1.72852	-1.57677	0.594948	0.726515	0.0179731	0.0175641	0.0153654	0.0177942	0.0169505	0.0161451	17.7661	82.005	38.0508	4.54983	1.85556	2.90723	
5653	1573229628.462827498	-1.24566	-2.1163	-1.7284	-1.57667	0.595056	0.726611	0.0170655	0.0175769	0.0191748	0.0150522	0.0159726	0.0157041	18.1065	81.5801	37.427	4.4069	1.90504	3.42178	
5654	1573229628.470704864	-1.24558	-2.11612	-1.72823	-1.57655	0.595164	0.726743	0.0172317	0.0179092	0.0165286	0.0172381	0.0159726	0.0169313	17.2896	81.6408	38.2504	4.4069	1.92978	2.77859	
5655	1573229628.478697288	-1.2454	-2.11599	-1.72814	-1.57641	0.595283	0.726922	0.017807	0.0172701	0.0173595	0.015474	0.0151672	0.0174107	17.5619	81.2766	38.1007	5.0739	1.90504	2.90723	
5656	1573229628.486677774	-1.24528	-2.11588	-1.72799	-1.57626	0.595451	0.727054	0.016273	0.0181777	0.0159917	0.0168738	0.0175257	0.0173723	19.1275	80.6089	38.0259	4.52601	1.92978	2.85577	
5657	1573229628.494669422	-1.24519	-2.11572	-1.72785	-1.57613	0.595595	0.727221	0.0178709	0.0175641	0.0178581	0.017449	0.0178325	0.0176791	18.583	80.0626	37.976	4.90715	2.07822	2.70141	
5658	1573229628.502682455	-1.24501	-2.11558	-1.7277	-1.57598	0.595751	0.727329	0.0171167	0.0182799	0.0175641	0.0160493	0.0169697	0.0158959	17.63	79.5163	38.1257	4.52601	1.85556	3.21596	
5659	1573229628.510730166	-1.24485	-2.11538	-1.72755	-1.57587	0.595847	0.727461	0.0172062	0.0183566	0.0172829	0.0172189	0.0157425	0.0160684	18.2426	79.6377	38.4999	4.45455	1.97926	2.95868	
5660	1573229628.518670630	-1.24474	-2.1153	-1.72744	-1.57575	0.596003	0.727617	0.0169888	0.0173212	0.0151608	0.0160876	0.016682	0.0172956	16.9493	79.5163	38.1257	4.57365	1.73185	3.29314	
5661	1573229628.526720386	-1.24459	-2.11512	-1.72731	-1.57561	0.596135	0.727736	0.0172573	0.0178453	0.0179604	0.0174299	0.0158384	0.017008	15.7921	79.0307	37.9011	4.50219	1.90504	3.21596	
5662	1573229628.534689197	-1.24448	-2.11502	-1.72713	-1.57546	0.596243	0.727892	0.0169633	0.0173595	0.0158256	0.0163369	0.0170272	0.0160109	14.0904	78.363	38.0508	5.12154	1.85556	3.3446	
5663	1573229628.542663337	-1.24432	-2.11486	-1.72701	-1.57531	0.596386	0.728012	0.0167204	0.0185995	0.0160045	0.0177558	0.016241	0.0160684	14.0904	79.4556	38.0758	4.64512	2.22667	3.57615	
5664	1573229628.550721908	-1.24419	-2.11474	-1.72688	-1.5752	0.596471	0.728144	0.0173084	0.0170655	0.0164008	0.0155316	0.0165862	0.0160109	12.3886	78.0595	37.452	4.71658	2.15245	2.75286	
5665	1573229628.558680295	-1.24407	-2.11461	-1.72676	-1.57504	0.596651	0.728251	0.0171806	0.0179987	0.0164264	0.0172765	0.017334	0.0170655	11.9802	78.363	38.1007	4.4069	2.49882	2.31549	
5666	1573229628.566716444	-1.24393	-2.11447	-1.72664	-1.5749	0.596783	0.728419	0.0173595	0.0177175	0.0167587	0.0170272	0.0172956	0.0155507	11.776	78.6665	37.9011	4.64512	2.72148	2.62422	
5667	1573229628.574659830	-1.24374	-2.11435	-1.72649	-1.57478	0.59689	0.728575	0.0160173	0.0175641	0.01456	0.0164136	0.0177558	0.0152631	14.4307	79.8805	37.976	4.7404	2.47408	2.21258	
5668	1573229628.582719991	-1.24365	-2.11418	-1.72641	-1.57463	0.597094	0.728671	0.0167076	0.0166181	0.0183311	0.0167971	0.0158767	0.0181777	14.2946	80.6696	37.2773	4.64512	2.96889	2.44413	
5669	1573229628.590661648	-1.24353	-2.11406	-1.72625	-1.57453	0.59725	0.728814	0.0168866	0.0171806	0.0155571	0.0151481	0.0167971	0.0163369	14.8391	81.8229	37.6516	5.21682	2.672	2.03249	
5670	1573229628.598708952	-1.24341	-2.11394	-1.7261	-1.57435	0.597334	0.728898	0.0154676	0.0173595	0.0177558	0.0157808	0.0176216	0.0163561	15.1114	81.8836	37.6516	4.90715	2.47408	1.92958	
5671	1573229628.606701945	-1.24326	-2.11377	-1.726	-1.57426	0.597442	0.729042	0.0170783	0.0172956	0.0179987	0.0166437	0.0170847	0.0159917	16.5409	81.8229	37.3023	5.12154	2.69674	2.39268	
5672	1573229628.614668894	-1.24315	-2.11364	-1.72582	-1.57409	0.597622	0.729174	0.0171039	0.0176152	0.0151353	0.0171422	0.0178517	0.0165095	18.0384	82.1264	37.2773	5.00243	3.19156	2.39268	
5673	1573229628.622655518	-1.24302	-2.11351	-1.72575	-1.57396	0.597754	0.729318	0.0177303	0.0171678	0.0189191	0.0176024	0.0161835	0.0169121	17.5619	82.2478	36.8781	4.93097	3.01837	2.34122	
5674	1573229628.630656833	-1.24287	-2.11336	-1.72561	-1.57382	0.597897	0.729449	0.0165031	0.0178325	0.0162858	0.0174107	0.0174874	0.0160684	20.2166	80.5482	36.928	5.31211	3.01837	2.10967	
5675	1573229628.638647054	-1.24274	-2.11323	-1.72544	-1.57365	0.598041	0.729605	0.0174235	0.0174618	0.0174874	0.0163369	0.0162027	0.0172381	18.1745	81.2766	36.5537	5.62178	3.46371	2.08394	
5676	1573229628.646644986	-1.24259	-2.11309	-1.72531	-1.57352	0.598185	0.729737	0.0173084	0.0181905	0.0178325	0.0180243	0.0178517	0.0190022	17.8342	81.1552	36.8781	5.05008	2.672	2.26404	
5677	1573229628.654649189	-1.24243	-2.11292	-1.7252	-1.57339	0.598281	0.729892	0.0172573	0.0177686	0.017449	0.0173532	0.0167396	0.0165862	18.7191	80.5482	36.3042	5.09772	3.46371	2.62422	
5678	1573229628.662659150	-1.24231	-2.11281	-1.72502	-1.57324	0.598425	0.730012	0.01704	0.0170655	0.0172189	0.0172573	0.01766	0.0146687	18.0384	80.4268	36.3541	5.24064	2.74622	2.21258	
5679	1573229628.670661134	-1.24216	-2.11266	-1.72491	-1.57309	0.598593	0.730156	0.0168866	0.0176408	0.014918	0.0170847	0.0176791	0.0175449	17.2896	79.8805	36.4539	5.38357	2.99363	2.36695	
5680	1573229628.678674292	-1.24201	-2.11254	-1.72476	-1.57299	0.598689	0.730252	0.0158639	0.0175129	0.0187273	0.0169888	0.0169505	0.0153782	17.6981	78.7272	35.6056	5.33593	2.94415	2.62422	
5681	1573229628.686657587	-1.24188	-2.11238	-1.72463	-1.57285	0.598821	0.730407	0.0169121	0.0177047	0.0149947	0.0162602	0.0169888	0.0175449	16.9493	78.8486	36.5038	5.0739	2.77096	2.70141	
5682	1573229628.694680048	-1.24176	-2.11227	-1.72443	-1.57269	0.599024	0.730563	0.0162218	0.0177942	0.0172062	0.0171039	0.0178709	0.0175449	17.2896	78.363	36.3042	4.50219	2.47408	2.93296	
5683	1573229628.702665648	-1.24163	-2.11214	-1.72435	-1.57257	0.599156	0.730707	0.0167843	0.0166181	0.0161068	0.0167012	0.0172381	0.018101	17.8342	79.3342	36.6785	5.45503	2.69674	2.23831	
5684	1573229628.710679510	-1.24151	-2.11199	-1.72421	-1.57245	0.599229	0.73085	0.0168099	0.0167971	0.0175896	0.0166437	0.0170847	0.018216	18.1745	79.0914	35.7802	4.88333	2.05348	2.54704	
5685	1573229628.718682567	-1.24139	-2.11187	-1.72407	-1.57225	0.599433	0.730982	0.0157744	0.0174874	0.0167587	0.0166629	0.0179284	0.016126	17.4939	79.3949	35.5058	4.50219	2.25141	2.70141	
5686	1573229628.726699958	-1.24125	-2.11168	-1.72392	-1.57213	0.59954	0.731066	0.0166693	0.0173468	0.0179604	0.0170272	0.0173915	0.0186762	16.7451	78.6665	35.7802	4.76422	2.10296	2.54704	
5687	1573229628.734693067	-1.24114	-2.11159	-1.72382	-1.57201	0.599708	0.731246	0.0170272	0.0175769	0.0168354	0.0164136	0.0180051	0.0172381	16.4728	78.97	35.905	4.38308	1.83082	2.8815	
5688	1573229628.742694213	-1.24097	-2.11145	-1.72368	-1.57184	0.599888	0.731365	0.0171422	0.0177814	0.0176791	0.016682	0.0175066	0.0179092	15.1114	77.756	36.2793	4.31162	1.70711	2.52131	
5689	1573229628.750671542	-1.24087	-2.11129	-1.72355	-1.57172	0.600008	0.731521	0.0172701	0.0168227	0.0143939	0.0162794	0.0183502	0.0194624	15.7921	77.149	36.3791	4.35926	1.41022	2.77859	
5690	1573229628.758694378	-1.24068	-2.11114	-1.72341	-1.57158	0.60014	0.731701	0.0175641	0.0172189	0.0190853	0.0169505	0.0171039	0.0175449	15.3156	78.363	36.4789	4.31162	1.50919	2.70141	
5691	1573229628.766693625	-1.24055	-2.111	-1.72324	-1.57147	0.600331	0.731833	0.0170911	0.0175513	0.0159023	0.0172956	0.0169121	0.0192131	15.1114	77.2097	36.6036	5.09772	1.53393	2.93296	
5692	1573229628.774685498	-1.24041	-2.11088	-1.72315	-1.57132	0.60044	0.731965	0.0178453	0.017334	0.0185484	0.0163177	0.0171998	0.0175641	15.4518	78.1202	36.953	4.6213	1.85556	2.70141	
5693	1573229628.782644299	-1.24028	-2.11079	-1.72297	-1.57119	0.600547	0.73212	0.0169377	0.0170016	0.0178453	0.0176983	0.0169121	0.0175257	14.5669	78.6058	37.1027	4.69276	1.68237	2.8815	
5694	1573229628.790706556	-1.24016	-2.11063	-1.72283	-1.57106	0.600691	0.732264	0.0170911	0.0168227	0.017922	0.0170464	0.0169697	0.0175066	15.4518	79.6377	36.953	4.71658	1.70711	2.62422	
5695	1573229628.798699013	-1.24001	-2.1105	-1.72268	-1.57093	0.600847	0.732432	0.0169888	0.017155	0.0188935	0.0177558	0.0176983	0.0181201	16.5409	79.7591	37.452	4.88333	1.336	2.75286	
5696	1573229628.806691423	-1.23986	-2.11032	-1.72252	-1.57076	0.600967	0.732552	0.0172062	0.0174746	0.0172573	0.0176408	0.0181968	0.0165095	17.1535	81.5194	37.427	4.69276	1.50919	3.08732	
5697	1573229628.814701850	-1.23971	-2.11019	-1.72242	-1.57063	0.601111	0.732671	0.0174362	0.0168866	0.0188296	0.0170847	0.0152056	0.0173915	16.9493	81.5194	38.0009	4.76422	1.65763	2.8815	
5698	1573229628.822704719	-1.2396	-2.11006	-1.72227	-1.57046	0.601207	0.732827	0.0169249	0.0171934	0.018216	0.0172573	0.0165478	0.0179668	17.3577	82.3692	37.951	4.69276	1.65763	3.16451	
5699	1573229628.830688231	-1.23948	-2.10993	-1.7221	-1.57038	0.601339	0.732959	0.0171934	0.0169121	0.0189702	0.0168354	0.0166245	0.0176024	16.4728	81.1552	38.1257	4.90715	1.90504	3.21596	
5700	1573229628.838668024	-1.23927	-2.10978	-1.72199	-1.57016	0.601507	0.733126	0.0175129	0.0169888	0.0191236	0.0173915	0.0169505	0.0179476	16.3367	81.4587	38.2005	4.69276	2.02874	2.98441	
5701	1573229628.846665693	-1.23917	-2.10965	-1.72176	-1.57009	0.601674	0.733222	0.0176663	0.0170655	0.0190597	0.0173532	0.018101	0.0184845	15.9963	81.2159	38.2255	4.64512	2.07822	2.93296	
5702	1573229628.854685230	-1.23898	-2.10953	-1.72162	-1.56993	0.60177	0.733402	0.0174618	0.0172573	0.0188552	0.0186379	0.0172765	0.0173915	15.9283	81.4587	38.6746	4.71658	2.27615	2.8815	
5703	1573229628.862678666	-1.23887	-2.10938	-1.72149	-1.56974	0.601926	0.733545	0.016746	0.017449	0.0185612	0.0167971	0.0176408	0.0172765	15.4518	81.7015	38.2255	4.6213	2.20193	2.52131	
5704	1573229628.870659311	-1.23873	-2.10923	-1.72133	-1.56962	0.602022	0.733689	0.0179092	0.0174618	0.0170528	0.0179284	0.0180051	0.0187146	15.1795	81.8836	38.475	4.59747	2.39985	2.44413	
5705	1573229628.878684741	-1.2386	-2.1091	-1.72117	-1.56946	0.60219	0.733833	0.0166948	0.0175385	0.0183183	0.0174874	0.0170655	0.0172765	14.2265	82.7941	38.4251	4.69276	2.5483	2.44413	
5706	1573229628.886673194	-1.23847	-2.10893	-1.72109	-1.56935	0.602346	0.733977	0.0176791	0.017449	0.0178325	0.0159342	0.0174299	0.0177558	15.1795	83.219	38.3003	4.7404	2.62252	2.08394	
5707	1573229628.894683384	-1.23832	-2.1088	-1.7209	-1.5692	0.602478	0.734108	0.0176152	0.0173212	0.0182799	0.0169505	0.0178134	0.0184461	14.703	84.1295	38.2255	4.71658	2.57304	1.90385	
5708	1573229628.902662609	-1.23818	-2.10866	-1.72078	-1.56909	0.602622	0.734252	0.017743	0.0176791	0.0188168	0.0158575	0.0180051	0.017775	14.3627	84.3723	37.7763	4.76422	2.64726	1.82667	
5709	1573229628.910706820	-1.23808	-2.10853	-1.72065	-1.5689	0.602778	0.734396	0.0176152	0.0172701	0.0194816	0.0179859	0.0169888	0.0181777	14.4307	83.9474	37.7763	4.76422	2.82045	1.85239	
5710	1573229628.918820026	-1.23788	-2.10839	-1.72046	-1.56877	0.602898	0.734564	0.0178325	0.0176024	0.0178964	0.0171998	0.0194049	0.0181393	14.9072	83.8867	37.2025	5.02625	2.672	1.80094	
5711	1573229628.926666898	-1.23774	-2.10825	-1.72031	-1.56863	0.603029	0.734684	0.0175385	0.0175129	0.0195327	0.0177942	0.0185036	0.0181777	14.7711	83.5832	37.0029	4.81186	3.09259	1.77521	
5712	1573229628.934676630	-1.23764	-2.10811	-1.72012	-1.56847	0.603221	0.734851	0.0180882	0.0177303	0.0179092	0.0178517	0.0180626	0.0190597	15.1795	84.2509	37.3771	5.193	2.89467	1.72376	
5713	1573229628.942677122	-1.2375	-2.10795	-1.71999	-1.56834	0.603365	0.734971	0.0169633	0.017807	0.0168994	0.0172956	0.0190597	0.0181968	15.656	84.0688	37.1276	5.02625	2.62252	1.74948	
5714	1573229628.950680591	-1.23734	-2.10783	-1.71988	-1.56821	0.603485	0.735127	0.0173723	0.0177942	0.0185612	0.0173723	0.0192515	0.0183502	15.8602	84.9186	36.6785	5.02625	2.49882	1.74948	
5715	1573229628.958732737	-1.23719	-2.10765	-1.71976	-1.56804	0.603665	0.735294	0.0189191	0.0177942	0.0165414	0.0178901	0.0185803	0.0175066	16.2005	84.6151	36.6535	4.90715	2.5483	1.82667	
5716	1573229628.966679789	-1.23705	-2.10752	-1.71962	-1.56788	0.603809	0.735414	0.0183311	0.0177303	0.0177942	0.0179668	0.0187913	0.0186762	17.0854	84.9793	36.928	5.00243	2.32563	1.92958	
5717	1573229628.974673358	-1.23692	-2.10738	-1.71946	-1.56777	0.603941	0.73557	0.0178837	0.0189191	0.0169633	0.0173148	0.0183502	0.0189447	18.7872	84.433	37.2524	5.0739	2.57304	2.03249	
5718	1573229628.982675786	-1.23678	-2.10722	-1.71933	-1.56759	0.60406	0.735713	0.018101	0.0175385	0.0170528	0.016893	0.0192323	0.0176216	18.4468	86.5574	37.6765	5.28829	2.35037	2.05822	
5719	1573229628.990698052	-1.23659	-2.10711	-1.7192	-1.56746	0.604229	0.735905	0.0185228	0.018101	0.0177303	0.0181777	0.0190789	0.0191939	18.1745	87.7107	37.0278	5.09772	2.25141	1.98103	
5720	1573229628.998698650	-1.23644	-2.10694	-1.71902	-1.56733	0.604456	0.736049	0.0184717	0.0176919	0.0170272	0.0188488	0.018657	0.0181201	19.2637	88.6212	37.5268	5.09772	2.1277	2.18685	
5721	1573229629.006670374	-1.23631	-2.10677	-1.71891	-1.56716	0.604564	0.736192	0.0192898	0.0181138	0.0182544	0.0167204	0.0194624	0.0182544	19.5359	88.1356	36.8781	5.14536	1.90504	2.03249	
5722	1573229629.014695140	-1.23617	-2.10665	-1.71877	-1.56702	0.604744	0.736336	0.0184333	0.018804	0.0177814	0.0186187	0.019424	0.0177942	19.7401	88.0142	37.2274	4.66894	1.73185	1.87812	
5723	1573229629.022720435	-1.23604	-2.10649	-1.71865	-1.56686	0.604888	0.736492	0.0187913	0.0179859	0.0172189	0.0178901	0.0186954	0.018657	18.9914	87.2858	36.8032	4.6213	1.60815	1.85239	
5724	1573229629.030677590	-1.23587	-2.10633	-1.71851	-1.56671	0.605043	0.736612	0.0191108	0.0194688	0.0184461	0.0165095	0.019424	0.0183119	19.8763	85.04	37.2773	4.64512	1.336	2.03249	
5725	1573229629.038688066	-1.23572	-2.10618	-1.71835	-1.56659	0.605164	0.736743	0.0192387	0.0191236	0.0186634	0.0170847	0.0183886	0.0184269	18.9914	83.5832	37.1027	4.93097	1.36074	1.82667	
5726	1573229629.046673881	-1.23557	-2.10603	-1.71818	-1.56644	0.605356	0.736875	0.019277	0.0185612	0.0172189	0.0170847	0.0189255	0.0181968	19.604	82.7334	37.8262	4.83569	1.31126	2.1354	
5727	1573229629.054667398	-1.2354	-2.1059	-1.71807	-1.56631	0.6055	0.737055	0.0199162	0.0191108	0.0191748	0.0184078	0.0180243	0.0186762	20.1486	82.9155	37.6765	4.66894	1.38548	2.18685	
5728	1573229629.062731505	-1.23523	-2.10572	-1.71784	-1.56616	0.605607	0.737199	0.0192515	0.0187401	0.0179476	0.0193473	0.018216	0.0186187	19.4679	82.4906	37.1526	4.7404	1.26178	2.18685	
5729	1573229629.070666195	-1.23509	-2.10558	-1.71769	-1.56599	0.605751	0.737343	0.0193026	0.0190853	0.0187657	0.0181585	0.0172381	0.0192515	19.6721	82.6727	37.0528	5.02625	1.48445	2.34122	
5730	1573229629.078691792	-1.23496	-2.10544	-1.71762	-1.56587	0.605907	0.737546	0.0195071	0.0189191	0.0183055	0.0183502	0.0187146	0.0201143	19.0595	82.4299	37.5518	5.09772	1.26178	2.18685	
5731	1573229629.086705409	-1.23478	-2.10532	-1.71742	-1.56571	0.606039	0.737654	0.0192131	0.0192898	0.0174235	0.0185036	0.018657	0.0192515	18.9233	82.3085	37.3272	5.26447	1.55867	2.52131	
5732	1573229629.095022694	-1.23459	-2.10517	-1.71728	-1.56558	0.606183	0.73781	0.0205426	0.0188424	0.0203125	0.0183694	0.0178901	0.018542	18.9233	83.5225	38.0009	5.24064	1.43496	2.62422	
5733	1573229629.102664638	-1.23444	-2.10497	-1.71714	-1.56539	0.606375	0.737941	0.0198651	0.0190086	0.0190981	0.0188296	0.0175833	0.0185036	18.9914	83.5225	38.9491	5.50268	1.75659	2.70141	
5734	1573229629.110684487	-1.23431	-2.10481	-1.71699	-1.56524	0.606507	0.738121	0.0196605	0.0188168	0.0191492	0.0190789	0.0169888	0.0192323	18.3788	84.6758	38.1257	5.31211	1.90504	2.77859	
5735	1573229629.118747273	-1.23416	-2.10468	-1.71686	-1.5651	0.60665	0.738313	0.0195966	0.0188935	0.0199801	0.0197692	0.0191364	0.0194816	16.4728	84.3723	38.3502	5.40739	2.004	2.80432	
5736	1573229629.126692406	-1.23398	-2.10451	-1.71665	-1.56496	0.606782	0.738408	0.0196989	0.0183439	0.0198651	0.0177175	0.0188871	0.0191172	16.0644	84.4937	38.0009	5.5265	2.27615	2.62422	
5737	1573229629.134694387	-1.23383	-2.10435	-1.71655	-1.56479	0.606914	0.738576	0.0195199	0.0193537	0.0196605	0.0187146	0.0184653	0.0187529	16.9493	84.4937	38.1007	5.38357	2.42459	2.44413	
5738	1573229629.142701249	-1.23369	-2.1042	-1.71635	-1.56466	0.607034	0.738696	0.0196989	0.0192259	0.0222299	0.018868	0.0178901	0.0185612	16.4047	84.2509	38.4001	5.35975	2.35037	2.34122	
5739	1573229629.150669230	-1.23355	-2.10401	-1.71621	-1.56448	0.607202	0.738815	0.0200696	0.0188807	0.0186634	0.0179859	0.018657	0.0185612	16.0644	84.6758	38.2754	5.38357	2.59778	2.21258	
5740	1573229629.158673087	-1.2334	-2.10388	-1.71599	-1.56433	0.60737	0.738983	0.0200057	0.018689	0.0218081	0.0191172	0.0194624	0.0198842	17.63	85.1007	38.2255	5.43121	2.672	2.03249	
5741	1573229629.166661339	-1.2332	-2.10378	-1.71585	-1.56419	0.607562	0.739151	0.0201207	0.018868	0.018689	0.0196541	0.0198651	0.0195966	16.677	86.0718	38.2504	5.38357	2.86993	1.90385	
5742	1573229629.174692261	-1.23303	-2.10362	-1.71571	-1.56401	0.607682	0.739295	0.0200184	0.018395	0.0201974	0.0190981	0.0192323	0.0197308	17.0174	85.4042	38.2005	5.38357	2.99363	1.72376	
5743	1573229629.182686054	-1.2329	-2.10351	-1.71559	-1.56385	0.60791	0.739474	0.0198906	0.01975	0.0176024	0.0184653	0.0197117	0.0190789	17.3577	84.6758	38.3752	5.55032	2.94415	1.92958	
5744	1573229629.190728521	-1.23271	-2.10332	-1.71541	-1.56371	0.608017	0.739582	0.0193409	0.0200824	0.0195327	0.0191939	0.0183694	0.0185995	16.677	84.8579	38.6746	5.50268	3.2163	1.98103	
5745	1573229629.198707445	-1.23261	-2.10315	-1.71532	-1.56358	0.608173	0.739738	0.0193537	0.0193921	0.0170911	0.0182927	0.0185612	0.0189063	17.4939	84.0081	38.6995	5.6456	3.2163	2.16113	
5746	1573229629.206674189	-1.23241	-2.103	-1.71515	-1.56343	0.608293	0.739918	0.0203764	0.0195966	0.0204531	0.0189063	0.0180818	0.0190214	16.0644	83.7046	38.6496	5.66942	3.48845	2.03249	
5747	1573229629.214689655	-1.23224	-2.10279	-1.71497	-1.56325	0.608449	0.740097	0.0190086	0.0192642	0.0173595	0.0180243	0.0189447	0.0198842	16.0644	83.0976	38.7245	5.93146	3.19156	2.18685	
5748	1573229629.222694502	-1.23208	-2.10268	-1.71482	-1.56313	0.608617	0.740217	0.0205042	0.0203125	0.0211817	0.0195966	0.0188104	0.0190022	17.1535	82.005	37.976	5.81235	3.24104	2.36695	
5749	1573229629.230681463	-1.23192	-2.10249	-1.71465	-1.56297	0.608761	0.740361	0.0193921	0.0198651	0.0188424	0.0203252	0.0191748	0.0185612	15.4518	82.005	37.5518	5.93146	3.09259	2.39268	
5750	1573229629.238693175	-1.2318	-2.10233	-1.71451	-1.5628	0.608929	0.740516	0.0193409	0.0190725	0.0187146	0.0207471	0.0189255	0.0185612	14.0223	81.8836	37.5767	5.88381	3.29052	2.52131	
5751	1573229629.246711448	-1.23164	-2.10217	-1.71437	-1.56262	0.609133	0.74066	0.0196733	0.0201207	0.0192387	0.0213032	0.0183119	0.0197117	12.7971	81.5801	37.3272	5.6456	3.09259	2.64995	
5752	1573229629.254750591	-1.23147	-2.10197	-1.71423	-1.56253	0.609205	0.740816	0.0193026	0.0193282	0.0196861	0.0193473	0.0180818	0.0195774	13.4097	81.2159	36.928	5.85999	3.14208	2.90723	
5753	1573229629.262664062	-1.23129	-2.10184	-1.71407	-1.56232	0.609384	0.740996	0.019571	0.0191108	0.0185484	0.0196733	0.0194624	0.0187146	13.2735	81.6408	37.1775	5.74089	2.91941	2.85577	
5754	1573229629.270677986	-1.23116	-2.1017	-1.71391	-1.56219	0.609528	0.741127	0.0193665	0.0195327	0.0198523	0.0185803	0.0174107	0.018657	13.9542	82.1264	36.9779	5.93146	3.09259	2.70141	
5755	1573229629.279830361	-1.23099	-2.10159	-1.71376	-1.56202	0.609672	0.741283	0.018868	0.0184717	0.0187146	0.0198459	0.0203061	0.0185036	13.9542	83.2797	36.1795	5.66942	2.91941	2.98441	
5756	1573229629.286686351	-1.23084	-2.1014	-1.7136	-1.56187	0.60984	0.741391	0.0187146	0.0195327	0.0184845	0.0203828	0.0180434	0.0191556	14.703	84.1902	36.5288	5.45503	2.79571	2.95868	
5757	1573229629.294670992	-1.23071	-2.10121	-1.71345	-1.56175	0.609984	0.741606	0.0197628	0.0189191	0.0176152	0.0194624	0.0178325	0.0189447	15.2476	83.4011	36.903	5.31211	2.5483	2.80432	
5758	1573229629.302688084	-1.23054	-2.10106	-1.71335	-1.56157	0.610176	0.74175	0.0189958	0.018868	0.0195199	0.0195007	0.0196733	0.0190214	15.8602	83.3404	37.0029	5.50268	2.39985	3.16451	
5759	1573229629.310711305	-1.23041	-2.1009	-1.71322	-1.56139	0.610343	0.741882	0.0187401	0.0188296	0.0170911	0.0188488	0.0187337	0.0200568	17.2896	82.7334	37.6516	5.16918	2.22667	2.5985	
5760	1573229629.318683812	-1.23025	-2.10077	-1.71302	-1.56127	0.610475	0.742061	0.0190853	0.0181649	0.0194816	0.0195774	0.0190405	0.0196158	18.1065	81.7622	36.6036	5.09772	2.1277	3.37033	
5761	1573229629.326737425	-1.23007	-2.10062	-1.71287	-1.5611	0.610631	0.742169	0.019162	0.0199034	0.0193026	0.0194624	0.0180626	0.0172573	18.651	81.7015	37.2773	5.38357	2.05348	2.8815	
5762	1573229629.334677318	-1.22992	-2.10047	-1.71272	-1.56095	0.610775	0.742325	0.0188168	0.0190086	0.0207471	0.0186954	0.0187529	0.0199801	17.7661	81.3373	36.6036	5.50268	2.15245	3.13878	
5763	1573229629.342682830	-1.22978	-2.1003	-1.71261	-1.56081	0.610967	0.742517	0.0184845	0.0192131	0.0179476	0.0196158	0.018216	0.0180818	18.3107	81.0945	37.2773	5.38357	2.39985	3.39606	
5764	1573229629.350660942	-1.22965	-2.10014	-1.71245	-1.56065	0.611075	0.742672	0.0181649	0.0191236	0.0206065	0.0192323	0.0186762	0.0213415	19.0595	81.5801	36.5288	5.71707	2.32563	2.85577	
5765	1573229629.358688483	-1.2295	-2.09996	-1.71228	-1.56049	0.611243	0.742828	0.0192387	0.019162	0.0187018	0.0189447	0.0190789	0.0196733	18.8552	80.9124	36.4539	5.71707	2.35037	3.26742	
5766	1573229629.366698001	-1.22934	-2.09977	-1.71207	-1.56034	0.611374	0.742984	0.0190214	0.0190214	0.0223194	0.0199418	0.0189447	0.0191556	18.9914	80.4268	36.4539	5.90763	2.22667	3.42178	
5767	1573229629.374686748	-1.2292	-2.09964	-1.71195	-1.56023	0.611579	0.743116	0.0187785	0.0197372	0.0190597	0.0199993	0.0209005	0.0193665	18.5149	79.2128	36.5288	5.57414	2.35037	3.19023	
5768	1573229629.382710335	-1.22905	-2.09947	-1.71178	-1.56005	0.611711	0.743295	0.0188168	0.0188807	0.0204275	0.0199801	0.0182927	0.02161	17.9703	79.5163	35.9798	5.9791	2.37511	3.47324	
5769	1573229629.390711494	-1.22887	-2.09936	-1.7116	-1.55988	0.611903	0.743427	0.0187657	0.0184206	0.0206832	0.0205937	0.0186187	0.0196158	16.0644	79.8805	35.8052	5.78853	2.30089	2.80432	
5770	1573229629.398709390	-1.22872	-2.09923	-1.71143	-1.55972	0.612046	0.743643	0.0193793	0.018868	0.0196094	0.0201718	0.0184269	0.0197117	15.2476	80.6089	36.3791	5.6456	2.57304	2.93296	
5771	1573229629.406717916	-1.22858	-2.09905	-1.7113	-1.55958	0.612178	0.743798	0.0190853	0.0186123	0.0198267	0.0209772	0.020517	0.0197884	16.2686	79.3342	36.3541	5.81235	2.62252	2.70141	
5772	1573229629.414710187	-1.22843	-2.0989	-1.71113	-1.5594	0.612322	0.743906	0.018804	0.0186251	0.0207471	0.0204978	0.0193665	0.0198459	13.75	79.7591	36.3292	5.66942	2.74622	2.72714	
5773	1573229629.422683956	-1.22825	-2.09869	-1.71099	-1.55925	0.612526	0.744098	0.0183311	0.0197244	0.0188424	0.0195774	0.0187146	0.0177558	14.5669	80.3661	37.6516	5.78853	3.11734	2.72714	
5774	1573229629.430718039	-1.22814	-2.09859	-1.71082	-1.5591	0.61267	0.744241	0.0182927	0.0185612	0.0205681	0.0199226	0.0172765	0.0200376	15.1114	81.8836	37.0278	5.74089	2.84519	2.03249	
5775	1573229629.438711789	-1.22797	-2.09842	-1.71064	-1.55892	0.612826	0.744385	0.0190725	0.0186251	0.0211434	0.0193857	0.0210539	0.0209388	14.703	83.219	37.1526	5.71707	2.82045	2.44413	
5776	1573229629.446678775	-1.22782	-2.0983	-1.71056	-1.5588	0.612946	0.744541	0.0179987	0.0182416	0.0200824	0.0206129	0.0193473	0.0191556	15.656	83.1583	37.7264	5.76471	3.38948	2.34122	
5777	1573229629.454780680	-1.22768	-2.09813	-1.71037	-1.55866	0.613137	0.744661	0.0184717	0.0190341	0.0202358	0.0204019	0.0204595	0.0201335	16.2686	83.4618	37.5019	5.6456	3.31526	2.05822	
5778	1573229629.462710807	-1.22755	-2.09796	-1.71019	-1.55847	0.613257	0.744876	0.0189702	0.0193409	0.0212584	0.0218017	0.0198651	0.0205937	15.1114	82.9155	37.427	5.9791	3.16682	2.18685	
5779	1573229629.470697127	-1.22737	-2.09781	-1.71001	-1.5583	0.613413	0.744996	0.0186634	0.0194432	0.022818	0.0210539	0.0195583	0.0202294	16.8132	84.0081	37.5019	5.78853	3.46371	2.1354	
5780	1573229629.478869734	-1.22723	-2.09768	-1.70985	-1.55813	0.613533	0.745128	0.0185995	0.0187401	0.0188807	0.0208813	0.0193857	0.0193857	17.1535	82.6727	37.976	5.9791	3.53793	2.49559	
5781	1573229629.486674027	-1.22707	-2.09747	-1.7097	-1.55795	0.613725	0.745332	0.018689	0.0182927	0.0208238	0.0209772	0.019309	0.0200376	17.4258	83.1583	37.6266	6.14585	3.66163	2.10967	
5782	1573229629.494702876	-1.22691	-2.09733	-1.70952	-1.55782	0.613905	0.745487	0.0192003	0.0194688	0.021284	0.0208238	0.0211498	0.0202485	16.8812	82.4299	37.7763	5.78853	3.41422	2.44413	
5783	1573229629.502668077	-1.22679	-2.09722	-1.70939	-1.55763	0.614013	0.745655	0.0188424	0.0193282	0.0199929	0.0211881	0.0198267	0.0195774	16.5409	82.4299	37.6765	5.62178	3.38948	2.52131	
5784	1573229629.510666024	-1.2266	-2.09704	-1.70921	-1.55748	0.614192	0.745799	0.0192642	0.0185995	0.0201335	0.021284	0.020076	0.0208238	17.2216	81.9443	37.8762	5.81235	3.43897	2.72714	
5785	1573229629.518666706	-1.22652	-2.09687	-1.70904	-1.55732	0.614372	0.74599	0.0186251	0.018804	0.0209133	0.0211498	0.0210539	0.0203636	17.2896	82.3085	37.8013	5.76471	3.14208	2.49559	
5786	1573229629.526709786	-1.2263	-2.09677	-1.70888	-1.55715	0.614492	0.74611	0.0189447	0.0199545	0.0201335	0.0191939	0.0202677	0.0196733	17.0174	82.1871	38.0259	5.95528	2.99363	2.39268	
5787	1573229629.534691080	-1.22614	-2.0966	-1.7087	-1.55697	0.614708	0.746302	0.0194432	0.0190086	0.0189958	0.0197884	0.0213223	0.0217634	16.4047	82.005	37.5767	5.45503	2.72148	2.72714	
5788	1573229629.542689283	-1.22595	-2.09644	-1.70859	-1.55684	0.614864	0.746469	0.0199673	0.0186379	0.0211306	0.0200376	0.0208621	0.0189447	16.5409	83.4011	37.427	5.50268	2.672	2.44413	
5789	1573229629.550681938	-1.22586	-2.09629	-1.70843	-1.55673	0.615032	0.746637	0.0196477	0.0201718	0.0191236	0.0201143	0.0202677	0.0214566	15.3837	83.4011	37.9011	4.93097	2.39985	2.52131	
5790	1573229629.558738260	-1.22571	-2.09611	-1.70826	-1.55654	0.615164	0.746781	0.0195838	0.019277	0.0199545	0.0216291	0.0206896	0.0208238	15.8602	83.826	37.9261	5.31211	2.20193	2.57277	
5791	1573229629.566681839	-1.22553	-2.09595	-1.70807	-1.55637	0.615332	0.746948	0.0192898	0.0195199	0.022166	0.0198267	0.0202677	0.0201143	14.6349	83.2797	37.4769	5.05008	2.64726	2.39268	
5792	1573229629.574654100	-1.22537	-2.09583	-1.70792	-1.5562	0.615464	0.747128	0.0207215	0.0199673	0.0188807	0.020191	0.0204403	0.0210155	14.9072	82.1871	37.8512	5.02625	1.78133	2.31549	
5793	1573229629.582672110	-1.22521	-2.09566	-1.70776	-1.55607	0.615655	0.747272	0.0202358	0.0194049	0.020517	0.0200568	0.0216483	0.0210347	15.3156	82.1871	37.2524	4.71658	1.97926	2.72714	
5794	1573229629.590708391	-1.22503	-2.09552	-1.70759	-1.55588	0.615847	0.747439	0.0200696	0.0201335	0.0207343	0.0207279	0.0208813	0.0189638	15.2476	81.3373	37.2524	5.0739	1.53393	2.77859	
5795	1573229629.598722559	-1.2249	-2.09533	-1.70744	-1.55572	0.616075	0.747619	0.019571	0.0196605	0.0198778	0.0211498	0.0214566	0.0201143	16.7451	82.2478	37.4021	4.85951	1.68237	2.67568	
5796	1573229629.606682284	-1.2247	-2.09514	-1.70729	-1.55558	0.616147	0.747799	0.0201079	0.0193537	0.0197117	0.0210731	0.0199034	0.021399	17.2216	83.1583	37.427	5.26447	1.92978	2.83005	
5797	1573229629.614657643	-1.22455	-2.095	-1.70713	-1.55541	0.616351	0.747931	0.0193026	0.0202613	0.0209644	0.0204595	0.0197692	0.0195966	18.7191	83.2797	37.452	5.43121	1.68237	3.03587	
5798	1573229629.622703461	-1.22437	-2.09487	-1.70699	-1.55523	0.616471	0.748062	0.0204019	0.0190981	0.0192515	0.0218401	0.020632	0.0199034	19.2637	84.2509	37.5518	5.09772	1.50919	3.01014	
5799	1573229629.630679097	-1.22423	-2.09467	-1.7068	-1.5551	0.616615	0.748254	0.0194049	0.0193921	0.019635	0.0207471	0.020191	0.0199418	20.9654	84.7972	37.8262	5.47886	1.8803	3.01014	
5800	1573229629.638690465	-1.22409	-2.09456	-1.70665	-1.55492	0.616794	0.748422	0.0204147	0.0192642	0.0211945	0.0199801	0.01975	0.0203252	21.6461	86.0718	37.5019	5.12154	2.004	3.01014	
5801	1573229629.646667321	-1.22392	-2.09441	-1.70655	-1.55478	0.616986	0.748577	0.019635	0.0193793	0.019162	0.0210347	0.0214374	0.0210539	22.8033	86.0111	37.6765	5.21682	2.1277	2.95868	
5802	1573229629.654677980	-1.22377	-2.09421	-1.70637	-1.5546	0.61713	0.748733	0.0210411	0.0201463	0.0195583	0.0205745	0.0202677	0.0198459	21.578	86.8609	37.7264	5.16918	2.17719	2.85577	
5803	1573229629.662667563	-1.22357	-2.09407	-1.7062	-1.55445	0.617298	0.748877	0.0207087	0.0196733	0.022345	0.0209197	0.0203828	0.0202677	21.1696	87.5286	37.8262	5.02625	2.27615	2.52131	
5804	1573229629.670692562	-1.22343	-2.09393	-1.70603	-1.55428	0.617466	0.749068	0.0212201	0.0207982	0.0199162	0.0214566	0.0203252	0.020517	21.0335	86.1325	38.5498	4.97861	2.27615	2.39268	
5805	1573229629.678686831	-1.22323	-2.09375	-1.70585	-1.55412	0.617586	0.749212	0.020811	0.0198139	0.022166	0.0195391	0.0202677	0.0198842	20.8973	85.5255	37.4021	5.16918	2.42459	2.23831	
5806	1573229629.686680681	-1.22304	-2.09357	-1.70572	-1.55395	0.617777	0.749356	0.0212584	0.0209772	0.0198523	0.0210347	0.0204403	0.0213607	22.1906	84.9793	38.2255	4.83569	2.44933	1.80094	
5807	1573229629.694735664	-1.2229	-2.09342	-1.70554	-1.55378	0.617921	0.749535	0.0209516	0.0203636	0.0203252	0.0206704	0.0195391	0.0210731	21.2377	85.5862	37.427	4.81186	2.52356	1.9553	
5808	1573229629.702676351	-1.22273	-2.09322	-1.70541	-1.55364	0.618137	0.749715	0.0211562	0.0209005	0.0217953	0.021284	0.0222811	0.0213415	20.7612	85.829	37.452	4.85951	2.672	1.80094	
5809	1573229629.710664208	-1.22258	-2.09309	-1.70522	-1.55344	0.618282	0.749895	0.0207087	0.0203892	0.0190597	0.0213032	0.0197692	0.0211114	20.625	85.5255	38.2754	4.85951	2.79571	1.82667	
5810	1573229629.718700345	-1.22238	-2.0929	-1.70505	-1.55329	0.618461	0.750039	0.0209516	0.0208749	0.0219998	0.0212456	0.0214566	0.0203444	20.1486	85.5255	37.8762	4.90715	2.86993	1.56939	
5811	1573229629.726671768	-1.2222	-2.09277	-1.70489	-1.55311	0.618617	0.750195	0.0216163	0.0204786	0.0199929	0.0211306	0.0204786	0.0216291	19.2637	85.2221	37.9011	5.09772	2.86993	1.64657	
5812	1573229629.734673438	-1.22205	-2.0926	-1.70474	-1.55294	0.618773	0.750362	0.02099	0.0214246	0.0215396	0.0210922	0.0201335	0.0198842	19.5359	84.4937	38.1756	4.90715	2.74622	1.77521	
5813	1573229629.742672358	-1.22188	-2.09241	-1.70459	-1.55278	0.618941	0.75053	0.0215396	0.0199418	0.0197117	0.0215716	0.0207471	0.0213223	18.9233	84.7365	38.5249	4.78804	2.64726	1.56939	
5814	1573229629.750655776	-1.22173	-2.09225	-1.70438	-1.55259	0.619096	0.750733	0.0210411	0.0213096	0.0220638	0.0207663	0.0211114	0.0197308	18.583	84.4937	38.2255	4.90715	2.57304	2.00676	
5815	1573229629.758693878	-1.22153	-2.09207	-1.70426	-1.55244	0.619277	0.750865	0.0223322	0.0204403	0.019277	0.0213032	0.0195583	0.0205553	17.7661	85.7076	38.8493	4.83569	2.47408	1.87812	
5816	1573229629.766661640	-1.22138	-2.09193	-1.70407	-1.55228	0.619504	0.751057	0.0214629	0.0218209	0.022166	0.0215716	0.0215524	0.0202677	18.3788	84.7972	38.7744	4.66894	2.35037	1.90385	
5817	1573229629.774670138	-1.22121	-2.09172	-1.7039	-1.55208	0.619576	0.751177	0.0223578	0.0207599	0.0188935	0.020843	0.0205553	0.0195774	17.5619	85.1614	39.0738	4.78804	2.52356	2.10967	
5818	1573229629.782680095	-1.22103	-2.09156	-1.70371	-1.55193	0.619756	0.751356	0.0215908	0.0215524	0.0230353	0.0214374	0.020517	0.0216483	18.5149	83.8867	38.9491	4.47837	1.95452	1.80094	
5819	1573229629.790734745	-1.22085	-2.09141	-1.70359	-1.55176	0.619924	0.751524	0.0222172	0.0211178	0.0192387	0.0212648	0.0208046	0.0199034	17.7661	84.7972	38.974	4.47837	2.004	2.03249	
5820	1573229629.798691008	-1.22068	-2.09121	-1.70339	-1.55161	0.620068	0.751668	0.0215908	0.0211562	0.0209772	0.0220701	0.0207663	0.0204978	18.7872	83.7046	38.999	4.24016	1.83082	1.92958	
5821	1573229629.806673644	-1.2205	-2.09106	-1.7032	-1.55142	0.62032	0.751836	0.0213479	0.0208621	0.0211945	0.0214757	0.021399	0.0206512	18.651	84.0081	38.5498	4.14487	1.78133	1.92958	
5822	1573229629.814689846	-1.22035	-2.09091	-1.70306	-1.55126	0.620451	0.752015	0.0218976	0.0224984	0.0201591	0.0207663	0.0201718	0.0211689	17.63	83.2797	39.6227	4.19251	1.31126	1.87812	
5823	1573229629.822687792	-1.22017	-2.09073	-1.70284	-1.55107	0.620607	0.752135	0.0215141	0.0210922	0.0208749	0.0203252	0.0216675	0.0205937	16.8132	83.0976	38.5997	3.97813	0.964889	2.1354	
5824	1573229629.830664539	-1.22	-2.09057	-1.70271	-1.55094	0.620799	0.752339	0.0219871	0.0211945	0.0193026	0.0211498	0.0201143	0.0204019	16.1325	81.2766	39.5728	4.02577	1.01437	1.87812	
5825	1573229629.838684549	-1.2198	-2.09039	-1.70258	-1.55078	0.620955	0.752482	0.0214246	0.0219487	0.0226518	0.0198075	0.0218784	0.0198267	16.677	81.0338	38.5997	4.14487	0.841186	2.21258	
5826	1573229629.846682397	-1.21962	-2.09021	-1.70241	-1.55059	0.621147	0.752638	0.0222172	0.0209772	0.0182416	0.0202677	0.0201718	0.0212265	14.1584	80.9731	39.0239	4.52601	0.890667	2.16113	
5827	1573229629.854673882	-1.21949	-2.09006	-1.70222	-1.55043	0.621279	0.752818	0.0216547	0.0223706	0.0226901	0.020958	0.0205553	0.0209964	14.0223	80.1233	38.7245	4.59747	0.98963	2.10967	
5828	1573229629.862679317	-1.21928	-2.08988	-1.70209	-1.55029	0.621471	0.752973	0.0209644	0.0213862	0.0196733	0.0211498	0.0204403	0.0214566	13.9542	80.0626	38.7245	4.78804	0.940149	2.10967	
5829	1573229629.870703721	-1.21912	-2.0897	-1.70186	-1.55011	0.621603	0.753165	0.0215524	0.0219359	0.0229458	0.0209197	0.0191556	0.0219168	14.5669	79.577	38.475	4.50219	1.16282	2.28976	
5830	1573229629.878686809	-1.21897	-2.08953	-1.70171	-1.54998	0.62177	0.753332	0.0215141	0.0213735	0.0196733	0.0216867	0.0215141	0.02161	14.6349	79.8198	38.3253	4.66894	0.717482	2.49559	
5831	1573229629.886721258	-1.21878	-2.08932	-1.70156	-1.54977	0.62195	0.753536	0.0203764	0.0214118	0.0233421	0.0205553	0.0190405	0.0216867	14.5669	79.9412	38.0009	4.52601	1.53393	2.52131	
5832	1573229629.894680690	-1.2186	-2.08917	-1.70139	-1.54962	0.622094	0.753668	0.0212073	0.0211945	0.0185867	0.0208238	0.0190981	0.0209772	13.8181	80.0626	37.8262	4.57365	1.43496	2.64995	
5833	1573229629.902691382	-1.21846	-2.08898	-1.70123	-1.54944	0.622286	0.75386	0.0206065	0.0217825	0.0223322	0.0215716	0.0198651	0.0217634	14.5669	80.6696	37.9261	4.45455	1.4597	2.4184	
5834	1573229629.910692538	-1.21825	-2.08885	-1.70102	-1.54928	0.622442	0.754003	0.0208621	0.0202997	0.0192259	0.0213607	0.0206129	0.0204403	15.1114	80.5482	38.1506	4.33544	1.83082	2.44413	
5835	1573229629.918675240	-1.21811	-2.08866	-1.70085	-1.54913	0.622562	0.754195	0.0206448	0.0215141	0.0219615	0.0202294	0.0208621	0.0215524	15.0434	80.7303	38.3253	4.54983	1.8803	2.1354	
5836	1573229629.926668668	-1.21794	-2.08853	-1.70072	-1.54898	0.622706	0.754351	0.0211178	0.0204659	0.0189319	0.0214757	0.0198651	0.0209005	15.3156	81.9443	38.4001	4.45455	2.1277	2.1354	
5837	1573229629.934661372	-1.2178	-2.08835	-1.70055	-1.5488	0.622921	0.754531	0.0207343	0.021693	0.0221277	0.0208621	0.0211498	0.0215716	17.3577	82.1871	38.0009	4.47837	2.02874	1.85239	
5838	1573229629.942669502	-1.21758	-2.08814	-1.70039	-1.54866	0.623065	0.75471	0.0202741	0.0209516	0.0187146	0.0213607	0.0209005	0.0214757	17.4258	83.5225	38.1007	4.66894	2.27615	1.80094	
5839	1573229629.950667625	-1.21745	-2.08799	-1.70025	-1.54846	0.623221	0.754866	0.0208877	0.0211817	0.0218464	0.0212456	0.0210539	0.0217825	17.2896	84.6151	38.5748	4.71658	2.35037	1.74948	
5840	1573229629.958713374	-1.21726	-2.08786	-1.7001	-1.54831	0.623365	0.75501	0.0207982	0.0222299	0.0191492	0.0215908	0.0219743	0.0204403	17.1535	82.9155	38.6746	4.76422	2.42459	1.85239	
5841	1573229629.966726065	-1.2171	-2.08768	-1.69986	-1.54816	0.623593	0.755225	0.0196094	0.0212456	0.0223578	0.0209197	0.0211114	0.0210731	18.7191	81.8836	37.8262	4.66894	2.672	1.72376	
5842	1573229629.974700802	-1.21692	-2.08751	-1.69974	-1.54799	0.623689	0.755369	0.0211434	0.0221788	0.0198267	0.0210731	0.0210155	0.020517	17.8342	80.1233	38.2005	4.95479	2.74622	1.92958	
5843	1573229629.982666256	-1.21677	-2.08732	-1.69955	-1.54781	0.623941	0.755536	0.0198139	0.0221021	0.0226901	0.0211881	0.0210155	0.0214566	17.2216	78.97	37.2524	4.81186	3.06785	1.90385	
5844	1573229629.990691948	-1.21662	-2.08713	-1.6994	-1.54768	0.624085	0.75574	0.0194816	0.0221149	0.0188935	0.0240068	0.0206896	0.0212073	16.2005	77.4525	37.0777	4.76422	2.96889	1.98103	
5845	1573229629.998772872	-1.21648	-2.08696	-1.69921	-1.5475	0.624264	0.755908	0.0201591	0.0213096	0.0228819	0.0222619	0.0224728	0.020843	16.677	76.8455	36.9779	4.7404	2.79571	2.23831	
5846	1573229630.006714033	-1.21633	-2.08678	-1.69905	-1.54729	0.624396	0.756039	0.0193665	0.0217186	0.0181905	0.0219743	0.0207087	0.02161	16.2005	76.2385	37.2524	5.00243	2.84519	2.31549	
5847	1573229630.014696659	-1.21615	-2.08659	-1.6989	-1.54712	0.624612	0.756231	0.0202741	0.0214246	0.0224345	0.0214566	0.0208046	0.0209772	14.703	75.7529	37.9261	4.71658	2.72148	2.49559	
5848	1573229630.022692809	-1.21599	-2.08645	-1.69872	-1.54699	0.624816	0.756387	0.0202613	0.0216675	0.0186507	0.0211881	0.0205937	0.0206512	16.2005	76.6634	38.1007	5.193	2.84519	2.75286	
5849	1573229630.030735531	-1.21582	-2.0863	-1.69855	-1.54678	0.624936	0.756566	0.0205809	0.0205042	0.0222172	0.0203061	0.0211881	0.0211114	15.724	76.9669	37.7015	4.90715	2.99363	2.34122	
5850	1573229630.038704882	-1.21568	-2.08612	-1.6984	-1.54661	0.625104	0.756722	0.0197884	0.0201079	0.0216675	0.022492	0.0208813	0.0206512	14.3627	78.2416	38.4999	4.43073	2.5483	2.80432	
5851	1573229630.046677749	-1.2155	-2.08599	-1.69822	-1.54643	0.625248	0.75689	0.020632	0.0209516	0.0204659	0.0225495	0.0199034	0.0205937	14.7711	79.2128	38.6247	4.54983	2.62252	2.70141	
5852	1573229630.054681868	-1.2153	-2.08583	-1.69804	-1.54625	0.625416	0.757022	0.0200696	0.0206193	0.0229586	0.0221277	0.0214566	0.0204019	13.6139	80.0019	38.4999	4.43073	2.32563	2.46986	
5853	1573229630.062659828	-1.21516	-2.08564	-1.69789	-1.54612	0.625631	0.75719	0.0207087	0.0210795	0.0201591	0.0226646	0.0206129	0.0222235	14.8391	79.5163	39.0239	4.31162	2.20193	2.72714	
5854	1573229630.070700614	-1.21498	-2.0855	-1.69773	-1.54591	0.625763	0.757393	0.0197244	0.0205681	0.0233165	0.0203252	0.0209388	0.0213799	14.2946	79.4556	39.2485	4.19251	2.25141	2.70141	
5855	1573229630.078696597	-1.2148	-2.0853	-1.69751	-1.54578	0.625919	0.757585	0.0201718	0.0211434	0.0225879	0.0223578	0.0215141	0.0213032	15.5879	78.97	39.6227	4.24016	1.80608	2.54704	
5856	1573229630.086677708	-1.21465	-2.08514	-1.69736	-1.54555	0.626123	0.75774	0.019929	0.0202613	0.0224728	0.0211498	0.0217825	0.0214566	15.3837	78.4237	39.5728	4.54983	1.95452	2.5985	
5857	1573229630.094667596	-1.21451	-2.08498	-1.69714	-1.54539	0.626219	0.757908	0.0203252	0.0213096	0.02494	0.020632	0.0222044	0.0204403	15.4518	78.363	38.974	4.57365	1.70711	3.03587	
5858	1573229630.102920571	-1.21434	-2.0848	-1.69692	-1.54522	0.626482	0.758088	0.0196605	0.0213096	0.0223066	0.0224536	0.0214374	0.022166	16.8812	78.1202	39.6477	5.14536	1.90504	2.8815	
5859	1573229630.110665763	-1.21419	-2.08465	-1.69676	-1.54509	0.626639	0.758231	0.0206704	0.0207343	0.0250295	0.0215141	0.0223002	0.0211689	16.2686	79.4556	39.2485	4.83569	1.92978	2.85577	
5860	1573229630.118684508	-1.21398	-2.08445	-1.69658	-1.54491	0.626794	0.758471	0.021284	0.0218209	0.023521	0.0216675	0.0232015	0.0224153	16.9493	78.6058	39.0988	4.88333	1.73185	3.08732	
5861	1573229630.126703590	-1.21385	-2.08433	-1.6964	-1.54475	0.626974	0.758615	0.020632	0.0212456	0.0218592	0.0210922	0.0223578	0.0220701	17.7661	78.9093	39.2734	4.57365	1.75659	2.98441	
5862	1573229630.134690483	-1.21368	-2.08417	-1.69622	-1.54453	0.627142	0.758782	0.0216547	0.0219487	0.0246843	0.0215716	0.0215908	0.0230097	16.0644	78.8486	38.5498	4.31162	1.97926	2.83005	
5863	1573229630.142673474	-1.2135	-2.08399	-1.69604	-1.54432	0.627346	0.75901	0.0217697	0.0220254	0.0199801	0.0237	0.0225687	0.0225303	14.703	79.9412	39.5728	4.38308	2.32563	2.95868	
5864	1573229630.150673025	-1.21331	-2.08381	-1.69586	-1.5442	0.627502	0.759154	0.02246	0.0230736	0.0230864	0.0214949	0.0215524	0.0219359	13.9542	80.0626	39.1487	4.54983	2.10296	2.34122	
5865	1573229630.158706653	-1.21318	-2.08365	-1.69568	-1.54401	0.627694	0.759357	0.0220254	0.0217442	0.0219359	0.0227796	0.0218592	0.0225112	12.8651	81.398	39.7475	4.47837	2.42459	2.34122	
5866	1573229630.166670788	-1.21296	-2.08347	-1.69552	-1.5438	0.627861	0.759561	0.0222044	0.0228819	0.0207982	0.0216483	0.022818	0.0218592	12.4567	81.4587	39.8473	4.97861	2.15245	2.08394	
5867	1573229630.174681170	-1.21282	-2.08328	-1.69534	-1.54365	0.628065	0.759729	0.0224728	0.0222427	0.0213479	0.0223386	0.0234316	0.0228755	12.8651	81.8229	39.8224	4.78804	2.39985	1.9553	
5868	1573229630.183208903	-1.21261	-2.08311	-1.69514	-1.54347	0.628245	0.759908	0.0227413	0.0230736	0.0234571	0.0222235	0.0216291	0.0224153	13.8862	83.2797	39.7475	4.7404	2.82045	1.6723	
5869	1573229630.190690855	-1.21245	-2.08292	-1.69498	-1.54327	0.628461	0.76004	0.0221149	0.022933	0.0223578	0.022166	0.0230289	0.022607	14.9072	84.5544	39.6976	4.93097	2.5483	2.00676	
5870	1573229630.198676067	-1.21223	-2.08274	-1.69479	-1.54305	0.628617	0.760244	0.0227668	0.0225623	0.0211178	0.0237575	0.0223961	0.0215333	15.9963	85.3435	39.8224	5.09772	2.86993	1.85239	
5871	1573229630.206674857	-1.21207	-2.08257	-1.69464	-1.54288	0.628809	0.760411	0.0223833	0.0224217	0.0227157	0.0221085	0.022818	0.022166	17.5619	86.2539	39.4481	5.12154	2.79571	1.92958	
5872	1573229630.214663711	-1.21187	-2.08238	-1.69446	-1.54272	0.628905	0.760591	0.0226518	0.0225623	0.022754	0.0231631	0.0225687	0.0246204	18.8552	85.4042	39.5978	5.35975	3.41422	1.98103	
5873	1573229630.222690519	-1.21171	-2.08221	-1.69426	-1.54253	0.629168	0.760807	0.0229841	0.0229586	0.0226007	0.0214566	0.023259	0.0227604	18.651	85.829	39.6976	5.5265	3.36474	2.10967	
5874	1573229630.230678896	-1.21152	-2.08202	-1.69412	-1.54233	0.629348	0.760974	0.0234955	0.0232909	0.0229714	0.022933	0.0219551	0.0219743	19.1956	86.2539	39.5479	5.43121	3.41422	2.28976	
5875	1573229630.238680916	-1.21133	-2.08183	-1.69392	-1.54212	0.629504	0.761154	0.0236872	0.0233676	0.0216803	0.0231439	0.0246587	0.0225879	19.8082	85.829	39.5229	4.97861	2.86993	1.90385	
5876	1573229630.246675713	-1.21116	-2.08168	-1.69371	-1.54194	0.629744	0.761345	0.0239429	0.0240451	0.0232909	0.0234316	0.0231439	0.0218592	20.1486	84.9793	39.7226	5.45503	3.36474	2.49559	
5877	1573229630.254675856	-1.21094	-2.08145	-1.69352	-1.54176	0.6299	0.761549	0.0242752	0.0240707	0.0229841	0.0225879	0.0231823	0.0230289	20.0124	85.1007	39.498	5.28829	2.96889	2.00676	
5878	1573229630.262696361	-1.21078	-2.08126	-1.69333	-1.5416	0.630068	0.761717	0.0246843	0.024173	0.0224345	0.0231248	0.0231439	0.0232782	18.9233	83.826	39.5479	5.12154	2.69674	2.18685	
5879	1573229630.271064306	-1.21054	-2.08108	-1.69316	-1.54139	0.630247	0.761885	0.0244798	0.025349	0.023227	0.0235274	0.0231439	0.0230097	20.0805	84.1902	39.2984	5.35975	2.74622	2.64995	
5880	1573229630.278698120	-1.21037	-2.08087	-1.69295	-1.54119	0.630475	0.7621	0.0244414	0.0245309	0.0235594	0.0239493	0.0243136	0.0240835	19.6721	84.6758	39.3732	4.45455	2.5483	2.46986	
5881	1573229630.286680805	-1.21015	-2.08065	-1.69279	-1.54101	0.630679	0.762268	0.0251445	0.0247866	0.0230097	0.0229714	0.0241794	0.0228563	19.5359	84.0081	39.0738	4.43073	2.05348	2.34122	
5882	1573229630.294696752	-1.21	-2.08045	-1.69256	-1.5408	0.630895	0.762472	0.0243903	0.0247354	0.0245565	0.0232782	0.0242752	0.0251765	18.9233	82.2478	39.0489	4.45455	2.004	2.21258	
5883	1573229630.302684471	-1.20975	-2.08025	-1.6924	-1.54064	0.631075	0.762663	0.0251701	0.0249528	0.0233804	0.0236233	0.025234	0.0243136	17.4939	81.7622	40.0469	4.47837	1.83082	2.23831	
5884	1573229630.310669136	-1.20957	-2.08005	-1.69218	-1.54043	0.631242	0.762891	0.0250167	0.0246076	0.0246587	0.0236425	0.0252148	0.024026	16.8812	81.3373	39.5728	4.81186	1.4597	2.4184	
5885	1573229630.318691142	-1.20942	-2.07987	-1.69202	-1.54024	0.631435	0.763023	0.0252723	0.0247099	0.0243008	0.023585	0.0246779	0.0249272	17.3577	81.8836	39.7974	4.50219	1.38548	2.49559	
5886	1573229630.326671201	-1.20916	-2.07968	-1.69181	-1.54005	0.631698	0.76325	0.025822	0.0247099	0.0247994	0.0234124	0.0249655	0.0257325	17.0174	82.2478	39.9721	4.90715	1.58341	2.4184	
5887	1573229630.334711287	-1.20898	-2.07946	-1.69163	-1.53982	0.63189	0.763466	0.0252468	0.0256047	0.0265251	0.0243136	0.0248697	0.0246204	18.3788	83.0976	40.2715	4.78804	1.68237	2.5985	
5888	1573229630.342699335	-1.20876	-2.07927	-1.69141	-1.53964	0.632082	0.763681	0.0258731	0.0248121	0.0253874	0.0239876	0.0249655	0.0265187	19.1275	83.9474	41.2695	4.78804	1.48445	2.64995	
5889	1573229630.350688968	-1.20854	-2.0791	-1.6912	-1.53945	0.63225	0.763861	0.0254513	0.0246587	0.0255663	0.0242561	0.0234891	0.0246587	18.8552	84.6151	40.9701	4.76422	1.68237	2.8815	
5890	1573229630.358745341	-1.20834	-2.07891	-1.69099	-1.53926	0.632478	0.76404	0.026001	0.0249144	0.0258348	0.0244862	0.0234699	0.0249272	19.3317	84.3723	41.2446	4.59747	1.70711	2.62422	
5891	1573229630.366752451	-1.20815	-2.07868	-1.69078	-1.53904	0.632669	0.76428	0.0271131	0.0248761	0.0247994	0.0257134	0.0237384	0.0248313	17.1535	84.433	41.3693	4.50219	2.02874	2.4184	
5892	1573229630.374693561	-1.20787	-2.07849	-1.69056	-1.53883	0.632873	0.764496	0.0263973	0.0264356	0.0252212	0.024793	0.025349	0.025349	16.2686	83.6439	41.3194	4.57365	2.02874	2.39268	
5893	1573229630.382661176	-1.20768	-2.07825	-1.69033	-1.53863	0.633077	0.764699	0.0259115	0.0261799	0.025234	0.0248121	0.0250614	0.0257709	16.2686	83.0976	41.8434	4.47837	2.25141	2.00676	
5894	1573229630.390690083	-1.20751	-2.07806	-1.69017	-1.53839	0.633281	0.764915	0.0261416	0.026116	0.0258731	0.0247163	0.0245245	0.026116	15.656	82.4299	41.2196	4.43073	2.30089	1.74948	
5895	1573229630.398682938	-1.2073	-2.07787	-1.68992	-1.5382	0.633497	0.765119	0.0257837	0.0260393	0.0256303	0.0238918	0.0243328	0.0255791	15.2476	83.5225	40.6458	4.6213	2.39985	1.46648	
5896	1573229630.406673353	-1.20706	-2.07764	-1.68969	-1.53802	0.633689	0.765322	0.0271515	0.0266529	0.0245181	0.0250231	0.0244478	0.0257325	15.1114	82.7941	40.2715	4.45455	2.47408	1.51793	
5897	1573229630.414661481	-1.20685	-2.0774	-1.68953	-1.53782	0.63388	0.765502	0.0266274	0.0265507	0.025822	0.0242944	0.0249847	0.0251381	14.9753	83.0976	40.0719	4.81186	2.5483	1.54366	
5898	1573229630.422695569	-1.20666	-2.07723	-1.68932	-1.53761	0.634084	0.765741	0.0264995	0.0267168	0.0257581	0.0234124	0.0258284	0.0259818	14.5669	81.8229	39.8473	4.71658	2.69674	1.3893	
5899	1573229630.430688074	-1.20645	-2.07698	-1.68912	-1.53741	0.634264	0.765945	0.0261288	0.0272282	0.0243903	0.0249655	0.0254833	0.0254257	15.4518	81.398	39.9222	4.95479	2.79571	1.44075	
5900	1573229630.438690376	-1.20624	-2.07675	-1.68891	-1.53718	0.634456	0.766137	0.0271642	0.0263078	0.0257325	0.0255983	0.0249272	0.0250806	14.7711	81.6408	38.974	4.59747	2.77096	1.41502	
5901	1573229630.446730787	-1.206	-2.07656	-1.68873	-1.53698	0.634684	0.766316	0.0268702	0.0269981	0.0245181	0.0251573	0.0267871	0.0246396	16.6089	81.398	39.3483	4.76422	2.57304	1.69803	
5902	1573229630.454696436	-1.20582	-2.07637	-1.6885	-1.53674	0.634864	0.76652	0.0261288	0.0273816	0.0249655	0.024793	0.0262694	0.0257901	15.1795	80.3661	39.4231	4.71658	2.5483	1.54366	
5903	1573229630.462668779	-1.2056	-2.07611	-1.68832	-1.53656	0.635067	0.766759	0.0266785	0.0265379	0.0254385	0.0237	0.02556	0.02556	16.677	81.4587	38.8992	4.88333	2.39985	1.72376	
5904	1573229630.470688829	-1.20537	-2.07589	-1.68809	-1.53636	0.635283	0.766927	0.0268063	0.027177	0.0252084	0.0253107	0.0264803	0.0260777	16.9493	82.1264	39.0239	4.83569	2.25141	1.69803	
5905	1573229630.478697305	-1.20519	-2.0757	-1.68789	-1.53614	0.635511	0.767143	0.0266401	0.0278673	0.0246587	0.0242177	0.0267104	0.0255216	19.1956	82.3085	38.8493	4.78804	2.1277	1.77521	
5906	1573229630.486701979	-1.20492	-2.0755	-1.68769	-1.53594	0.635691	0.767358	0.0262055	0.0265379	0.0268191	0.024793	0.027209	0.0247163	18.7872	82.3692	38.2504	4.57365	1.92978	1.64657	
5907	1573229630.494689342	-1.20473	-2.07528	-1.68754	-1.53572	0.635931	0.767598	0.0269725	0.0266913	0.0242369	0.0258284	0.0277651	0.0259243	17.7661	81.1552	39.2235	4.4069	1.68237	1.6723	
5908	1573229630.502687562	-1.20455	-2.07508	-1.68732	-1.53549	0.636159	0.767778	0.0266018	0.0276628	0.0257709	0.0244095	0.0288197	0.026883	17.0854	79.0307	38.1506	4.45455	1.38548	1.64657	
5909	1573229630.510706851	-1.20435	-2.07481	-1.68708	-1.53532	0.636386	0.767993	0.025643	0.027062	0.0261927	0.0252723	0.0279568	0.0262119	16.4728	78.1202	38.45	4.4069	1.2123	1.82667	
5910	1573229630.518685262	-1.2041	-2.07462	-1.68686	-1.53512	0.636566	0.768221	0.0267935	0.0268063	0.0259243	0.0253682	0.0275158	0.0259243	18.651	77.6346	38.8742	4.6213	1.16282	1.85239	
5911	1573229630.526697104	-1.20391	-2.07437	-1.68668	-1.53488	0.636866	0.7684	0.0264228	0.0278034	0.027356	0.0248313	0.0264036	0.0260968	17.6981	78.1202	38.3752	4.81186	1.28652	1.9553	
5912	1573229630.534694406	-1.20372	-2.07418	-1.68645	-1.53469	0.637034	0.768628	0.0261288	0.0263461	0.0258348	0.0264612	0.0268255	0.0271515	18.2426	77.8167	38.6496	5.02625	1.06385	1.9553	
5913	1573229630.542640671	-1.20349	-2.07396	-1.68619	-1.53445	0.637226	0.768796	0.0261416	0.0262566	0.0281741	0.0263078	0.0270556	0.026883	16.5409	78.7879	38.5249	4.95479	1.31126	2.23831	
5914	1573229630.550750788	-1.20328	-2.07374	-1.686	-1.53426	0.637514	0.769047	0.0262822	0.0263973	0.0269981	0.0265379	0.0265187	0.0276692	17.6981	78.6665	39.1237	4.85951	1.38548	2.46986	
5915	1573229630.559011039	-1.2031	-2.07356	-1.68575	-1.53404	0.637693	0.769275	0.0266657	0.0263589	0.0289539	0.0257517	0.0255408	0.02765	16.2686	79.8805	38.8493	5.12154	1.65763	2.31549	
5916	1573229630.566706615	-1.20286	-2.07335	-1.6856	-1.53382	0.637873	0.769502	0.0262822	0.0268191	0.0254513	0.0264036	0.0266337	0.0284937	15.656	80.8517	39.4481	5.12154	1.92978	2.08394	
5917	1573229630.574659878	-1.20265	-2.07315	-1.68534	-1.53363	0.638089	0.769742	0.0266274	0.0259498	0.0291712	0.0266146	0.0263269	0.0271898	14.2946	81.8836	40.022	5.00243	2.17719	2.16113	
5918	1573229630.582661492	-1.20247	-2.0729	-1.6851	-1.53339	0.638329	0.769945	0.02641	0.026768	0.0279696	0.0276117	0.0270939	0.0277459	15.8602	82.9762	40.0469	4.93097	2.37511	1.85239	
5919	1573229630.590663460	-1.20223	-2.07269	-1.68488	-1.53319	0.638533	0.770173	0.0269086	0.0259115	0.028123	0.0267104	0.0264995	0.0272473	16.7451	84.433	41.0699	4.95479	2.57304	1.74948	
5920	1573229630.598660460	-1.20202	-2.0725	-1.68467	-1.53294	0.638748	0.770377	0.0264867	0.0263078	0.0283786	0.0270364	0.0276117	0.028417	16.6089	85.5862	40.1717	4.95479	2.72148	1.41502	
5921	1573229630.606667247	-1.20179	-2.07229	-1.68445	-1.53276	0.638988	0.770616	0.0276372	0.025528	0.0275477	0.0272282	0.0270556	0.0281294	16.2005	85.3435	40.4461	5.02625	3.01837	1.56939	
5922	1573229630.614695804	-1.2016	-2.07205	-1.68418	-1.53252	0.639192	0.770832	0.0266274	0.0269725	0.0290817	0.0269405	0.0284937	0.0271131	17.0854	84.5544	39.6477	5.16918	3.01837	1.87812	
5923	1573229630.622690959	-1.20137	-2.07182	-1.68398	-1.53228	0.639432	0.771071	0.0273049	0.026589	0.0275989	0.0275158	0.0271131	0.0279185	16.7451	83.7653	40.3463	5.31211	3.31526	1.74948	
5924	1573229630.630658578	-1.20115	-2.07165	-1.68371	-1.53207	0.639624	0.771287	0.027356	0.027177	0.0288516	0.0277459	0.0273624	0.0272282	15.1795	83.0976	39.1986	5.43121	3.43897	1.90385	
5925	1573229630.638666073	-1.20095	-2.07139	-1.68353	-1.53183	0.639876	0.771467	0.0271515	0.0274966	0.0281997	0.0273432	0.0280527	0.0279376	15.4518	83.6439	39.498	5.5265	3.06785	2.21258	
5926	1573229630.646676217	-1.20072	-2.07121	-1.68331	-1.53162	0.640067	0.77173	0.0275222	0.0263589	0.0280079	0.0281294	0.0273624	0.0277075	14.4307	83.7046	39.1736	5.47886	3.43897	2.44413	
5927	1573229630.654656714	-1.20051	-2.07098	-1.68307	-1.53137	0.640307	0.771934	0.0276628	0.0278034	0.0282764	0.0278801	0.0277459	0.0273624	13.682	84.0081	38.8493	5.47886	3.66163	2.36695	
5928	1573229630.662654024	-1.20028	-2.07077	-1.68285	-1.53117	0.640547	0.772161	0.0282764	0.0271642	0.0273049	0.0279185	0.0278418	0.0274007	13.9542	85.1614	38.9491	5.43121	3.14208	2.44413	
5929	1573229630.670672745	-1.2001	-2.07056	-1.68265	-1.53093	0.640774	0.772365	0.0270748	0.027177	0.0281869	0.0282444	0.0284553	0.0277842	15.5879	87.4072	38.5748	5.38357	2.99363	2.57277	
5930	1573229630.678661311	-1.19985	-2.07032	-1.68244	-1.53073	0.640979	0.772592	0.0280207	0.0279057	0.0280335	0.0273816	0.0279568	0.0278418	15.3837	86.8002	38.7494	5.12154	2.96889	2.64995	
5931	1573229630.686663022	-1.1996	-2.07008	-1.6822	-1.53049	0.641182	0.772796	0.0279185	0.02765	0.0263333	0.0283595	0.027976	0.0284553	16.8132	86.9823	38.974	5.193	2.79571	2.62422	
5932	1573229630.694657152	-1.19937	-2.06984	-1.68198	-1.53029	0.641434	0.773048	0.0288133	0.0277011	0.0286343	0.0275925	0.0286087	0.0284937	17.9703	87.1644	38.475	5.28829	2.57304	2.46986	
5933	1573229630.702996673	-1.19917	-2.06965	-1.68176	-1.53004	0.641626	0.773263	0.0284042	0.0280335	0.0280463	0.0281485	0.0292607	0.0290114	20.1486	87.4679	39.0988	4.69276	2.72148	2.5985	
5934	1573229630.710663246	-1.19894	-2.06944	-1.68152	-1.52981	0.641878	0.773503	0.0273049	0.0270364	0.028417	0.028417	0.0292032	0.028091	20.4208	87.8321	39.0489	5.00243	2.57304	2.72714	
5935	1573229630.718669576	-1.19873	-2.06919	-1.68132	-1.52959	0.642106	0.773718	0.0278162	0.0281741	0.027471	0.0281869	0.0282252	0.0295291	21.9184	87.2858	39.0239	5.55032	2.44933	2.8815	
5936	1573229630.726660992	-1.19848	-2.06897	-1.68111	-1.52936	0.642334	0.773946	0.0285193	0.0284426	0.0288133	0.0261927	0.0292415	0.0288005	22.0545	86.7395	38.4251	5.78853	2.25141	3.0616	
5937	1573229630.734663783	-1.19828	-2.06872	-1.68083	-1.52914	0.642609	0.774198	0.0286215	0.028711	0.0285448	0.0286087	0.0289922	0.0286087	23.6201	86.6788	39.0738	5.5265	2.69674	2.8815	
5938	1573229630.742665408	-1.19805	-2.06851	-1.68064	-1.52893	0.642825	0.774437	0.029657	0.0284298	0.0281741	0.0305837	0.0282828	0.0283978	22.1906	85.9504	39.0738	5.40739	2.44933	3.03587	
5939	1573229630.750680023	-1.19779	-2.06827	-1.68039	-1.52869	0.643041	0.774689	0.0296186	0.0288005	0.0283403	0.0289539	0.0282636	0.029184	21.1015	86.0718	40.1218	5.5265	2.69674	2.54704	
5940	1573229630.758655406	-1.19756	-2.06802	-1.68016	-1.52844	0.643245	0.774928	0.0300021	0.0287877	0.0274583	0.0287813	0.028743	0.0294908	20.4208	86.0718	40.1218	5.71707	2.59778	2.70141	
5941	1573229630.766701887	-1.19732	-2.06778	-1.67993	-1.52821	0.643508	0.77518	0.0308202	0.0281358	0.0294908	0.0284745	0.0290306	0.0293949	18.9914	86.5574	39.7725	5.69324	3.16682	2.46986	
5942	1573229630.774725242	-1.19705	-2.06754	-1.67968	-1.52797	0.643748	0.775395	0.0302578	0.0288644	0.0280207	0.0296825	0.0301044	0.0288388	18.9233	87.65	40.8204	5.71707	3.26578	1.6723	
5943	1573229630.782679042	-1.19682	-2.06734	-1.67948	-1.52774	0.644048	0.775659	0.0302578	0.0289028	0.0290945	0.0284937	0.0294524	0.0299318	19.3998	88.8033	40.6707	5.90763	3.29052	1.72376	
5944	1573229630.790667929	-1.1966	-2.06708	-1.67925	-1.52753	0.644192	0.775838	0.0307307	0.0291584	0.0297848	0.0292415	0.0290881	0.0285704	19.4679	89.0461	40.6208	5.62178	3.58741	1.77521	
5945	1573229630.798651966	-1.19635	-2.06686	-1.67902	-1.52729	0.644479	0.776078	0.0302833	0.0294141	0.0297337	0.0290881	0.0287621	0.029184	19.7401	88.5605	40.8703	5.76471	3.43897	2.08394	
5946	1573229630.806676544	-1.19611	-2.06662	-1.67878	-1.52705	0.644696	0.776318	0.0306668	0.0298359	0.030424	0.0297784	0.0288197	0.0298168	20.8293	87.9535	40.7206	5.76471	3.83482	1.9553	
5947	1573229630.814655393	-1.19582	-2.06637	-1.67853	-1.52682	0.644947	0.776558	0.0301299	0.0296058	0.0302578	0.0292032	0.0297976	0.0302386	20.6931	87.4072	41.1198	5.88381	3.95852	2.16113	
5948	1573229630.822656919	-1.1956	-2.06614	-1.67834	-1.52656	0.645127	0.776773	0.030539	0.0303728	0.0303856	0.0309672	0.0294333	0.0298168	19.8082	86.8609	41.1448	5.47886	3.68637	2.49559	
5949	1573229630.830664961	-1.19533	-2.06589	-1.67808	-1.52632	0.645403	0.777025	0.0303856	0.0307563	0.030833	0.0300085	0.0297209	0.0283211	20.2847	84.6758	40.9452	5.78853	3.85956	2.34122	
5950	1573229630.838680866	-1.19512	-2.06564	-1.67785	-1.52607	0.645643	0.777252	0.0298615	0.0307435	0.0309353	0.0304112	0.0297209	0.0284362	19.0595	84.0688	40.4461	5.43121	3.73585	2.23831	
5951	1573229630.846691370	-1.19488	-2.06536	-1.67756	-1.52587	0.645858	0.777516	0.0304112	0.0309608	0.0319196	0.0306796	0.0317151	0.0303153	18.9914	83.8867	39.7475	5.76471	3.19156	2.46986	
5952	1573229630.854653731	-1.19466	-2.06515	-1.67732	-1.52562	0.646146	0.777695	0.0303217	0.0313188	0.0309608	0.0304495	0.0304687	0.0302961	17.63	84.0688	39.2734	5.57414	2.82045	2.67568	
5953	1573229630.862661854	-1.19439	-2.06487	-1.6771	-1.52537	0.64641	0.778007	0.0309353	0.0312293	0.0318429	0.0300085	0.0305837	0.0301811	17.2216	83.0369	39.0738	5.21682	2.49882	2.52131	
5954	1573229630.870696633	-1.19415	-2.0646	-1.67684	-1.52509	0.646638	0.778222	0.0309992	0.0309992	0.0303473	0.0301427	0.0318685	0.030066	17.8342	81.7622	38.6247	5.21682	2.25141	2.18685	
5955	1573229630.878695503	-1.1939	-2.06435	-1.67663	-1.52484	0.646842	0.778462	0.0309864	0.0312932	0.0310887	0.0305837	0.0308905	0.0302002	17.7661	80.184	38.6995	4.97861	2.02874	2.5985	
5956	1573229630.886678556	-1.19367	-2.06411	-1.67635	-1.52463	0.647153	0.778665	0.0306285	0.0308586	0.0297976	0.0302961	0.0298935	0.0302194	19.2637	79.9412	38.3003	5.00243	1.78133	2.72714	
5957	1573229630.894664681	-1.19339	-2.06388	-1.67609	-1.52436	0.647417	0.778929	0.0310631	0.030245	0.0302322	0.0309481	0.030718	0.0299893	20.8293	80.7303	38.5249	5.24064	1.85556	2.57277	
5958	1573229630.902688473	-1.19314	-2.06364	-1.67585	-1.52415	0.647645	0.77918	0.0311526	0.0302961	0.0297464	0.0307563	0.0313124	0.0309289	21.7822	81.8836	38.9241	5.21682	1.73185	2.93296	
5959	1573229630.910724369	-1.19289	-2.06339	-1.67565	-1.52388	0.647825	0.779408	0.0311142	0.0303856	0.0292351	0.0316192	0.0300085	0.0312549	22.2587	82.1871	38.7744	5.14536	1.78133	3.0616	
5960	1573229630.918678385	-1.19261	-2.06314	-1.67543	-1.52364	0.648136	0.77966	0.030718	0.030718	0.028711	0.0302769	0.0295291	0.0307563	20.4889	82.4299	39.2734	5.35975	1.92978	2.90723	
5961	1573229630.926716218	-1.19241	-2.06292	-1.67519	-1.52342	0.648365	0.779947	0.0301172	0.03036	0.0287877	0.0307755	0.0298743	0.0302386	19.9444	82.1871	38.8742	5.24064	2.22667	2.70141	
5962	1573229630.934670410	-1.19214	-2.06267	-1.67494	-1.5232	0.648592	0.780175	0.0302194	0.0307691	0.0291201	0.0313891	0.0304303	0.0310631	20.8293	81.9443	39.7226	5.26447	2.25141	2.4184	
5963	1573229630.942731599	-1.19192	-2.06243	-1.67472	-1.52294	0.64882	0.780426	0.0301555	0.0307819	0.0295419	0.030833	0.0297976	0.030833	21.578	81.7015	39.8473	5.05008	2.42459	2.10967	
5964	1573229630.950674989	-1.19168	-2.06218	-1.67448	-1.52266	0.649084	0.780654	0.0301427	0.0306029	0.029657	0.0313699	0.0298551	0.031159	21.7142	82.612	39.6227	5.00243	2.59778	1.9553	
5965	1573229630.958683278	-1.19143	-2.06192	-1.67424	-1.52244	0.64936	0.780833	0.0297592	0.0310375	0.0313571	0.0315617	0.0302769	0.030507	21.3057	82.005	39.5728	4.97861	2.72148	1.74948	
5966	1573229630.966675998	-1.19121	-2.06166	-1.67398	-1.52219	0.649563	0.781157	0.0300532	0.0310248	0.0312165	0.0317342	0.0301044	0.0304687	20.4889	81.6408	39.8224	4.95479	2.69674	1.80094	
5967	1573229630.974663363	-1.191	-2.0614	-1.67372	-1.52193	0.649803	0.78142	0.0303217	0.0307435	0.0317278	0.0302002	0.0306796	0.0313316	19.8763	80.9124	39.5978	5.09772	2.69674	1.82667	
5968	1573229630.982673935	-1.19073	-2.06114	-1.67349	-1.52169	0.650043	0.781624	0.0295675	0.0309225	0.0317278	0.0317342	0.0310439	0.0306988	20.1486	80.6089	39.4481	5.12154	2.84519	1.85239	
5969	1573229630.990729904	-1.19047	-2.06089	-1.67325	-1.52144	0.650283	0.781875	0.0299382	0.0307052	0.0310375	0.0319835	0.0325204	0.0305837	20.0805	80.9124	39.3732	5.00243	2.39985	2.10967	
5970	1573229630.998688260	-1.19028	-2.06068	-1.673	-1.52117	0.650558	0.782127	0.0309608	0.0300021	0.0325332	0.0317342	0.0318301	0.0305262	17.63	81.4587	39.4481	4.81186	2.35037	1.9553	
5971	1573229631.006697052	-1.18999	-2.06042	-1.67272	-1.52094	0.65081	0.782379	0.0303984	0.029951	0.0314977	0.0313891	0.0319068	0.0310056	18.8552	81.7015	40.0719	5.0739	2.30089	2.03249	
5972	1573229631.014659838	-1.18975	-2.06017	-1.67251	-1.52068	0.651086	0.782642	0.0301555	0.0294524	0.0322136	0.0314658	0.0319643	0.0308714	19.2637	82.5513	40.1467	4.95479	2.07822	2.18685	
5973	1573229631.022688812	-1.18949	-2.05994	-1.67217	-1.52041	0.651314	0.782822	0.0310631	0.0300532	0.0321113	0.0312549	0.0319452	0.0304112	18.5149	84.1295	39.997	4.71658	1.75659	2.05822	
5974	1573229631.030686216	-1.18924	-2.05977	-1.67194	-1.52019	0.651566	0.783049	0.0301683	0.0295419	0.0311909	0.0316192	0.0319835	0.0305837	18.2426	83.219	40.4212	4.64512	1.41022	2.1354	
5975	1573229631.038682565	-1.189	-2.0595	-1.67174	-1.51994	0.651865	0.783349	0.030424	0.0297209	0.0332746	0.0310823	0.0324053	0.0316192	16.5409	83.0976	40.521	4.6213	1.11333	2.00676	
5976	1573229631.046703708	-1.18877	-2.05926	-1.67146	-1.51971	0.652082	0.783588	0.0307435	0.0299893	0.0304879	0.0311015	0.0317151	0.0314274	17.1535	81.2766	40.496	4.64512	0.890667	2.23831	
5977	1573229631.054714539	-1.18854	-2.05903	-1.67119	-1.51945	0.652381	0.78384	0.0305007	0.0305134	0.0325587	0.0311206	0.0318109	0.0317151	16.8132	82.0657	40.4212	4.57365	0.64326	2.49559	
5978	1573229631.062666162	-1.18827	-2.05877	-1.67098	-1.51923	0.652549	0.784115	0.0305262	0.0306924	0.031421	0.0316575	0.0301619	0.0316	16.8812	82.005	40.2964	5.09772	0.890667	2.54704	
5979	1573229631.070694878	-1.18805	-2.05856	-1.67076	-1.51898	0.652825	0.784331	0.0304112	0.0298359	0.0321497	0.0325012	0.0311398	0.0321177	17.63	83.5225	41.0949	5.193	0.841186	2.62422	
5980	1573229631.078715599	-1.18779	-2.0583	-1.67051	-1.51875	0.653041	0.784606	0.0303217	0.0305646	0.0307691	0.0319068	0.0299318	0.0312932	17.6981	84.3116	41.0699	5.31211	1.03911	2.77859	
5981	1573229631.086688695	-1.18751	-2.05804	-1.67018	-1.51847	0.65334	0.784858	0.0311398	0.0302833	0.0312549	0.0316	0.0314466	0.0312932	16.4728	84.3723	40.8703	5.35975	1.18756	2.90723	
5982	1573229631.095233075	-1.18731	-2.05776	-1.66993	-1.51826	0.653544	0.785121	0.0308586	0.0314977	0.0317534	0.0321944	0.0308522	0.0319835	17.2216	85.1007	40.9701	5.24064	1.53393	2.5985	
5983	1573229631.102692687	-1.18702	-2.05754	-1.66967	-1.51797	0.653796	0.785349	0.0302578	0.0304495	0.0309864	0.0333257	0.0311782	0.0318876	20.0805	86.1932	41.2945	5.0739	1.78133	2.46986	
5984	1573229631.110653376	-1.18677	-2.05731	-1.6694	-1.51774	0.654012	0.785612	0.0312804	0.0300916	0.0300916	0.0329231	0.0302578	0.0320986	19.2637	87.2858	41.2446	5.09772	2.02874	2.10967	
5985	1573229631.118668179	-1.18654	-2.05705	-1.66921	-1.51748	0.654251	0.785852	0.0310375	0.0309736	0.0302066	0.0322903	0.0310439	0.0316384	21.578	88.6212	41.3693	5.26447	2.20193	2.05822	
5986	1573229631.126696164	-1.1863	-2.05684	-1.66896	-1.51722	0.654515	0.786103	0.0303856	0.0313699	0.0310503	0.0334216	0.0313891	0.0321369	22.0545	89.8352	41.4442	5.28829	2.39985	2.08394	
5987	1573229631.134664034	-1.18603	-2.05655	-1.66872	-1.51696	0.654779	0.786367	0.0311398	0.0313955	0.0301939	0.0325012	0.0324245	0.0322328	22.8713	88.5605	41.8185	5.47886	2.39985	2.34122	
5988	1573229631.142714854	-1.18579	-2.0563	-1.66847	-1.51674	0.654983	0.786606	0.0313443	0.0324309	0.0322647	0.0326738	0.0316384	0.0319643	23.2117	86.6788	41.3444	5.59796	2.64726	2.26404	
5989	1573229631.151084990	-1.18555	-2.05606	-1.66825	-1.5165	0.655282	0.78687	0.0312037	0.0318045	0.0329295	0.0344954	0.0320986	0.032482	22.1906	85.7076	40.9452	5.57414	2.672	2.39268	
5990	1573229631.158676804	-1.1853	-2.05583	-1.66799	-1.51623	0.655546	0.787157	0.0318429	0.0316128	0.0313699	0.0333066	0.0328272	0.0325204	21.9864	86.1325	41.1448	5.47886	2.62252	3.03587	
5991	1573229631.166668732	-1.18502	-2.05557	-1.66774	-1.51594	0.65581	0.787409	0.0322264	0.0329167	0.032367	0.0347255	0.0321944	0.0332299	21.1696	83.9474	41.519	5.66942	2.69674	2.85577	
5992	1573229631.174696280	-1.18475	-2.05527	-1.66745	-1.5157	0.656062	0.787661	0.032546	0.0324053	0.0341566	0.0336517	0.0322136	0.0322711	20.2847	83.5225	41.0949	5.40739	3.04311	2.93296	
5993	1573229631.182678351	-1.1845	-2.05503	-1.66715	-1.51544	0.656278	0.787936	0.0332363	0.0335303	0.0325076	0.035876	0.032367	0.0312549	19.4679	84.4937	41.7686	5.12154	2.69674	3.01014	
5994	1573229631.190675566	-1.18422	-2.05479	-1.66691	-1.51514	0.656554	0.788188	0.032661	0.0331596	0.0348853	0.0338243	0.032482	0.0315041	18.7872	84.9793	41.3693	4.95479	2.39985	3.08732	
5995	1573229631.198675762	-1.18395	-2.05453	-1.6666	-1.51485	0.65683	0.788439	0.033313	0.0334152	0.0326738	0.0342461	0.032808	0.0330573	18.7191	84.433	41.7436	4.97861	2.17719	3.16451	
5996	1573229631.206722318	-1.18368	-2.05423	-1.66635	-1.5146	0.657081	0.788666	0.0331596	0.0329422	0.0342333	0.0329806	0.0328655	0.0309672	18.9914	83.5225	41.1198	5.31211	1.80608	3.21596	
5997	1573229631.214707973	-1.18344	-2.05399	-1.66611	-1.51436	0.657369	0.788906	0.0334919	0.0338243	0.0328144	0.0325396	0.0322136	0.0317726	18.7872	82.8548	42.1428	4.93097	2.004	3.29314	
5998	1573229631.222678801	-1.18311	-2.05372	-1.66582	-1.51411	0.657656	0.789205	0.0332363	0.0332363	0.032073	0.0330573	0.0319643	0.0331915	19.5359	82.3692	42.567	5.59796	1.58341	3.24169	
5999	1573229631.230682751	-1.18289	-2.05344	-1.66556	-1.51387	0.657873	0.789445	0.033134	0.0340799	0.0328016	0.0333066	0.0317918	0.0336134	20.1486	81.6408	42.4922	5.81235	2.02874	3.08732	
6000	1573229631.238693857	-1.18262	-2.05321	-1.66533	-1.51359	0.658124	0.789697	0.0341694	0.0340288	0.0330701	0.0325971	0.0331915	0.0324629	18.7191	81.2766	42.9912	5.12154	1.85556	3.60188	
6001	1573229631.246744579	-1.18235	-2.05293	-1.66505	-1.51328	0.658364	0.790008	0.0332235	0.0337604	0.0333513	0.0331532	0.031159	0.0336901	17.0854	80.4268	42.068	5.59796	1.80608	3.55042	
6002	1573229631.254696723	-1.18208	-2.05268	-1.66477	-1.51305	0.658592	0.790248	0.0336837	0.0341566	0.0330573	0.0330956	0.0321561	0.0320602	15.724	80.0626	42.592	5.90763	2.27615	3.19023	
6003	1573229631.262678465	-1.1818	-2.05241	-1.66444	-1.51279	0.658856	0.790511	0.0340416	0.0343356	0.0342717	0.0330189	0.0324629	0.0337476	13.682	80.4268	42.1179	5.55032	2.27615	2.72714	
6004	1573229631.270724228	-1.18154	-2.05213	-1.6642	-1.51254	0.659155	0.790775	0.0334536	0.0347191	0.0321625	0.0320602	0.0325012	0.0322711	14.5669	80.4875	42.3424	5.66942	2.37511	2.31549	
6005	1573229631.278719081	-1.18125	-2.05186	-1.66395	-1.51225	0.659419	0.791063	0.0339138	0.0341183	0.0318429	0.0339202	0.0336517	0.0328655	13.682	81.5801	41.8185	5.6456	2.672	2.31549	
6006	1573229631.286694681	-1.181	-2.05158	-1.66369	-1.51198	0.659659	0.791314	0.0331979	0.0348214	0.0318045	0.0334408	0.0329998	0.0323095	17.7661	81.5801	41.2196	5.69324	2.77096	2.64995	
6007	1573229631.294739365	-1.18076	-2.05132	-1.66342	-1.5117	0.659887	0.791602	0.0330829	0.0342078	0.0321752	0.0336901	0.0324629	0.0329231	18.3107	82.1871	41.9432	5.85999	3.16682	2.85577	
6008	1573229631.302679425	-1.18046	-2.05102	-1.66322	-1.51144	0.66021	0.791829	0.0334024	0.0347958	0.0319707	0.0338243	0.0316	0.0329998	17.5619	81.1552	40.9202	5.85999	3.71111	2.83005	
6009	1573229631.310705527	-1.18021	-2.05074	-1.66295	-1.51118	0.660426	0.792116	0.0327633	0.0344123	0.0331723	0.0341694	0.0332107	0.030833	19.2637	80.8517	40.4212	5.81235	3.16682	2.5985	
6010	1573229631.318704352	-1.17992	-2.05047	-1.66271	-1.51093	0.660714	0.792368	0.032546	0.0352176	0.0316895	0.03346	0.0333449	0.0335558	18.4468	79.6377	40.8204	6.26495	3.26578	2.90723	
6011	1573229631.326741688	-1.17968	-2.05024	-1.66243	-1.51066	0.660978	0.792643	0.0324437	0.0336837	0.033722	0.0319068	0.0327121	0.0331915	17.2216	78.6665	40.0719	6.07438	3.09259	3.21596	
6012	1573229631.334714064	-1.17937	-2.04994	-1.66212	-1.51033	0.661217	0.792883	0.032661	0.0345529	0.0316128	0.0339393	0.0337859	0.0334216	17.7661	78.7879	40.4711	5.26447	2.79571	2.64995	
6013	1573229631.342714351	-1.17911	-2.0497	-1.66193	-1.51016	0.661482	0.79317	0.0323414	0.0331596	0.0331596	0.0327505	0.0337284	0.0322711	18.0384	78.9093	40.0719	5.24064	2.64726	2.98441	
6014	1573229631.350748068	-1.17886	-2.04941	-1.66166	-1.50982	0.661745	0.79341	0.0318045	0.0335686	0.031485	0.0320986	0.0343995	0.0328272	17.63	78.1202	40.3214	5.0739	2.17719	2.90723	
6015	1573229631.359246035	-1.17859	-2.04915	-1.66136	-1.50955	0.662057	0.793674	0.0311909	0.0335558	0.0315105	0.0322711	0.0349939	0.0335175	15.5879	77.3918	40.0968	5.33593	1.78133	2.98441	
6016	1573229631.367200172	-1.17839	-2.04891	-1.66115	-1.50931	0.662356	0.793937	0.0316256	0.0328528	0.0331212	0.0329614	0.0353391	0.0333449	15.1114	77.6953	41.045	5.14536	1.50919	2.90723	
6017	1573229631.374779806	-1.17809	-2.04865	-1.66088	-1.50905	0.662633	0.794213	0.0309225	0.0333641	0.0316895	0.0316767	0.0340736	0.0334791	16.5409	77.9381	41.4442	5.59796	1.63289	3.01014	
6018	1573229631.382732153	-1.17786	-2.04835	-1.66062	-1.50877	0.662884	0.794476	0.0308586	0.0322775	0.032546	0.0330381	0.0339202	0.0340544	16.8132	79.0914	41.7686	5.62178	1.60815	3.03587	
6019	1573229631.390887986	-1.17762	-2.04808	-1.66033	-1.50852	0.663172	0.794752	0.0319579	0.0327633	0.0342589	0.0327697	0.0336517	0.0334216	17.2216	80.4268	42.2925	5.35975	1.70711	3.21596	
6020	1573229631.398751874	-1.17736	-2.04788	-1.66002	-1.50825	0.663484	0.795051	0.0308458	0.0318173	0.0324948	0.0320602	0.0332107	0.0346104	17.5619	80.9124	43.1409	5.45503	1.50919	3.19023	
6021	1573229631.406766682	-1.17707	-2.04758	-1.65978	-1.50796	0.6637	0.795314	0.032073	0.0319963	0.0344123	0.0317151	0.0326546	0.033575	18.0384	81.7622	43.3405	5.5265	1.92978	3.03587	
6022	1573229631.414692036	-1.17684	-2.04735	-1.65954	-1.50772	0.664011	0.79559	0.0317151	0.0315489	0.0322903	0.0329614	0.0334024	0.034016	15.3156	81.7622	43.4653	5.33593	2.05348	2.72714	
6023	1573229631.422776518	-1.17657	-2.04707	-1.65928	-1.50744	0.664263	0.795829	0.032073	0.033134	0.0338754	0.0326546	0.0326738	0.0329998	14.9753	82.1264	43.1159	5.26447	2.27615	2.5985	
6024	1573229631.430691336	-1.17629	-2.04683	-1.65902	-1.50718	0.664503	0.796129	0.0316511	0.0318045	0.0326227	0.0321944	0.0329422	0.0338626	14.0904	82.1264	43.5152	5.33593	2.27615	2.10967	
6025	1573229631.438681449	-1.17605	-2.04659	-1.65869	-1.50693	0.664766	0.796429	0.0327121	0.0332107	0.0346552	0.0317151	0.0326546	0.0329998	13.4778	84.0688	42.9662	5.38357	2.37511	1.85239	
6026	1573229631.446706735	-1.17578	-2.04632	-1.65845	-1.50663	0.665006	0.796644	0.0322519	0.0319963	0.0335686	0.031485	0.0329231	0.0334216	13.4778	83.8867	42.8415	5.57414	2.37511	1.74948	
6027	1573229631.454729029	-1.17553	-2.04604	-1.65816	-1.50639	0.665294	0.796943	0.0324309	0.033249	0.0360102	0.0311782	0.0330573	0.0335367	13.2735	83.1583	41.6438	5.81235	2.52356	1.87812	
6028	1573229631.462664146	-1.17532	-2.04576	-1.65789	-1.50612	0.66557	0.797183	0.0316384	0.0323159	0.0326866	0.0332107	0.0331915	0.032808	14.5669	83.2797	41.2446	5.66942	2.47408	1.6723	
6029	1573229631.470695302	-1.17506	-2.04554	-1.65759	-1.50586	0.665869	0.797458	0.0320858	0.0327761	0.0354222	0.0315617	0.0342461	0.0329422	14.7711	83.8867	40.6458	5.66942	2.32563	1.9553	
6030	1573229631.478723489	-1.17478	-2.04527	-1.65734	-1.5056	0.666109	0.797746	0.0319579	0.0319324	0.0336964	0.0327121	0.0331148	0.0330573	16.7451	84.2509	40.9951	5.66942	2.22667	2.03249	
6031	1573229631.486743242	-1.17451	-2.04499	-1.65707	-1.50532	0.666373	0.798009	0.0317534	0.0327888	0.0327121	0.0318301	0.033134	0.0333066	19.3998	85.04	41.1448	5.71707	2.07822	2.00676	
6032	1573229631.494666796	-1.17423	-2.04474	-1.65681	-1.50507	0.666613	0.798285	0.0324437	0.0334024	0.0335175	0.0323095	0.0341119	0.0338435	19.8082	86.5574	40.2964	5.35975	1.90504	1.87812	
6033	1573229631.502712815	-1.17397	-2.04447	-1.65651	-1.50482	0.666876	0.798524	0.0327249	0.0324309	0.0320602	0.0313699	0.0329422	0.0329231	20.4208	86.436	40.5459	5.40739	1.65763	2.03249	
6034	1573229631.510702503	-1.17373	-2.04422	-1.65628	-1.50456	0.667188	0.798776	0.0322519	0.0329806	0.0328016	0.0319643	0.033901	0.0334408	20.9654	85.4042	40.7456	5.0739	1.16282	1.90385	
6035	1573229631.518670482	-1.17348	-2.04393	-1.65602	-1.50428	0.667476	0.799052	0.0330701	0.0335558	0.031779	0.0319068	0.0348789	0.0325012	20.2166	83.8867	41.2695	5.40739	0.940149	2.03249	
6036	1573229631.526691947	-1.17323	-2.04365	-1.65573	-1.50402	0.667764	0.799315	0.0335175	0.0323159	0.031894	0.0323095	0.0340352	0.0339393	19.3998	83.5225	41.1947	5.45503	0.915408	2.18685	
6037	1573229631.534689839	-1.17296	-2.0434	-1.65548	-1.50375	0.668028	0.799567	0.0331468	0.0329806	0.0319196	0.0327121	0.0323095	0.0339777	20.6931	83.1583	42.043	5.6456	1.01437	2.31549	
6038	1573229631.542677341	-1.17268	-2.04314	-1.65525	-1.50349	0.66828	0.799878	0.034016	0.033607	0.0330062	0.0326546	0.0325587	0.0338626	19.8082	82.8548	41.569	5.95528	0.890667	2.52131	
6039	1573229631.550684768	-1.17241	-2.04285	-1.65494	-1.50323	0.668531	0.800105	0.0345913	0.0328016	0.0335814	0.0337476	0.0321752	0.0333449	20.2847	82.612	42.3424	5.78853	1.03911	2.77859	
6040	1573229631.558723470	-1.17213	-2.0426	-1.65464	-1.50296	0.668819	0.800405	0.0350642	0.0338754	0.033249	0.032482	0.0312932	0.0341694	20.0124	83.5225	42.5171	6.07438	1.26178	2.75286	
6041	1573229631.566666168	-1.17185	-2.04231	-1.6544	-1.50267	0.669059	0.800632	0.0343612	0.0343228	0.0351282	0.03346	0.0323286	0.0339777	18.9914	83.7653	42.1678	5.85999	1.53393	2.44413	
6042	1573229631.574702476	-1.17159	-2.04206	-1.65414	-1.50239	0.669323	0.80092	0.0354477	0.033543	0.0329039	0.0333257	0.0319835	0.0335942	17.9703	83.9474	42.567	5.71707	1.80608	2.26404	
6043	1573229631.582687786	-1.17129	-2.0418	-1.65391	-1.50213	0.669598	0.801219	0.03555	0.0342973	0.0342845	0.0330765	0.0328272	0.0338435	17.0854	84.3116	42.2676	5.74089	2.05348	1.85239	
6044	1573229631.590725782	-1.17105	-2.04153	-1.65364	-1.50187	0.669886	0.801483	0.0361125	0.0342461	0.0346808	0.0334983	0.0331532	0.0346104	18.3788	84.7972	42.6169	5.78853	2.22667	1.85239	
6045	1573229631.598681720	-1.17075	-2.04123	-1.65334	-1.50159	0.670138	0.801735	0.0359207	0.0348214	0.0332235	0.0337092	0.0332299	0.0331915	17.6981	85.3435	42.9662	5.90763	2.5483	2.08394	
6046	1573229631.606682924	-1.17043	-2.04096	-1.65306	-1.50134	0.670402	0.801998	0.0361253	0.0346041	0.0351793	0.0329806	0.0330765	0.0338435	16.9493	83.5225	42.1179	6.05056	2.84519	2.00676	
6047	1573229631.614676423	-1.17017	-2.04062	-1.65276	-1.50106	0.670689	0.802249	0.03679	0.0350003	0.0352816	0.0333833	0.0318685	0.0340927	16.8132	82.0657	41.7686	6.07438	3.01837	2.16113	
6048	1573229631.622672306	-1.16989	-2.04041	-1.6525	-1.50076	0.670953	0.802537	0.0367133	0.0351537	0.033901	0.0336134	0.0329998	0.0334408	17.0174	81.0945	41.3194	6.21731	2.86993	2.44413	
6049	1573229631.630758023	-1.16955	-2.04011	-1.65221	-1.50049	0.671217	0.802824	0.0357545	0.0354733	0.0359207	0.0341694	0.0341119	0.0338818	14.5669	80.9731	40.1467	6.21731	2.82045	2.64995	
6050	1573229631.638789703	-1.1693	-2.0398	-1.65192	-1.50022	0.671469	0.8031	0.0361636	0.0345401	0.032367	0.0326354	0.032482	0.0345529	12.5248	80.6089	40.4461	6.36024	3.14208	2.49559	
6051	1573229631.649243863	-1.16901	-2.03954	-1.65166	-1.49998	0.671757	0.803351	0.0356651	0.0356906	0.0350131	0.0326738	0.0331723	0.0330189	12.729	81.4587	39.4231	6.0982	2.74622	2.77859	
6052	1573229631.654826405	-1.16873	-2.03927	-1.6514	-1.49968	0.671972	0.803651	0.0348214	0.0354222	0.033722	0.03346	0.0337092	0.0329422	14.2946	81.3373	40.022	6.28877	2.32563	2.54704	
6053	1573229631.662865577	-1.16845	-2.03898	-1.65114	-1.49944	0.672308	0.803878	0.0353838	0.033901	0.0326482	0.032041	0.0326546	0.0329998	14.7711	81.6408	40.022	6.14585	2.35037	2.83005	
6054	1573229631.670839112	-1.16814	-2.03867	-1.65087	-1.49918	0.672584	0.804166	0.0354094	0.0348725	0.033543	0.0323095	0.0336517	0.0338243	15.9283	80.184	39.4481	5.90763	1.8803	2.95868	
6055	1573229631.678753371	-1.16814	-2.03867	-1.65087	-1.49918	0.672584	0.804166	0.0354094	0.0348725	0.033543	0.0323095	0.0336517	0.0338243	15.9283	80.184	39.4481	5.90763	1.8803	2.95868	
6056	1573229631.686774242	-1.16765	-2.03807	-1.65037	-1.49863	0.673123	0.804669	0.0349492	0.0344379	0.0329806	0.0344187	0.0325204	0.0343036	18.583	80.0019	39.9222	5.76471	1.75659	3.0616	
6057	1573229631.694793114	-1.16731	-2.03782	-1.65009	-1.49834	0.673387	0.804981	0.0345657	0.0345018	0.0327377	0.0339777	0.0327697	0.0333833	17.9703	79.7591	40.3463	6.64609	1.75659	3.21596	
6058	1573229631.702747482	-1.16705	-2.0375	-1.64985	-1.49805	0.673639	0.805256	0.0371863	0.037672	0.0374036	0.0376401	0.0371032	0.0373524	21.0335	81.3373	41.3194	6.57463	2.17719	3.16451	
6059	1573229631.710759962	-1.1668	-2.03726	-1.64959	-1.49778	0.673974	0.80552	0.033134	0.0308969	0.0284553	0.0327505	0.0321177	0.0352432	15.3837	76.4813	39.9721	5.85999	2.22667	3.11305	
6060	1573229631.718684907	-1.16651	-2.03696	-1.64931	-1.49752	0.674166	0.805807	0.0334663	0.0333513	0.0361892	0.0348214	0.0316959	0.0336901	15.9283	80.5482	39.9721	5.66942	2.20193	3.13878	
6061	1573229631.726658425	-1.1662	-2.03671	-1.64901	-1.49722	0.674454	0.806095	0.0332618	0.0335814	0.033901	0.0337092	0.0330765	0.0335367	14.0223	77.2704	40.1218	6.19349	2.27615	2.44413	
6062	1573229631.734713231	-1.16597	-2.03643	-1.64876	-1.49698	0.674766	0.806334	0.034195	0.0331851	0.0345401	0.0336325	0.0334983	0.0334983	14.2265	79.2735	41.2196	6.40788	2.86993	2.1354	
6063	1573229631.742667063	-1.16568	-2.03618	-1.64847	-1.4967	0.675005	0.806645	0.0338371	0.0332874	0.0344123	0.0325587	0.0334408	0.034016	12.729	80.3661	41.3943	6.19349	2.82045	1.85239	
6064	1573229631.750724457	-1.16543	-2.03589	-1.64823	-1.49642	0.675282	0.806873	0.0322903	0.0330445	0.0354477	0.0338626	0.0327121	0.0341311	13.2055	81.6408	40.7705	6.52698	2.64726	2.10967	
6065	1573229631.758674157	-1.16517	-2.03563	-1.64791	-1.49617	0.675521	0.807196	0.0333641	0.0328911	0.0363042	0.0348214	0.032808	0.0336901	15.1795	81.6408	40.8454	6.31259	3.01837	2.16113	
6066	1573229631.766706895	-1.16492	-2.03534	-1.64762	-1.49592	0.675833	0.807472	0.0319452	0.0321497	0.03555	0.0342845	0.033575	0.0329614	15.5198	81.7622	41.3444	6.5508	3.04311	2.23831	
6067	1573229631.774692677	-1.16465	-2.0351	-1.64735	-1.49564	0.676073	0.8077	0.0329295	0.0323159	0.0348469	0.0353966	0.032367	0.0334791	15.9963	82.3692	41.2945	6.52698	3.41422	2.39268	
6068	1573229631.782675660	-1.16438	-2.03486	-1.64707	-1.49535	0.67636	0.807987	0.0329934	0.0328144	0.0355372	0.0357993	0.0341694	0.033249	16.4728	81.8229	41.4442	6.52698	3.26578	2.57277	
6069	1573229631.790665150	-1.16412	-2.03459	-1.64681	-1.49507	0.676624	0.808203	0.0323542	0.0322136	0.0352432	0.0342269	0.0329039	0.0338051	16.677	80.9124	40.9701	6.26495	3.11734	2.4184	
6070	1573229631.798687209	-1.16385	-2.03429	-1.64651	-1.49478	0.6769	0.808478	0.0330062	0.0328783	0.0363553	0.0348405	0.0342653	0.0351665	15.4518	81.1552	40.9701	6.05056	3.04311	2.54704	
6071	1573229631.806661632	-1.1636	-2.03404	-1.64623	-1.49449	0.677104	0.808766	0.032955	0.033313	0.0345018	0.0346296	0.0338626	0.0348405	14.6349	81.8836	40.7955	5.66942	2.84519	2.44413	
6072	1573229631.814657525	-1.16333	-2.03375	-1.64594	-1.49423	0.677452	0.809077	0.0334536	0.0323926	0.0357162	0.0343036	0.034668	0.0355117	14.2265	82.3085	40.3962	5.57414	2.32563	2.31549	
6073	1573229631.822659125	-1.16306	-2.03351	-1.64567	-1.49397	0.677691	0.80934	0.0327633	0.0327249	0.033901	0.0342653	0.0348214	0.0353583	14.0223	81.2766	40.8703	5.40739	1.85556	2.44413	
6074	1573229631.830689668	-1.1628	-2.03325	-1.64537	-1.49369	0.677991	0.809592	0.0332618	0.0330701	0.0352432	0.0339393	0.0365279	0.0347063	14.4307	80.7303	40.7456	5.24064	1.60815	2.49559	
6075	1573229631.838693249	-1.16254	-2.03297	-1.64513	-1.4934	0.678255	0.809879	0.0332107	0.0321752	0.0327633	0.0342078	0.0353391	0.0351665	16.2005	81.6408	40.7705	5.47886	1.31126	2.5985	
6076	1573229631.846703965	-1.16228	-2.03271	-1.64482	-1.49316	0.678531	0.810179	0.0330573	0.0329422	0.0341055	0.0350323	0.035224	0.0350323	18.2426	82.9762	40.8703	5.83617	1.38548	2.72714	
6077	1573229631.854679090	-1.16201	-2.03245	-1.64459	-1.49291	0.678818	0.810478	0.0325076	0.0333257	0.0337859	0.0341311	0.0356459	0.0343803	20.8973	84.3723	41.4192	5.59796	1.43496	2.8815	
6078	1573229631.862711932	-1.16174	-2.03217	-1.64434	-1.49261	0.679082	0.810766	0.0334919	0.0323159	0.0321497	0.0346296	0.0354733	0.0347447	21.8503	85.2828	41.5939	5.43121	1.336	2.72714	
6079	1573229631.870724086	-1.16146	-2.03193	-1.64408	-1.49236	0.679406	0.811041	0.0342078	0.0333641	0.0330829	0.0355692	0.0356459	0.0343803	20.4208	85.1007	41.5939	5.31211	1.60815	2.39268	
6080	1573229631.878658311	-1.16117	-2.03169	-1.64378	-1.49207	0.679622	0.811305	0.0340927	0.0338115	0.034016	0.0351665	0.0357801	0.0345146	20.3528	85.5255	42.1678	5.40739	1.85556	2.16113	
6081	1573229631.886684914	-1.16094	-2.03137	-1.64357	-1.49179	0.679909	0.811568	0.0345913	0.0334408	0.0342461	0.0349939	0.0350898	0.0342269	20.0124	84.4937	42.2177	5.35975	2.10296	1.77521	
6082	1573229631.894696573	-1.16066	-2.03111	-1.64326	-1.49152	0.680161	0.811856	0.0344379	0.033901	0.034016	0.0347063	0.0345721	0.0350515	20.9654	84.8579	42.2177	5.38357	2.1277	1.44075	
6083	1573229631.902672138	-1.1604	-2.03084	-1.64301	-1.49126	0.680437	0.812167	0.034016	0.0332363	0.0348725	0.0348214	0.0357801	0.0344187	20.3528	86.1325	41.7935	5.31211	2.30089	1.56939	
6084	1573229631.910722214	-1.16009	-2.03055	-1.64274	-1.49098	0.680737	0.812407	0.0351282	0.0332235	0.0350898	0.0353199	0.0362403	0.0356842	19.3998	85.1007	42.2676	5.31211	2.25141	1.59512	
6085	1573229631.918807226	-1.15983	-2.03029	-1.64242	-1.4907	0.681024	0.812646	0.0355756	0.0346296	0.0351026	0.0358185	0.0368347	0.0342845	18.8552	84.0081	41.8185	5.35975	2.47408	1.62084	
6086	1573229631.926730928	-1.15953	-2.03004	-1.64212	-1.49038	0.681288	0.812946	0.0362275	0.0347702	0.0356267	0.0368155	0.0363937	0.0333066	17.9703	83.3404	41.6189	5.16918	2.30089	1.69803	
6087	1573229631.934666495	-1.15924	-2.02971	-1.64183	-1.4901	0.681576	0.813233	0.0358952	0.0353199	0.0350259	0.0359527	0.035876	0.0342461	17.7661	83.5225	41.1947	5.193	2.004	1.85239	
6088	1573229631.942676049	-1.15898	-2.02944	-1.64157	-1.48987	0.681816	0.813485	0.0362659	0.0340927	0.0350515	0.0357418	0.0356267	0.0340927	17.3577	83.1583	41.8434	5.193	2.20193	1.72376	
6089	1573229631.950745913	-1.15867	-2.02917	-1.64131	-1.48957	0.68208	0.813772	0.0364832	0.0351793	0.0341566	0.0360677	0.0370648	0.0339202	17.4258	83.4618	41.8933	4.95479	1.92978	1.72376	
6090	1573229631.958736343	-1.15834	-2.02891	-1.64102	-1.48927	0.682403	0.814072	0.0365343	0.0347191	0.034016	0.0355308	0.0360102	0.0336901	17.63	83.4011	42.3424	4.64512	1.48445	1.77521	
6091	1573229631.966731463	-1.15807	-2.02862	-1.64078	-1.489	0.682655	0.814347	0.0361892	0.0351537	0.0332874	0.035876	0.0360102	0.0342653	17.0174	83.3404	42.9912	4.50219	1.18756	1.69803	
6092	1573229631.974749637	-1.15776	-2.02836	-1.64052	-1.4887	0.682978	0.814551	0.0364576	0.0357673	0.0340032	0.0352049	0.0358952	0.0338243	15.656	81.1552	42.6918	4.50219	0.890667	1.92958	
6093	1573229631.982726325	-1.15745	-2.02807	-1.64022	-1.48847	0.683254	0.814838	0.0356778	0.0358952	0.0339265	0.0343228	0.0367772	0.0330381	14.4988	79.6984	42.3175	4.76422	0.618519	2.1354	
6094	1573229631.991250062	-1.15717	-2.02778	-1.63994	-1.48818	0.683506	0.81509	0.0362659	0.0350259	0.0348853	0.0345721	0.0359527	0.0342078	14.2265	80.0019	42.6169	5.12154	0.791704	2.08394	
6095	1573229631.998804758	-1.15693	-2.0275	-1.63964	-1.48792	0.683806	0.815401	0.0353071	0.0357162	0.0337092	0.0348597	0.0357226	0.0349939	14.1584	79.2735	42.567	5.16918	0.915408	2.26404	
6096	1573229632.007279396	-1.15663	-2.02722	-1.63937	-1.48763	0.684094	0.815689	0.0354989	0.0356523	0.0345785	0.0353583	0.0350323	0.0348597	13.9542	80.184	42.0181	5.05008	0.865926	2.4184	
6097	1573229632.014746840	-1.15631	-2.02693	-1.63913	-1.4874	0.684394	0.815952	0.0358057	0.0361253	0.0345657	0.034668	0.0348022	0.0345337	13.2055	79.6377	41.6438	5.16918	1.31126	2.34122	
6098	1573229632.022745114	-1.15606	-2.02661	-1.63885	-1.4871	0.684693	0.816216	0.0348853	0.036432	0.0336709	0.0359143	0.0349939	0.0345146	15.2476	79.3342	41.9183	4.97861	1.53393	2.23831	
6099	1573229632.030756254	-1.15576	-2.02634	-1.63858	-1.48679	0.684933	0.816539	0.0351793	0.0354605	0.0331851	0.0357801	0.035224	0.0346104	15.8602	80.3661	41.9682	4.95479	1.80608	1.98103	
6100	1573229632.038776606	-1.15551	-2.02607	-1.63828	-1.48658	0.685257	0.816767	0.034489	0.0359719	0.0346808	0.0349939	0.0352624	0.0355308	16.9493	80.6089	41.2196	5.0739	2.10296	1.77521	
6101	1573229632.046692938	-1.15525	-2.02577	-1.638	-1.48632	0.685497	0.817043	0.0347191	0.0356778	0.0344123	0.0354733	0.0343228	0.0353583	17.9703	81.2766	41.7436	5.0739	2.20193	1.62084	
6102	1573229632.054725618	-1.15496	-2.02547	-1.63776	-1.48602	0.68576	0.817318	0.0344251	0.036611	0.0347063	0.0355308	0.0361444	0.0341502	16.7451	80.6089	41.1947	5.35975	2.42459	1.80094	
6103	1573229632.062706097	-1.15463	-2.02525	-1.63746	-1.48575	0.68606	0.817629	0.034668	0.0356778	0.0346808	0.0357609	0.0353583	0.0345721	15.7921	79.2128	41.1697	5.31211	2.74622	1.72376	
6104	1573229632.070647825	-1.15438	-2.02497	-1.6372	-1.48544	0.6863	0.817929	0.0340288	0.0359079	0.033901	0.0366046	0.035224	0.034783	16.8812	77.4525	40.4212	5.33593	2.86993	1.98103	
6105	1573229632.078669688	-1.15412	-2.02465	-1.63695	-1.48516	0.686576	0.818192	0.0341439	0.0354733	0.0345913	0.0370073	0.0348214	0.0351282	16.0644	76.9669	40.5958	5.05008	2.74622	2.49559	
6106	1573229632.086664135	-1.15383	-2.02436	-1.63667	-1.48486	0.686876	0.818444	0.0333897	0.0363809	0.0337604	0.0361444	0.0341694	0.0345146	14.703	76.3599	40.6957	5.57414	2.64726	2.36695	
6107	1573229632.094714194	-1.15357	-2.02408	-1.63637	-1.48461	0.687163	0.818755	0.0342717	0.0350898	0.0351026	0.0360102	0.0357801	0.0336709	16.1325	76.2385	41.045	5.24064	2.5483	2.64995	
6108	1573229632.102663529	-1.15327	-2.02378	-1.63607	-1.48437	0.687427	0.819007	0.0336709	0.0348214	0.0345401	0.0359527	0.0349556	0.0339202	15.0434	77.0883	41.3693	5.193	2.42459	2.77859	
6109	1573229632.110670657	-1.15302	-2.02356	-1.6358	-1.48406	0.68769	0.819306	0.0337987	0.0353071	0.0357418	0.0365854	0.0349364	0.0347447	13.8181	77.9988	41.6189	4.76422	2.30089	2.34122	
6110	1573229632.118679137	-1.15275	-2.02327	-1.63556	-1.48378	0.687966	0.81957	0.0337731	0.0353455	0.0360358	0.0363553	0.0351665	0.0352624	14.7711	77.0883	42.1179	5.02625	1.68237	2.85577	
6111	1573229632.126672186	-1.15248	-2.02301	-1.63526	-1.48348	0.68829	0.819881	0.0327633	0.0341311	0.0362019	0.0367772	0.0354733	0.0339777	15.1795	77.3311	42.1428	4.69276	1.50919	2.90723	
6112	1573229632.134671062	-1.1522	-2.02267	-1.63495	-1.48319	0.688554	0.820121	0.0331212	0.0347191	0.0352049	0.036432	0.0351665	0.0352624	15.9963	77.8774	42.9912	5.43121	1.43496	2.98441	
6113	1573229632.142666338	-1.15194	-2.02243	-1.63462	-1.48289	0.688842	0.82042	0.0337604	0.0347958	0.0363809	0.0362595	0.0357226	0.0341694	16.0644	78.7272	42.8415	5.66942	1.58341	2.85577	
6114	1573229632.150667366	-1.15169	-2.02218	-1.63433	-1.48262	0.689069	0.820671	0.0337092	0.0352432	0.0361508	0.0365279	0.0352816	0.034016	16.5409	78.2416	43.5401	5.28829	1.97926	3.26742	
6115	1573229632.158695435	-1.15142	-2.0219	-1.63406	-1.48231	0.689417	0.820995	0.0337731	0.0349236	0.0366238	0.0352049	0.0355884	0.0348022	15.9963	77.3918	43.2906	5.12154	1.63289	3.0616	
6116	1573229632.166649620	-1.15112	-2.02163	-1.63375	-1.48207	0.689633	0.82127	0.0335558	0.0347191	0.0369562	0.0350898	0.0349556	0.0357993	15.656	79.0914	42.7167	4.97861	2.20193	2.70141	
6117	1573229632.174648602	-1.15085	-2.02135	-1.6334	-1.48178	0.689945	0.821534	0.0343228	0.035077	0.0373908	0.0354925	0.0356842	0.035876	13.682	79.3342	42.5421	5.40739	2.30089	2.80432	
6118	1573229632.182669275	-1.15061	-2.02111	-1.63317	-1.4815	0.690232	0.821857	0.034489	0.0353071	0.0365215	0.0345721	0.0357993	0.0356651	13.4097	80.0626	42.4672	5.47886	2.52356	2.46986	
6119	1573229632.190666845	-1.15032	-2.02079	-1.6329	-1.48123	0.69046	0.822121	0.0342717	0.0352049	0.0364065	0.0366238	0.0354158	0.0357418	14.703	81.5194	42.2676	5.193	2.72148	2.16113	
6120	1573229632.198661008	-1.15002	-2.02054	-1.63261	-1.48089	0.69076	0.822456	0.0342333	0.0354477	0.0335303	0.0366238	0.0361061	0.0349748	15.3837	83.4011	42.2177	5.47886	2.74622	1.69803	
6121	1573229632.206727391	-1.14977	-2.02026	-1.63231	-1.48059	0.691024	0.822732	0.0343612	0.0356906	0.0360613	0.0366813	0.0359335	0.0342269	17.0174	84.6151	42.043	5.28829	3.38948	2.5985	
6122	1573229632.214655027	-1.14951	-2.02	-1.63203	-1.4803	0.691347	0.822995	0.0347319	0.035435	0.0342589	0.0369498	0.035991	0.0357609	18.651	83.8867	42.2177	5.85999	3.41422	1.90385	
6123	1573229632.222678797	-1.1492	-2.01972	-1.63178	-1.47999	0.691623	0.823271	0.0345401	0.0359974	0.0342845	0.0368347	0.0357034	0.0357226	19.4679	84.3116	42.4422	5.78853	3.38948	2.23831	
6124	1573229632.230956351	-1.14894	-2.01944	-1.63146	-1.47973	0.691911	0.823534	0.0349492	0.0358185	0.0352176	0.0355692	0.03555	0.0351857	20.0805	84.4937	42.567	5.33593	3.16682	2.4184	
6125	1573229632.238643075	-1.14866	-2.01915	-1.63122	-1.47944	0.69221	0.823833	0.0350131	0.0361636	0.0337987	0.0362978	0.0353007	0.0347063	20.1486	83.4011	41.8434	5.35975	2.77096	2.83005	
6126	1573229632.246653762	-1.14839	-2.01889	-1.63092	-1.47915	0.692486	0.824097	0.0354094	0.0361253	0.0353966	0.0357801	0.0364704	0.0354733	20.4889	82.9155	42.4173	5.0739	2.57304	2.62422	
6127	1573229632.254651750	-1.14812	-2.01859	-1.6306	-1.47885	0.692798	0.824397	0.0358185	0.0360102	0.0342589	0.0347063	0.0361636	0.0359719	20.0124	83.4011	42.2676	5.26447	2.1277	2.57277	
6128	1573229632.262657649	-1.1478	-2.01828	-1.63037	-1.47856	0.69311	0.824696	0.0368922	0.0362275	0.0353838	0.0353966	0.0364704	0.0356842	19.4679	82.6727	42.9413	4.83569	1.80608	2.46986	
6129	1573229632.270672425	-1.1475	-2.018	-1.63007	-1.47825	0.693374	0.824972	0.0366238	0.0374291	0.0354222	0.0348214	0.0369114	0.0367005	17.8342	81.4587	42.9163	5.193	1.4597	2.72714	
6130	1573229632.278735205	-1.14717	-2.0177	-1.62976	-1.47798	0.693709	0.825283	0.0371351	0.0367388	0.035256	0.0348405	0.0359143	0.0367964	18.583	81.7015	43.1908	5.40739	1.48445	2.72714	
6131	1573229632.286654550	-1.14687	-2.0174	-1.62947	-1.47771	0.693973	0.825606	0.0369562	0.0367644	0.0362786	0.0358952	0.0361636	0.037084	18.1745	82.4299	43.5152	5.59796	1.48445	2.85577	
6132	1573229632.294700108	-1.1466	-2.0171	-1.62922	-1.47743	0.694248	0.825858	0.0373652	0.0370712	0.0356395	0.0356842	0.036758	0.0360869	19.2637	82.7334	43.9892	5.0739	1.53393	3.03587	
6133	1573229632.302643530	-1.14631	-2.01683	-1.62891	-1.47711	0.69456	0.826193	0.0374036	0.0366366	0.0360486	0.0354158	0.0352816	0.0365471	19.3998	82.3692	44.613	5.21682	1.78133	2.95868	
6134	1573229632.310678945	-1.14599	-2.01652	-1.62866	-1.47683	0.694824	0.826456	0.0370073	0.0369562	0.0359846	0.036643	0.0355692	0.0362211	18.9233	82.0657	44.5881	4.90715	2.02874	2.8815	
6135	1573229632.318672085	-1.1457	-2.01623	-1.62836	-1.47649	0.69516	0.826756	0.038145	0.0373524	0.0369434	0.036317	0.0357034	0.0371607	17.63	81.3373	44.7378	4.64512	2.17719	2.49559	
6136	1573229632.326646039	-1.1454	-2.0159	-1.62803	-1.47621	0.6954	0.827056	0.0387586	0.0382089	0.0362147	0.0359719	0.0356075	0.036432	17.4939	80.8517	44.4633	4.71658	2.47408	2.08394	
6137	1573229632.334649232	-1.14509	-2.01566	-1.62781	-1.47589	0.695687	0.827343	0.0380811	0.0374419	0.0370584	0.0351665	0.0359527	0.0371607	16.7451	81.8836	44.0391	4.85951	2.5483	1.87812	
6138	1573229632.342662283	-1.14481	-2.01534	-1.62749	-1.47563	0.696023	0.827643	0.0383623	0.0373652	0.036317	0.0345721	0.0360869	0.0368347	15.5198	82.5513	44.0391	5.05008	2.59778	1.80094	
6139	1573229632.350657001	-1.14448	-2.01507	-1.62717	-1.47531	0.696299	0.827954	0.0380299	0.037493	0.03679	0.0338243	0.0365854	0.0364129	14.5669	81.3373	43.4154	5.02625	2.64726	1.85239	
6140	1573229632.358659022	-1.14417	-2.01475	-1.62689	-1.47503	0.696515	0.82823	0.038145	0.0385796	0.0379149	0.0355692	0.0367388	0.0368922	15.0434	80.4268	42.8165	5.00243	2.77096	1.62084	
6141	1573229632.366665434	-1.1439	-2.01446	-1.62658	-1.47474	0.696862	0.828505	0.0380683	0.0381322	0.0366877	0.035109	0.0368539	0.0356267	16.3367	79.6377	42.4173	5.0739	2.37511	1.92958	
6142	1573229632.374679017	-1.14354	-2.0141	-1.62626	-1.47442	0.697126	0.828781	0.037557	0.0377871	0.0364448	0.0349172	0.0363745	0.0356075	16.677	80.1233	41.8684	4.88333	2.49882	2.05822	
6143	1573229632.382676837	-1.14324	-2.01382	-1.62596	-1.47415	0.697426	0.82908	0.0374419	0.0382728	0.0380683	0.0345337	0.0375058	0.0364129	19.604	80.6089	41.2945	5.24064	2.39985	2.00676	
6144	1573229632.390674764	-1.14295	-2.01352	-1.6257	-1.4739	0.697761	0.82938	0.0386819	0.0382345	0.0357162	0.0343803	0.036758	0.0365087	19.604	81.7622	41.3693	4.95479	2.004	1.9553	
6145	1573229632.398670854	-1.14267	-2.0132	-1.62537	-1.47358	0.698037	0.829631	0.0372757	0.0375697	0.0356523	0.0342653	0.0376209	0.0369306	18.8552	79.2128	41.4941	4.90715	1.60815	1.90385	
6146	1573229632.406695291	-1.14236	-2.01291	-1.62511	-1.4733	0.698349	0.829918	0.0371351	0.0384518	0.0352688	0.0337476	0.0376592	0.0369114	19.1956	77.6346	41.6937	4.66894	1.41022	1.87812	
6147	1573229632.414670988	-1.14208	-2.01256	-1.62482	-1.47299	0.698673	0.830242	0.0366749	0.0379405	0.0352176	0.0340352	0.0373524	0.0368347	18.7872	75.2066	41.7187	4.7404	1.13807	1.74948	
6148	1573229632.422726073	-1.14178	-2.01226	-1.62453	-1.47276	0.698985	0.830553	0.0371607	0.0374036	0.0344251	0.0336134	0.0365663	0.0374867	18.651	75.4494	41.8933	5.09772	1.13807	1.9553	
6149	1573229632.430753471	-1.14152	-2.01198	-1.62425	-1.47241	0.699296	0.830853	0.0369178	0.0373652	0.0353199	0.0347447	0.0363745	0.0372757	17.9023	76.3599	41.9931	5.12154	1.336	2.26404	
6150	1573229632.438702076	-1.14121	-2.01169	-1.62397	-1.47218	0.699548	0.83114	0.0371096	0.0370073	0.0368795	0.0346488	0.0365471	0.0372374	17.2216	77.6346	42.1428	5.31211	1.38548	2.57277	
6151	1573229632.446708589	-1.14093	-2.0114	-1.62371	-1.47186	0.69986	0.831452	0.0367388	0.0364448	0.0371607	0.0350898	0.0352624	0.0381386	16.8132	79.1521	43.091	5.40739	1.80608	2.57277	
6152	1573229632.454663893	-1.14061	-2.01111	-1.62335	-1.47159	0.700148	0.831787	0.0366621	0.0365087	0.0384774	0.0350898	0.0354733	0.038292	15.3156	80.0019	43.3155	5.45503	2.17719	2.16113	
6153	1573229632.462707759	-1.14035	-2.01081	-1.62305	-1.4713	0.700423	0.832062	0.0363042	0.0362914	0.0383623	0.0363745	0.0362978	0.0380044	15.4518	80.7303	43.3405	5.35975	2.35037	1.82667	
6154	1573229632.470679626	-1.14005	-2.01049	-1.6228	-1.471	0.700699	0.832374	0.0367005	0.0357801	0.0394233	0.0360486	0.0358185	0.0380044	17.4939	82.8548	43.1908	5.33593	2.672	1.54366	
6155	1573229632.478708314	-1.13977	-2.01022	-1.62247	-1.47072	0.700951	0.832661	0.035844	0.0356778	0.0394872	0.0353199	0.0371032	0.0371415	18.7872	84.0081	43.1159	5.40739	2.82045	1.3893	
6156	1573229632.486669977	-1.13949	-2.0099	-1.62213	-1.47043	0.701287	0.832961	0.0364576	0.0356395	0.0392316	0.0360486	0.0371799	0.0363745	19.4679	83.7046	43.0161	5.45503	3.16682	1.69803	
6157	1573229632.494689530	-1.13921	-2.00966	-1.62183	-1.47015	0.701538	0.833248	0.0367644	0.0354605	0.0402286	0.037084	0.0362786	0.0367772	17.8342	82.1871	42.7167	5.47886	3.46371	1.87812	
