terrinbabu/Matlab/log_filtering/UR10_35_KF/mjt_KF2_0kg_lift_drop.txt
seq	time	q0	q1	q2	q3	q4	q5	Dq0	Dq1	Dq2	Dq3	Dq4	Dq5	eff0	eff1	eff2	eff3	eff4	eff5	
38	1580406960.814757007	0.00248949	-0.928832	2.13524	-2.77703	-1.56959	-2.62321	4.63487e-05	-4.10169e-05	-7.35806e-05	-4.27102e-05	-4.19556e-06	-2.80288e-05	16.9408	-56.5871	-14.1699	0.251908	1.43435	-1.09278	
39	1580406960.822703702	0.00248972	-0.928828	2.13524	-2.77703	-1.56958	-2.62321	4.56622e-05	-1.72276e-05	-7.55889e-05	-2.40468e-05	1.55224e-05	-2.75559e-05	16.931	-56.5852	-14.1712	0.253898	1.43195	-1.08998	
40	1580406960.830737855	0.00248863	-0.928829	2.13524	-2.77703	-1.56959	-2.62321	3.6251e-05	-2.18066e-05	-7.70267e-05	-1.59732e-05	-9.72434e-06	-9.93394e-06	16.938	-56.5892	-14.1688	0.263167	1.43261	-1.09098	
41	1580406960.838774301	0.00249017	-0.928831	2.13524	-2.77703	-1.56958	-2.62321	4.45329e-05	-3.41611e-05	-4.42185e-05	-3.41199e-05	1.4669e-06	-1.09842e-05	16.9493	-56.5903	-14.1677	0.262032	1.43094	-1.09014	
42	1580406960.846778003	0.00248905	-0.928833	2.13524	-2.77703	-1.56958	-2.62322	3.51713e-05	-4.50099e-05	-5.62525e-05	-4.18242e-05	1.14317e-05	-2.83884e-05	16.9354	-56.5885	-14.1684	0.258784	1.43271	-1.087	
43	1580406960.854685056	0.00248675	-0.928833	2.13524	-2.77703	-1.56958	-2.62321	1.85784e-05	-4.64525e-05	-4.25649e-05	-2.39882e-05	4.18971e-06	-3.29992e-06	16.9266	-56.58	-14.1674	0.257268	1.43167	-1.08571	
44	1580406960.862700048	0.00248707	-0.928834	2.13524	-2.77703	-1.56958	-2.62321	1.95943e-05	-4.75798e-05	-2.19654e-05	-2.41004e-05	2.97266e-05	1.11841e-05	16.9286	-56.5838	-14.168	0.257372	1.43066	-1.08672	
45	1580406960.870753984	0.00248859	-0.928829	2.13525	-2.77703	-1.56958	-2.62321	2.82152e-05	-1.72918e-05	4.30083e-06	-1.59716e-05	2.87867e-05	1.63158e-05	16.9218	-56.5861	-14.1676	0.256964	1.43128	-1.08658	
46	1580406960.878729783	0.00248758	-0.928831	2.13525	-2.77703	-1.56958	-2.62321	2.03794e-05	-2.84635e-05	4.49124e-06	-8.59925e-06	3.55286e-05	1.32045e-05	16.9252	-56.601	-14.1672	0.256077	1.43032	-1.08432	
47	1580406960.886754232	0.00248302	-0.928831	2.13525	-2.77703	-1.56958	-2.62321	-9.52291e-06	-3.08457e-05	-1.04553e-05	-9.77355e-06	2.63673e-05	-4.86249e-06	16.9396	-56.6066	-14.1657	0.255226	1.42941	-1.08581	
48	1580406960.894684120	0.00247993	-0.928834	2.13525	-2.77702	-1.56958	-2.62321	-2.88887e-05	-4.77735e-05	1.36666e-05	-3.01904e-06	1.80664e-05	1.63098e-05	16.9466	-56.6083	-14.1634	0.253933	1.42853	-1.08519	
49	1580406960.902735307	0.00247822	-0.928837	2.13525	-2.77702	-1.56958	-2.62321	-3.88454e-05	-6.28419e-05	2.79751e-05	1.04404e-05	3.25784e-05	1.32962e-05	16.9506	-56.6064	-14.1631	0.253625	1.4272	-1.08561	
50	1580406960.910753088	0.00248129	-0.928837	2.13525	-2.77702	-1.56958	-2.62321	-1.85599e-05	-6.17117e-05	1.87374e-05	7.77961e-06	3.83144e-05	2.50378e-05	16.9493	-56.6034	-14.1642	0.25287	1.4283	-1.08749	
51	1580406960.918664366	0.00247722	-0.928838	2.13525	-2.77702	-1.56958	-2.62321	-4.33461e-05	-6.7628e-05	2.46319e-05	2.71201e-05	2.90652e-05	2.1253e-05	16.9493	-56.6028	-14.1625	0.252144	1.42796	-1.08833	
52	1580406960.926718513	0.00247685	-0.928837	2.13526	-2.77702	-1.56958	-2.6232	-4.42943e-05	-5.86051e-05	4.42779e-05	3.03923e-05	3.47511e-05	3.89668e-05	16.9581	-56.6045	-14.1627	0.251445	1.4258	-1.08914	
53	1580406960.934761823	0.00247764	-0.928837	2.13526	-2.77702	-1.56958	-2.62321	-3.79851e-05	-5.72169e-05	4.76454e-05	3.32642e-05	5.40335e-05	3.39216e-05	16.9629	-56.5984	-14.1633	0.251638	1.42597	-1.08945	
54	1580406960.942687818	0.00247954	-0.928837	2.13526	-2.77702	-1.56958	-2.62321	-2.52037e-05	-5.57595e-05	6.45991e-05	2.16842e-05	5.03426e-05	2.92394e-05	16.9566	-56.5947	-14.1639	0.24842	1.42436	-1.08837	
55	1580406960.950681434	0.00248133	-0.928836	2.13526	-2.77702	-1.56958	-2.6232	-1.35295e-05	-4.74168e-05	4.53338e-05	2.50457e-05	4.68285e-05	4.53775e-05	16.9565	-56.5964	-14.1662	0.247823	1.42281	-1.08824	
56	1580406960.958712371	0.00248079	-0.928838	2.13525	-2.77702	-1.56958	-2.62321	-1.64674e-05	-5.31823e-05	2.76663e-05	2.8027e-05	1.64713e-05	2.59821e-05	16.9469	-56.5939	-14.1676	0.248068	1.4243	-1.085	
57	1580406960.966727179	0.00248029	-0.92884	2.13526	-2.77702	-1.56958	-2.62321	-1.90906e-05	-6.49225e-05	3.15438e-05	3.06548e-05	8.8729e-06	2.84466e-05	16.9539	-56.5904	-14.166	0.247094	1.42448	-1.08667	
58	1580406960.974728896	0.00247981	-0.928841	2.13526	-2.77702	-1.56958	-2.62321	-2.14206e-05	-6.8768e-05	3.49525e-05	3.29542e-05	2.86602e-05	2.39832e-05	16.9618	-56.5861	-14.167	0.246548	1.42589	-1.08614	
59	1580406960.982758525	0.00247826	-0.92884	2.13525	-2.77702	-1.56958	-2.62321	-3.0061e-05	-5.89363e-05	2.48289e-05	3.49483e-05	2.01399e-05	2.63897e-05	16.9627	-56.5878	-14.1691	0.247583	1.42564	-1.08562	
60	1580406960.990744641	0.00247898	-0.92884	2.13526	-2.77702	-1.56958	-2.62321	-2.48047e-05	-5.6254e-05	3.52174e-05	2.99145e-05	5.82691e-06	1.53993e-05	16.9625	-56.5846	-14.1708	0.247048	1.42459	-1.0843	
61	1580406960.998748599	0.00247859	-0.928842	2.13525	-2.77702	-1.56958	-2.62321	-2.63882e-05	-6.64596e-05	1.21919e-05	3.19109e-05	1.84487e-05	1.82983e-05	16.9655	-56.5825	-14.1692	0.247664	1.42515	-1.08383	
62	1580406961.006766946	0.00247822	-0.928839	2.13525	-2.77702	-1.56958	-2.62321	-2.77516e-05	-5.00972e-05	3.83807e-06	3.36366e-05	1.08302e-05	1.66948e-06	16.978	-56.5814	-14.1696	0.245655	1.4253	-1.08418	
63	1580406961.014743211	0.00247787	-0.928841	2.13525	-2.77702	-1.56958	-2.62321	-2.89103e-05	-6.01935e-05	2.48395e-06	2.85523e-05	1.01442e-05	5.51281e-06	16.9807	-56.5859	-14.1735	0.244441	1.42583	-1.08808	
64	1580406961.022702951	0.00247968	-0.928844	2.13525	-2.77702	-1.56958	-2.62321	-1.7313e-05	-7.54729e-05	-1.12742e-05	2.3815e-05	1.57398e-05	-3.6114e-06	16.9864	-56.582	-14.175	0.243625	1.42522	-1.0868	
65	1580406961.030733128	0.00247928	-0.928844	2.13525	-2.77702	-1.56958	-2.62321	-1.91001e-05	-7.06192e-05	-2.38424e-05	1.94072e-05	1.46214e-05	5.65506e-07	16.993	-56.5837	-14.1783	0.243189	1.42684	-1.08479	
66	1580406961.038730524	0.00247891	-0.928843	2.13525	-2.77702	-1.56958	-2.62321	-2.06776e-05	-6.59355e-05	-2.30049e-05	1.53124e-05	1.96972e-05	-2.02981e-05	16.9893	-56.5835	-14.176	0.241364	1.4255	-1.0851	
67	1580406961.046748466	0.00248066	-0.928843	2.13525	-2.77702	-1.56958	-2.62321	-9.8145e-06	-6.14201e-05	-9.75028e-06	5.42454e-06	1.21115e-05	-2.6917e-06	16.9838	-56.5921	-14.1778	0.240282	1.426	-1.08578	
68	1580406961.054733744	0.00248023	-0.928842	2.13525	-2.77702	-1.56958	-2.62321	-1.19643e-05	-5.10318e-05	-2.19716e-05	2.07421e-05	1.71993e-05	-4.65091e-06	16.9814	-56.5901	-14.1784	0.240253	1.42613	-1.08644	
69	1580406961.062697647	0.00248191	-0.92884	2.13525	-2.77702	-1.56958	-2.62321	-1.85635e-06	-4.13237e-05	-2.93623e-06	2.27575e-05	1.58281e-05	5.54924e-06	16.9742	-56.5873	-14.1766	0.239553	1.42695	-1.08455	
70	1580406961.070752507	0.0024804	-0.928842	2.13525	-2.77702	-1.56958	-2.62321	-1.04901e-05	-5.00919e-05	-9.46138e-06	1.83607e-05	2.04654e-05	-8.98598e-06	16.9739	-56.5862	-14.1772	0.238211	1.42672	-1.08449	
71	1580406961.078734866	0.00248	-0.928842	2.13525	-2.77702	-1.56958	-2.62321	-1.24643e-05	-4.61877e-05	2.48669e-06	2.03976e-05	1.87707e-05	-1.64155e-05	16.9661	-56.5885	-14.1782	0.238537	1.42751	-1.08514	
72	1580406961.086708382	0.00247962	-0.928842	2.13525	-2.77702	-1.56958	-2.62321	-1.42413e-05	-4.82904e-05	1.52384e-06	2.22099e-05	2.88566e-05	-1.13771e-05	16.9677	-56.5908	-14.1801	0.238211	1.42661	-1.08369	
73	1580406961.094780623	0.00247824	-0.928839	2.13525	-2.77702	-1.56958	-2.62321	-2.16681e-05	-2.68428e-05	6.27035e-07	3.54202e-05	2.64393e-05	-1.25096e-05	16.9647	-56.5954	-14.1797	0.238529	1.42672	-1.08468	
74	1580406961.102717642	0.00247997	-0.928841	2.13525	-2.77702	-1.56958	-2.62321	-1.10635e-05	-3.58096e-05	-2.06583e-07	2.4199e-05	2.41364e-05	-1.35111e-05	16.96	-56.5943	-14.1816	0.237271	1.42715	-1.08395	
75	1580406961.110745653	0.0024786	-0.928838	2.13525	-2.77702	-1.56958	-2.62321	-1.85097e-05	-2.10699e-05	1.06848e-05	1.37944e-05	1.62265e-05	-2.02221e-05	16.9599	-56.5956	-14.1801	0.234808	1.42725	-1.08357	
76	1580406961.118715327	0.00247829	-0.92884	2.13525	-2.77702	-1.56958	-2.62321	-1.96077e-05	-3.01143e-05	3.42632e-06	1.57466e-05	1.45673e-05	-9.19985e-06	16.9537	-56.6061	-14.1804	0.234852	1.42703	-1.08353	
77	1580406961.126722114	0.00247801	-0.928839	2.13525	-2.77702	-1.56958	-2.62321	-2.05609e-05	-2.14394e-05	7.98989e-06	1.74988e-05	7.3597e-06	9.90534e-07	16.9484	-56.6049	-14.1822	0.232482	1.42776	-1.08317	
78	1580406961.134747469	0.00247574	-0.928838	2.13525	-2.77702	-1.56958	-2.62321	-3.26272e-05	-1.3359e-05	6.57442e-06	1.90624e-05	6.90672e-07	4.79436e-06	16.9484	-56.6038	-14.1827	0.232851	1.42692	-1.08185	
79	1580406961.142704275	0.00247358	-0.928833	2.13525	-2.77702	-1.56958	-2.62321	-4.36635e-05	1.08192e-05	5.24372e-06	2.04485e-05	-1.10209e-05	-2.92785e-06	16.951	-56.6026	-14.1856	0.233506	1.42733	-1.08374	
80	1580406961.150738658	0.00247351	-0.928834	2.13525	-2.77702	-1.56958	-2.62321	-4.26304e-05	5.5394e-06	3.99462e-06	1.59298e-05	-5.25015e-06	-4.41615e-06	16.951	-56.6074	-14.1864	0.234435	1.42833	-1.08245	
81	1580406961.158786407	0.00247543	-0.928831	2.13525	-2.77702	-1.56958	-2.62321	-3.05357e-05	2.25823e-05	-2.65507e-06	1.74078e-05	-5.3866e-06	-1.6842e-05	16.9567	-56.607	-14.1847	0.233619	1.4296	-1.08366	
82	1580406961.166735277	0.00247333	-0.928832	2.13525	-2.77702	-1.56958	-2.62321	-4.11557e-05	1.65126e-05	-3.35455e-06	2.17752e-06	-1.09405e-05	-1.18354e-05	16.9566	-56.6059	-14.1857	0.233957	1.42878	-1.08271	
83	1580406961.174696223	0.00247035	-0.928833	2.13525	-2.77702	-1.56958	-2.62321	-5.62857e-05	1.08729e-05	-9.40306e-06	4.52555e-06	1.73401e-07	-2.34966e-05	16.9541	-56.6105	-14.1853	0.234288	1.42885	-1.08177	
84	1580406961.182689230	0.00247045	-0.928832	2.13525	-2.77702	-1.56958	-2.62321	-5.39176e-05	1.6384e-05	-2.57154e-05	1.20511e-05	1.60336e-05	-2.3362e-05	16.9533	-56.6107	-14.1851	0.234333	1.42806	-1.08176	
85	1580406961.190745469	0.00247055	-0.928831	2.13525	-2.77702	-1.56958	-2.62322	-5.15723e-05	2.14514e-05	-1.38489e-05	8.09193e-06	1.44405e-05	-3.39463e-05	16.9493	-56.6068	-14.1867	0.234378	1.42757	-1.08086	
86	1580406961.198707406	0.00247066	-0.92883	2.13525	-2.77702	-1.56958	-2.62322	-4.92537e-05	2.60961e-05	1.30685e-05	1.5217e-05	1.82274e-05	-2.23331e-05	16.9447	-56.6043	-14.1865	0.234151	1.42681	-1.08086	
87	1580406961.206722673	0.00247175	-0.928832	2.13525	-2.77702	-1.56958	-2.62322	-4.16702e-05	1.45359e-05	6.13205e-06	2.70359e-05	2.16827e-05	-2.20516e-05	16.9447	-56.6012	-14.1858	0.233929	1.42607	-1.07883	
88	1580406961.214683076	0.00247376	-0.92883	2.13525	-2.77702	-1.56958	-2.62322	-2.92635e-05	2.99757e-05	4.92236e-06	2.74361e-05	3.55015e-05	-2.17261e-05	16.9516	-56.6036	-14.1876	0.233976	1.42589	-1.07971	
89	1580406961.222721795	0.00247473	-0.92883	2.13525	-2.77702	-1.56957	-2.62322	-2.29112e-05	2.8605e-05	-1.41763e-06	2.23195e-05	3.75951e-05	-2.13606e-05	16.9485	-56.6106	-14.1866	0.233761	1.42436	-1.07858	
90	1580406961.230745098	0.00247376	-0.928833	2.13525	-2.77702	-1.56957	-2.62322	-2.73484e-05	1.17583e-05	-7.29368e-06	7.17331e-06	5.51515e-05	-3.14032e-05	16.9515	-56.6095	-14.187	0.23355	1.42421	-1.07721	
91	1580406961.238727427	0.00247569	-0.928834	2.13525	-2.77702	-1.56957	-2.62322	-1.58805e-05	6.39668e-06	2.89688e-06	1.38696e-05	6.61412e-05	-2.51045e-05	16.9588	-56.613	-14.1861	0.232576	1.42485	-1.07641	
92	1580406961.246686151	0.0024747	-0.928832	2.13525	-2.77702	-1.56957	-2.62322	-2.05991e-05	1.67421e-05	1.74454e-05	2.0039e-05	6.0627e-05	-2.42989e-05	16.9602	-56.6126	-14.1867	0.232383	1.4247	-1.07482	
93	1580406961.254789901	0.00247375	-0.928833	2.13525	-2.77702	-1.56957	-2.62322	-2.49126e-05	1.10703e-05	1.54558e-05	2.06274e-05	6.04271e-05	-2.34812e-05	16.9622	-56.6154	-14.186	0.231942	1.4235	-1.07596	
94	1580406961.262755037	0.00247285	-0.928833	2.13525	-2.77702	-1.56957	-2.62322	-2.88407e-05	1.08349e-05	8.51678e-06	2.11152e-05	6.00797e-05	-2.26543e-05	16.9614	-56.6092	-14.1854	0.232008	1.42234	-1.07628	
95	1580406961.270724451	0.00247293	-0.928832	2.13525	-2.77702	-1.56957	-2.62321	-2.73561e-05	1.56163e-05	7.06862e-06	2.15085e-05	5.95962e-05	-6.76133e-06	16.964	-56.6063	-14.1857	0.231826	1.42247	-1.07712	
96	1580406961.278717672	0.0024749	-0.928831	2.13525	-2.77702	-1.56957	-2.62321	-1.58609e-05	2.00245e-05	7.10365e-07	2.18134e-05	4.40136e-05	-6.95008e-06	16.9639	-56.6097	-14.1866	0.231162	1.42209	-1.07715	
97	1580406961.286778829	0.00247585	-0.928827	2.13525	-2.77702	-1.56957	-2.62322	-1.01196e-05	3.89656e-05	9.88581e-06	2.20355e-05	4.92699e-05	-1.71257e-05	16.9658	-56.6075	-14.1877	0.231474	1.42172	-1.07926	
98	1580406961.294668554	0.00247584	-0.928827	2.13525	-2.77702	-1.56957	-2.62321	-9.70886e-06	3.67336e-05	3.37943e-06	2.21804e-05	4.41499e-05	-1.16254e-05	16.9629	-56.6077	-14.1881	0.231303	1.42111	-1.08031	
99	1580406961.302714606	0.00247396	-0.928828	2.13525	-2.77702	-1.56957	-2.62321	-1.91605e-05	3.45725e-05	1.7149e-05	2.22533e-05	3.43614e-05	-6.47543e-06	16.9648	-56.6044	-14.1877	0.231136	1.42051	-1.0798	
100	1580406961.310659775	0.00247495	-0.928829	2.13525	-2.77702	-1.56957	-2.62321	-1.31673e-05	2.76e-05	1.01839e-05	1.23003e-05	3.98087e-05	-1.15239e-05	16.9606	-56.6034	-14.1883	0.231905	1.42114	-1.0793	
101	1580406961.318712611	0.00247314	-0.928827	2.13526	-2.77702	-1.56957	-2.62321	-2.21928e-05	3.5617e-05	2.32924e-05	1.77661e-05	3.01995e-05	-1.12307e-05	16.9572	-56.6073	-14.1896	0.231504	1.42079	-1.07732	
102	1580406961.326650435	0.00247047	-0.928828	2.13526	-2.77702	-1.56957	-2.62321	-3.53802e-05	2.8503e-05	3.54277e-05	1.79714e-05	4.06854e-05	-6.09286e-06	16.9598	-56.6063	-14.1896	0.231111	1.42021	-1.07735	
103	1580406961.334695492	0.00247068	-0.928829	2.13526	-2.77702	-1.56957	-2.62321	-3.30664e-05	2.18151e-05	4.18268e-05	8.31071e-06	3.57285e-05	-1.09931e-05	16.9616	-56.6072	-14.1914	0.232086	1.42036	-1.07713	
104	1580406961.342673012	0.00246997	-0.92883	2.13526	-2.77702	-1.56957	-2.62321	-3.56252e-05	2.03173e-05	4.76777e-05	9.0394e-06	3.57943e-05	-1.08706e-06	16.9615	-56.612	-14.1912	0.231919	1.42073	-1.07571	
105	1580406961.350701383	0.00246659	-0.928832	2.13526	-2.77702	-1.56957	-2.62321	-5.21007e-05	9.36559e-06	4.3306e-05	9.68903e-06	2.14925e-05	3.39341e-06	16.9652	-56.6133	-14.1929	0.231755	1.42109	-1.07551	
106	1580406961.358691732	0.00246788	-0.928829	2.13526	-2.77702	-1.56957	-2.62321	-4.36809e-05	2.27955e-05	4.38543e-05	1.49943e-05	1.28368e-05	2.83586e-06	16.9663	-56.6112	-14.1929	0.230932	1.42191	-1.07556	
107	1580406961.366712871	0.00246822	-0.928826	2.13526	-2.77702	-1.56958	-2.62321	-4.04504e-05	3.99622e-05	4.42536e-05	1.5188e-05	9.43501e-06	2.31691e-06	16.9674	-56.6109	-14.1937	0.229688	1.42452	-1.0749	
108	1580406961.374704901	0.00246946	-0.928827	2.13526	-2.77702	-1.56957	-2.62321	-3.26224e-05	3.24514e-05	3.51471e-05	5.77162e-06	2.51495e-05	1.83484e-06	16.9629	-56.6078	-14.1937	0.229549	1.42462	-1.07495	
109	1580406961.382666806	0.00247157	-0.928825	2.13526	-2.77702	-1.56957	-2.62321	-2.05494e-05	3.93532e-05	3.12268e-05	-3.02759e-06	2.09008e-05	1.0708e-05	16.9609	-56.6085	-14.1948	0.230271	1.42404	-1.07454	
110	1580406961.390729552	0.0024745	-0.928826	2.13526	-2.77702	-1.56957	-2.62321	-4.56765e-06	3.17843e-05	1.35777e-05	2.86444e-06	2.15146e-05	9.68923e-06	16.959	-56.6104	-14.1949	0.230554	1.42436	-1.07367	
111	1580406961.398745870	0.00247553	-0.928826	2.13526	-2.77702	-1.56957	-2.62321	1.08476e-06	3.38788e-05	1.09201e-05	-1.06775e-06	1.74094e-05	1.33375e-05	16.9541	-56.6068	-14.1951	0.2302	1.42402	-1.07237	
112	1580406961.406687903	0.00247741	-0.928825	2.13526	-2.77702	-1.56957	-2.62321	1.09863e-05	3.57526e-05	8.40654e-06	-9.33332e-06	1.81189e-05	1.67162e-05	16.9577	-56.6055	-14.1956	0.23048	1.42411	-1.07221	
113	1580406961.414789473	0.00247744	-0.928827	2.13525	-2.77702	-1.56957	-2.62321	1.1024e-05	2.82747e-05	6.03284e-06	-7.70719e-06	1.41557e-05	1.52653e-05	16.9558	-56.6036	-14.1958	0.230133	1.42421	-1.07385	
114	1580406961.422745335	0.00247746	-0.928831	2.13526	-2.77702	-1.56957	-2.62321	1.10467e-05	7.397e-06	8.34408e-06	-6.17797e-06	1.04112e-05	9.24093e-06	16.9569	-56.608	-14.196	0.231024	1.42366	-1.07568	
115	1580406961.430763984	0.00247748	-0.928832	2.13525	-2.77702	-1.56957	-2.62321	1.10548e-05	1.65042e-06	5.9462e-06	-4.74218e-06	1.59351e-05	3.60009e-06	16.9563	-56.603	-14.1954	0.231492	1.42355	-1.07485	
116	1580406961.438682228	0.00247661	-0.92883	2.13525	-2.77702	-1.56957	-2.62321	6.51778e-06	9.79883e-06	-8.22307e-07	-3.39638e-06	1.65378e-05	2.10455e-05	16.9579	-56.6023	-14.195	0.231146	1.42322	-1.0762	
117	1580406961.447161981	0.00247755	-0.928831	2.13525	-2.77702	-1.56957	-2.62321	1.12974e-05	3.9247e-06	-7.15105e-06	2.34947e-06	8.0775e-06	1.92611e-05	16.959	-56.602	-14.1946	0.230805	1.42311	-1.07689	
118	1580406961.454719705	0.00247579	-0.928831	2.13525	-2.77702	-1.56957	-2.62321	2.27829e-06	2.89088e-06	4.98819e-06	-1.40434e-06	9.07538e-06	1.75546e-05	16.9555	-56.5982	-14.1952	0.230271	1.42342	-1.07799	
119	1580406961.462695452	0.00247587	-0.928831	2.13526	-2.77702	-1.56957	-2.62321	2.79523e-06	1.9151e-06	7.24279e-06	-2.90241e-07	1.44217e-05	1.1389e-05	16.9572	-56.597	-14.1946	0.230533	1.42249	-1.07886	
120	1580406961.470748500	0.00247683	-0.928832	2.13525	-2.77702	-1.56957	-2.62321	7.73238e-06	-3.43096e-06	4.8998e-06	7.46598e-07	1.05217e-05	1.45454e-05	16.9599	-56.5983	-14.1936	0.230206	1.42259	-1.08035	
121	1580406961.478775866	0.00247775	-0.928832	2.13525	-2.77702	-1.56957	-2.62321	1.23409e-05	3.89538e-07	-1.71622e-06	-2.87407e-06	1.12472e-05	1.74671e-05	16.9631	-56.5961	-14.1933	0.230077	1.42189	-1.07994	
122	1580406961.486740599	0.00247863	-0.928832	2.13525	-2.77702	-1.56957	-2.62321	1.66328e-05	-4.29542e-07	-1.22944e-05	-6.25837e-06	7.50123e-06	2.01634e-05	16.9658	-56.5993	-14.1921	0.233024	1.4212	-1.08015	
123	1580406961.494712285	0.00247861	-0.928829	2.13525	-2.77702	-1.56957	-2.62321	1.62277e-05	1.19088e-05	-2.21687e-05	-1.37836e-05	8.33816e-06	3.13809e-05	16.9662	-56.6001	-14.1925	0.232494	1.42032	-1.08077	
124	1580406961.502690539	0.00247684	-0.92883	2.13525	-2.77702	-1.56957	-2.62321	7.07557e-06	6.02223e-06	-1.37903e-05	-7.57365e-06	4.74126e-06	2.87582e-05	16.9628	-56.6003	-14.1924	0.232918	1.41965	-1.08056	
125	1580406961.510820129	0.00247688	-0.928832	2.13525	-2.77702	-1.56957	-2.62321	7.21394e-06	4.98103e-07	-1.47635e-05	-1.49187e-05	1.0017e-05	2.18249e-05	16.9627	-56.5987	-14.1916	0.233709	1.41918	-1.08077	
126	1580406961.518702285	0.00247518	-0.928832	2.13525	-2.77702	-1.56957	-2.62321	-1.33662e-06	-3.62648e-07	-2.4275e-05	-1.29655e-05	6.29504e-06	2.8316e-05	16.9605	-56.5994	-14.1917	0.234675	1.41873	-1.08237	
127	1580406961.526770565	0.00247527	-0.92883	2.13525	-2.77702	-1.56957	-2.62321	-6.93936e-07	7.41997e-06	-3.74271e-05	-1.1113e-05	1.58438e-05	1.70648e-05	16.9635	-56.5964	-14.1917	0.234333	1.41828	-1.08236	
128	1580406961.534713045	0.00247709	-0.928831	2.13525	-2.77702	-1.56957	-2.62321	8.51701e-06	1.85546e-06	-4.11111e-05	-5.08065e-06	1.17357e-05	6.49449e-06	16.965	-56.5957	-14.1902	0.23418	1.41822	-1.08135	
129	1580406961.542702693	0.00247885	-0.928831	2.13524	-2.77702	-1.56957	-2.62321	1.71317e-05	5.15742e-06	-4.87375e-05	-1.2374e-05	7.85262e-06	5.18694e-06	16.969	-56.5965	-14.1891	0.233847	1.41721	-1.08233	
130	1580406961.550711562	0.0024814	-0.92883	2.13524	-2.77702	-1.56957	-2.62321	2.9436e-05	8.23629e-06	-4.72958e-05	-1.05272e-05	1.2673e-05	8.19361e-06	16.9704	-56.5977	-14.1888	0.2337	1.41678	-1.0829	
131	1580406961.558734774	0.00248385	-0.92883	2.13524	-2.77702	-1.56957	-2.62321	4.09071e-05	6.87498e-06	-4.58483e-05	-4.55233e-06	8.70064e-06	1.52181e-05	16.9687	-56.5979	-14.1889	0.234092	1.4158	-1.08346	
132	1580406961.566721036	0.00248449	-0.928832	2.13524	-2.77702	-1.56957	-2.62321	4.31137e-05	-2.83466e-06	-4.43976e-05	-3.15535e-06	9.15797e-06	9.05829e-06	16.9666	-56.6004	-14.1889	0.233945	1.41539	-1.08325	
133	1580406961.574734388	0.00248511	-0.92883	2.13524	-2.77702	-1.56957	-2.62321	4.50964e-05	9.02692e-06	-4.29466e-05	-1.03929e-05	1.81077e-05	3.26611e-06	16.9685	-56.6016	-14.1892	0.2338	1.41499	-1.08266	
134	1580406961.582761004	0.00248314	-0.928828	2.13525	-2.77702	-1.56957	-2.62321	3.42737e-05	1.59483e-05	-2.88056e-05	-8.64037e-06	2.21062e-05	1.04382e-05	16.9683	-56.6054	-14.1891	0.233482	1.41404	-1.08208	
135	1580406961.590764291	0.00248463	-0.928828	2.13525	-2.77702	-1.56957	-2.62321	4.0783e-05	1.40836e-05	-1.96476e-05	-2.82288e-06	1.74809e-05	4.58038e-06	16.9712	-56.6011	-14.1902	0.233516	1.4142	-1.08282	
136	1580406961.598721656	0.00248437	-0.928826	2.13525	-2.77702	-1.56957	-2.62321	3.84763e-05	2.47305e-05	-1.10197e-05	-9.9575e-06	2.13823e-05	-9.22527e-07	16.9745	-56.6031	-14.1914	0.234931	1.41363	-1.08299	
137	1580406961.606773210	0.00248326	-0.928827	2.13525	-2.77702	-1.56957	-2.62321	3.20879e-05	2.22816e-05	-1.13234e-05	-8.21174e-06	1.67333e-05	-1.87312e-06	16.9708	-56.6029	-14.1909	0.235126	1.41414	-1.08241	
138	1580406961.614736496	0.00248303	-0.928827	2.13525	-2.77702	-1.56957	-2.62321	3.01644e-05	1.99353e-05	-1.15846e-05	-6.55911e-06	4.10616e-06	1.34908e-06	16.9663	-56.6044	-14.1904	0.234978	1.41411	-1.08277	
139	1580406961.622672559	0.00248534	-0.928826	2.13525	-2.77702	-1.56957	-2.62321	4.06503e-05	2.17847e-05	-1.18053e-05	-9.25581e-06	4.31279e-07	8.46367e-06	16.9676	-56.6068	-14.1908	0.234832	1.41408	-1.0833	
140	1580406961.630709536	0.00248587	-0.928825	2.13525	-2.77702	-1.56958	-2.62321	4.2205e-05	2.75515e-05	-3.665e-06	6.33592e-07	-1.52673e-05	6.96197e-06	16.968	-56.6095	-14.1906	0.235024	1.41353	-1.08401	
141	1580406961.638709316	0.00248722	-0.928826	2.13525	-2.77702	-1.56958	-2.62321	4.7665e-05	2.07101e-05	-4.30876e-06	1.78299e-06	-1.77858e-05	-2.67252e-06	16.9683	-56.608	-14.1919	0.234879	1.41386	-1.08416	
142	1580406961.646723427	0.00248683	-0.928827	2.13525	-2.77702	-1.56958	-2.62321	4.45519e-05	1.42423e-05	-8.95281e-06	6.90632e-06	-3.22716e-05	8.61665e-06	16.9682	-56.6065	-14.19	0.235068	1.414	-1.08414	
143	1580406961.654742575	0.00248645	-0.928828	2.13525	-2.77702	-1.56958	-2.62321	4.1539e-05	1.21717e-05	-2.13625e-05	1.17008e-05	-2.96771e-05	1.51621e-05	16.9638	-56.6058	-14.1899	0.235254	1.41432	-1.08429	
144	1580406961.662696953	0.0024844	-0.928828	2.13525	-2.77702	-1.56958	-2.62321	3.05435e-05	1.01986e-05	-8.69158e-06	3.95783e-06	-3.52295e-05	1.72567e-05	16.967	-56.6097	-14.1891	0.235437	1.4148	-1.08321	
145	1580406961.670778173	0.00248492	-0.928827	2.13525	-2.77702	-1.56958	-2.62321	3.22341e-05	1.63307e-05	-7.78939e-07	-3.3229e-06	-3.23712e-05	1.10979e-05	16.9678	-56.6099	-14.1897	0.235294	1.41494	-1.08424	
146	1580406961.678746506	0.00248459	-0.928826	2.13525	-2.77702	-1.56958	-2.62321	2.9744e-05	1.80624e-05	2.50551e-06	5.96619e-06	-3.36202e-05	9.3604e-06	16.9668	-56.6105	-14.1894	0.235797	1.41607	-1.08508	
147	1580406961.686735402	0.00248426	-0.928827	2.13525	-2.77702	-1.56958	-2.62321	2.73435e-05	1.56721e-05	1.61086e-06	2.59074e-06	-3.47337e-05	1.16846e-05	16.9621	-56.6131	-14.19	0.235493	1.41637	-1.08609	
148	1580406961.694693346	0.00248476	-0.928825	2.13525	-2.77702	-1.56958	-2.62321	2.90146e-05	2.13149e-05	4.73066e-06	-5.87177e-07	-3.57175e-05	1.78059e-05	16.9561	-56.6144	-14.1902	0.235194	1.41633	-1.08588	
149	1580406961.702759015	0.00248524	-0.928828	2.13525	-2.77702	-1.56958	-2.62321	3.05248e-05	1.07773e-05	3.7059e-06	8.42905e-06	-3.65774e-05	1.56247e-05	16.9552	-56.6125	-14.1897	0.23474	1.41678	-1.08602	
150	1580406961.710753607	0.0024857	-0.92883	2.13525	-2.77702	-1.56958	-2.62321	3.18809e-05	-3.08694e-06	2.73669e-06	9.89558e-07	-3.33845e-05	1.74767e-05	16.9529	-56.615	-14.1903	0.23492	1.41722	-1.08632	
151	1580406961.718716313	0.00248532	-0.928831	2.13525	-2.77702	-1.56958	-2.62321	2.91481e-05	-4.35565e-06	1.8214e-06	-2.08594e-06	-2.64019e-05	1.91815e-05	16.9515	-56.614	-14.1905	0.234474	1.41782	-1.08527	
152	1580406961.726684200	0.00248494	-0.928826	2.13525	-2.77702	-1.56958	-2.62321	2.65184e-05	1.80546e-05	4.86561e-06	-8.88184e-06	-2.76047e-05	1.68374e-05	16.9515	-56.6133	-14.1897	0.233571	1.4181	-1.08441	
153	1580406961.734765396	0.00248292	-0.928825	2.13525	-2.77702	-1.56958	-2.62321	1.61613e-05	1.94608e-05	7.71943e-06	-7.31244e-06	-2.47919e-05	1.84922e-05	16.9519	-56.6126	-14.1899	0.233754	1.41836	-1.08405	
154	1580406961.742724775	0.00248261	-0.928826	2.13526	-2.77702	-1.56958	-2.62321	1.41883e-05	1.686e-05	1.83053e-05	-5.82379e-06	-2.59827e-05	2.00101e-05	16.9532	-56.6147	-14.19	0.234088	1.41879	-1.08436	
155	1580406961.750681281	0.00248312	-0.928826	2.13526	-2.77702	-1.56958	-2.6232	1.61886e-05	1.82438e-05	2.43596e-05	-4.41366e-06	-2.70554e-05	2.52639e-05	16.9523	-56.6129	-14.1902	0.234266	1.41921	-1.08335	
156	1580406961.758694223	0.00248362	-0.928824	2.13526	-2.77702	-1.56958	-2.62321	1.80345e-05	2.33595e-05	1.8291e-05	-3.07985e-06	-3.18695e-05	1.85142e-05	16.954	-56.613	-14.1899	0.23399	1.41884	-1.08349	
157	1580406961.766706692	0.00248491	-0.928824	2.13526	-2.77702	-1.56958	-2.6232	2.35938e-05	2.42808e-05	2.02301e-05	2.02137e-06	-2.08198e-05	2.37272e-05	16.9531	-56.6116	-14.1895	0.233866	1.41831	-1.08331	
158	1580406961.774758584	0.00248452	-0.928822	2.13526	-2.77702	-1.56958	-2.6232	2.10766e-05	3.27534e-05	1.81873e-05	2.98757e-06	-1.81959e-05	2.85837e-05	16.9574	-56.6095	-14.1894	0.233745	1.41904	-1.08362	
159	1580406961.782749414	0.00248333	-0.928821	2.13525	-2.77702	-1.56958	-2.6232	1.48263e-05	3.68424e-05	8.59794e-06	-3.89481e-06	-7.9085e-06	2.928e-05	16.9578	-56.6092	-14.1899	0.233772	1.41898	-1.08392	
160	1580406961.790739308	0.0024838	-0.928822	2.13526	-2.77702	-1.56958	-2.6232	1.65583e-05	3.30078e-05	1.49229e-05	-6.56218e-06	-1.73831e-05	2.21927e-05	16.9569	-56.6112	-14.1904	0.232918	1.41939	-1.08358	
161	1580406961.798844679	0.00248262	-0.928821	2.13525	-2.77702	-1.56958	-2.6232	1.05292e-05	3.31211e-05	1.73963e-06	2.4641e-06	-2.24784e-05	3.07167e-05	16.9501	-56.6106	-14.1901	0.232219	1.41948	-1.08372	
162	1580406961.806734616	0.0024823	-0.928824	2.13525	-2.77702	-1.56958	-2.6232	8.62729e-06	2.18219e-05	4.44095e-06	7.17712e-06	-1.96756e-05	2.73422e-05	16.953	-56.6122	-14.1905	0.231965	1.41927	-1.08323	
163	1580406961.814748736	0.00248279	-0.928825	2.13525	-2.77702	-1.56958	-2.6232	1.06019e-05	1.49025e-05	1.08929e-05	1.4891e-07	-3.20681e-05	2.02671e-05	16.9534	-56.6149	-14.1902	0.232436	1.41997	-1.08337	
164	1580406961.822705624	0.00248326	-0.928826	2.13526	-2.77702	-1.56958	-2.62321	1.24362e-05	8.35192e-06	1.30424e-05	-2.71556e-06	-2.49035e-05	1.73922e-05	16.9526	-56.6143	-14.1901	0.231897	1.41991	-1.08475	
165	1580406961.830810511	0.00248129	-0.928826	2.13525	-2.77702	-1.56958	-2.6232	2.84659e-06	9.64623e-06	1.12985e-05	-5.4091e-06	-2.93387e-05	1.83905e-05	16.9542	-56.6162	-14.1895	0.231507	1.41985	-1.08503	
166	1580406961.838761655	0.0024802	-0.928829	2.13525	-2.77702	-1.56958	-2.62321	-2.44562e-06	-7.96486e-06	2.17163e-06	-1.16682e-05	-1.4656e-05	1.17547e-05	16.9529	-56.6135	-14.1897	0.230838	1.41994	-1.08546	
167	1580406961.846679686	0.00248154	-0.92883	2.13526	-2.77702	-1.56958	-2.62321	3.78598e-06	-9.52026e-06	1.60348e-05	-6.23623e-06	-4.51622e-06	1.75721e-06	16.9525	-56.6125	-14.1898	0.231163	1.41915	-1.08498	
168	1580406961.854735252	0.00248284	-0.928831	2.13526	-2.77702	-1.56958	-2.62321	9.6449e-06	-1.46828e-05	1.40851e-05	-4.8156e-06	-1.36421e-05	3.52784e-06	16.9529	-56.6115	-14.1894	0.230785	1.41852	-1.0851	
169	1580406961.862753336	0.0024841	-0.928831	2.13526	-2.77702	-1.56958	-2.62321	1.51427e-05	-1.58304e-05	1.59174e-05	-3.46865e-06	-1.48221e-05	8.88126e-06	16.9529	-56.6106	-14.1886	0.230549	1.41818	-1.08493	
170	1580406961.870684250	0.00248292	-0.928832	2.13525	-2.77702	-1.56958	-2.62321	9.1768e-06	-1.6889e-05	6.55802e-06	-2.19342e-06	-1.59059e-05	1.02199e-05	16.9521	-56.6093	-14.1877	0.230455	1.41813	-1.08505	
171	1580406961.878682609	0.00248177	-0.928832	2.13525	-2.77702	-1.56958	-2.62321	3.53195e-06	-1.78619e-05	1.39726e-06	-9.87898e-07	-2.42451e-05	1.51318e-05	16.9521	-56.6098	-14.1874	0.231189	1.4178	-1.08592	
172	1580406961.886735654	0.00247829	-0.928829	2.13525	-2.77702	-1.56958	-2.6232	-1.27322e-05	-4.10087e-06	7.66336e-06	-3.65941e-06	-1.35999e-05	1.60667e-05	16.9513	-56.6099	-14.1877	0.231229	1.41847	-1.08648	
173	1580406961.894790915	0.00247967	-0.928829	2.13525	-2.77702	-1.56958	-2.6232	-6.13509e-06	-5.73273e-06	-1.1979e-06	1.2779e-06	-1.46394e-05	2.05656e-05	16.9501	-56.6104	-14.1885	0.230861	1.41814	-1.08644	
174	1580406961.902736534	0.00248181	-0.92883	2.13525	-2.77702	-1.56958	-2.6232	3.75125e-06	-7.26603e-06	1.37022e-06	-1.4968e-06	-1.19505e-05	1.37699e-05	16.9528	-56.6095	-14.1878	0.231444	1.4181	-1.0867	
175	1580406961.910735627	0.00248228	-0.928831	2.13525	-2.77702	-1.56958	-2.62321	5.76365e-06	-1.23337e-05	1.57823e-07	3.29426e-06	-1.98657e-06	7.33185e-06	16.9524	-56.6096	-14.1884	0.232424	1.41763	-1.08667	
176	1580406961.918686959	0.00248274	-0.92883	2.13525	-2.77702	-1.56958	-2.6232	7.64645e-06	-9.85698e-06	-4.60662e-06	4.18717e-06	3.65164e-06	1.57911e-05	16.9516	-56.6115	-14.1889	0.232055	1.41759	-1.08634	
177	1580406961.926796266	0.0024824	-0.928831	2.13525	-2.77702	-1.56958	-2.62321	5.77628e-06	-1.4725e-05	-5.48511e-06	-2.33986e-06	5.35636e-06	9.22974e-06	16.9504	-56.6106	-14.1901	0.232622	1.417	-1.08689	
178	1580406961.934752648	0.00248127	-0.928833	2.13525	-2.77702	-1.56958	-2.62321	3.80149e-07	-2.2893e-05	-6.30548e-06	-8.49289e-06	1.05547e-05	1.02867e-05	16.9501	-56.6117	-14.1896	0.232123	1.41668	-1.08585	
179	1580406961.942685239	0.00248097	-0.928833	2.13525	-2.77702	-1.56958	-2.62321	-1.10926e-06	-1.97995e-05	-7.06962e-06	-1.06953e-05	1.09184e-06	7.67261e-06	16.9489	-56.6105	-14.1902	0.232025	1.41637	-1.08525	
180	1580406961.950706247	0.00248146	-0.928833	2.13525	-2.77702	-1.56958	-2.62321	1.07897e-06	-2.04266e-05	6.67224e-06	-1.27546e-05	-6.8241e-07	5.18731e-06	16.9527	-56.6099	-14.1909	0.232059	1.41607	-1.08466	
181	1580406961.958764272	0.00248193	-0.928835	2.13525	-2.77702	-1.56958	-2.62321	3.13743e-06	-2.81194e-05	5.21611e-06	-1.46753e-05	1.21305e-06	9.96136e-06	16.9508	-56.6084	-14.1913	0.231963	1.41577	-1.08366	
182	1580406961.966699057	0.00248318	-0.928833	2.13525	-2.77702	-1.56958	-2.62321	8.64567e-06	-2.11063e-05	2.74888e-07	-1.64621e-05	3.00125e-06	3.70278e-06	16.9493	-56.6089	-14.1908	0.232126	1.41479	-1.08434	
183	1580406961.974707818	0.00248438	-0.928832	2.13525	-2.77702	-1.56957	-2.62321	1.38249e-05	-1.4453e-05	2.7026e-06	-1.08845e-05	1.19202e-05	8.49458e-06	16.9471	-56.6083	-14.1912	0.232159	1.41464	-1.08487	
184	1580406961.982687655	0.00248476	-0.928832	2.13525	-2.77702	-1.56958	-2.62321	1.513e-05	-1.52231e-05	4.98819e-06	-1.28148e-05	6.03203e-06	2.31729e-06	16.9471	-56.612	-14.1916	0.232448	1.41461	-1.0843	
185	1580406961.990724172	0.00248512	-0.92883	2.13525	-2.77702	-1.56958	-2.62321	1.63311e-05	-5.34621e-06	-3.44381e-06	-7.41997e-06	7.51745e-06	3.6002e-06	16.9471	-56.6112	-14.1913	0.232224	1.41432	-1.08387	
186	1580406961.998744533	0.00248547	-0.92883	2.13525	-2.77702	-1.56958	-2.62321	1.74324e-05	-6.56412e-06	-4.36653e-06	-5.82983e-06	8.90802e-06	1.28331e-06	16.9497	-56.6132	-14.1912	0.232636	1.4143	-1.08303	
187	1580406962.006747697	0.00248503	-0.928831	2.13525	-2.77702	-1.56958	-2.62321	1.49119e-05	-1.12116e-05	-5.23144e-06	-4.31762e-06	6.69979e-06	-4.48874e-06	16.9489	-56.6137	-14.1914	0.232791	1.41363	-1.0841	
188	1580406962.014704106	0.00248537	-0.928831	2.13525	-2.77702	-1.56958	-2.62321	1.60172e-05	-8.58844e-06	-2.36664e-05	-2.88142e-06	4.60394e-06	-2.87225e-06	16.9461	-56.6112	-14.191	0.232569	1.41348	-1.08408	
189	1580406962.022834104	0.00248415	-0.92883	2.13525	-2.77702	-1.56957	-2.62321	1.00164e-05	-6.09798e-06	-1.63447e-05	-1.51932e-06	1.67076e-05	-1.18781e-05	16.9457	-56.6094	-14.1913	0.232599	1.41281	-1.08447	
190	1580406962.030762939	0.00248296	-0.928828	2.13525	-2.77702	-1.56957	-2.62321	4.32663e-06	3.21934e-06	-1.30191e-05	-2.29408e-07	1.40603e-05	-1.3343e-05	16.9419	-56.6083	-14.1923	0.232752	1.41241	-1.08391	
191	1580406962.038691579	0.00248336	-0.928828	2.13525	-2.77702	-1.56957	-2.62321	5.9138e-06	5.07635e-06	-9.85609e-06	4.45886e-06	1.50049e-05	-1.47084e-05	16.9419	-56.6074	-14.1919	0.232657	1.41202	-1.08456	
192	1580406962.046703818	0.00248296	-0.928829	2.13525	-2.77702	-1.56957	-2.62321	3.92079e-06	-9.80064e-08	-3.25397e-06	8.88108e-06	1.58722e-05	-1.25183e-05	16.9395	-56.6073	-14.1922	0.232686	1.4115	-1.08547	
193	1580406962.054727640	0.00248104	-0.928829	2.13525	-2.77702	-1.56957	-2.62321	-4.91019e-06	-1.53821e-06	-5.98999e-07	2.55697e-06	2.01149e-05	-1.04318e-05	16.9371	-56.6068	-14.1918	0.232836	1.41136	-1.08571	
194	1580406962.062728188	0.00248226	-0.928828	2.13525	-2.77702	-1.56957	-2.62321	5.84977e-07	3.98348e-06	-4.97106e-06	1.82647e-08	2.40898e-05	-1.18871e-05	16.9399	-56.6081	-14.192	0.232499	1.41123	-1.08476	
195	1580406962.070745575	0.00247885	-0.92883	2.13525	-2.77702	-1.56957	-2.62321	-1.48185e-05	-4.533e-06	-5.66298e-06	1.18855e-06	1.75106e-05	-9.81439e-06	16.9413	-56.608	-14.1912	0.232407	1.4111	-1.08422	
196	1580406962.078739685	0.00247783	-0.928832	2.13525	-2.77702	-1.56957	-2.62321	-1.91412e-05	-1.25757e-05	-1.31526e-05	-4.68874e-06	1.81078e-05	-9.9745e-07	16.938	-56.6093	-14.1918	0.232316	1.4106	-1.08446	
197	1580406962.086762903	0.00247837	-0.928831	2.13525	-2.77702	-1.56957	-2.62321	-1.63359e-05	-9.91735e-06	-1.67962e-05	-3.27196e-06	1.52278e-05	5.07583e-07	16.9366	-56.6088	-14.1916	0.232346	1.4106	-1.08405	
198	1580406962.094738727	0.00247814	-0.928831	2.13525	-2.77702	-1.56957	-2.62321	-1.70831e-05	-7.38907e-06	-2.02123e-05	-8.87192e-06	1.58838e-05	1.92615e-06	16.937	-56.608	-14.1913	0.232256	1.41047	-1.08417	
199	1580406962.102775451	0.00247791	-0.928829	2.13525	-2.77702	-1.56957	-2.62321	-1.77647e-05	1.80365e-06	-2.00122e-05	-3.82767e-06	1.64766e-05	1.00521e-05	16.9368	-56.6109	-14.1905	0.232522	1.41035	-1.08428	
200	1580406962.110732317	0.00247769	-0.928828	2.13525	-2.77702	-1.56957	-2.6232	-1.83829e-05	3.71721e-06	-1.97893e-05	-2.43836e-06	2.03955e-05	1.43281e-05	16.9355	-56.611	-14.1899	0.232904	1.40986	-1.08426	
201	1580406962.118842553	0.00247749	-0.928826	2.13525	-2.77702	-1.56957	-2.6232	-1.89401e-05	1.22756e-05	-1.95451e-05	5.63633e-06	2.4066e-05	1.49661e-05	16.9362	-56.6105	-14.1902	0.233283	1.40937	-1.08411	
202	1580406962.126762255	0.00247805	-0.928827	2.13525	-2.77702	-1.56957	-2.6232	-1.60512e-05	6.86949e-06	-1.9281e-05	9.89394e-06	3.1e-05	1.21717e-05	16.9353	-56.6109	-14.1903	0.233307	1.40877	-1.08359	
203	1580406962.134697533	0.00247784	-0.928827	2.13525	-2.77702	-1.56957	-2.6232	-1.6674e-05	8.46598e-06	-2.90811e-05	3.68767e-06	2.3927e-05	1.95882e-05	16.9363	-56.6092	-14.1909	0.233447	1.40865	-1.08295	
204	1580406962.142712683	0.00247839	-0.928827	2.13525	-2.77702	-1.56957	-2.6232	-1.38679e-05	6.60844e-06	-1.8053e-05	4.6509e-06	1.38437e-05	9.73823e-06	16.9348	-56.6081	-14.1913	0.23347	1.40854	-1.08331	
205	1580406962.150698290	0.00247818	-0.928827	2.13525	-2.77702	-1.56957	-2.62321	-1.45547e-05	8.18314e-06	-4.24651e-06	2.07721e-06	1.76566e-05	3.74542e-06	16.9368	-56.6097	-14.1919	0.233723	1.40831	-1.08355	
206	1580406962.158704281	0.00247873	-0.928828	2.13525	-2.77702	-1.56957	-2.62321	-1.18296e-05	2.98709e-06	-1.13236e-05	3.10844e-06	1.45615e-05	1.46873e-06	16.9346	-56.6087	-14.1922	0.233287	1.40856	-1.08415	
207	1580406962.166736875	0.00247775	-0.928829	2.13525	-2.77702	-1.56957	-2.62321	-1.59236e-05	-1.93501e-06	-1.13447e-05	4.07936e-06	1.16074e-05	2.63599e-06	16.9353	-56.6079	-14.1915	0.233196	1.40821	-1.08463	
208	1580406962.174727831	0.0024768	-0.928831	2.13525	-2.77702	-1.56957	-2.62321	-1.97729e-05	-9.90918e-06	-1.13446e-05	1.54008e-06	8.79104e-06	7.05145e-06	16.9347	-56.6069	-14.1919	0.233447	1.40787	-1.08473	
209	1580406962.182780494	0.00247739	-0.928832	2.13525	-2.77702	-1.56957	-2.62321	-1.67284e-05	-1.41292e-05	-1.13244e-05	2.57818e-06	6.10941e-06	4.59331e-06	16.9312	-56.6076	-14.1916	0.233357	1.40729	-1.08483	
210	1580406962.190780150	0.00247797	-0.928831	2.13525	-2.77702	-1.56958	-2.62321	-1.38215e-05	-1.14961e-05	-1.24559e-06	3.55667e-06	-6.34808e-06	2.25617e-06	16.9339	-56.608	-14.1926	0.233492	1.40742	-1.08493	
211	1580406962.198779856	0.00247778	-0.928832	2.13525	-2.77702	-1.56958	-2.62321	-1.4361e-05	-1.55752e-05	-1.718e-06	7.77161e-06	-1.65817e-06	-6.61752e-06	16.9311	-56.607	-14.1928	0.23329	1.40767	-1.08491	
212	1580406962.206702804	0.00247685	-0.928833	2.13525	-2.77702	-1.56958	-2.62321	-1.81533e-05	-1.94118e-05	1.12579e-06	8.46235e-06	-7.0779e-06	-1.17228e-05	16.9318	-56.6062	-14.1928	0.233313	1.40733	-1.08537	
213	1580406962.214777811	0.00247745	-0.928834	2.13525	-2.77702	-1.56958	-2.62321	-1.51232e-05	-2.3013e-05	1.05055e-05	9.10268e-06	-8.92055e-06	-1.31958e-05	16.929	-56.6069	-14.1929	0.233225	1.40712	-1.08583	
214	1580406962.222756062	0.00247803	-0.928833	2.13525	-2.77702	-1.56958	-2.62321	-1.2231e-05	-1.65742e-05	9.42755e-06	9.69429e-06	-1.39232e-05	-8.03118e-06	16.9285	-56.6062	-14.1926	0.232035	1.40713	-1.08616	
215	1580406962.230696799	0.00247635	-0.928832	2.13525	-2.77702	-1.56958	-2.62321	-1.93137e-05	-1.37146e-05	-1.39436e-06	6.84571e-06	-1.53765e-05	-9.65688e-06	16.9261	-56.6063	-14.1924	0.232064	1.4076	-1.08625	
216	1580406962.238737056	0.00247548	-0.928832	2.13525	-2.77702	-1.56958	-2.62321	-2.27171e-05	-1.09854e-05	-1.87268e-06	7.52253e-06	-1.34749e-05	-1.11835e-05	16.9243	-56.6064	-14.1932	0.231436	1.4075	-1.08611	
217	1580406962.246732866	0.00247388	-0.928832	2.13525	-2.77702	-1.56958	-2.62321	-2.91682e-05	-1.16306e-05	-5.56822e-06	8.15124e-06	-8.40743e-06	-9.36682e-06	16.9266	-56.6054	-14.1938	0.231467	1.40729	-1.08585	
218	1580406962.254695266	0.00247308	-0.928831	2.13525	-2.77702	-1.56958	-2.62321	-3.19742e-05	-8.98361e-06	-5.81815e-06	5.36445e-06	-3.59674e-06	-1.74169e-05	16.9289	-56.605	-14.194	0.231823	1.40741	-1.08594	
219	1580406962.262675362	0.00247455	-0.928829	2.13525	-2.77702	-1.56958	-2.62321	-2.48341e-05	1.11628e-09	-1.25076e-05	-5.15367e-07	-2.26815e-06	-1.52558e-05	16.928	-56.6051	-14.1944	0.231852	1.40776	-1.08603	
220	1580406962.270716697	0.0024745	-0.92883	2.13525	-2.77702	-1.56958	-2.62321	-2.45141e-05	-1.16125e-06	-1.5598e-05	4.93319e-07	-4.23168e-06	-1.96997e-05	16.9269	-56.6069	-14.1939	0.231666	1.40811	-1.08624	
221	1580406962.278772467	0.00247593	-0.928829	2.13525	-2.77702	-1.56958	-2.62321	-1.77041e-05	9.56442e-07	-1.52824e-05	4.66424e-06	3.47031e-07	-2.70965e-05	16.927	-56.607	-14.1937	0.231481	1.40778	-1.08633	
222	1580406962.286779816	0.00247584	-0.92883	2.13525	-2.77702	-1.56958	-2.62321	-1.76765e-05	-3.45699e-06	-1.49577e-05	5.39852e-06	-1.73563e-06	-2.11619e-05	16.9271	-56.6069	-14.1932	0.231299	1.40669	-1.08608	
223	1580406962.294681711	0.0024765	-0.928829	2.13525	-2.77702	-1.56958	-2.62321	-1.44028e-05	1.97265e-06	-2.42298e-05	2.7555e-06	-5.05472e-07	-2.19112e-05	16.9263	-56.6056	-14.1934	0.231965	1.4067	-1.08662	
224	1580406962.302696914	0.0024764	-0.928828	2.13525	-2.77702	-1.56958	-2.62321	-1.44885e-05	7.11414e-06	-2.01975e-05	6.76307e-06	6.59647e-07	-1.93937e-05	16.927	-56.6066	-14.1935	0.232309	1.40661	-1.08614	
225	1580406962.310706093	0.00247778	-0.928829	2.13525	-2.77702	-1.56957	-2.62321	-8.13794e-06	2.41394e-06	-9.84155e-06	4.04782e-06	8.26293e-06	-1.06051e-05	16.9274	-56.6072	-14.1935	0.232335	1.4063	-1.08544	
226	1580406962.318715456	0.00247765	-0.928829	2.13525	-2.77702	-1.56957	-2.62321	-8.49914e-06	1.13618e-06	-1.28568e-05	1.46803e-06	8.96711e-06	-5.44098e-06	16.9284	-56.607	-14.1931	0.232151	1.40621	-1.08519	
227	1580406962.326710541	0.00247826	-0.928829	2.13525	-2.77702	-1.56957	-2.62321	-5.63739e-06	3.09617e-06	-2.87495e-06	-9.79586e-07	6.44678e-06	-6.88439e-06	16.9267	-56.6056	-14.193	0.23249	1.40623	-1.08506	
228	1580406962.334702428	0.00247959	-0.928829	2.13525	-2.77702	-1.56957	-2.62321	2.67301e-07	1.78376e-06	3.42683e-06	-6.37093e-09	7.2122e-06	-1.46364e-05	16.9271	-56.6073	-14.1929	0.232411	1.40581	-1.08493	
229	1580406962.342704811	0.00248088	-0.928827	2.13525	-2.77702	-1.56957	-2.62321	5.86508e-06	1.00118e-05	2.9541e-06	-2.36898e-06	1.10834e-05	-2.19618e-05	16.9254	-56.6095	-14.1933	0.232643	1.40615	-1.08446	
230	1580406962.350806055	0.00248067	-0.928827	2.13525	-2.77702	-1.56957	-2.62321	4.828e-06	1.14935e-05	2.50373e-06	-1.32815e-06	8.43221e-06	-2.5721e-05	16.9261	-56.6088	-14.1929	0.232461	1.40606	-1.08478	
231	1580406962.358760412	0.00248266	-0.928826	2.13525	-2.77702	-1.56957	-2.62321	1.33213e-05	1.60245e-05	8.48912e-06	-3.60976e-06	1.21927e-05	-2.60381e-05	16.9268	-56.6123	-14.1919	0.232384	1.40629	-1.08399	
232	1580406962.366717557	0.00248313	-0.928827	2.13525	-2.77702	-1.56957	-2.62321	1.50466e-05	7.74688e-06	1.47867e-06	-8.90485e-06	9.46342e-06	-2.62988e-05	16.9269	-56.6126	-14.1926	0.23251	1.40631	-1.08419	
233	1580406962.374747918	0.00248211	-0.928827	2.13525	-2.77702	-1.56957	-2.62321	1.0367e-05	9.27715e-06	4.22229e-06	-7.52638e-06	3.72947e-06	-2.65054e-05	16.9253	-56.6145	-14.1924	0.232332	1.40654	-1.08472	
234	1580406962.382759786	0.00248258	-0.928826	2.13525	-2.77702	-1.56957	-2.62321	1.21948e-05	1.38369e-05	5.727e-07	-3.08484e-06	1.09034e-05	-2.66603e-05	16.9256	-56.6131	-14.1926	0.232155	1.40687	-1.08471	
235	1580406962.390683277	0.00248158	-0.928826	2.13525	-2.77702	-1.56957	-2.62321	7.64448e-06	1.50228e-05	-9.11989e-06	-5.22621e-06	5.09743e-06	-2.67658e-05	16.9289	-56.6121	-14.1928	0.231879	1.40626	-1.08491	
236	1580406962.398708817	0.00248133	-0.928827	2.13525	-2.77702	-1.56957	-2.62321	6.44467e-06	9.90473e-06	-8.96691e-06	-7.24919e-06	5.80132e-06	-1.43235e-05	16.9298	-56.6119	-14.1936	0.231405	1.40617	-1.08489	
237	1580406962.406815115	0.00248036	-0.928827	2.13525	-2.77702	-1.56957	-2.62321	2.17839e-06	8.13797e-06	-2.47636e-06	-9.15694e-06	9.56127e-06	-1.49739e-05	16.9288	-56.6113	-14.1936	0.230935	1.40608	-1.08455	
238	1580406962.414686649	0.00247942	-0.928827	2.13525	-2.77702	-1.56957	-2.62321	-1.87062e-06	9.54541e-06	4.65431e-07	-7.73256e-06	1.00151e-05	-1.55669e-05	16.9272	-56.6101	-14.1934	0.231164	1.4061	-1.08507	
239	1580406962.422733194	0.00247924	-0.928827	2.13525	-2.77702	-1.56957	-2.62322	-2.60181e-06	7.77571e-06	1.67577e-07	-1.57619e-05	7.33907e-06	-2.85243e-05	16.9295	-56.6077	-14.1937	0.231391	1.4055	-1.08451	
240	1580406962.430724508	0.00247979	-0.928829	2.13525	-2.77702	-1.56957	-2.62322	-1.91598e-07	-8.13695e-08	9.25868e-06	-1.08999e-05	7.8706e-06	-2.83781e-05	16.9293	-56.6065	-14.1933	0.231714	1.40542	-1.0846	
241	1580406962.438806278	0.00247959	-0.928827	2.13525	-2.77702	-1.56957	-2.62321	-9.96683e-07	7.8456e-06	1.15955e-05	-9.34718e-06	2.20852e-06	-2.20424e-05	16.9286	-56.6071	-14.1932	0.231545	1.40534	-1.08416	
242	1580406962.446668156	0.00248086	-0.928829	2.13525	-2.77702	-1.56958	-2.62321	4.41378e-06	4.77796e-09	1.07271e-05	-1.10523e-05	-3.16853e-06	-1.29267e-05	16.9295	-56.606	-14.1931	0.231865	1.40566	-1.08425	
243	1580406962.454684860	0.00248063	-0.928829	2.13525	-2.77702	-1.56957	-2.62321	3.38233e-06	-1.30905e-06	6.8254e-06	-1.26531e-05	9.2235e-07	-1.03828e-05	16.9296	-56.6049	-14.1931	0.231891	1.40578	-1.08413	
244	1580406962.462718140	0.00247969	-0.928826	2.13525	-2.77702	-1.56957	-2.62321	-6.73863e-07	9.67259e-06	5.77138e-08	-1.41528e-05	1.74409e-06	-1.10081e-05	16.9316	-56.6055	-14.1932	0.23182	1.4056	-1.08433	
245	1580406962.470818280	0.00247878	-0.928828	2.13525	-2.77702	-1.56957	-2.62321	-4.52135e-06	4.82628e-06	-9.41346e-06	-1.55542e-05	2.51947e-06	-1.15829e-05	16.9328	-56.6058	-14.1929	0.232232	1.40542	-1.08504	
246	1580406962.478725253	0.00247861	-0.928829	2.13525	-2.77702	-1.56957	-2.62321	-5.10513e-06	-2.82506e-06	-1.22982e-05	-1.68604e-05	3.24979e-06	-1.82578e-05	16.9317	-56.6054	-14.1923	0.232256	1.40603	-1.08502	
247	1580406962.486677280	0.00247773	-0.928833	2.13525	-2.77702	-1.56957	-2.62321	-8.70478e-06	-1.62804e-05	-1.19786e-05	-2.11119e-05	6.974e-06	-1.53897e-05	16.9332	-56.607	-14.193	0.232184	1.40595	-1.08521	
248	1580406962.494710065	0.00247904	-0.928833	2.13525	-2.77703	-1.56957	-2.62321	-2.96539e-06	-1.98127e-05	-8.62459e-06	-2.20836e-05	7.46531e-06	-6.5794e-06	16.9349	-56.6069	-14.1928	0.232208	1.40537	-1.08499	
249	1580406962.502796023	0.00247959	-0.928834	2.13525	-2.77702	-1.56957	-2.62321	-5.53609e-07	-2.31371e-05	-1.14768e-05	-1.07507e-05	4.8937e-06	-1.22957e-06	16.9322	-56.6067	-14.1919	0.232517	1.405	-1.08497	
250	1580406962.510701725	0.00247869	-0.928836	2.13525	-2.77702	-1.56957	-2.62321	-4.33246e-06	-2.92782e-05	-1.11467e-05	-9.03228e-06	8.48131e-06	-2.18466e-06	16.9334	-56.6061	-14.192	0.23235	1.40473	-1.08536	
251	1580406962.518747783	0.00247853	-0.928836	2.13525	-2.77702	-1.56957	-2.62321	-4.88401e-06	-2.90399e-05	-4.66927e-06	-7.38636e-06	8.8601e-06	-9.1714e-06	16.934	-56.6069	-14.1917	0.232091	1.40455	-1.08494	
252	1580406962.526738573	0.00247694	-0.928835	2.13525	-2.77702	-1.56957	-2.62321	-1.14448e-05	-2.57645e-05	-1.63775e-06	-1.1945e-05	9.20481e-06	-1.27821e-05	16.9327	-56.6073	-14.1915	0.232115	1.40438	-1.08441	
253	1580406962.534760681	0.00247827	-0.928835	2.13525	-2.77702	-1.56957	-2.62321	-5.59092e-06	-2.56172e-05	-7.75666e-06	-7.1328e-06	6.51621e-06	-1.31287e-05	16.9303	-56.6067	-14.1921	0.232232	1.40469	-1.0843	
254	1580406962.542753896	0.00248028	-0.928835	2.13525	-2.77702	-1.56957	-2.62321	2.9869e-06	-2.24451e-05	-7.56475e-06	-8.66023e-06	3.95181e-06	-1.04416e-05	16.9328	-56.6079	-14.1918	0.232163	1.40491	-1.08478	
255	1580406962.550747317	0.00248009	-0.928834	2.13525	-2.77702	-1.56957	-2.62321	2.11611e-06	-1.93995e-05	-1.33464e-05	-6.98861e-06	4.49731e-06	-1.39086e-05	16.9305	-56.6064	-14.1918	0.231908	1.40493	-1.08507	
256	1580406962.558680885	0.0024799	-0.928836	2.13525	-2.77702	-1.56957	-2.62321	1.28693e-06	-2.54255e-05	-6.76678e-06	-1.14735e-05	7.9892e-06	-1.11538e-05	16.9308	-56.606	-14.1917	0.232025	1.40485	-1.08485	
257	1580406962.566721514	0.00247971	-0.928836	2.13525	-2.77702	-1.56957	-2.62321	4.98391e-07	-2.51578e-05	-9.55458e-06	-9.64267e-06	5.33903e-06	-8.51852e-06	16.932	-56.6068	-14.1908	0.232141	1.40497	-1.08444	
258	1580406962.574704198	0.00248096	-0.928836	2.13525	-2.77702	-1.56957	-2.62321	5.72204e-06	-2.4866e-05	-9.21603e-06	-7.88817e-06	5.78271e-06	-3.03002e-06	16.9339	-56.6067	-14.1909	0.232164	1.40508	-1.08422	
259	1580406962.582712104	0.00248217	-0.928835	2.13525	-2.77702	-1.56957	-2.62321	1.06761e-05	-1.86223e-05	1.33333e-07	-9.29177e-06	2.64492e-07	-3.73892e-06	16.9334	-56.6059	-14.1907	0.232187	1.40539	-1.08391	
260	1580406962.590689519	0.00248263	-0.928836	2.13525	-2.77702	-1.56957	-2.62321	1.23928e-05	-2.44981e-05	-2.93728e-06	-1.06099e-05	-2.0209e-06	-4.40416e-06	16.9347	-56.6043	-14.1908	0.23221	1.40531	-1.08321	
261	1580406962.598699719	0.00248308	-0.928836	2.13525	-2.77702	-1.56958	-2.62321	1.40063e-05	-2.41371e-05	3.12897e-06	-5.82096e-06	-1.60028e-05	3.83182e-06	16.9353	-56.6038	-14.1908	0.231871	1.40514	-1.08272	
262	1580406962.606687612	0.00248138	-0.928834	2.13525	-2.77702	-1.56958	-2.62321	6.63115e-06	-1.49163e-05	5.82447e-06	4.63315e-06	-2.04233e-05	2.81187e-06	16.9336	-56.6039	-14.1911	0.231805	1.40582	-1.08261	
263	1580406962.614706059	0.00248044	-0.928836	2.13525	-2.77702	-1.56958	-2.62321	2.57204e-06	-2.08395e-05	2.49616e-06	5.73631e-06	-1.87127e-05	1.06657e-05	16.9339	-56.6058	-14.1909	0.232009	1.40556	-1.08241	
264	1580406962.622706635	0.00248023	-0.928833	2.13525	-2.77702	-1.56958	-2.62321	1.66326e-06	-8.82131e-06	2.26779e-06	3.72489e-06	-2.29336e-05	1.22438e-05	16.9347	-56.6043	-14.1908	0.232121	1.40511	-1.0823	
265	1580406962.630705429	0.00248074	-0.928832	2.13525	-2.77702	-1.56958	-2.62321	3.74319e-06	-3.24698e-06	2.04936e-06	7.78725e-06	-2.39829e-05	1.94954e-06	16.936	-56.6042	-14.1906	0.232055	1.40531	-1.08278	
266	1580406962.638709731	0.00248123	-0.928829	2.13525	-2.77702	-1.56958	-2.62321	5.71459e-06	7.90556e-06	1.84064e-06	8.71368e-06	-2.78713e-05	-4.90873e-06	16.9379	-56.6045	-14.191	0.231989	1.40561	-1.08277	
267	1580406962.646781802	0.00248029	-0.928831	2.13525	-2.77702	-1.56958	-2.62321	1.71169e-06	-1.93639e-06	-1.27737e-06	1.2502e-05	-2.27716e-05	3.16371e-07	16.9377	-56.6035	-14.1909	0.232632	1.4059	-1.082	
268	1580406962.654678124	0.0024808	-0.928831	2.13525	-2.77702	-1.56958	-2.62321	3.76243e-06	3.67511e-07	-1.32398e-06	1.31728e-05	-2.08065e-05	-3.51378e-06	16.939	-56.6036	-14.1911	0.232741	1.40628	-1.08266	
269	1580406962.662761377	0.00248058	-0.928829	2.13525	-2.77702	-1.56958	-2.62321	2.78336e-06	5.46631e-06	-1.36473e-06	1.0769e-05	-1.60022e-05	4.54174e-06	16.941	-56.6042	-14.1909	0.232761	1.40611	-1.08265	
270	1580406962.670742110	0.00247966	-0.92883	2.13525	-2.77702	-1.56958	-2.62321	-1.06853e-06	1.60063e-06	1.50219e-06	1.14884e-05	-1.72178e-05	3.48792e-06	16.9415	-56.6034	-14.1907	0.232519	1.40604	-1.08274	
271	1580406962.678670490	0.00247877	-0.92883	2.13525	-2.77702	-1.56958	-2.62321	-4.72831e-06	3.71895e-06	7.23932e-06	6.24807e-06	-1.54525e-05	-6.26432e-06	16.9413	-56.6035	-14.1907	0.232888	1.40587	-1.08301	
272	1580406962.686718655	0.00247861	-0.928829	2.13525	-2.77702	-1.56958	-2.62321	-5.294e-06	5.72924e-06	3.89534e-06	7.15666e-06	-1.37528e-05	-9.74163e-06	16.9409	-56.6027	-14.1911	0.232908	1.40589	-1.0831	
273	1580406962.694747682	0.00247704	-0.928831	2.13525	-2.77702	-1.56958	-2.62321	-1.16262e-05	-1.02308e-06	-2.17334e-06	8.01128e-06	-1.50033e-05	-1.00881e-05	16.9409	-56.6026	-14.1913	0.232667	1.4059	-1.0829	
274	1580406962.702722356	0.00247763	-0.928831	2.13525	-2.77702	-1.56958	-2.62321	-8.94307e-06	-1.67883e-06	-5.05811e-06	5.81784e-06	-1.90513e-05	-7.52093e-06	16.9446	-56.602	-14.1913	0.232687	1.4061	-1.08289	
275	1580406962.710724485	0.0024761	-0.928829	2.13525	-2.77702	-1.56958	-2.62322	-1.50498e-05	6.32662e-06	-1.64172e-05	9.58992e-06	-1.71232e-05	-1.94997e-05	16.9444	-56.6028	-14.1909	0.232535	1.4062	-1.08251	
276	1580406962.718728469	0.00247812	-0.92883	2.13525	-2.77702	-1.56958	-2.62322	-6.41052e-06	2.45279e-06	-1.57149e-05	1.02942e-05	-1.81352e-05	-2.51207e-05	16.9442	-56.6031	-14.1908	0.232641	1.40657	-1.08269	
277	1580406962.726739626	0.00247939	-0.928829	2.13525	-2.77702	-1.56958	-2.62322	-1.0657e-06	7.36035e-06	-1.21592e-05	1.38145e-05	-2.19359e-05	-2.75638e-05	16.9439	-56.6024	-14.1904	0.232832	1.4065	-1.08241	
278	1580406962.734732535	0.00247852	-0.928828	2.13525	-2.77702	-1.56958	-2.62322	-4.6037e-06	1.20184e-05	-8.75931e-06	1.71433e-05	-1.9801e-05	-2.4071e-05	16.9439	-56.6016	-14.19	0.232936	1.40616	-1.0824	
279	1580406962.742745160	0.00247907	-0.928827	2.13525	-2.77702	-1.56958	-2.62322	-2.22358e-06	1.35792e-05	-1.40735e-05	2.02856e-05	-2.05961e-05	-2.3567e-05	16.944	-56.6019	-14.1901	0.232616	1.40608	-1.08212	
280	1580406962.750676023	0.00248031	-0.928829	2.13524	-2.77701	-1.56958	-2.62322	2.90737e-06	6.50042e-06	-1.91063e-05	2.03977e-05	-2.13228e-05	-2.30522e-05	16.944	-56.6003	-14.1896	0.232383	1.40592	-1.08129	
281	1580406962.758786842	0.00248081	-0.928831	2.13524	-2.77701	-1.56958	-2.62322	4.92546e-06	-3.08341e-06	-2.10212e-05	2.04761e-05	-2.19834e-05	-2.25276e-05	16.9442	-56.6	-14.1895	0.232487	1.40576	-1.08129	
282	1580406962.766746253	0.0024813	-0.928831	2.13524	-2.77702	-1.56958	-2.62322	6.83869e-06	-3.67907e-06	-2.84881e-05	1.75706e-05	-2.258e-05	-2.48895e-05	16.9435	-56.5999	-14.1898	0.232172	1.40587	-1.08156	
283	1580406962.774756588	0.00248178	-0.928832	2.13524	-2.77702	-1.56958	-2.62322	8.6496e-06	-7.0725e-06	-3.55492e-05	1.77288e-05	-1.74489e-05	-2.70986e-05	16.9431	-56.5998	-14.1899	0.232527	1.40588	-1.0811	
284	1580406962.782681681	0.00248155	-0.928831	2.13524	-2.77702	-1.56958	-2.62322	7.51779e-06	-1.80569e-06	-3.3731e-05	1.20855e-05	-1.25423e-05	-2.91593e-05	16.9431	-56.5986	-14.1896	0.232547	1.40581	-1.07975	
285	1580406962.790796976	0.00248062	-0.92883	2.13524	-2.77702	-1.56958	-2.62322	3.59318e-06	3.20843e-06	-3.19524e-05	9.52272e-06	-1.63244e-05	-2.5374e-05	16.9422	-56.5981	-14.1898	0.232401	1.40574	-1.08003	
286	1580406962.798720581	0.00248181	-0.92883	2.13524	-2.77702	-1.56958	-2.62322	8.35316e-06	2.33984e-06	-3.02137e-05	1.00016e-05	-8.51437e-06	-2.74262e-05	16.9429	-56.5989	-14.1896	0.232669	1.40558	-1.07976	
287	1580406962.806731403	0.00248087	-0.928829	2.13524	-2.77702	-1.56958	-2.62322	4.38746e-06	7.13705e-06	-2.85151e-05	1.04428e-05	-3.99562e-06	-2.64684e-05	16.9425	-56.5986	-14.1894	0.232689	1.40534	-1.07967	
288	1580406962.814682661	0.00248205	-0.928828	2.13524	-2.77702	-1.56958	-2.62322	9.07654e-06	1.16929e-05	-2.11289e-05	1.36556e-05	6.0391e-06	-2.8381e-05	16.9418	-56.5997	-14.1892	0.2332	1.40553	-1.08047	
289	1580406962.822684573	0.00248319	-0.928828	2.13524	-2.77702	-1.56957	-2.62322	1.35261e-05	1.04072e-05	-1.69836e-05	1.09755e-05	9.86317e-06	-3.0158e-05	16.9409	-56.6015	-14.1891	0.233218	1.40555	-1.08065	
290	1580406962.830698094	0.00248499	-0.928828	2.13524	-2.77702	-1.56957	-2.62322	2.05546e-05	9.17061e-06	-1.58104e-05	1.41171e-05	1.06925e-05	-2.89499e-05	16.9416	-56.6012	-14.1889	0.232827	1.40556	-1.08039	
291	1580406962.838742508	0.00248535	-0.928828	2.13524	-2.77702	-1.56957	-2.62322	2.15995e-05	1.07752e-05	-1.1876e-05	1.42937e-05	8.67572e-06	-2.77565e-05	16.9433	-56.6011	-14.1886	0.232845	1.40558	-1.08074	
292	1580406962.838742508	0.0024857	-0.928827	2.13525	-2.77702	-1.56957	-2.62322	2.25644e-05	1.22884e-05	-8.11213e-06	1.44414e-05	6.74617e-06	-2.65785e-05	16.9449	-56.601	-14.1884	0.232863	1.40559	-1.08109	
293	1580406962.854735290	0.00248535	-0.928826	2.13525	-2.77702	-1.56958	-2.62322	2.06539e-05	1.64958e-05	-7.2986e-06	1.45613e-05	4.90203e-06	-2.82557e-05	16.9449	-56.6017	-14.1884	0.232639	1.40544	-1.08065	
294	1580406962.862687909	0.00248638	-0.928825	2.13525	-2.77702	-1.56958	-2.62322	2.43933e-05	2.04787e-05	4.71383e-06	1.46546e-05	3.14154e-06	-1.86399e-05	16.9463	-56.6023	-14.1885	0.232658	1.40512	-1.08039	
295	1580406962.870751092	0.00248532	-0.928825	2.13525	-2.77701	-1.56958	-2.62322	1.95541e-05	2.1469e-05	-6.07555e-07	1.7496e-05	4.23648e-06	-2.0607e-05	16.9472	-56.6026	-14.1882	0.232516	1.40506	-1.0803	
296	1580406962.878741197	0.00248428	-0.928825	2.13525	-2.77702	-1.56957	-2.62322	1.49206e-05	1.96142e-05	-5.66866e-06	1.45274e-05	8.04308e-06	-1.96226e-05	16.9477	-56.6035	-14.1878	0.232296	1.40491	-1.08022	
297	1580406962.886781797	0.00248464	-0.928824	2.13524	-2.77702	-1.56957	-2.62322	1.60461e-05	2.33503e-05	-1.32395e-05	1.45551e-05	8.89309e-06	-1.86541e-05	16.947	-56.6017	-14.188	0.232077	1.40476	-1.07979	
298	1580406962.894738787	0.0024843	-0.928825	2.13524	-2.77702	-1.56957	-2.62322	1.43211e-05	2.13571e-05	-1.21479e-05	1.16908e-05	9.69148e-06	-1.49427e-05	16.9448	-56.6031	-14.1879	0.232415	1.40437	-1.08005	
299	1580406962.902688717	0.00248465	-0.928824	2.13525	-2.77702	-1.56957	-2.62322	1.54276e-05	2.21853e-05	-5.46964e-06	8.94662e-06	1.60589e-05	-1.41387e-05	16.9452	-56.604	-14.1875	0.232513	1.40406	-1.08005	
300	1580406962.910706398	0.00248568	-0.928823	2.13525	-2.77702	-1.56957	-2.62322	1.92238e-05	2.56937e-05	-1.96043e-06	9.18014e-06	1.64911e-05	-7.84944e-06	16.9459	-56.6029	-14.1874	0.232374	1.40334	-1.08014	
301	1580406962.918732982	0.00248668	-0.928824	2.13524	-2.77702	-1.56957	-2.62322	2.28113e-05	2.07637e-05	-9.59397e-06	9.38854e-06	1.68813e-05	-1.28813e-05	16.9471	-56.6028	-14.1878	0.232393	1.40304	-1.07997	
302	1580406962.926686428	0.00248833	-0.928825	2.13525	-2.77702	-1.56957	-2.62322	2.89504e-05	1.60411e-05	7.92836e-06	6.72254e-06	1.17499e-05	-1.21143e-05	16.948	-56.6025	-14.1875	0.232569	1.40233	-1.07997	
303	1580406962.934721747	0.00248857	-0.928827	2.13525	-2.77702	-1.56957	-2.62322	2.92553e-05	8.78598e-06	1.63988e-05	9.75448e-06	6.8486e-06	-1.68892e-05	16.9482	-56.6012	-14.1873	0.232275	1.40211	-1.08006	
304	1580406962.942698947	0.00248879	-0.928826	2.13525	-2.77702	-1.56957	-2.62322	2.9505e-05	1.27899e-05	1.88745e-05	4.32372e-06	4.90387e-06	-1.316e-05	16.9489	-56.6015	-14.1872	0.232139	1.40238	-1.08031	
305	1580406962.950683479	0.00248695	-0.928827	2.13525	-2.77702	-1.56958	-2.62322	2.14781e-05	8.40466e-06	1.57568e-05	7.43364e-06	3.18986e-07	-1.23128e-05	16.9486	-56.6031	-14.1871	0.232547	1.40224	-1.0804	
306	1580406962.958723154	0.00248721	-0.928827	2.13525	-2.77702	-1.56958	-2.62322	2.20128e-05	9.66057e-06	1.54919e-05	2.10825e-06	-1.32539e-06	-1.4261e-05	16.948	-56.6034	-14.1869	0.232643	1.40211	-1.08048	
307	1580406962.966704689	0.00248677	-0.928827	2.13525	-2.77702	-1.56958	-2.62322	1.97586e-05	8.1252e-06	2.0766e-05	2.57566e-06	-1.71718e-07	-5.16732e-06	16.9486	-56.6037	-14.1867	0.233431	1.40222	-1.07998	
308	1580406962.974719463	0.00248635	-0.928827	2.13525	-2.77702	-1.56958	-2.62321	1.75832e-05	9.36415e-06	1.48034e-05	-7.94566e-06	-1.78546e-06	7.93017e-07	16.9506	-56.6025	-14.1869	0.23483	1.4024	-1.07973	
309	1580406962.982690390	0.00248593	-0.928828	2.13525	-2.77702	-1.56958	-2.62322	1.54854e-05	5.11338e-06	1.45242e-05	-7.01565e-06	-3.31987e-06	-4.41446e-06	16.9506	-56.6033	-14.1867	0.234611	1.40243	-1.0799	
310	1580406962.990768391	0.00248687	-0.928827	2.13525	-2.77702	-1.56958	-2.62322	1.89014e-05	6.46478e-06	8.83304e-06	-6.12228e-06	-7.481e-06	-1.19724e-06	16.9491	-56.6044	-14.1874	0.234775	1.40221	-1.0799	
311	1580406962.998732371	0.0024878	-0.928826	2.13525	-2.77702	-1.56958	-2.62321	2.21281e-05	1.04422e-05	-1.9975e-06	-8.07267e-06	-6.03514e-06	4.57397e-06	16.9504	-56.6049	-14.1873	0.235091	1.40224	-1.07991	
312	1580406963.006702939	0.00248733	-0.928827	2.13525	-2.77702	-1.56958	-2.62321	1.9751e-05	8.82569e-06	-4.2245e-06	-7.11856e-06	-4.64938e-06	1.93092e-06	16.9515	-56.6059	-14.1874	0.234873	1.40234	-1.07974	
313	1580406963.014763365	0.00248755	-0.928826	2.13525	-2.77702	-1.56958	-2.62321	2.01629e-05	9.96374e-06	-9.0296e-06	-6.20177e-06	-3.3226e-06	2.16003e-06	16.9504	-56.605	-14.1879	0.235111	1.40229	-1.07893	
314	1580406963.022748880	0.00248708	-0.928826	2.13525	-2.77702	-1.56958	-2.62321	1.78252e-05	1.10337e-05	-8.22061e-06	5.15718e-08	-7.42688e-06	5.06688e-06	16.9495	-56.6049	-14.1878	0.23512	1.40239	-1.07934	
315	1580406963.030753791	0.00248798	-0.928825	2.13524	-2.77702	-1.56958	-2.62321	2.09646e-05	1.47196e-05	-1.54838e-05	-2.14576e-06	-4.90926e-07	5.15238e-06	16.9506	-56.605	-14.1877	0.23513	1.40234	-1.07935	
316	1580406963.038735495	0.00248818	-0.928826	2.13524	-2.77702	-1.56958	-2.62321	2.12335e-05	1.01773e-05	-1.43484e-05	-1.45299e-06	6.56201e-07	5.23172e-06	16.9512	-56.6063	-14.1873	0.23514	1.40283	-1.07919	
317	1580406963.046711937	0.00248836	-0.928826	2.13524	-2.77702	-1.56958	-2.62321	2.14589e-05	1.11814e-05	-1.05721e-05	-7.92306e-07	1.74899e-06	5.30502e-06	16.9516	-56.6071	-14.187	0.235075	1.40239	-1.07919	
318	1580406963.054764360	0.00248921	-0.928825	2.13524	-2.77702	-1.56957	-2.62321	2.43261e-05	1.21223e-05	-9.62689e-06	-1.62978e-07	5.45795e-06	5.37236e-06	16.951	-56.6079	-14.1868	0.23501	1.40211	-1.07944	
319	1580406963.062694954	0.00248869	-0.928824	2.13525	-2.77702	-1.56958	-2.62321	2.16652e-05	1.56666e-05	-8.71136e-06	5.76582e-06	3.65586e-06	2.7155e-06	16.9506	-56.6095	-14.1866	0.235169	1.40198	-1.0792	
320	1580406963.070722078	0.00248817	-0.928827	2.13525	-2.77702	-1.56958	-2.62321	1.90978e-05	5.71845e-06	-2.3972e-06	6.08581e-06	-7.26651e-07	2.89812e-06	16.9516	-56.6085	-14.1865	0.235178	1.40169	-1.07881	
321	1580406963.078785544	0.00248901	-0.928829	2.13525	-2.77702	-1.56958	-2.62321	2.1964e-05	-1.11543e-06	-4.44993e-06	6.38165e-06	4.11048e-07	8.38569e-06	16.9501	-56.6076	-14.1866	0.235482	1.40203	-1.07881	
322	1580406963.086752831	0.00248714	-0.928827	2.13525	-2.77702	-1.56958	-2.62321	1.3998e-05	5.63262e-06	-6.39836e-06	3.89564e-06	1.49532e-06	1.36092e-05	16.9508	-56.6077	-14.1865	0.235491	1.40221	-1.0789	
323	1580406963.094725428	0.0024853	-0.928827	2.13525	-2.77702	-1.56958	-2.62321	6.38338e-06	4.11104e-06	-5.5968e-06	1.51975e-06	2.52731e-06	1.59262e-05	16.9529	-56.6076	-14.1858	0.235499	1.40238	-1.07882	
324	1580406963.102689651	0.00248419	-0.928828	2.13524	-2.77702	-1.56958	-2.62321	1.77116e-06	2.65363e-06	-1.01113e-05	2.00154e-06	8.6416e-07	2.61031e-05	16.9531	-56.6077	-14.1861	0.235288	1.40256	-1.07922	
325	1580406963.110835103	0.00248378	-0.928827	2.13524	-2.77702	-1.56958	-2.62321	2.2399e-08	3.89906e-06	-9.11966e-06	5.0968e-06	-6.00169e-06	2.51619e-05	16.9543	-56.6098	-14.1857	0.23537	1.40258	-1.07962	
326	1580406963.118724738	0.00248405	-0.928826	2.13525	-2.77702	-1.56958	-2.62321	1.00124e-06	1.03511e-05	-1.47672e-07	2.66275e-06	-4.63158e-06	1.89117e-05	16.9555	-56.6098	-14.186	0.235306	1.40313	-1.07939	
327	1580406963.126775637	0.00248297	-0.928826	2.13525	-2.77702	-1.56958	-2.62321	-3.36172e-06	8.59212e-06	4.08065e-07	-4.9257e-06	-6.87443e-07	1.29321e-05	16.9574	-56.6094	-14.1863	0.235098	1.403	-1.07916	
328	1580406963.134744028	0.00248393	-0.928828	2.13525	-2.77702	-1.56958	-2.62321	4.03819e-07	1.64734e-06	9.39723e-07	-6.90034e-06	-2.18094e-06	1.77804e-05	16.9575	-56.6091	-14.1863	0.235179	1.40325	-1.07885	
329	1580406963.142705308	0.00248285	-0.928829	2.13525	-2.77702	-1.56958	-2.62321	-3.92226e-06	-2.35443e-06	9.42308e-06	-6.04707e-06	1.64527e-06	1.44602e-05	16.9561	-56.6088	-14.1863	0.235045	1.40335	-1.07885	
330	1580406963.150788916	0.00248381	-0.928828	2.13525	-2.77702	-1.56958	-2.62321	-1.45605e-07	-9.29955e-07	1.21584e-05	-2.60759e-06	5.29533e-08	1.91894e-05	16.9554	-56.6092	-14.1866	0.234839	1.40337	-1.07847	
331	1580406963.158756924	0.00248207	-0.928827	2.13525	-2.77702	-1.56958	-2.62321	-7.06483e-06	3.04309e-06	1.21378e-05	-1.94124e-06	-1.46498e-06	1.31631e-05	16.9556	-56.6084	-14.1865	0.235135	1.40368	-1.07832	
332	1580406963.166697293	0.00248305	-0.928828	2.13525	-2.77702	-1.56958	-2.62321	-3.15616e-06	1.60327e-06	1.47163e-05	-4.0203e-06	-2.98754e-07	4.79089e-06	16.9548	-56.6079	-14.1868	0.23493	1.4037	-1.07848	
333	1580406963.174780186	0.00248267	-0.928827	2.13525	-2.77702	-1.56958	-2.62321	-4.67056e-06	2.83389e-06	1.71584e-05	-8.60625e-06	3.42152e-06	7.28505e-06	16.954	-56.6081	-14.1861	0.234798	1.4038	-1.07795	
334	1580406963.182737308	0.00248229	-0.928826	2.13525	-2.77702	-1.56957	-2.62321	-6.11204e-06	6.60555e-06	9.05387e-06	-7.65881e-06	6.96541e-06	9.65652e-06	16.9548	-56.6075	-14.1863	0.234879	1.40389	-1.07735	
335	1580406963.190708057	0.00248126	-0.928825	2.13525	-2.77702	-1.56957	-2.62321	-1.00954e-05	1.27919e-05	9.11331e-06	-1.46488e-05	5.13787e-06	1.71069e-05	16.9539	-56.6079	-14.1866	0.234889	1.40384	-1.07759	
336	1580406963.198709702	0.00248093	-0.928824	2.13525	-2.77702	-1.56957	-2.62321	-1.12755e-05	1.34831e-05	3.96912e-06	-1.61068e-05	1.12791e-05	2.15974e-05	16.9531	-56.6082	-14.1865	0.234687	1.40356	-1.07721	
337	1580406963.206699625	0.0024806	-0.928824	2.13525	-2.77702	-1.56957	-2.62321	-1.23897e-05	1.67153e-05	1.65088e-06	-1.74779e-05	6.65251e-06	1.80285e-05	16.9529	-56.609	-14.1864	0.234627	1.40358	-1.07715	
338	1580406963.214729351	0.00248029	-0.928825	2.13525	-2.77702	-1.56957	-2.62321	-1.34397e-05	1.20122e-05	-5.60877e-07	-2.13521e-05	4.81919e-06	1.46034e-05	16.9529	-56.6083	-14.1863	0.234568	1.40346	-1.07708	
339	1580406963.222734348	0.00248131	-0.928824	2.13525	-2.77702	-1.56957	-2.62321	-9.23216e-06	1.26768e-05	5.18626e-06	-2.24374e-05	5.6484e-06	2.17065e-05	16.9529	-56.6073	-14.1868	0.234579	1.40348	-1.07702	
340	1580406963.230691036	0.00248098	-0.928825	2.13525	-2.77702	-1.56957	-2.62321	-1.03968e-05	8.13316e-06	7.98019e-06	-2.0762e-05	6.43245e-06	2.84562e-05	16.9549	-56.606	-14.1866	0.234937	1.40357	-1.07725	
341	1580406963.238761108	0.00248	-0.928827	2.13525	-2.77702	-1.56957	-2.62321	-1.4087e-05	1.21057e-06	3.32565e-07	-1.65619e-05	7.17243e-06	2.71325e-05	16.9553	-56.6054	-14.1867	0.234878	1.40351	-1.07726	
342	1580406963.246702376	0.0024797	-0.928828	2.13525	-2.77702	-1.56958	-2.62321	-1.50062e-05	-2.8247e-06	-1.81772e-06	-1.51068e-05	2.72502e-06	2.58369e-05	16.954	-56.6054	-14.1864	0.234679	1.40332	-1.07765	
343	1580406963.254698265	0.00247875	-0.928829	2.13525	-2.77702	-1.56957	-2.62321	-1.84487e-05	-4.1045e-06	6.51074e-06	-1.11315e-05	8.8551e-06	2.45695e-05	16.9536	-56.6055	-14.186	0.234621	1.4032	-1.0778	
344	1580406963.262715958	0.0024785	-0.92883	2.13525	-2.77702	-1.56957	-2.62321	-1.91339e-05	-7.88695e-06	4.08869e-06	-9.88943e-06	9.46069e-06	2.58951e-05	16.9554	-56.6049	-14.186	0.234493	1.40307	-1.07796	
345	1580406963.270799076	0.00247825	-0.928828	2.13525	-2.77702	-1.56957	-2.62321	-1.97659e-05	-3.80545e-06	1.21196e-05	-8.69195e-06	7.46586e-06	2.71282e-05	16.9568	-56.605	-14.1856	0.234504	1.40309	-1.07767	
346	1580406963.278683468	0.00247867	-0.928828	2.13525	-2.77702	-1.56957	-2.62321	-1.77755e-05	-2.46534e-06	6.88081e-06	-7.53838e-06	8.11019e-06	2.57143e-05	16.9583	-56.6043	-14.1856	0.234446	1.40311	-1.07783	
347	1580406963.286774812	0.00247842	-0.928827	2.13525	-2.77702	-1.56957	-2.62321	-1.84228e-05	1.36792e-06	6.9812e-06	-9.08348e-06	8.71478e-06	2.94402e-05	16.9585	-56.6041	-14.1858	0.234389	1.40377	-1.07754	
348	1580406963.294737700	0.00247884	-0.928828	2.13525	-2.77702	-1.56957	-2.6232	-1.64562e-05	-7.69143e-08	4.51981e-06	-1.56454e-05	1.44818e-05	3.04094e-05	16.9579	-56.604	-14.1856	0.234604	1.40379	-1.07755	
349	1580406963.302756894	0.00247991	-0.928827	2.13525	-2.77702	-1.56957	-2.62321	-1.20012e-05	1.08856e-06	1.24516e-05	-1.4148e-05	1.47733e-05	2.87507e-05	16.9592	-56.6029	-14.1856	0.234614	1.40367	-1.07719	
350	1580406963.310699040	0.00248096	-0.928827	2.13525	-2.77702	-1.56957	-2.62321	-7.7363e-06	2.19772e-06	1.48203e-05	-1.27012e-05	9.94861e-06	2.71321e-05	16.9592	-56.6014	-14.1856	0.234827	1.40369	-1.07705	
351	1580406963.318695387	0.00248198	-0.928826	2.13525	-2.77702	-1.56957	-2.6232	-3.65779e-06	5.79027e-06	1.70635e-05	-1.13043e-05	5.3316e-06	3.06302e-05	16.9611	-56.602	-14.1854	0.234837	1.40356	-1.07648	
352	1580406963.318695387	0.00248297	-0.928825	2.13525	-2.77702	-1.56958	-2.6232	2.38036e-07	9.2101e-06	1.9184e-05	-9.95654e-06	9.1821e-07	3.39304e-05	16.9629	-56.6026	-14.1852	0.234847	1.40344	-1.07591	
353	1580406963.334708824	0.00248263	-0.928826	2.13525	-2.77702	-1.56958	-2.6232	-1.13419e-06	4.86764e-06	1.86538e-05	-1.12897e-05	-3.29562e-06	2.93935e-05	16.9637	-56.6025	-14.1855	0.234789	1.40346	-1.07585	
354	1580406963.342763736	0.00248294	-0.928824	2.13525	-2.77702	-1.56958	-2.6232	9.73473e-08	1.33528e-05	1.81253e-05	-1.25476e-05	-4.78649e-06	3.26592e-05	16.9633	-56.6036	-14.1852	0.234598	1.40341	-1.0755	
355	1580406963.350730806	0.0024826	-0.928825	2.13525	-2.77702	-1.56958	-2.6232	-1.26551e-06	8.81428e-06	1.50751e-05	-1.11072e-05	1.46839e-06	3.06873e-05	16.9632	-56.6051	-14.1856	0.234474	1.40364	-1.0753	
356	1580406963.358705217	0.00248423	-0.928825	2.13525	-2.77702	-1.56957	-2.6232	5.03507e-06	6.98991e-06	1.46657e-05	-7.19765e-06	7.43656e-06	3.12863e-05	16.9634	-56.6048	-14.1855	0.234219	1.40338	-1.0751	
357	1580406963.366714390	0.00248385	-0.928825	2.13525	-2.77702	-1.56957	-2.6232	3.4522e-06	7.75477e-06	1.93911e-05	-8.59002e-06	2.95666e-06	3.18183e-05	16.9635	-56.6044	-14.1859	0.234363	1.40333	-1.0754	
358	1580406963.374728024	0.00248283	-0.928824	2.13525	-2.77702	-1.56958	-2.6232	-5.90425e-07	1.34998e-05	1.87517e-05	-4.78103e-06	1.18913e-06	2.72091e-05	16.9635	-56.605	-14.186	0.234836	1.40328	-1.07535	
359	1580406963.382752734	0.00248379	-0.928824	2.13525	-2.77702	-1.56958	-2.6232	3.11861e-06	1.14374e-05	2.57473e-05	-6.25745e-06	-5.51924e-06	2.78432e-05	16.9629	-56.6044	-14.1861	0.234912	1.40337	-1.0755	
360	1580406963.390730329	0.00248473	-0.928823	2.13526	-2.77702	-1.56958	-2.6232	6.65479e-06	1.44646e-05	2.72822e-05	-5.0521e-06	-9.4114e-06	2.59066e-05	16.9623	-56.6041	-14.1864	0.234789	1.40325	-1.07566	
361	1580406963.398727861	0.00248434	-0.928824	2.13526	-2.77702	-1.56958	-2.6232	4.99034e-06	9.82787e-06	2.87141e-05	-1.39172e-06	-8.11145e-06	2.90289e-05	16.9634	-56.604	-14.1865	0.234667	1.40334	-1.0761	
362	1580406963.406757472	0.00248396	-0.928825	2.13526	-2.77702	-1.56958	-2.6232	3.39416e-06	7.88598e-06	2.5048e-05	4.60473e-06	-6.86092e-06	3.44714e-05	16.9633	-56.6051	-14.1864	0.234743	1.40322	-1.07576	
363	1580406963.414777658	0.00248424	-0.928825	2.13525	-2.77702	-1.56958	-2.6232	4.37369e-06	6.0203e-06	2.15167e-05	-2.25145e-06	-5.6829e-07	3.46326e-05	16.9616	-56.6043	-14.1865	0.234622	1.40311	-1.07598	
364	1580406963.422705176	0.00248385	-0.928827	2.13525	-2.77702	-1.56957	-2.6232	2.79752e-06	-7.5433e-07	2.31019e-05	-1.21864e-06	5.44045e-06	3.22501e-05	16.961	-56.6046	-14.1864	0.234696	1.4034	-1.07592	
365	1580406963.430736437	0.00248348	-0.928827	2.13525	-2.77702	-1.56957	-2.6232	1.2881e-06	-2.24738e-06	1.71213e-05	-2.81799e-06	8.58308e-06	3.24218e-05	16.9608	-56.6045	-14.1866	0.234771	1.40288	-1.07601	
366	1580406963.438753306	0.00248377	-0.928829	2.13526	-2.77702	-1.56957	-2.6232	2.34235e-06	-8.64247e-06	2.39133e-05	-6.82583e-06	6.60328e-06	3.25436e-05	16.9608	-56.6047	-14.1865	0.234586	1.40296	-1.07616	
367	1580406963.446718927	0.0024834	-0.928829	2.13526	-2.77702	-1.56957	-2.6232	8.50532e-07	-9.77783e-06	2.28252e-05	-5.58142e-06	4.70437e-06	3.50993e-05	16.9596	-56.6045	-14.1868	0.234338	1.40298	-1.07575	
368	1580406963.454702443	0.00248304	-0.928829	2.13526	-2.77702	-1.56957	-2.6232	-5.76161e-07	-8.37409e-06	2.17574e-05	-4.38532e-06	2.88491e-06	3.2538e-05	16.9596	-56.6046	-14.1866	0.234091	1.40287	-1.07563	
369	1580406963.462739518	0.00248398	-0.928829	2.13525	-2.77702	-1.56957	-2.6232	3.03674e-06	-9.50003e-06	1.57607e-05	-5.81044e-06	8.66663e-06	3.00495e-05	16.959	-56.6043	-14.1863	0.234166	1.40269	-1.07536	
370	1580406963.470730324	0.00248296	-0.92883	2.13525	-2.77702	-1.56957	-2.6232	-9.70773e-07	-1.30371e-05	1.49557e-05	-7.16348e-06	9.13609e-06	2.76331e-05	16.959	-56.6036	-14.1867	0.234241	1.40191	-1.07586	
371	1580406963.478695550	0.00248261	-0.928831	2.13525	-2.77702	-1.56957	-2.6232	-2.31705e-06	-1.39334e-05	9.2315e-06	-5.87943e-06	9.57305e-06	2.27712e-05	16.9577	-56.6038	-14.1866	0.234315	1.40173	-1.07601	
372	1580406963.486724524	0.00248421	-0.928832	2.13525	-2.77702	-1.56957	-2.6232	3.83186e-06	-1.97036e-05	8.68064e-06	-4.64487e-06	9.97843e-06	1.80963e-05	16.9569	-56.604	-14.1865	0.234326	1.40169	-1.07554	
373	1580406963.494751406	0.00248318	-0.928833	2.13525	-2.77702	-1.56957	-2.6232	-1.97652e-07	-2.27318e-05	1.56245e-05	-3.45901e-06	1.03532e-05	1.85772e-05	16.9584	-56.6052	-14.186	0.2344	1.40184	-1.07555	
374	1580406963.502713404	0.00248347	-0.928833	2.13525	-2.77702	-1.56957	-2.6232	8.94498e-07	-2.06828e-05	1.47649e-05	-2.32103e-06	5.78236e-06	1.90103e-05	16.958	-56.6037	-14.1862	0.234346	1.4016	-1.07529	
375	1580406963.510773151	0.00248246	-0.928834	2.13525	-2.77702	-1.56957	-2.6232	-2.9994e-06	-2.60658e-05	1.14699e-05	-3.78282e-06	6.31775e-06	1.69428e-05	16.9578	-56.6035	-14.1863	0.234357	1.40176	-1.07538	
376	1580406963.518719487	0.00248342	-0.928834	2.13525	-2.77702	-1.56957	-2.6232	6.76256e-07	-2.62755e-05	1.0758e-05	-2.6243e-06	1.42727e-05	2.22972e-05	16.9558	-56.6066	-14.1864	0.234241	1.40178	-1.07505	
377	1580406963.526801758	0.00248499	-0.928834	2.13525	-2.77702	-1.56957	-2.6232	6.64682e-06	-2.39977e-05	1.00632e-05	-1.51329e-06	7.06893e-06	2.73816e-05	16.955	-56.6067	-14.1866	0.234314	1.40174	-1.075	
378	1580406963.534748940	0.00248459	-0.928835	2.13525	-2.77702	-1.56957	-2.6232	4.96911e-06	-2.91279e-05	9.38563e-06	-4.48973e-07	7.51164e-06	3.46958e-05	16.955	-56.608	-14.1864	0.234575	1.40228	-1.07528	
379	1580406963.542739171	0.00248291	-0.928837	2.13525	-2.77702	-1.56957	-2.6232	-1.54919e-06	-3.39951e-05	1.11665e-05	3.01089e-06	6.00771e-07	3.42652e-05	16.9557	-56.6073	-14.1864	0.23446	1.4025	-1.07536	
380	1580406963.550696329	0.0024832	-0.928836	2.13525	-2.77702	-1.56958	-2.6232	-4.22803e-07	-3.12913e-05	1.53884e-05	1.3403e-06	-1.1273e-06	3.13707e-05	16.9557	-56.6078	-14.1863	0.234345	1.40271	-1.07565	
381	1580406963.558711467	0.00248478	-0.928835	2.13525	-2.77702	-1.56958	-2.6232	5.54854e-06	-2.62363e-05	1.44348e-05	-7.56086e-06	-3.43062e-07	2.12103e-05	16.9555	-56.608	-14.186	0.234355	1.40254	-1.07579	
382	1580406963.566677149	0.00248503	-0.928834	2.13525	-2.77702	-1.56957	-2.6232	6.35751e-06	-2.13755e-05	1.1073e-05	-1.36878e-06	2.83741e-06	1.63358e-05	16.9548	-56.6075	-14.1858	0.234675	1.40249	-1.07581	
383	1580406963.574741939	0.00248462	-0.928833	2.13525	-2.77702	-1.56957	-2.6232	4.68085e-06	-1.91341e-05	5.41712e-06	-3.06257e-07	5.87219e-06	1.65594e-05	16.9562	-56.6067	-14.1853	0.234808	1.402	-1.07568	
384	1580406963.582741580	0.00248359	-0.928834	2.13526	-2.77702	-1.56957	-2.6232	6.34238e-07	-1.93946e-05	1.70774e-05	3.13566e-06	6.33913e-06	1.67488e-05	16.9558	-56.6065	-14.1852	0.235125	1.40195	-1.0755	
385	1580406963.590732767	0.00248386	-0.928832	2.13525	-2.77702	-1.56957	-2.6232	1.63532e-06	-1.47765e-05	1.11467e-05	8.84406e-06	6.77703e-06	9.59089e-06	16.9558	-56.6069	-14.1853	0.235257	1.40159	-1.07524	
386	1580406963.598731850	0.00248413	-0.928831	2.13526	-2.77702	-1.56957	-2.6232	2.5891e-06	-7.92672e-06	1.76546e-05	9.4522e-06	4.76787e-06	1.48768e-05	16.9574	-56.6071	-14.1852	0.235203	1.40161	-1.07513	
387	1580406963.606737694	0.00248439	-0.928831	2.13526	-2.77702	-1.56958	-2.6232	3.4966e-06	-8.61771e-06	1.65074e-05	2.67982e-06	-1.9899e-06	1.26591e-05	16.9572	-56.6083	-14.1851	0.235272	1.40151	-1.07527	
388	1580406963.614714954	0.00248335	-0.92883	2.13525	-2.77702	-1.56957	-2.62321	-4.91646e-07	-6.85489e-06	1.29769e-05	3.53925e-06	3.71199e-06	5.64686e-06	16.9568	-56.6066	-14.1848	0.23534	1.40191	-1.07522	
389	1580406963.622802237	0.00248363	-0.928828	2.13526	-2.77702	-1.56957	-2.62321	5.40516e-07	2.0665e-06	1.69095e-05	4.35739e-06	-5.77483e-07	6.20969e-06	16.9564	-56.6076	-14.1846	0.235043	1.40219	-1.07497	
390	1580406963.630693420	0.00248198	-0.928829	2.13526	-2.77702	-1.56958	-2.62321	-5.73138e-06	-1.43943e-06	2.06459e-05	2.26503e-07	-7.08356e-06	4.3293e-06	16.9587	-56.6074	-14.185	0.235233	1.40227	-1.07485	
391	1580406963.638713166	0.00248229	-0.928829	2.13526	-2.77702	-1.56958	-2.62321	-4.47282e-06	-2.38487e-06	1.92883e-05	-1.31812e-06	-1.56977e-05	2.52213e-06	16.9576	-56.6073	-14.1849	0.235302	1.40229	-1.07506	
392	1580406963.646712813	0.00248323	-0.928828	2.13525	-2.77702	-1.56958	-2.62321	-8.52883e-07	1.51482e-06	1.31658e-05	-2.96227e-07	-9.41819e-06	7.87041e-07	16.9586	-56.6067	-14.1848	0.235249	1.40231	-1.07488	
393	1580406963.654736401	0.00248159	-0.928831	2.13526	-2.77702	-1.56958	-2.62321	-7.03086e-06	-6.74287e-06	1.44861e-05	-1.81102e-06	-1.06922e-05	3.91652e-06	16.9589	-56.6063	-14.1848	0.235135	1.40221	-1.07464	
394	1580406963.662701566	0.00248127	-0.928833	2.13526	-2.77702	-1.56958	-2.6232	-8.11603e-06	-1.46277e-05	1.57286e-05	4.02088e-06	-9.50453e-06	6.89867e-06	16.9593	-56.6067	-14.185	0.235143	1.40235	-1.07452	
395	1580406963.670757116	0.00248096	-0.928833	2.13526	-2.77702	-1.56958	-2.62321	-9.14475e-06	-1.7366e-05	1.68953e-05	4.81048e-06	-1.31402e-05	4.95535e-06	16.9606	-56.6066	-14.1849	0.234971	1.40256	-1.0746	
396	1580406963.678709523	0.00248066	-0.928833	2.13525	-2.77702	-1.56958	-2.62321	-1.01183e-05	-1.51875e-05	8.43787e-06	3.07738e-06	-1.42135e-05	3.08725e-06	16.9606	-56.607	-14.185	0.234859	1.40289	-1.07442	
397	1580406963.686826314	0.00248164	-0.928832	2.13525	-2.77702	-1.56958	-2.62321	-6.24363e-06	-1.30866e-05	9.87828e-06	1.41774e-06	-1.76082e-05	3.67777e-06	16.9612	-56.6058	-14.1851	0.234868	1.40291	-1.07431	
398	1580406963.694742446	0.00248197	-0.928832	2.13525	-2.77702	-1.56958	-2.62321	-4.92694e-06	-1.1062e-05	8.8595e-06	2.30693e-06	-1.84522e-05	1.85198e-06	16.9624	-56.6064	-14.1854	0.234876	1.40292	-1.07426	
399	1580406963.702739028	0.00248101	-0.928833	2.13526	-2.77702	-1.56958	-2.62321	-8.4452e-06	-1.38696e-05	1.5103e-05	6.81428e-07	-1.92381e-05	-4.70476e-06	16.9624	-56.606	-14.1856	0.234825	1.40331	-1.07428	
400	1580406963.710711529	0.00248135	-0.928834	2.13526	-2.77702	-1.56958	-2.62321	-7.02361e-06	-1.89124e-05	1.6206e-05	-8.7282e-07	-2.2343e-05	-1.42321e-06	16.9608	-56.6054	-14.1853	0.234774	1.40315	-1.0741	
401	1580406963.718799390	0.00247977	-0.928834	2.13526	-2.77702	-1.56958	-2.62321	-1.2812e-05	-1.65936e-05	1.48665e-05	1.1014e-07	-2.05412e-05	-7.82574e-06	16.9596	-56.6053	-14.1852	0.234783	1.40322	-1.07424	
402	1580406963.726759359	0.00247887	-0.928833	2.13525	-2.77702	-1.56958	-2.62321	-1.59502e-05	-1.43562e-05	8.82675e-06	3.41996e-06	-1.87948e-05	-9.15651e-06	16.9599	-56.6053	-14.1852	0.234968	1.40324	-1.0747	
403	1580406963.734699325	0.00247863	-0.928833	2.13525	-2.77702	-1.56958	-2.62321	-1.65538e-05	-1.45657e-05	7.77148e-06	6.58144e-06	-1.71033e-05	-1.04227e-05	16.9594	-56.604	-14.1852	0.234917	1.40369	-1.07497	
404	1580406963.742726123	0.00248094	-0.928834	2.13525	-2.77702	-1.56958	-2.62321	-7.60815e-06	-1.4748e-05	4.38692e-06	7.23403e-06	-1.78295e-05	-1.16257e-05	16.9578	-56.6035	-14.1853	0.234925	1.40364	-1.07492	
405	1580406963.750700926	0.00248128	-0.928834	2.13525	-2.77702	-1.56958	-2.62321	-6.16468e-06	-1.72645e-05	8.31845e-06	5.39537e-06	-2.08637e-05	-1.04061e-05	16.9582	-56.6035	-14.1851	0.234758	1.40378	-1.07431	
406	1580406963.758671443	0.00247972	-0.928833	2.13525	-2.77702	-1.56958	-2.62321	-1.18877e-05	-1.25771e-05	7.25597e-06	6.08338e-06	-1.66682e-05	-9.23195e-06	16.958	-56.6033	-14.1853	0.234591	1.40398	-1.07489	
407	1580406963.766731221	0.00247947	-0.928831	2.13525	-2.77702	-1.56958	-2.62321	-1.26129e-05	-5.72384e-06	8.58325e-06	6.73486e-06	-1.73458e-05	-8.10232e-06	16.9589	-56.6035	-14.185	0.234542	1.40411	-1.0749	
408	1580406963.774703312	0.00247858	-0.928832	2.13525	-2.77702	-1.56958	-2.62321	-1.56563e-05	-6.21695e-06	7.48799e-06	7.35066e-06	-2.50286e-05	-9.36819e-06	16.9593	-56.6036	-14.185	0.234667	1.40419	-1.07529	
409	1580406963.782729711	0.00247773	-0.928832	2.13525	-2.77702	-1.56958	-2.62321	-1.8549e-05	-6.67983e-06	4.0801e-06	5.48885e-06	-2.29517e-05	-8.22293e-06	16.9599	-56.6042	-14.1851	0.234849	1.4042	-1.07537	
410	1580406963.790749763	0.00247816	-0.928834	2.13525	-2.77702	-1.56958	-2.62321	-1.65777e-05	-1.4151e-05	5.50492e-06	3.70232e-06	-1.85926e-05	-1.42064e-05	16.9597	-56.6053	-14.1852	0.234973	1.40416	-1.07538	
411	1580406963.798744768	0.00247795	-0.928834	2.13525	-2.77702	-1.56958	-2.62321	-1.70287e-05	-1.425e-05	4.51533e-06	-2.69632e-06	-1.19645e-05	-1.28405e-05	16.96	-56.605	-14.1854	0.236019	1.40405	-1.07527	
412	1580406963.806696167	0.00247775	-0.928835	2.13525	-2.77702	-1.56958	-2.62321	-1.74404e-05	-1.66669e-05	3.56065e-06	6.41111e-07	-1.50646e-05	-9.18267e-06	16.9601	-56.6045	-14.1854	0.23591	1.40395	-1.07541	
413	1580406963.814736656	0.00247946	-0.928834	2.13525	-2.77702	-1.56958	-2.62321	-1.0765e-05	-1.42835e-05	7.40848e-06	3.83289e-06	-8.56901e-06	-1.03512e-05	16.9603	-56.6048	-14.1858	0.2358	1.40408	-1.07523	
414	1580406963.822782195	0.00247986	-0.928834	2.13525	-2.77702	-1.56958	-2.62321	-9.06081e-06	-1.19858e-05	3.98104e-06	4.54744e-06	-1.1776e-05	-9.12595e-06	16.9599	-56.6055	-14.1856	0.235863	1.40392	-1.075	
415	1580406963.830691698	0.00248088	-0.928834	2.13525	-2.77702	-1.56958	-2.62321	-5.0759e-06	-1.21041e-05	5.35812e-06	7.55763e-06	-1.24975e-05	-1.73194e-05	16.9593	-56.606	-14.1858	0.23564	1.40411	-1.07526	
416	1580406963.838724934	0.00248062	-0.928834	2.13525	-2.77702	-1.56958	-2.62321	-5.93976e-06	-1.22016e-05	4.33766e-06	1.02085e-06	-1.78297e-05	-1.5779e-05	16.9605	-56.6065	-14.186	0.23559	1.40413	-1.07484	
417	1580406963.846750262	0.00248036	-0.928834	2.13526	-2.77702	-1.56958	-2.62321	-6.75881e-06	-1.22793e-05	1.04243e-05	4.16324e-06	-1.59316e-05	-1.89887e-05	16.9599	-56.6062	-14.1859	0.235766	1.40432	-1.07473	
418	1580406963.854688303	0.00248011	-0.928835	2.13525	-2.77702	-1.56958	-2.62321	-7.53407e-06	-1.69838e-05	2.2011e-06	1.02793e-07	-1.40965e-05	-2.66866e-05	16.961	-56.6056	-14.1854	0.235659	1.40392	-1.07505	
419	1580406963.862737270	0.00247987	-0.928836	2.13525	-2.77702	-1.56958	-2.62321	-8.26659e-06	-1.91433e-05	-3.35105e-06	9.51583e-07	-1.23235e-05	-2.23759e-05	16.9614	-56.6052	-14.1854	0.236287	1.40417	-1.07519	
420	1580406963.870712046	0.00248027	-0.928835	2.13525	-2.77702	-1.56958	-2.62321	-6.62768e-06	-1.65507e-05	-4.02715e-06	4.08014e-06	-1.52469e-05	-1.8229e-05	16.9622	-56.6054	-14.1853	0.236179	1.40436	-1.0752	
421	1580406963.878776995	0.00248002	-0.928833	2.13525	-2.77702	-1.56958	-2.62321	-7.37839e-06	-9.42031e-06	4.9505e-08	3.23621e-08	-1.33958e-05	-1.88726e-05	16.9615	-56.6058	-14.1851	0.236184	1.40426	-1.07503	
422	1580406963.886738707	0.00248105	-0.928834	2.13525	-2.77702	-1.56958	-2.62321	-3.43933e-06	-1.18329e-05	1.54266e-06	8.75872e-07	-1.16081e-05	-1.94692e-05	16.9617	-56.6064	-14.1852	0.236132	1.40445	-1.07541	
423	1580406963.894745604	0.00248142	-0.928834	2.13525	-2.77702	-1.56958	-2.62321	-1.98714e-06	-1.18166e-05	-1.65142e-06	1.68206e-06	-1.2192e-05	-2.00202e-05	16.9615	-56.6065	-14.185	0.236193	1.40411	-1.07542	
424	1580406963.902713289	0.0024824	-0.928834	2.13525	-2.77702	-1.56958	-2.62321	1.72402e-06	-1.17856e-05	2.30275e-06	2.45167e-06	-1.27354e-05	-1.59141e-05	16.9618	-56.6058	-14.1855	0.236813	1.40389	-1.07543	
425	1580406963.910790004	0.00248149	-0.928832	2.13525	-2.77702	-1.56958	-2.62321	-1.67346e-06	-4.82965e-06	1.38171e-06	3.18544e-06	-1.5543e-05	-1.89258e-05	16.9633	-56.6052	-14.1857	0.236705	1.40414	-1.07544	
426	1580406963.918733828	0.00248122	-0.928832	2.13525	-2.77702	-1.56958	-2.62321	-2.6087e-06	-2.76753e-06	-4.10558e-06	3.8841e-06	-1.82104e-05	-1.71405e-05	16.9617	-56.6052	-14.1857	0.236708	1.40392	-1.07563	
427	1580406963.926777057	0.00248096	-0.928834	2.13525	-2.77702	-1.56958	-2.62321	-3.49993e-06	-9.9813e-06	-1.39508e-05	2.15835e-06	-1.84426e-05	-2.00565e-05	16.9602	-56.6044	-14.1856	0.236712	1.40394	-1.07601	
428	1580406963.934741605	0.00248196	-0.928833	2.13525	-2.77702	-1.56958	-2.62321	2.67078e-07	-5.39403e-06	-1.18823e-05	5.04538e-07	-2.32332e-05	-2.04847e-05	16.9601	-56.6044	-14.1857	0.236549	1.40378	-1.07596	
429	1580406963.942775972	0.00248356	-0.928835	2.13525	-2.77702	-1.56958	-2.62321	6.17743e-06	-1.24592e-05	-2.9224e-06	-1.07866e-06	-1.86192e-05	-1.62875e-05	16.9596	-56.6043	-14.1856	0.236885	1.40402	-1.07638	
430	1580406963.950744529	0.00248449	-0.928836	2.13525	-2.77702	-1.56958	-2.62321	9.52551e-06	-1.69145e-05	-8.17842e-06	2.079e-06	-2.10508e-05	-1.68337e-05	16.958	-56.6041	-14.1857	0.236833	1.40415	-1.0761	
431	1580406963.958748829	0.00248541	-0.928838	2.13525	-2.77702	-1.56958	-2.62321	1.272e-05	-2.34446e-05	-6.34004e-06	4.32618e-07	-1.87778e-05	-1.96718e-05	16.9572	-56.6044	-14.1859	0.236836	1.40405	-1.07593	
432	1580406963.967350183	0.00248442	-0.928837	2.13525	-2.77702	-1.56958	-2.62321	8.87382e-06	-2.05275e-05	-9.14511e-06	1.23246e-06	-1.19188e-05	-2.2367e-05	16.9564	-56.6045	-14.1861	0.237058	1.40412	-1.07588	
433	1580406963.974786618	0.00248533	-0.928837	2.13525	-2.77702	-1.56958	-2.62321	1.20657e-05	-1.77104e-05	-2.6029e-06	1.99663e-06	-1.68395e-05	-2.49227e-05	16.956	-56.6047	-14.1861	0.236897	1.40425	-1.07589	
434	1580406963.982690692	0.00248187	-0.928836	2.13525	-2.77702	-1.56958	-2.62321	-8.60069e-07	-1.49919e-05	-9.90213e-07	2.72584e-06	-1.92491e-05	-2.5017e-05	16.9551	-56.6045	-14.186	0.236627	1.40432	-1.07608	
435	1580406963.990751692	0.00248034	-0.928836	2.13525	-2.77702	-1.56958	-2.62322	-6.43589e-06	-1.46474e-05	-1.72425e-06	3.4208e-06	-1.92551e-05	-2.74023e-05	16.9541	-56.6045	-14.1861	0.236521	1.40417	-1.07585	
436	1580406963.998716918	0.00247885	-0.928835	2.13525	-2.77702	-1.56958	-2.62322	-1.17654e-05	-1.20248e-05	-4.70101e-06	1.71728e-06	-1.69632e-05	-3.19296e-05	16.9533	-56.6053	-14.1859	0.236471	1.40424	-1.07592	
437	1580406964.006705608	0.00247927	-0.928837	2.13525	-2.77702	-1.56958	-2.62322	-1.00032e-05	-1.63125e-05	-5.2759e-06	2.44693e-06	-1.01147e-05	-3.16401e-05	16.9532	-56.6044	-14.1861	0.236312	1.40425	-1.07546	
438	1580406964.014775288	0.00248092	-0.928837	2.13525	-2.77702	-1.56958	-2.62322	-3.74332e-06	-1.81274e-05	-5.8224e-06	7.83173e-07	-8.17339e-06	-3.59111e-05	16.9521	-56.6045	-14.1863	0.236262	1.40421	-1.0753	
439	1580406964.022710863	0.00248067	-0.928837	2.13525	-2.77702	-1.56958	-2.62322	-4.58058e-06	-1.7576e-05	-8.60719e-06	1.54634e-06	-1.08357e-05	-3.7694e-05	16.9521	-56.6044	-14.1865	0.236645	1.40416	-1.07525	
440	1580406964.030719682	0.00248043	-0.928837	2.13525	-2.77702	-1.56958	-2.62322	-5.37645e-06	-1.7026e-05	-1.3529e-05	2.27516e-06	-1.33697e-05	-4.16226e-05	16.951	-56.6036	-14.1863	0.237241	1.40429	-1.07527	
441	1580406964.038761474	0.00248019	-0.928836	2.13525	-2.77702	-1.56958	-2.62322	-6.13182e-06	-1.42171e-05	-1.14451e-05	6.1899e-07	-1.35174e-05	-3.85097e-05	16.9504	-56.6034	-14.186	0.237404	1.40436	-1.07516	
442	1580406964.046759184	0.00247933	-0.928836	2.13525	-2.77702	-1.56958	-2.62322	-9.11793e-06	-1.37677e-05	-2.30795e-05	3.63964e-06	-9.12472e-06	-4.00484e-05	16.949	-56.6036	-14.1862	0.237353	1.4046	-1.07523	
443	1580406964.054729351	0.00247974	-0.928838	2.13525	-2.77702	-1.56958	-2.62322	-7.43077e-06	-1.78309e-05	-2.28257e-05	1.92581e-06	-9.41798e-06	-4.1477e-05	16.9487	-56.603	-14.186	0.237515	1.40466	-1.07536	
444	1580406964.062701847	0.00248077	-0.928838	2.13525	-2.77702	-1.56958	-2.62322	-3.54152e-06	-1.71922e-05	-2.70656e-05	2.62606e-06	-1.19389e-05	-3.59938e-05	16.9494	-56.6031	-14.1861	0.237463	1.40456	-1.07543	
445	1580406964.070768132	0.00248176	-0.928836	2.13525	-2.77702	-1.56958	-2.62322	1.86793e-07	-9.80714e-06	-2.43452e-05	3.29353e-06	-7.58489e-06	-3.29541e-05	16.9488	-56.6034	-14.1862	0.237465	1.40441	-1.07527	
446	1580406964.078796003	0.00248212	-0.928835	2.13525	-2.77702	-1.56958	-2.62322	1.49712e-06	-7.21844e-06	-2.39634e-05	1.59096e-06	-5.6531e-06	-3.00064e-05	16.9479	-56.6032	-14.1863	0.237414	1.40453	-1.07562	
447	1580406964.086768920	0.00248061	-0.928836	2.13525	-2.77702	-1.56958	-2.62322	-4.02131e-06	-9.21972e-06	-1.8992e-05	4.53969e-06	-3.79446e-06	-2.93952e-05	16.947	-56.6019	-14.1861	0.237362	1.40438	-1.07575	
448	1580406964.094693283	0.00248099	-0.928834	2.13525	-2.77702	-1.56958	-2.62322	-2.53566e-06	-4.39395e-06	-2.10307e-05	5.11515e-06	2.3512e-07	-3.1064e-05	16.947	-56.6013	-14.1863	0.237364	1.40445	-1.07593	
449	1580406964.102719113	0.00248075	-0.928833	2.13524	-2.77702	-1.56958	-2.62322	-3.36186e-06	2.34912e-07	-2.74418e-05	5.66048e-06	-3.84652e-07	-2.81007e-05	16.9472	-56.601	-14.1864	0.237049	1.40457	-1.07594	
450	1580406964.110758521	0.00247989	-0.928835	2.13524	-2.77702	-1.56958	-2.62322	-6.3984e-06	-6.51918e-06	-2.68382e-05	6.17637e-06	-3.21284e-06	-2.52307e-05	16.9482	-56.6009	-14.1866	0.237262	1.40475	-1.07595	
451	1580406964.118785478	0.00248029	-0.928834	2.13524	-2.77702	-1.56958	-2.62322	-4.80405e-06	-4.03517e-06	-2.62318e-05	6.66351e-06	-8.1503e-06	-2.69683e-05	16.9481	-56.6011	-14.1867	0.237212	1.40476	-1.07613	
452	1580406964.126692439	0.00247945	-0.928837	2.13524	-2.77702	-1.56958	-2.62322	-7.76074e-06	-1.29027e-05	-2.56231e-05	2.56748e-06	-1.06342e-05	-2.40905e-05	16.9478	-56.6009	-14.1865	0.237162	1.40456	-1.0758	
453	1580406964.134817450	0.00247986	-0.928838	2.13525	-2.77702	-1.56958	-2.62322	-6.09864e-06	-1.68277e-05	-1.82325e-05	8.72243e-07	-1.29987e-05	-2.35364e-05	16.9485	-56.6007	-14.1867	0.237478	1.40451	-1.07593	
454	1580406964.142736717	0.00248026	-0.92884	2.13524	-2.77702	-1.56958	-2.62322	-4.49948e-06	-2.27934e-05	-2.68195e-05	-7.52493e-07	-1.07907e-05	-2.07501e-05	16.9481	-56.6004	-14.1871	0.237584	1.40453	-1.07565	
455	1580406964.150760105	0.00248004	-0.92884	2.13524	-2.77702	-1.56958	-2.62322	-5.19947e-06	-2.40282e-05	-2.61129e-05	2.23187e-06	-1.5338e-05	-1.80566e-05	16.948	-56.6007	-14.1867	0.237481	1.40427	-1.07533	
456	1580406964.158680546	0.00248167	-0.928839	2.13525	-2.77702	-1.56958	-2.62322	8.40831e-07	-2.0736e-05	-2.08732e-05	2.86446e-06	-1.74509e-05	-1.99452e-05	16.9486	-56.5997	-14.1868	0.237223	1.40423	-1.07528	
457	1580406964.166812415	0.00248265	-0.928839	2.13524	-2.77702	-1.56959	-2.62322	4.39372e-06	-1.97777e-05	-2.48029e-05	3.46698e-06	-2.3894e-05	-1.50239e-05	16.9487	-56.5995	-14.1868	0.237225	1.4044	-1.07529	
458	1580406964.174771351	0.0024836	-0.928838	2.13525	-2.77702	-1.56959	-2.62321	7.79282e-06	-1.43993e-05	-1.95789e-05	6.2581e-06	-2.11646e-05	-8.07341e-06	16.9477	-56.6004	-14.1867	0.237227	1.40463	-1.07559	
459	1580406964.182727913	0.00248331	-0.928839	2.13525	-2.77702	-1.56959	-2.62321	6.58637e-06	-1.80912e-05	-1.90737e-05	6.70889e-06	-2.2956e-05	-5.83571e-06	16.9478	-56.6015	-14.1865	0.237746	1.4047	-1.0756	
460	1580406964.190742032	0.00248424	-0.92884	2.13524	-2.77702	-1.56959	-2.62321	9.87433e-06	-1.93916e-05	-2.07819e-05	7.13317e-06	-2.24311e-05	-1.47003e-06	16.9471	-56.6017	-14.1867	0.237747	1.40476	-1.07611	
461	1580406964.198803180	0.00248393	-0.92884	2.13525	-2.77702	-1.56958	-2.62321	8.5691e-06	-2.0613e-05	-2.01846e-05	9.74233e-06	-1.51807e-05	2.71624e-06	16.9475	-56.6009	-14.1868	0.237697	1.40483	-1.07573	
462	1580406964.206730713	0.00248362	-0.92884	2.13524	-2.77702	-1.56958	-2.62321	7.31038e-06	-1.95492e-05	-2.17985e-05	7.72591e-06	-1.27212e-05	6.72626e-06	16.9471	-56.6008	-14.1867	0.237698	1.40478	-1.07585	
463	1580406964.214734386	0.00248515	-0.928837	2.13524	-2.77702	-1.56958	-2.62321	1.27503e-05	-7.38792e-06	-2.33203e-05	5.78567e-06	-8.14245e-06	1.50192e-05	16.9481	-56.6013	-14.1869	0.23775	1.40464	-1.07619	
464	1580406964.222682128	0.00248482	-0.928838	2.13524	-2.77702	-1.56958	-2.62321	1.13029e-05	-1.12391e-05	-3.36545e-05	3.92037e-06	-5.94785e-06	1.40922e-05	16.9471	-56.6017	-14.1864	0.2377	1.4046	-1.07604	
465	1580406964.230738145	0.00248326	-0.928836	2.13524	-2.77702	-1.56958	-2.62321	5.47937e-06	-6.10837e-06	-3.02231e-05	-7.23045e-08	-6.03701e-06	1.7594e-05	16.9471	-56.6015	-14.1866	0.23765	1.40477	-1.07599	
466	1580406964.238740401	0.00248296	-0.928836	2.13524	-2.77702	-1.56958	-2.62321	4.31577e-06	-5.58038e-06	-2.91011e-05	5.87605e-07	-3.91407e-06	1.8734e-05	16.9477	-56.6011	-14.1868	0.237651	1.40467	-1.07595	
467	1580406964.246777721	0.00248083	-0.928836	2.13524	-2.77702	-1.56958	-2.62321	-3.42713e-06	-2.86863e-06	-2.35135e-05	1.21868e-06	-8.46184e-06	1.76125e-05	16.9478	-56.6009	-14.1869	0.237652	1.40453	-1.07628	
468	1580406964.254716055	0.0024812	-0.928836	2.13524	-2.77702	-1.56958	-2.62321	-2.01888e-06	-2.45788e-06	-2.69975e-05	-2.65418e-06	-8.4188e-06	1.42838e-05	16.9476	-56.6008	-14.1871	0.237704	1.40464	-1.07613	
469	1580406964.262775106	0.00248095	-0.928836	2.13524	-2.77702	-1.56958	-2.62321	-2.87032e-06	-2.05811e-06	-2.59221e-05	2.49159e-06	-1.27486e-05	1.10817e-05	16.9473	-56.6021	-14.1869	0.237554	1.4046	-1.07625	
470	1580406964.270741905	0.0024801	-0.928835	2.13524	-2.77702	-1.56959	-2.62321	-5.88353e-06	-1.66932e-06	-2.03966e-05	3.04023e-06	-1.46912e-05	8.00423e-06	16.9468	-56.602	-14.1869	0.237353	1.40472	-1.07626	
471	1580406964.278731858	0.00247926	-0.928836	2.13524	-2.77702	-1.56958	-2.62321	-8.76398e-06	-3.47837e-06	-1.95403e-05	5.74907e-06	-1.216e-05	1.16535e-05	16.9473	-56.6018	-14.1867	0.237405	1.40484	-1.07621	
472	1580406964.286736461	0.00247967	-0.928835	2.13524	-2.77702	-1.56958	-2.62321	-7.12203e-06	1.34905e-06	-1.65128e-05	3.88157e-06	-7.53414e-06	1.07706e-05	16.9479	-56.601	-14.1867	0.237407	1.40474	-1.07617	
473	1580406964.294792210	0.00248068	-0.928833	2.13524	-2.77702	-1.56958	-2.62321	-3.34699e-06	5.9767e-06	-1.79569e-05	4.35704e-06	-7.45487e-06	7.68939e-06	16.9486	-56.6016	-14.1867	0.237258	1.40481	-1.07661	
474	1580406964.302699878	0.00248106	-0.928833	2.13524	-2.77702	-1.56958	-2.62321	-1.91713e-06	8.22826e-06	-2.14996e-05	4.80751e-06	-7.36781e-06	2.55071e-06	16.9492	-56.6014	-14.187	0.23721	1.40492	-1.07635	
475	1580406964.310732985	0.00248143	-0.928832	2.13524	-2.77702	-1.56958	-2.62321	-5.44468e-07	1.25581e-05	-2.26922e-05	7.41113e-06	-9.45094e-06	2.02432e-06	16.9492	-56.6013	-14.1872	0.237212	1.40498	-1.07641	
476	1580406964.318702237	0.00248118	-0.928833	2.13524	-2.77702	-1.56958	-2.62321	-1.41476e-06	7.99636e-06	-2.16337e-05	7.7225e-06	-2.64601e-06	-6.9931e-07	16.9476	-56.6006	-14.1873	0.237763	1.4051	-1.0762	
477	1580406964.326729041	0.00248276	-0.928834	2.13525	-2.77702	-1.56958	-2.62321	4.30662e-06	3.61973e-06	-1.18158e-05	8.01221e-06	-5.51662e-07	-1.09058e-06	16.9483	-56.6011	-14.1875	0.237764	1.40501	-1.07627	
478	1580406964.334719515	0.00248309	-0.928835	2.13525	-2.77702	-1.56958	-2.62321	5.42119e-06	1.59548e-06	-1.11617e-05	1.04515e-05	1.4592e-06	-3.67683e-06	16.9482	-56.601	-14.1873	0.237814	1.40491	-1.07654	
479	1580406964.342692386	0.00248098	-0.928834	2.13525	-2.77702	-1.56958	-2.62321	-2.23526e-06	3.9936e-06	-1.76079e-06	1.06092e-05	1.21962e-06	-3.9382e-06	16.9476	-56.6006	-14.1874	0.237963	1.40503	-1.07628	
480	1580406964.350658199	0.00248135	-0.928836	2.13525	-2.77702	-1.56958	-2.62321	-8.59927e-07	-2.37353e-06	2.92091e-06	8.49583e-06	-1.17416e-06	2.31518e-06	16.9466	-56.6004	-14.1873	0.238013	1.40499	-1.07613	
481	1580406964.358733494	0.00248171	-0.928835	2.13525	-2.77702	-1.56958	-2.62321	4.59525e-07	1.84799e-07	-3.49828e-06	6.46083e-06	-1.30022e-06	1.8162e-06	16.9456	-56.6006	-14.1871	0.237915	1.40459	-1.07582	
482	1580406964.366717161	0.00248146	-0.928833	2.13525	-2.77702	-1.56958	-2.62321	-4.48869e-07	9.12397e-06	-5.32149e-06	8.91243e-06	7.44884e-07	5.66066e-06	16.9459	-56.6013	-14.1871	0.237768	1.40455	-1.07562	
483	1580406964.374724022	0.00248121	-0.928832	2.13525	-2.77702	-1.56958	-2.62321	-1.3186e-06	9.04801e-06	-7.06104e-06	2.5287e-06	4.8665e-06	6.6081e-07	16.9459	-56.6016	-14.1872	0.237867	1.40476	-1.07584	
484	1580406964.382713770	0.00248218	-0.928832	2.13525	-2.77702	-1.56958	-2.62321	2.18647e-06	1.11256e-05	-2.1614e-06	2.96392e-06	2.34389e-06	4.54054e-06	16.9461	-56.6015	-14.1871	0.237966	1.40488	-1.07628	
485	1580406964.390731249	0.00248313	-0.928833	2.13525	-2.77702	-1.56958	-2.62321	5.54421e-06	6.64382e-06	-4.01096e-06	-1.01853e-06	6.39072e-06	-4.06108e-07	16.9459	-56.6011	-14.1871	0.237722	1.40499	-1.07628	
486	1580406964.398656787	0.00248284	-0.928834	2.13525	-2.77702	-1.56958	-2.62321	4.4295e-06	4.49622e-06	-3.62481e-06	-4.44453e-07	5.96092e-06	-5.1457e-06	16.9476	-56.6009	-14.187	0.237674	1.40495	-1.07624	
487	1580406964.406709374	0.00248256	-0.928834	2.13525	-2.77702	-1.56958	-2.62321	3.35682e-06	4.58581e-06	-3.24858e-06	-4.2811e-06	7.69584e-06	-5.33851e-06	16.9479	-56.6003	-14.1873	0.237529	1.4042	-1.07609	
488	1580406964.414699736	0.00248289	-0.928834	2.13525	-2.77702	-1.56958	-2.62322	4.48489e-06	2.52138e-06	-2.88227e-06	7.22932e-07	1.37357e-05	-1.20035e-05	16.9476	-56.6005	-14.187	0.237579	1.40427	-1.07626	
489	1580406964.422687218	0.00248261	-0.928835	2.13525	-2.77702	-1.56958	-2.62322	3.40477e-06	5.42273e-07	-2.52586e-06	-1.0051e-06	6.55309e-06	-1.4087e-05	16.948	-56.6016	-14.1872	0.237629	1.40413	-1.07621	
490	1580406964.430705942	0.00248294	-0.928834	2.13525	-2.77702	-1.56958	-2.62322	4.52112e-06	2.93411e-06	-6.46653e-06	-2.66135e-06	6.09442e-06	-1.38818e-05	16.9478	-56.6016	-14.1871	0.237921	1.40409	-1.07633	
491	1580406964.438712642	0.00248265	-0.928833	2.13525	-2.77702	-1.56958	-2.62322	3.4342e-06	5.22634e-06	-3.81106e-06	2.26274e-06	3.50953e-06	-1.58536e-05	16.9474	-56.6013	-14.1872	0.237825	1.404	-1.07623	
492	1580406964.446684881	0.00248237	-0.928832	2.13525	-2.77702	-1.56958	-2.62322	2.38894e-06	9.55993e-06	-5.53758e-06	4.77028e-07	5.30873e-06	-1.98651e-05	16.9482	-56.601	-14.1868	0.237777	1.40401	-1.07619	
493	1580406964.454703286	0.00248271	-0.928832	2.13525	-2.77702	-1.56958	-2.62322	3.53298e-06	1.15699e-05	-5.04781e-06	-1.23614e-06	4.89351e-06	-1.93721e-05	16.9483	-56.6007	-14.187	0.237778	1.40388	-1.07599	
494	1580406964.462711593	0.00248243	-0.928832	2.13525	-2.77702	-1.56958	-2.62322	2.48026e-06	1.13523e-05	-8.84046e-06	-6.57825e-07	2.231e-07	-1.67431e-05	16.9483	-56.6009	-14.187	0.237875	1.40384	-1.07595	
495	1580406964.470752225	0.00248155	-0.928831	2.13525	-2.77702	-1.56958	-2.62322	-6.75313e-07	1.53995e-05	-1.71676e-06	-1.03418e-07	2.1454e-06	-9.93829e-06	16.9481	-56.6005	-14.1871	0.238067	1.40395	-1.07621	
496	1580406964.478684715	0.0024825	-0.928829	2.13525	-2.77702	-1.56958	-2.62322	2.72547e-06	1.92659e-05	-5.62042e-06	2.55799e-06	-2.72483e-07	-9.79355e-06	16.9471	-56.6001	-14.1872	0.238976	1.40396	-1.07607	
497	1580406964.486736805	0.00248102	-0.928828	2.13525	-2.77702	-1.56958	-2.62321	-2.57492e-06	2.29551e-05	-9.35517e-06	7.64644e-07	6.01014e-06	-5.3863e-06	16.9483	-56.5999	-14.1873	0.23907	1.40403	-1.07608	
498	1580406964.494741279	0.00248138	-0.928828	2.13524	-2.77702	-1.56958	-2.62321	-1.24186e-06	2.22184e-05	-1.07981e-05	1.25488e-06	9.81879e-06	-7.57419e-06	16.9479	-56.5997	-14.1876	0.238688	1.40409	-1.07598	
499	1580406964.502731858	0.00247993	-0.928827	2.13525	-2.77702	-1.56958	-2.62321	-6.36801e-06	2.5739e-05	-7.92037e-06	3.84695e-06	9.21474e-06	-3.24792e-06	16.9482	-56.5998	-14.1878	0.239162	1.40405	-1.07594	
500	1580406964.510712412	0.00248032	-0.928826	2.13525	-2.77702	-1.56958	-2.62321	-4.87722e-06	2.90899e-05	-7.27252e-06	1.99917e-06	4.38449e-06	9.05526e-07	16.9483	-56.601	-14.1875	0.23916	1.40411	-1.07605	
501	1580406964.518776354	0.00248009	-0.928828	2.13524	-2.77702	-1.56958	-2.62321	-5.57347e-06	2.16762e-05	-1.0881e-05	6.66855e-06	3.98979e-06	2.76942e-06	16.9482	-56.6005	-14.1875	0.239158	1.40417	-1.07622	
502	1580406964.526743624	0.00247988	-0.928827	2.13524	-2.77702	-1.56958	-2.62321	-6.23518e-06	2.51342e-05	-1.22103e-05	4.7011e-06	5.72675e-06	4.55573e-06	16.9489	-56.6008	-14.1874	0.239062	1.40399	-1.07612	
503	1580406964.534726024	0.00247846	-0.928825	2.13524	-2.77702	-1.56958	-2.62321	-1.11165e-05	3.26566e-05	-1.34702e-05	2.80895e-06	5.27297e-06	4.1504e-06	16.9486	-56.6009	-14.1875	0.239013	1.40395	-1.07633	
504	1580406964.542712188	0.00248009	-0.928825	2.13524	-2.77702	-1.56958	-2.62321	-5.16303e-06	3.13846e-05	-1.67756e-05	9.90883e-07	9.06095e-06	7.9859e-06	16.9502	-56.6011	-14.1876	0.239058	1.40411	-1.07655	
505	1580406964.550760600	0.00247987	-0.928826	2.13524	-2.77702	-1.56958	-2.62321	-5.81552e-06	2.80226e-05	-1.57037e-05	1.44132e-06	6.35246e-06	5.28179e-06	16.9493	-56.6006	-14.1878	0.23854	1.40407	-1.07661	
506	1580406964.558753441	0.00248147	-0.928827	2.13524	-2.77702	-1.56958	-2.62321	-7.40955e-08	2.47706e-05	-1.25481e-05	1.87109e-06	3.75029e-06	2.68486e-06	16.9496	-56.6015	-14.1875	0.238586	1.40409	-1.07656	
507	1580406964.566796613	0.00248122	-0.928826	2.13524	-2.77702	-1.56958	-2.62321	-9.22054e-07	2.79482e-05	-1.16138e-05	6.49462e-06	7.57365e-06	6.55641e-06	16.9485	-56.6009	-14.1877	0.238632	1.4041	-1.07662	
508	1580406964.574716614	0.00248159	-0.928826	2.13524	-2.77702	-1.56958	-2.62321	3.82089e-07	2.46531e-05	-1.07034e-05	8.81656e-06	2.81472e-06	6.05451e-06	16.9478	-56.6002	-14.1875	0.238678	1.40416	-1.07688	
509	1580406964.582738911	0.00248254	-0.928825	2.13525	-2.77701	-1.56958	-2.62321	3.74684e-06	2.98794e-05	-5.52722e-06	1.52394e-05	4.55779e-06	5.56855e-06	16.9474	-56.5998	-14.1879	0.238631	1.40403	-1.07689	
510	1580406964.590716757	0.00248107	-0.928826	2.13525	-2.77701	-1.56958	-2.62321	-1.47704e-06	2.64589e-05	-2.73944e-06	1.28963e-05	6.22647e-06	9.29982e-06	16.948	-56.5999	-14.1881	0.238444	1.40399	-1.07679	
511	1580406964.598781319	0.00248084	-0.928826	2.13525	-2.77701	-1.56958	-2.62321	-2.26584e-06	2.31515e-05	-2.159e-06	1.28178e-05	9.9208e-06	1.07719e-05	16.9478	-56.5998	-14.1881	0.238536	1.40415	-1.07695	
512	1580406964.606687393	0.00248001	-0.928827	2.13525	-2.77701	-1.56958	-2.62321	-5.12749e-06	1.99557e-05	4.99013e-07	1.27286e-05	1.5636e-05	1.21743e-05	16.9481	-56.6005	-14.1881	0.238582	1.40416	-1.07696	
513	1580406964.614742021	0.0024798	-0.928829	2.13525	-2.77701	-1.56958	-2.62321	-5.76109e-06	1.47756e-05	9.55927e-07	1.47239e-05	1.47361e-05	9.27757e-06	16.9477	-56.5998	-14.1881	0.238535	1.40417	-1.07722	
514	1580406964.622746634	0.0024808	-0.928828	2.13525	-2.77701	-1.56958	-2.62321	-2.1555e-06	1.60691e-05	7.7568e-06	1.66219e-05	9.67445e-06	6.49096e-06	16.9465	-56.6007	-14.1879	0.23858	1.40394	-1.07767	
515	1580406964.630756855	0.00248057	-0.928829	2.13525	-2.77701	-1.56958	-2.62321	-2.89745e-06	1.31124e-05	7.91998e-06	1.41602e-05	1.1082e-05	5.94491e-06	16.9463	-56.6015	-14.1881	0.238534	1.40371	-1.07783	
516	1580406964.638712373	0.00248095	-0.928829	2.13525	-2.77701	-1.56958	-2.62321	-1.5064e-06	1.23509e-05	1.44196e-05	1.39555e-05	8.24546e-06	1.19775e-06	16.946	-56.6016	-14.1883	0.238579	1.40354	-1.07758	
517	1580406964.647662946	0.00248072	-0.928831	2.13525	-2.77701	-1.56958	-2.62321	-2.26749e-06	5.34856e-06	1.42996e-05	1.37439e-05	7.60362e-06	2.94467e-06	16.946	-56.6009	-14.1886	0.23867	1.40355	-1.07774	
518	1580406964.654735187	0.0024799	-0.92883	2.13525	-2.77701	-1.56958	-2.62321	-5.09025e-06	9.04694e-06	1.41725e-05	1.76946e-05	9.06563e-06	4.61854e-06	16.9454	-56.6007	-14.1884	0.238486	1.40375	-1.07789	
519	1580406964.662723133	0.00247911	-0.928829	2.13525	-2.77701	-1.56958	-2.62321	-7.79259e-06	1.05028e-05	1.40384e-05	1.09708e-05	6.29547e-06	6.22068e-06	16.9454	-56.6006	-14.1885	0.238485	1.40372	-1.07755	
