terrinbabu/Matlab/log_filtering/UR10_35_KF/mjt_3kg_lift_drop.txt
seq	time	q0	q1	q2	q3	q4	q5	Dq0	Dq1	Dq2	Dq3	Dq4	Dq5	eff0	eff1	eff2	eff3	eff4	eff5	
25605	1580482312.048709449	0.00240508	-0.895078	2.13236	-2.79043	-1.56955	-2.62331	0	0	-0	0	0	0	3.94803	-84.0688	-23.4792	-11.2197	0.915408	-0.283005	
25606	1580482312.056686435	0.0023931	-0.895078	2.13236	-2.79041	-1.56956	-2.62327	0	0	-0	0	0	0	3.47154	-84.3116	-23.5042	-11.2436	0.890667	-0.102911	
25607	1580482312.064691110	0.0023931	-0.895089	2.13238	-2.79045	-1.56956	-2.62332	0	0	-0	0	0	0	3.87996	-83.826	-23.8285	-11.3388	0.915408	-0.154366	
25608	1580482312.072706374	0.0023931	-0.895102	2.1324	-2.79043	-1.56951	-2.6233	0	0	-0	0	0	0	4.22031	-83.826	-23.7038	-11.3388	0.766963	-0.128638	
25609	1580482312.080668132	0.00240508	-0.895089	2.13238	-2.79041	-1.56956	-2.62326	0	0	-0	0	0	0	4.28838	-84.0081	-23.5042	-11.1721	0.915408	-0.33446	
25610	1580482312.088689890	0.0023931	-0.895066	2.13238	-2.79044	-1.56954	-2.6233	0	0	-0	0	0	0	4.08417	-83.9474	-23.6289	-11.2436	0.865926	-0.205822	
25611	1580482312.096697061	0.00240508	-0.895042	2.13232	-2.79045	-1.56952	-2.6233	0	0	-0	0	0	0	4.28838	-83.7046	-23.579	-11.2674	0.915408	-0.102911	
25612	1580482312.104785143	0.00235715	-0.895078	2.13238	-2.79044	-1.56951	-2.6233	0	0	-0	0	0	0	4.22031	-83.9474	-23.5541	-11.2197	0.915408	-0.180094	
25613	1580482312.112682896	0.0023931	-0.895042	2.13242	-2.79041	-1.56952	-2.6233	0	0	-0	0	0	0	4.22031	-83.2797	-23.5042	-11.315	0.964889	-0.180094	
25614	1580482312.120694762	0.00241707	-0.895078	2.13236	-2.79045	-1.56952	-2.62329	0	0	-0	0	0	0	3.81189	-83.9474	-23.7537	-11.3388	0.940149	-0.385915	
25615	1580482312.128692090	0.00238112	-0.895102	2.13238	-2.79041	-1.56957	-2.62327	0	0	-0	0	0	0	4.0161	-83.826	-23.5541	-11.1721	0.915408	-0.154366	
25616	1580482312.136710564	0.00238112	-0.895078	2.13235	-2.79043	-1.56954	-2.6233	0	0	-0	0	0	0	4.56065	-83.9474	-23.7038	-11.3388	0.915408	-0.308732	
25617	1580482312.144683535	0.00236913	-0.895114	2.13236	-2.79043	-1.56954	-2.6233	0	0	-0	0	0	0	3.53961	-83.7046	-23.6289	-11.2197	0.890667	-0.385915	
25618	1580482312.152687579	0.0023931	-0.895078	2.13235	-2.79044	-1.56951	-2.6233	0	0	-0	0	0	0	3.87996	-84.1295	-23.5042	-11.3388	0.940149	-0.308732	
25619	1580482312.160683695	0.00238112	-0.895089	2.13236	-2.79041	-1.56956	-2.6233	0	0	-0	0	0	0	3.74382	-84.1295	-23.5541	-11.3627	0.964889	-0.283005	
25620	1580482312.168737524	0.00240508	-0.895078	2.13236	-2.79043	-1.56955	-2.62331	0	0	-0	0	0	0	4.15224	-83.9474	-23.6539	-11.315	0.940149	-0.257277	
25621	1580482312.176707927	0.00241707	-0.895066	2.13234	-2.79041	-1.56955	-2.62332	0	0	-0	0	0	0	3.1312	-83.4011	-23.7537	-11.1721	0.791704	-0.180094	
25622	1580482312.184643904	0.00240508	-0.895102	2.13238	-2.79044	-1.56952	-2.62329	0	0	-0	0	0	0	3.74382	-83.5225	-23.579	-11.1959	0.915408	-0.128638	
25623	1580482312.192646662	0.0023931	-0.895078	2.13237	-2.79043	-1.56951	-2.62331	0	0	-0	0	0	0	3.81189	-84.4937	-23.5042	-11.2436	0.915408	-0.231549	
25624	1580482312.200701294	0.00238112	-0.895054	2.13236	-2.7904	-1.56957	-2.62327	0	0	-0	0	0	0	4.28838	-84.3116	-23.5541	-11.2197	0.915408	-0.308732	
25625	1580482312.208678593	0.0023931	-0.895089	2.1324	-2.79045	-1.56955	-2.6233	0	0	-0	0	0	0	3.81189	-84.3723	-23.604	-11.1959	0.890667	-0.33446	
25626	1580482312.216690697	0.00236913	-0.895054	2.13236	-2.79039	-1.56956	-2.6233	0	0	-0	0	0	0	3.94803	-84.0688	-23.7038	-11.3627	0.890667	-0.257277	
25627	1580482312.224695859	0.00238112	-0.895078	2.13235	-2.7904	-1.56954	-2.62327	0	0	-0	0	0	0	4.56065	-84.2509	-23.5541	-11.2436	0.964889	-0.205822	
25628	1580482312.232747584	0.00238112	-0.895078	2.13237	-2.79045	-1.56958	-2.62333	0	0	-0	0	0	0	3.67575	-83.7046	-23.3794	-11.2912	0.940149	-0.283005	
25629	1580482312.240706682	0.0023931	-0.895089	2.13238	-2.79044	-1.56955	-2.62327	0	0	-0	0	0	0	3.1312	-84.2509	-23.7786	-11.2674	0.915408	-0.257277	
25630	1580482312.248700767	0.00240508	-0.895138	2.13235	-2.79044	-1.56955	-2.6233	0	0	-0	0	0	0	4.42452	-83.8867	-23.7287	-11.1721	0.890667	-0.102911	
25631	1580482312.256666895	0.00240508	-0.895078	2.13236	-2.79043	-1.56952	-2.62327	0	0	-0	0	0	0	3.94803	-83.7046	-23.6788	-11.2436	0.915408	-0.180094	
25632	1580482312.264698709	0.00240508	-0.895042	2.13238	-2.79043	-1.56952	-2.62333	0	0	-0	0	0	0	4.15224	-83.7046	-23.7038	-11.2436	0.964889	-0.257277	
25633	1580482312.272698587	0.00238112	-0.895066	2.1324	-2.79044	-1.56951	-2.62331	0	0	-0	0	0	0	3.74382	-84.3723	-23.5541	-11.2436	0.964889	-0.180094	
25634	1580482312.280673643	0.0023931	-0.895054	2.13236	-2.79044	-1.56956	-2.62327	0	0	-0	0	0	0	3.53961	-84.4937	-23.9034	-11.315	0.964889	-0.257277	
25635	1580482312.288668234	0.00238112	-0.895089	2.13235	-2.79041	-1.56954	-2.62331	0	0	-0	0	0	0	4.0161	-83.3404	-23.6289	-11.3627	0.915408	-0.257277	
25636	1580482312.296674280	0.00238112	-0.895078	2.13235	-2.79043	-1.56954	-2.62332	0	0	-0	0	0	0	4.62872	-84.2509	-23.6539	-11.1721	0.890667	-0.205822	
25637	1580482312.304669129	0.00241707	-0.895066	2.13237	-2.79043	-1.56952	-2.62331	0	0	-0	0	0	0	3.94803	-83.6439	-23.8784	-11.2674	0.964889	-0.283005	
25638	1580482312.312672740	0.0023931	-0.895054	2.13235	-2.79044	-1.56952	-2.62327	0	0	-0	0	0	0	4.42452	-83.9474	-23.6289	-11.3388	0.915408	-0.257277	
25639	1580482312.320693813	0.00238112	-0.895066	2.13235	-2.79043	-1.56952	-2.62327	0	0	-0	0	0	0	4.22031	-83.8867	-23.7287	-11.2912	0.940149	-0.180094	
25640	1580482312.328723097	0.0023931	-0.895078	2.13241	-2.79044	-1.56952	-2.6233	0	0	-0	0	0	0	3.53961	-84.3116	-23.5291	-11.2912	0.890667	-0.360188	
25641	1580482312.336690503	0.00236913	-0.895102	2.13236	-2.79045	-1.56956	-2.62325	0	0	-0	0	0	0	4.76486	-83.7653	-23.8036	-11.2912	0.940149	-0.180094	
25642	1580482312.344690082	0.0023931	-0.895066	2.13236	-2.7904	-1.56954	-2.62327	0	0	-0	0	0	0	4.28838	-83.8867	-23.7537	-11.1483	0.841186	-0.180094	
25643	1580482312.352676028	0.0023931	-0.895042	2.13242	-2.79043	-1.56955	-2.6233	0	0	-0	0	0	0	2.85892	-84.0081	-23.5291	-11.1721	0.890667	-0.231549	
25644	1580482312.360752229	0.0023931	-0.895089	2.13238	-2.79041	-1.56952	-2.62332	0	0	-0	0	0	0	3.47154	-83.826	-23.8285	-11.3865	0.98963	-0.308732	
25645	1580482312.368744982	0.00240508	-0.895078	2.13238	-2.79041	-1.56955	-2.62327	0	0	-0	0	0	0	4.28838	-84.433	-23.604	-11.1483	1.03911	-0.180094	
25646	1580482312.376709651	0.00240508	-0.895089	2.13235	-2.79043	-1.56956	-2.6233	0	0	-0	0	0	0	4.08417	-84.1295	-23.6539	-11.2436	0.915408	-0.257277	
25647	1580482312.384704023	0.00233318	-0.895102	2.13241	-2.79041	-1.56952	-2.62327	0	0	-0	0	0	0	3.47154	-83.826	-23.5541	-11.2674	0.841186	-0.205822	
25648	1580482312.392839386	0.00241707	-0.895066	2.13232	-2.79043	-1.56957	-2.6233	0	0	-0	0	0	0	4.22031	-84.3116	-23.7038	-11.2912	0.98963	-0.411643	
25649	1580482312.400720091	0.00236913	-0.895089	2.13234	-2.79045	-1.56954	-2.62327	0	0	-0	0	0	0	4.0161	-83.7653	-23.7287	-11.1959	0.964889	-0.128638	
25650	1580482312.408666070	0.00240508	-0.895078	2.13234	-2.79043	-1.56957	-2.62331	0	0	-0	0	0	0	4.49258	-84.1902	-23.9034	-11.2436	0.742223	-0.231549	
25651	1580482312.416684190	0.0023931	-0.895066	2.13234	-2.79046	-1.56952	-2.62326	0	0	-0	0	0	0	4.28838	-83.826	-23.4792	-11.315	0.98963	-0.205822	
25652	1580482312.424724936	0.00238112	-0.895066	2.13236	-2.7904	-1.56954	-2.62329	0	0	-0	0	0	0	3.81189	-83.826	-23.5541	-11.2674	0.98963	-0.283005	
25653	1580482312.432687319	0.0023931	-0.895102	2.13234	-2.79043	-1.56955	-2.62331	0	0	-0	0	0	0	3.47154	-83.7653	-23.7038	-11.2674	1.03911	-0.205822	
25654	1580482312.440703785	0.00240508	-0.895054	2.13238	-2.7904	-1.56955	-2.62326	0	0	-0	0	0	0	3.53961	-84.1295	-23.7038	-11.1959	0.890667	-0.283005	
25655	1580482312.448669259	0.0023931	-0.895078	2.1324	-2.79041	-1.56956	-2.62329	0	0	-0	0	0	0	3.40347	-84.6151	-23.579	-11.2912	0.915408	-0.205822	
25656	1580482312.456703361	0.00236913	-0.895089	2.13234	-2.79041	-1.56954	-2.62332	0	0	-0	0	0	0	3.67575	-84.0688	-23.4792	-11.2912	0.865926	-0.0771831	
25657	1580482312.464674097	0.00240508	-0.895089	2.13237	-2.79041	-1.56952	-2.62335	0	0	-0	0	0	0	4.35645	-83.7653	-23.6289	-11.1483	0.940149	-0.257277	
25658	1580482312.472698684	0.0023931	-0.895078	2.13232	-2.79041	-1.56952	-2.62327	0	0	-0	0	0	0	3.53961	-84.0081	-23.5291	-11.2197	0.816445	-0.180094	
25659	1580482312.480707801	0.00236913	-0.895054	2.13238	-2.79043	-1.56954	-2.62327	0	0	-0	0	0	0	4.62872	-84.6151	-23.4543	-11.2436	0.940149	-0.128638	
25660	1580482312.488697156	0.00241707	-0.895042	2.13238	-2.79043	-1.56955	-2.62331	0	0	-0	0	0	0	4.15224	-84.1295	-23.6289	-11.4103	1.01437	-0.205822	
25661	1580482312.496700436	0.00235715	-0.895066	2.13237	-2.79043	-1.56952	-2.62331	0	0	-0	0	0	0	4.22031	-84.1295	-23.7786	-11.1483	0.940149	-0.231549	
25662	1580482312.504702265	0.00241707	-0.895066	2.13231	-2.79041	-1.56955	-2.62327	0	0	-0	0	0	0	4.35645	-84.1902	-23.3295	-11.1483	0.915408	-0.180094	
25663	1580482312.512668834	0.00241707	-0.895102	2.13237	-2.79044	-1.56955	-2.62333	0	0	-0	0	0	0	4.35645	-84.0688	-23.6788	-11.2436	0.865926	-0.231549	
25664	1580482312.520875975	0.0023931	-0.895102	2.13242	-2.79045	-1.56954	-2.62329	0	0	-0	0	0	0	4.42452	-83.4011	-23.3794	-11.2674	0.865926	-0.257277	
25665	1580482312.528714288	0.00241707	-0.895054	2.13236	-2.79043	-1.56954	-2.62329	0	0	-0	0	0	0	4.08417	-84.1902	-23.579	-11.3388	0.865926	-0.257277	
25666	1580482312.536702887	0.0023931	-0.895114	2.1324	-2.79043	-1.56954	-2.62325	0	0	-0	0	0	0	4.42452	-84.1902	-23.579	-11.1959	0.964889	-0.0514554	
25667	1580482312.544738767	0.0023931	-0.895066	2.13234	-2.79043	-1.56951	-2.62332	0	0	-0	0	0	0	4.35645	-84.3723	-23.4543	-11.3388	0.890667	-0.205822	
25668	1580482312.552695875	0.0023931	-0.895114	2.13237	-2.79043	-1.56955	-2.62332	0	0	-0	0	0	0	4.35645	-84.1295	-23.5541	-11.2674	0.791704	-0.257277	
25669	1580482312.560682220	0.0023931	-0.895089	2.13238	-2.7904	-1.56955	-2.62327	0	0	-0	0	0	0	4.49258	-83.8867	-23.4792	-11.2674	0.816445	-0.154366	
25670	1580482312.568700053	0.00240508	-0.895078	2.13238	-2.79041	-1.56952	-2.62331	0	0	-0	0	0	0	4.15224	-83.7046	-23.7038	-11.2674	0.915408	-0.231549	
25671	1580482312.576700157	0.00241707	-0.895102	2.13238	-2.79041	-1.56957	-2.62326	0	0	-0	0	0	0	4.15224	-84.1295	-23.4293	-11.2436	0.816445	-0.205822	
25672	1580482312.584728268	0.00242905	-0.895102	2.13238	-2.79041	-1.56955	-2.6233	0	0	-0	0	0	0	3.60768	-83.4011	-23.3545	-11.315	0.865926	-0.231549	
25673	1580482312.592704480	0.0023931	-0.895066	2.13236	-2.79043	-1.56952	-2.6233	0	0	-0	0	0	0	3.19926	-84.2509	-23.6289	-11.1959	0.940149	-0.102911	
25674	1580482312.600690589	0.00235715	-0.895042	2.13236	-2.79044	-1.56955	-2.62327	0	0	-0	0	0	0	4.08417	-83.6439	-23.6539	-11.2436	0.890667	-0.231549	
25675	1580482312.608707753	0.00240508	-0.895089	2.13236	-2.79041	-1.56956	-2.62332	0	0	-0	0	0	0	4.15224	-83.8867	-23.8784	-11.2436	0.915408	-0.231549	
25676	1580482312.616716150	0.00240508	-0.895042	2.13236	-2.79043	-1.56954	-2.62331	0	0	-0	0	0	0	4.22031	-83.6439	-23.5042	-11.2436	0.940149	-0.205822	
25677	1580482312.624675396	0.00242905	-0.895078	2.1324	-2.79043	-1.56954	-2.62327	0	0	-0	0	0	0	3.3354	-84.1295	-23.4792	-11.1721	0.890667	-0.205822	
25678	1580482312.632702998	0.0023931	-0.895066	2.1324	-2.79043	-1.56954	-2.62331	0	0	-0	0	0	0	4.62872	-83.8867	-23.6788	-11.1245	0.940149	-0.257277	
25679	1580482312.640693961	0.0023931	-0.895042	2.13242	-2.79045	-1.56955	-2.6233	0	0	-0	0	0	0	5.03714	-84.433	-23.5291	-11.2912	0.915408	-0.205822	
25680	1580482312.648770535	0.00238112	-0.895089	2.13238	-2.79041	-1.56955	-2.62329	0	0	-0	0	0	0	3.67575	-84.1902	-23.579	-11.2436	0.816445	-0.257277	
25681	1580482312.656677487	0.00238112	-0.895102	2.13237	-2.79043	-1.56955	-2.62333	0	0	-0	0	0	0	4.42452	-83.7653	-23.6289	-11.2674	0.890667	-0.205822	
25682	1580482312.664701318	0.0023931	-0.895054	2.13238	-2.79045	-1.56951	-2.6233	0	0	-0	0	0	0	4.22031	-83.9474	-23.5291	-11.1245	0.940149	-0.154366	
25683	1580482312.672632952	0.0023931	-0.895089	2.13236	-2.79041	-1.56951	-2.62329	0	0	-0	0	0	0	4.901	-84.0081	-23.5541	-11.3627	0.890667	-0.257277	
25684	1580482312.680634881	0.0023931	-0.895054	2.13235	-2.79044	-1.56956	-2.6233	0	0	-0	0	0	0	4.83293	-84.2509	-23.604	-11.2912	0.940149	-0.154366	
25685	1580482312.688609534	0.00242905	-0.895042	2.13236	-2.79043	-1.56952	-2.62327	0	0	-0	0	0	0	4.35645	-84.0688	-23.6539	-11.2912	0.940149	-0.180094	
25686	1580482312.696663641	0.00238112	-0.895066	2.13237	-2.79045	-1.56952	-2.62331	0	0	-0	0	0	0	3.87996	-84.0688	-23.7287	-11.3388	0.964889	-0.205822	
25687	1580482312.704655356	0.00244066	-0.895089	2.13237	-2.79044	-1.56952	-2.62331	0	0	-0	0	0	0	4.0161	-83.8867	-23.604	-11.2436	0.964889	-0.283005	
25688	1580482312.712663524	0.0023931	-0.895042	2.13238	-2.79043	-1.56952	-2.62327	0	0	-0	0	0	0	4.0161	-84.0081	-23.7038	-11.3627	0.865926	-0.154366	
25689	1580482312.720656039	0.00238112	-0.895078	2.13236	-2.79044	-1.56955	-2.62331	0	0	-0	0	0	0	4.42452	-84.6151	-23.5541	-11.2912	0.964889	-0.154366	
25690	1580482312.728670151	0.0023931	-0.895114	2.13237	-2.79041	-1.56956	-2.62329	0	0	-0	0	0	0	3.53961	-83.5225	-23.7038	-11.3388	0.915408	-0.231549	
25691	1580482312.736669218	0.00238112	-0.895054	2.13234	-2.79043	-1.56955	-2.6233	0	0	-0	0	0	0	4.08417	-84.2509	-23.2796	-11.1721	0.915408	-0.180094	
25692	1580482312.744680719	0.0023931	-0.895102	2.13237	-2.79043	-1.56955	-2.6233	0	0	-0	0	0	0	3.47154	-84.1295	-23.6788	-11.3865	0.865926	-0.283005	
25693	1580482312.752671866	0.00238112	-0.895066	2.13235	-2.79044	-1.56955	-2.62327	0	0	-0	0	0	0	4.69679	-84.3116	-23.604	-11.1483	0.915408	-0.231549	
25694	1580482312.760692777	0.00241707	-0.895102	2.13238	-2.79043	-1.56954	-2.62325	0	0	-0	0	0	0	4.28838	-83.219	-23.7038	-11.2436	0.964889	-0.231549	
25695	1580482312.768696427	0.0023931	-0.895066	2.13238	-2.79043	-1.56954	-2.62325	0	0	-0	0	0	0	4.15224	-84.3116	-23.7786	-11.1483	0.940149	-0.154366	
25696	1580482312.776734609	0.0023931	-0.895078	2.13238	-2.79043	-1.56954	-2.62329	0	0	-0	0	0	0	3.94803	-84.433	-23.6289	-11.315	0.890667	-0.205822	
25697	1580482312.784677623	0.00240508	-0.895054	2.13235	-2.79045	-1.56957	-2.6233	0	0	-0	0	0	0	4.0161	-84.0688	-23.5541	-11.2436	0.964889	-0.283005	
25698	1580482312.792705848	0.0023931	-0.895066	2.13235	-2.79045	-1.56956	-2.62331	0	0	-0	0	0	0	4.62872	-84.0081	-23.6289	-11.2197	0.940149	-0.154366	
25699	1580482312.800708230	0.00236913	-0.895078	2.13237	-2.79044	-1.56952	-2.62327	0	0	-0	0	0	0	4.56065	-83.9474	-23.579	-11.1959	0.865926	-0.360188	
25700	1580482312.808771909	0.00238112	-0.895078	2.13236	-2.79044	-1.56955	-2.62332	0	0	-0	0	0	0	4.56065	-84.1295	-23.7038	-11.2197	0.865926	-0.205822	
25701	1580482312.816725517	0.00236913	-0.895066	2.13235	-2.79043	-1.56952	-2.62329	0	0	-0	0	0	0	4.83293	-84.1295	-23.4543	-11.0768	0.865926	-0.180094	
25702	1580482312.824693723	0.00241707	-0.895078	2.13234	-2.79043	-1.56954	-2.62332	0	0	-0	0	0	0	4.69679	-84.433	-23.7038	-11.2436	0.890667	-0.360188	
25703	1580482312.832698707	0.00240508	-0.895066	2.13235	-2.79044	-1.56955	-2.6233	0	0	-0	0	0	0	4.96907	-83.7653	-23.5042	-11.315	0.890667	-0.257277	
25704	1580482312.840762177	0.00240508	-0.895054	2.13237	-2.79043	-1.56955	-2.62331	0	0	-0	0	0	0	3.19926	-84.1902	-23.5291	-11.2912	0.865926	-0.154366	
25705	1580482312.848732871	0.00241707	-0.895078	2.13241	-2.79041	-1.56954	-2.62329	0	0	-0	0	0	0	4.0161	-83.5832	-23.7786	-11.2674	0.915408	-0.33446	
25706	1580482312.856708142	0.00240508	-0.895054	2.13238	-2.79044	-1.56956	-2.62333	0	0	-0	0	0	0	4.49258	-83.8867	-23.4293	-11.2197	0.915408	-0.205822	
25707	1580482312.864726677	0.00242905	-0.895102	2.13236	-2.79043	-1.56951	-2.62329	0	0	-0	0	0	0	4.0161	-83.8867	-23.4044	-11.2436	0.890667	-0.180094	
25708	1580482312.872731961	0.0023931	-0.895089	2.13236	-2.79041	-1.56956	-2.6233	0	0	-0	0	0	0	3.87996	-84.2509	-23.7537	-11.2436	0.865926	-0.102911	
25709	1580482312.880693935	0.00236913	-0.895066	2.13237	-2.79044	-1.56954	-2.6233	0	0	-0	0	0	0	4.08417	-84.0688	-23.604	-11.2674	0.940149	-0.205822	
25710	1580482312.888694372	0.00241707	-0.895089	2.13238	-2.79041	-1.56952	-2.62331	0	0	-0	0	0	0	3.74382	-84.7365	-23.604	-11.2436	0.915408	-0.257277	
25711	1580482312.896708740	0.00241707	-0.895042	2.13235	-2.79044	-1.56952	-2.62329	0	0	-0	0	0	0	4.08417	-84.1295	-23.604	-11.315	0.98963	0.0514554	
25712	1580482312.904684436	0.00240508	-0.895102	2.13236	-2.79043	-1.5695	-2.6233	0	0	-0	0	0	0	4.22031	-83.7046	-23.7537	-11.2436	0.940149	-0.411643	
25713	1580482312.912688464	0.00236913	-0.895089	2.13241	-2.79043	-1.56955	-2.62331	0	0	-0	0	0	0	3.74382	-84.2509	-23.7537	-11.2436	0.940149	-0.180094	
25714	1580482312.920702847	0.0023931	-0.895114	2.13238	-2.79045	-1.56955	-2.62327	0	0	-0	0	0	0	3.94803	-83.9474	-23.7038	-11.2912	0.791704	-0.257277	
25715	1580482312.928670524	0.00240508	-0.895078	2.1324	-2.79043	-1.56951	-2.6233	0	0	-0	0	0	0	4.0161	-83.8867	-23.4792	-11.2197	0.865926	-0.231549	
25716	1580482312.936729910	0.00241707	-0.89503	2.1324	-2.79043	-1.56954	-2.6233	0	0	-0	0	0	0	3.81189	-83.4011	-23.9034	-11.2912	0.915408	-0.154366	
25717	1580482312.944689241	0.00238112	-0.895114	2.13235	-2.79043	-1.56955	-2.62327	0	0	-0	0	0	0	4.08417	-84.4937	-23.7537	-11.3388	0.940149	-0.231549	
25718	1580482312.952668093	0.00241707	-0.895054	2.13237	-2.79045	-1.56957	-2.62332	0	0	-0	0	0	0	3.74382	-83.3404	-23.9034	-11.2912	0.940149	-0.231549	
25719	1580482312.960689528	0.00238112	-0.895102	2.13237	-2.79041	-1.56952	-2.62331	0	0	-0	0	0	0	3.87996	-84.3723	-23.6289	-11.1959	0.915408	-0.180094	
25720	1580482312.968734166	0.00238112	-0.895066	2.13237	-2.79045	-1.56952	-2.62332	0	0	-0	0	0	0	4.08417	-84.1902	-23.6539	-11.2436	0.915408	-0.231549	
25721	1580482312.976688587	0.00240508	-0.895078	2.13234	-2.7904	-1.56952	-2.62331	0	0	-0	0	0	0	3.67575	-84.0081	-23.7537	-11.1959	0.865926	-0.180094	
25722	1580482312.984686360	0.00238112	-0.895089	2.13234	-2.79045	-1.56957	-2.6233	0	0	-0	0	0	0	3.81189	-83.826	-23.6539	-11.4341	0.940149	-0.308732	
25723	1580482312.992692097	0.00240508	-0.895078	2.13241	-2.79041	-1.56952	-2.62326	0	0	-0	0	0	0	3.67575	-83.2797	-23.7038	-11.2674	0.890667	-0.257277	
25724	1580482313.000707668	0.00240508	-0.895066	2.13235	-2.79043	-1.56955	-2.62331	0	0	-0	0	0	0	3.53961	-83.2797	-23.7038	-11.3627	0.890667	-0.205822	
25725	1580482313.008639282	0.00241707	-0.895102	2.13236	-2.79043	-1.56958	-2.62332	0	0	-0	0	0	0	4.08417	-84.0081	-23.579	-11.1721	0.890667	-0.205822	
25726	1580482313.016677810	0.00242905	-0.895102	2.13235	-2.79044	-1.56952	-2.62331	0	0	-0	0	0	0	4.0161	-84.433	-23.7038	-11.1483	0.890667	-0.180094	
25727	1580482313.024668292	0.0023931	-0.895066	2.13236	-2.79041	-1.56952	-2.62329	0	0	-0	0	0	0	3.81189	-83.6439	-23.5291	-11.2436	0.841186	-0.205822	
25728	1580482313.032686817	0.0023931	-0.895066	2.13235	-2.79043	-1.56954	-2.6233	0	0	-0	0	0	0	3.74382	-84.1902	-23.4543	-11.1721	0.915408	-0.180094	
25729	1580482313.040689021	0.0023931	-0.895066	2.13236	-2.7904	-1.56954	-2.62327	0	0	-0	0	0	0	4.28838	-83.6439	-23.7038	-11.2674	0.915408	-0.231549	
25730	1580482313.048665529	0.00238112	-0.895078	2.13235	-2.79043	-1.56951	-2.62331	0	0	-0	0	0	0	4.62872	-83.3404	-23.7537	-11.2436	0.890667	-0.205822	
25731	1580482313.056699240	0.00240508	-0.895089	2.13238	-2.7904	-1.56951	-2.62332	0	0	-0	0	0	0	3.74382	-83.7046	-23.6289	-11.315	1.01437	-0.180094	
25732	1580482313.064656700	0.00240508	-0.895042	2.13238	-2.79039	-1.56952	-2.62332	0	0	-0	0	0	0	4.35645	-84.7365	-23.7537	-11.2912	0.964889	-0.205822	
25733	1580482313.072696004	0.00240508	-0.895089	2.13237	-2.79043	-1.56955	-2.62327	0	0	-0	0	0	0	4.76486	-84.0081	-23.7287	-11.2197	0.964889	-0.257277	
25734	1580482313.080668153	0.00238112	-0.895066	2.13238	-2.79043	-1.56955	-2.62331	0	0	-0	0	0	0	3.87996	-83.7653	-23.7038	-11.1245	0.890667	-0.180094	
25735	1580482313.088691222	0.00240508	-0.895054	2.13238	-2.79045	-1.56951	-2.62331	0	0	-0	0	0	0	4.08417	-83.9474	-23.6788	-11.2197	0.98963	-0.154366	
25736	1580482313.096683347	0.00241707	-0.895066	2.13237	-2.7904	-1.56952	-2.62331	0	0	-0	0	0	0	4.56065	-83.9474	-23.5541	-11.2912	0.915408	-0.0771831	
25737	1580482313.104696346	0.0023931	-0.895078	2.13236	-2.79041	-1.56954	-2.62329	0	0	-0	0	0	0	4.62872	-84.0688	-23.604	-11.2197	0.940149	-0.257277	
25738	1580482313.112659715	0.00238112	-0.895066	2.13236	-2.79043	-1.56955	-2.6233	0	0	-0	0	0	0	3.67575	-83.9474	-23.579	-11.2436	0.841186	-0.257277	
25739	1580482313.120632920	0.00241707	-0.895078	2.1324	-2.79046	-1.56955	-2.62327	0	0	-0	0	0	0	4.22031	-84.1295	-23.6289	-11.1721	0.865926	-0.257277	
25740	1580482313.128692844	0.00242905	-0.895089	2.13241	-2.79044	-1.56951	-2.6233	0	0	-0	0	0	0	4.28838	-84.3116	-23.8036	-11.3388	0.915408	-0.283005	
25741	1580482313.136659107	0.00238112	-0.895054	2.13236	-2.79043	-1.56954	-2.62327	0	0	-0	0	0	0	4.08417	-84.3723	-23.9034	-11.1959	0.964889	-0.154366	
25742	1580482313.144618925	0.00236913	-0.895078	2.13237	-2.79043	-1.56955	-2.62326	0	0	-0	0	0	0	3.60768	-84.0081	-23.6539	-11.1245	0.98963	-0.180094	
25743	1580482313.152618455	0.00236913	-0.895066	2.13236	-2.79041	-1.56955	-2.62329	0	0	-0	0	0	0	4.15224	-83.6439	-23.7786	-11.1959	0.940149	-0.231549	
25744	1580482313.160694382	0.0023931	-0.895066	2.13237	-2.79043	-1.56951	-2.62329	0	0	-0	0	0	0	4.35645	-83.9474	-23.6539	-11.315	0.890667	-0.283005	
25745	1580482313.168670557	0.00240508	-0.895102	2.13241	-2.79045	-1.56956	-2.62331	0	0	-0	0	0	0	3.87996	-84.0688	-23.7537	-11.315	0.890667	-0.180094	
25746	1580482313.176659833	0.00238112	-0.895054	2.13236	-2.79043	-1.56955	-2.62332	0	0	-0	0	0	0	4.08417	-84.433	-23.5541	-11.315	0.915408	-0.257277	
25747	1580482313.184634037	0.00238112	-0.895078	2.13241	-2.79043	-1.56951	-2.62329	0	0	-0	0	0	0	3.3354	-84.1295	-23.4543	-11.2436	0.940149	-0.180094	
25748	1580482313.193269056	0.00240508	-0.895042	2.13237	-2.79044	-1.56954	-2.6233	0	0	-0	0	0	0	4.08417	-84.0081	-23.7038	-11.2197	0.841186	-0.205822	
25749	1580482313.200665726	0.00238112	-0.895078	2.13234	-2.79043	-1.56955	-2.62331	0	0	-0	0	0	0	4.62872	-83.7046	-23.9782	-11.2197	0.915408	-0.257277	
25750	1580482313.208631439	0.00240508	-0.895078	2.13238	-2.79044	-1.56956	-2.62332	0	0	-0	0	0	0	4.22031	-83.7653	-23.5541	-11.3388	0.915408	-0.180094	
25751	1580482313.216645168	0.00240508	-0.895066	2.13236	-2.79043	-1.56956	-2.6233	0	0	-0	0	0	0	4.35645	-83.4618	-23.3794	-11.2912	0.915408	-0.283005	
25752	1580482313.224684189	0.00244066	-0.895066	2.13237	-2.79039	-1.56954	-2.62329	0	0	-0	0	0	0	4.22031	-84.433	-23.6539	-11.3627	0.865926	-0.257277	
25753	1580482313.232659791	0.00240508	-0.895066	2.13241	-2.79045	-1.56957	-2.62332	0	0	-0	0	0	0	4.62872	-84.3723	-23.4792	-11.2197	0.940149	0.0257277	
25754	1580482313.240652201	0.00240508	-0.895054	2.13241	-2.79041	-1.56952	-2.62332	0	0	-0	0	0	0	3.94803	-83.7046	-23.579	-11.3388	0.98963	-0.154366	
25755	1580482313.248683349	0.00240508	-0.895066	2.13236	-2.79045	-1.56956	-2.6233	0	0	-0	0	0	0	3.60768	-84.2509	-23.604	-11.0768	0.964889	-0.257277	
25756	1580482313.256789850	0.0023931	-0.895089	2.13241	-2.79041	-1.56955	-2.62331	0	0	-0	0	0	0	4.49258	-83.7046	-23.6788	-11.3388	0.841186	-0.180094	
25757	1580482313.264659933	0.00236913	-0.895066	2.13237	-2.79044	-1.56951	-2.6233	0	0	-0	0	0	0	4.0161	-84.3723	-23.7786	-11.4103	0.940149	-0.231549	
25758	1580482313.272697811	0.0023931	-0.895066	2.13232	-2.79043	-1.56952	-2.6233	0	0	-0	0	0	0	3.87996	-84.0081	-23.579	-11.2674	0.915408	-0.283005	
25759	1580482313.280699697	0.00240508	-0.895078	2.13237	-2.79043	-1.56955	-2.62327	0	0	-0	0	0	0	3.94803	-83.8867	-23.6539	-11.1483	0.964889	-0.231549	
25760	1580482313.288805110	0.00238112	-0.895078	2.13236	-2.79043	-1.56956	-2.6233	0	0	-0	0	0	0	3.06313	-83.5832	-23.579	-11.3388	0.964889	-0.33446	
25761	1580482313.296695874	0.0023931	-0.895066	2.1324	-2.79043	-1.56955	-2.6233	0	0	-0	0	0	0	4.49258	-83.7046	-23.5042	-11.315	0.915408	-0.308732	
25762	1580482313.304693915	0.00238112	-0.895054	2.13235	-2.79043	-1.56956	-2.62329	0	0	-0	0	0	0	4.76486	-83.5225	-23.5541	-11.2436	0.890667	-0.180094	
25763	1580482313.312696033	0.0023931	-0.895078	2.13241	-2.79044	-1.56951	-2.62331	0	0	-0	0	0	0	3.19926	-83.8867	-23.7786	-11.2436	0.890667	-0.154366	
25764	1580482313.320715294	0.00238112	-0.895102	2.13236	-2.79043	-1.56954	-2.62331	0	0	-0	0	0	0	3.74382	-84.5544	-23.6539	-11.1483	0.915408	-0.180094	
25765	1580482313.328702917	0.00242905	-0.895089	2.1324	-2.79043	-1.56954	-2.62329	0	0	-0	0	0	0	4.76486	-84.1902	-23.579	-11.1959	0.964889	-0.231549	
25766	1580482313.336694921	0.0023931	-0.895102	2.13236	-2.79043	-1.56951	-2.62332	0	0	-0	0	0	0	4.22031	-83.7653	-23.4044	-11.1483	0.940149	-0.205822	
25767	1580482313.344653297	0.00240508	-0.895054	2.13241	-2.7904	-1.56951	-2.62332	0	0	-0	0	0	0	4.22031	-83.8867	-23.604	-11.2912	0.940149	-0.205822	
25768	1580482313.352709569	0.00240508	-0.895042	2.13237	-2.79045	-1.56956	-2.62326	0	0	-0	0	0	0	3.3354	-84.3723	-23.6289	-11.2674	0.940149	-0.257277	
25769	1580482313.360714938	0.00240508	-0.895066	2.1324	-2.79045	-1.56951	-2.62327	0	0	-0	0	0	0	3.94803	-84.3116	-23.3794	-11.2197	0.841186	-0.154366	
25770	1580482313.368646437	0.00242905	-0.895078	2.13237	-2.79044	-1.56956	-2.62327	0	0	-0	0	0	0	3.87996	-84.3116	-23.579	-11.2912	1.01437	-0.205822	
25771	1580482313.376684587	0.0023931	-0.895066	2.13238	-2.79043	-1.56951	-2.62327	0	0	-0	0	0	0	4.42452	-84.3116	-23.604	-11.1721	0.890667	-0.283005	
25772	1580482313.384731033	0.00236913	-0.895042	2.13241	-2.79044	-1.56955	-2.62329	0	0	-0	0	0	0	3.87996	-83.9474	-23.7786	-11.2197	0.940149	-0.231549	
25773	1580482313.392724573	0.0023931	-0.895054	2.13237	-2.79044	-1.56955	-2.62329	0	0	-0	0	0	0	4.0161	-84.3116	-23.7537	-11.2912	0.940149	-0.180094	
25774	1580482313.400692009	0.00242905	-0.895078	2.13236	-2.79043	-1.56958	-2.6233	0	0	-0	0	0	0	4.35645	-84.1295	-23.7786	-11.1721	0.915408	-0.283005	
25775	1580482313.408694450	0.0023931	-0.895089	2.13237	-2.79045	-1.5695	-2.62329	0	0	-0	0	0	0	4.42452	-84.3723	-23.579	-11.2197	0.940149	-0.205822	
25776	1580482313.416784929	0.0023931	-0.89503	2.13235	-2.79043	-1.56954	-2.62325	0	0	-0	0	0	0	3.94803	-83.826	-23.9034	-11.3627	0.964889	-0.33446	
25777	1580482313.424700423	0.00238112	-0.895054	2.13235	-2.79043	-1.56955	-2.62325	0	0	-0	0	0	0	4.42452	-84.0081	-23.3545	-11.2674	0.915408	-0.283005	
25778	1580482313.432650634	0.0023931	-0.89503	2.13237	-2.79044	-1.56955	-2.62329	0	0	-0	0	0	0	4.42452	-84.0688	-23.604	-11.3388	0.964889	-0.205822	
25779	1580482313.440675429	0.00238112	-0.895102	2.13235	-2.79041	-1.56955	-2.62329	0	0	-0	0	0	0	4.22031	-83.8867	-23.6289	-11.315	0.841186	-0.180094	
25780	1580482313.448735808	0.0023931	-0.895054	2.13238	-2.7904	-1.56955	-2.6233	0	0	-0	0	0	0	4.83293	-84.1902	-23.604	-11.1483	0.890667	-0.180094	
25781	1580482313.456696229	0.00236913	-0.895078	2.13238	-2.79043	-1.56954	-2.6233	0	0	-0	0	0	0	3.74382	-83.4618	-23.604	-11.2436	0.940149	-0.205822	
25782	1580482313.464669581	0.00241707	-0.895066	2.13232	-2.79043	-1.56955	-2.62333	0	0	-0	0	0	0	3.74382	-84.0081	-23.579	-11.2197	1.01437	-0.437371	
25783	1580482313.472692064	0.00236913	-0.895089	2.13236	-2.79043	-1.56954	-2.6233	0	0	-0	0	0	0	4.49258	-83.5225	-23.6788	-11.315	0.841186	-0.128638	
25784	1580482313.480695830	0.00241707	-0.895042	2.13236	-2.7904	-1.56954	-2.62326	0	0	-0	0	0	0	4.62872	-84.1295	-23.8535	-11.2197	0.890667	-0.283005	
25785	1580482313.488686054	0.00236913	-0.895078	2.13238	-2.79043	-1.56958	-2.6233	0	0	-0	0	0	0	4.62872	-84.1295	-23.6788	-11.2674	0.964889	-0.180094	
25786	1580482313.496698293	0.00240508	-0.895078	2.13238	-2.7904	-1.56952	-2.62331	0	0	-0	0	0	0	4.35645	-83.9474	-23.7537	-11.2436	0.865926	-0.180094	
25787	1580482313.504698201	0.00236913	-0.895066	2.13241	-2.79041	-1.56956	-2.62326	0	0	-0	0	0	0	4.901	-83.7046	-23.7038	-11.315	0.915408	-0.257277	
25788	1580482313.512683327	0.0023931	-0.895089	2.13238	-2.79043	-1.56955	-2.62327	0	0	-0	0	0	0	4.35645	-83.6439	-23.579	-11.1245	0.964889	-0.257277	
25789	1580482313.520692263	0.00235715	-0.895089	2.13236	-2.79041	-1.56956	-2.62329	0	0	-0	0	0	0	4.62872	-84.1295	-23.9782	-11.3388	0.98963	-0.308732	
25790	1580482313.528641433	0.0023931	-0.895102	2.13237	-2.79044	-1.56956	-2.6233	0	0	-0	0	0	0	4.22031	-84.1295	-23.7038	-11.1959	0.890667	-0.180094	
25791	1580482313.536710936	0.0023931	-0.895066	2.13238	-2.79043	-1.56957	-2.62332	0	0	-0	0	0	0	4.28838	-84.1902	-23.9034	-11.2197	1.03911	-0.205822	
25792	1580482313.544681444	0.00238112	-0.895078	2.1324	-2.79043	-1.56955	-2.62327	0	0	-0	0	0	0	5.03714	-84.1902	-23.6788	-11.2912	0.890667	-0.154366	
25793	1580482313.552690947	0.00238112	-0.895078	2.13235	-2.79044	-1.56955	-2.62326	0	0	-0	0	0	0	4.69679	-83.6439	-23.6788	-11.2912	0.865926	-0.231549	
25794	1580482313.560679731	0.00240508	-0.895078	2.13238	-2.79041	-1.56954	-2.6233	0	0	-0	0	0	0	5.10521	-84.4937	-23.5291	-11.1959	0.890667	-0.180094	
25795	1580482313.568710228	0.0023931	-0.895102	2.13235	-2.7904	-1.56955	-2.62326	0	0	-0	0	0	0	4.62872	-84.2509	-23.579	-11.1959	0.915408	-0.154366	
25796	1580482313.576681053	0.00244066	-0.895089	2.13236	-2.79043	-1.56954	-2.62327	0	0	-0	0	0	0	4.22031	-83.7653	-23.4792	-11.1721	0.865926	-0.231549	
25797	1580482313.584673172	0.00238112	-0.895102	2.13236	-2.79043	-1.56955	-2.6233	0	0	-0	0	0	0	4.15224	-83.5225	-23.5291	-11.3388	0.915408	-0.180094	
25798	1580482313.592698303	0.00238112	-0.895078	2.1324	-2.79041	-1.56949	-2.62329	0	0	-0	0	0	0	3.53961	-83.5832	-23.7537	-11.2197	0.841186	-0.154366	
25799	1580482313.600698883	0.0023931	-0.895089	2.13236	-2.79043	-1.56951	-2.62331	0	0	-0	0	0	0	4.22031	-84.6151	-23.5541	-11.1245	0.964889	-0.33446	
25800	1580482313.608670697	0.00242905	-0.895042	2.13236	-2.79044	-1.56957	-2.6233	0	0	-0	0	0	0	4.0161	-83.7653	-23.5042	-11.2674	0.816445	-0.257277	
25801	1580482313.616658540	0.00236913	-0.895089	2.13237	-2.79044	-1.56955	-2.62327	0	0	-0	0	0	0	4.0161	-84.1295	-23.5541	-11.2674	0.915408	-0.205822	
25802	1580482313.624699566	0.00238112	-0.895102	2.13237	-2.79041	-1.56956	-2.6233	0	0	-0	0	0	0	3.94803	-84.0081	-23.5541	-11.2197	1.01437	-0.154366	
25803	1580482313.632718532	0.0023931	-0.895078	2.13237	-2.79044	-1.56954	-2.62331	0	0	-0	0	0	0	3.74382	-83.4618	-23.6289	-11.2912	0.890667	-0.257277	
25804	1580482313.640771648	0.00241707	-0.895078	2.13237	-2.79043	-1.56955	-2.6233	0	0	-0	0	0	0	4.76486	-83.9474	-23.9782	-11.1721	0.865926	-0.154366	
25805	1580482313.648700852	0.00242905	-0.895078	2.13237	-2.79041	-1.56955	-2.62326	0	0	-0	0	0	0	3.94803	-84.7972	-23.6289	-11.2197	0.865926	-0.205822	
25806	1580482313.656692138	0.00238112	-0.895089	2.13236	-2.79044	-1.56955	-2.62329	0	0	-0	0	0	0	3.87996	-83.5832	-23.8285	-11.2674	0.940149	-0.154366	
25807	1580482313.664664272	0.0023931	-0.895066	2.13235	-2.79041	-1.56951	-2.6233	0	0	-0	0	0	0	4.42452	-84.5544	-23.7537	-11.315	0.940149	-0.33446	
25808	1580482313.672746302	0.00240508	-0.895078	2.1324	-2.79046	-1.56952	-2.62329	0	0	-0	0	0	0	4.15224	-84.0081	-23.6289	-11.2912	0.964889	-0.154366	
25809	1580482313.680712444	0.00240508	-0.895054	2.13238	-2.79044	-1.56955	-2.6233	0	0	-0	0	0	0	4.0161	-84.3723	-23.7786	-11.315	0.841186	-0.205822	
25810	1580482313.688689233	0.00241707	-0.895078	2.13236	-2.79043	-1.56955	-2.6233	0	0	-0	0	0	0	4.08417	-84.3723	-23.7038	-11.2912	0.865926	-0.360188	
25811	1580482313.696658112	0.00240508	-0.895078	2.13236	-2.79044	-1.56951	-2.6233	0	0	-0	0	0	0	3.87996	-83.8867	-23.604	-11.1245	0.940149	-0.257277	
25812	1580482313.704727674	0.00238112	-0.895089	2.13236	-2.79041	-1.56956	-2.62326	0	0	-0	0	0	0	3.94803	-83.1583	-23.7537	-11.1959	0.841186	-0.128638	
25813	1580482313.712720577	0.00240508	-0.895078	2.13237	-2.79044	-1.56954	-2.62327	0	0	-0	0	0	0	4.62872	-84.0081	-23.7038	-11.1721	0.841186	-0.411643	
25814	1580482313.720700473	0.00236913	-0.895102	2.13236	-2.79044	-1.56951	-2.62327	0	0	-0	0	0	0	3.40347	-83.3404	-23.5291	-11.3388	0.915408	-0.205822	
25815	1580482313.728711343	0.00240508	-0.895078	2.13234	-2.79041	-1.56957	-2.62331	0	0	-0	0	0	0	5.24135	-84.5544	-23.7786	-11.3388	0.964889	-0.205822	
25816	1580482313.736772646	0.00244066	-0.895102	2.13237	-2.79043	-1.56956	-2.62329	0	0	-0	0	0	0	4.56065	-84.1295	-23.3295	-11.1721	0.841186	-0.283005	
25817	1580482313.744705714	0.0023931	-0.895089	2.13241	-2.79044	-1.56956	-2.62327	0	0	-0	0	0	0	3.47154	-84.0688	-23.6289	-11.3627	0.890667	-0.231549	
25818	1580482313.752714929	0.00236913	-0.895066	2.13237	-2.79044	-1.56954	-2.62332	0	0	-0	0	0	0	4.56065	-83.9474	-23.7287	-11.315	0.816445	-0.102911	
25819	1580482313.760664645	0.00236913	-0.895078	2.13234	-2.79045	-1.56954	-2.62329	0	0	-0	0	0	0	3.47154	-83.8867	-23.7537	-11.2912	0.865926	-0.205822	
25820	1580482313.768741176	0.00238112	-0.895102	2.13236	-2.79041	-1.56956	-2.62331	0	0	-0	0	0	0	4.28838	-84.0081	-23.4044	-11.3627	0.915408	-0.231549	
25821	1580482313.776657117	0.00240508	-0.895078	2.13238	-2.79041	-1.56954	-2.62329	0	0	-0	0	0	0	4.0161	-84.0688	-23.7287	-11.2197	0.964889	-0.180094	
25822	1580482313.784701067	0.00241707	-0.895054	2.13236	-2.79041	-1.56957	-2.6233	0	0	-0	0	0	0	4.901	-84.2509	-23.579	-11.1721	0.865926	-0.180094	
25823	1580482313.792717524	0.00241707	-0.895078	2.13236	-2.79044	-1.56954	-2.6233	0	0	-0	0	0	0	4.22031	-83.3404	-23.8285	-11.2674	0.964889	-0.257277	
25824	1580482313.800723340	0.0023931	-0.895042	2.13242	-2.7904	-1.56954	-2.6233	0	0	-0	0	0	0	5.03714	-84.5544	-23.8285	-11.2197	0.964889	-0.154366	
25825	1580482313.808693825	0.0023931	-0.895054	2.13241	-2.79043	-1.56954	-2.62331	0	0	-0	0	0	0	3.53961	-83.1583	-23.7537	-11.2436	0.940149	-0.283005	
25826	1580482313.816705817	0.00238112	-0.895078	2.13238	-2.79041	-1.56954	-2.62329	0	0	-0	0	0	0	3.94803	-83.3404	-23.7287	-11.2436	0.865926	-0.257277	
25827	1580482313.824697833	0.0023931	-0.895042	2.13237	-2.79043	-1.56957	-2.62329	0	0	-0	0	0	0	4.22031	-84.3116	-23.5042	-11.3388	0.915408	-0.308732	
25828	1580482313.832728586	0.0023931	-0.895102	2.13238	-2.79043	-1.56952	-2.6233	0	0	-0	0	0	0	4.35645	-84.3723	-23.7287	-11.2197	0.890667	-0.205822	
25829	1580482313.840694830	0.00238112	-0.895102	2.13235	-2.7904	-1.56955	-2.6233	0	0	-0	0	0	0	4.56065	-83.826	-23.7537	-11.3388	0.940149	-0.205822	
25830	1580482313.848694502	0.00240508	-0.895054	2.1324	-2.7904	-1.56955	-2.6233	0	0	-0	0	0	0	4.35645	-83.7046	-23.6539	-11.315	0.98963	-0.205822	
25831	1580482313.856709474	0.0023931	-0.895078	2.1324	-2.79044	-1.56955	-2.6233	0	0	-0	0	0	0	4.28838	-84.5544	-23.8285	-11.1721	0.940149	-0.360188	
25832	1580482313.864753916	0.00238112	-0.895078	2.13235	-2.79044	-1.56954	-2.62329	0	0	-0	0	0	0	4.08417	-84.3116	-23.3794	-11.4103	0.964889	-0.128638	
25833	1580482313.872697005	0.0023931	-0.895089	2.13236	-2.79043	-1.56955	-2.62332	0	0	-0	0	0	0	4.69679	-84.0688	-23.6539	-11.3627	0.915408	-0.154366	
25834	1580482313.880644390	0.0023931	-0.895089	2.13237	-2.79041	-1.56951	-2.62326	0	0	-0	0	0	0	4.22031	-83.2797	-23.6539	-11.2197	0.915408	-0.205822	
25835	1580482313.888721450	0.0023931	-0.895089	2.1324	-2.79044	-1.56954	-2.62327	0	0	-0	0	0	0	4.42452	-84.1295	-23.7537	-11.2674	0.890667	-0.283005	
25836	1580482313.896640708	0.00240508	-0.895066	2.13235	-2.79043	-1.56954	-2.62329	0	0	-0	0	0	0	4.42452	-84.0688	-23.6539	-11.2197	0.865926	-0.180094	
25837	1580482313.904734008	0.00240508	-0.895102	2.13242	-2.7904	-1.56955	-2.6233	0	0	-0	0	0	0	4.22031	-84.0688	-23.6289	-11.4103	0.841186	-0.231549	
25838	1580482313.912731457	0.00241707	-0.895078	2.13236	-2.79041	-1.56957	-2.62331	0	0	-0	0	0	0	4.83293	-83.7046	-23.5042	-11.1721	0.964889	-0.308732	
25839	1580482313.920713289	0.00238112	-0.895089	2.13236	-2.79043	-1.56952	-2.62333	0	0	-0	0	0	0	3.67575	-84.2509	-23.5541	-11.1483	0.915408	-0.257277	
25840	1580482313.928755437	0.00236913	-0.895102	2.13236	-2.79043	-1.56955	-2.62326	0	0	-0	0	0	0	4.83293	-84.0688	-23.7287	-11.2674	0.940149	-0.205822	
25841	1580482313.936727501	0.00240508	-0.895078	2.1324	-2.79043	-1.56956	-2.62333	0	0	-0	0	0	0	4.56065	-84.3723	-23.7038	-11.3627	0.915408	-0.205822	
25842	1580482313.944745180	0.0023931	-0.895114	2.1324	-2.79043	-1.56952	-2.62333	0	0	-0	0	0	0	4.0161	-83.5832	-23.5291	-11.2436	0.915408	-0.180094	
25843	1580482313.952718885	0.00238112	-0.895078	2.13236	-2.79044	-1.56951	-2.62329	0	0	-0	0	0	0	4.83293	-83.826	-23.6539	-11.2912	0.964889	-0.180094	
25844	1580482313.960739638	0.00240508	-0.895114	2.13237	-2.79045	-1.56951	-2.62327	0	0	-0	0	0	0	4.83293	-84.1902	-23.7537	-11.1959	0.890667	-0.231549	
25845	1580482313.968735228	0.00240508	-0.895066	2.13238	-2.79045	-1.56952	-2.6233	0	0	-0	0	0	0	3.87996	-83.6439	-23.6289	-11.315	0.940149	-0.257277	
25846	1580482313.976723518	0.00238112	-0.895066	2.13238	-2.79044	-1.56954	-2.62331	0	0	-0	0	0	0	3.81189	-84.3723	-23.7537	-11.2912	0.964889	-0.231549	
25847	1580482313.984724607	0.00238112	-0.895102	2.13236	-2.79043	-1.56956	-2.62326	0	0	-0	0	0	0	4.49258	-84.0081	-23.7038	-11.2912	0.98963	-0.33446	
25848	1580482313.992703414	0.00238112	-0.895054	2.13238	-2.79044	-1.56955	-2.62331	0	0	-0	0	0	0	4.15224	-83.7653	-23.4044	-11.1959	0.915408	-0.257277	
25849	1580482314.000729446	0.00240508	-0.895054	2.13236	-2.79045	-1.56955	-2.62327	0	0	-0	0	0	0	4.22031	-83.8867	-23.6289	-11.1721	0.915408	-0.205822	
25850	1580482314.008744491	0.00238112	-0.895089	2.13231	-2.79044	-1.56952	-2.62329	0	0	-0	0	0	0	4.56065	-83.9474	-23.579	-11.2436	0.890667	-0.205822	
25851	1580482314.016716033	0.00240508	-0.895078	2.13236	-2.79046	-1.56954	-2.62327	0	0	-0	0	0	0	3.47154	-83.6439	-23.604	-11.1721	0.964889	-0.257277	
25852	1580482314.024708189	0.00242905	-0.895054	2.13237	-2.79045	-1.56954	-2.6233	0	0	-0	0	0	0	3.94803	-84.433	-23.8535	-11.2436	0.940149	-0.205822	
25853	1580482314.032718305	0.00238112	-0.895078	2.13237	-2.79043	-1.56955	-2.62327	0	0	-0	0	0	0	4.49258	-83.8867	-23.5541	-11.1483	0.98963	-0.231549	
25854	1580482314.040740511	0.00240508	-0.895126	2.13234	-2.79043	-1.56952	-2.62331	0	0	-0	0	0	0	4.0161	-84.3723	-23.8784	-11.2436	0.940149	-0.180094	
25855	1580482314.048640736	0.00238112	-0.895102	2.13237	-2.79043	-1.56951	-2.62331	0	0	-0	0	0	0	4.15224	-83.5832	-23.6788	-11.3388	0.890667	-0.205822	
25856	1580482314.056771625	0.00241707	-0.895089	2.13236	-2.79041	-1.56954	-2.62331	0	0	-0	0	0	0	4.56065	-84.1295	-23.7537	-11.1959	0.964889	-0.308732	
25857	1580482314.064724312	0.00242905	-0.895042	2.13234	-2.79041	-1.56952	-2.6233	0	0	-0	0	0	0	3.67575	-83.7046	-23.7287	-11.3865	1.03911	-0.308732	
25858	1580482314.072721496	0.0023931	-0.895102	2.1324	-2.7904	-1.56954	-2.62332	0	0	-0	0	0	0	4.08417	-84.433	-23.7786	-11.3388	1.06385	-0.180094	
25859	1580482314.080746149	0.00240508	-0.895102	2.1324	-2.79044	-1.56954	-2.62331	0	0	-0	0	0	0	3.1312	-83.5832	-23.6539	-11.1959	0.915408	-0.154366	
25860	1580482314.088750370	0.00238112	-0.895078	2.13238	-2.79044	-1.56954	-2.62331	0	0	-0	0	0	0	4.69679	-84.1295	-23.7786	-11.2436	0.915408	-0.231549	
25861	1580482314.096684131	0.00240508	-0.895066	2.13231	-2.79043	-1.56952	-2.62327	0	0	-0	0	0	0	3.67575	-83.7653	-23.8285	-11.2436	0.890667	-0.128638	
25862	1580482314.104691543	0.00241707	-0.895078	2.13232	-2.79043	-1.56952	-2.62332	0	0	-0	0	0	0	4.35645	-83.5225	-23.7287	-11.2436	0.915408	-0.231549	
25863	1580482314.112696231	0.00240508	-0.895102	2.13238	-2.79043	-1.56952	-2.62326	0	0	-0	0	0	0	3.81189	-84.1902	-23.7786	-11.1721	0.940149	-0.231549	
25864	1580482314.120713037	0.00240508	-0.895078	2.13237	-2.79043	-1.56956	-2.62329	0	0	-0	0	0	0	4.49258	-83.9474	-23.604	-11.2436	0.890667	-0.257277	
25865	1580482314.128664022	0.00235715	-0.895066	2.13236	-2.79044	-1.56954	-2.6233	0	0	-0	0	0	0	3.94803	-83.7653	-23.4792	-11.2674	0.915408	-0.231549	
25866	1580482314.136720031	0.00238112	-0.895054	2.13237	-2.79045	-1.56952	-2.6233	0	0	-0	0	0	0	4.69679	-84.0081	-23.604	-11.3627	0.915408	-0.205822	
25867	1580482314.144715116	0.0023931	-0.895078	2.13236	-2.79041	-1.56952	-2.62331	0	0	-0	0	0	0	4.15224	-84.433	-23.6289	-11.2674	0.816445	-0.128638	
25868	1580482314.152727437	0.00241707	-0.895066	2.13236	-2.79043	-1.56954	-2.6233	0	0	-0	0	0	0	4.35645	-83.8867	-23.9533	-11.1483	0.890667	-0.180094	
25869	1580482314.160731138	0.00236913	-0.895066	2.1324	-2.7904	-1.56951	-2.62327	0	0	-0	0	0	0	3.94803	-83.7046	-23.8285	-11.2436	0.890667	-0.180094	
25870	1580482314.168702084	0.00234516	-0.895089	2.13235	-2.79044	-1.56954	-2.62325	0	0	-0	0	0	0	4.49258	-84.0081	-23.6788	-11.2436	0.940149	-0.283005	
25871	1580482314.176702304	0.0023931	-0.895089	2.13238	-2.79045	-1.56955	-2.6233	0	0	-0	0	0	0	3.94803	-83.8867	-23.8285	-11.2197	0.890667	-0.0257277	
25872	1580482314.184718978	0.00240508	-0.895078	2.13238	-2.79043	-1.56951	-2.62329	0	0	-0	0	0	0	3.87996	-84.0688	-23.7287	-11.2674	0.841186	-0.180094	
25873	1580482314.192663023	0.00236913	-0.895042	2.13241	-2.79044	-1.56952	-2.6233	0	0	-0	0	0	0	4.15224	-84.1295	-23.5541	-11.2674	0.98963	-0.360188	
25874	1580482314.200703473	0.00238112	-0.895054	2.13236	-2.79041	-1.56949	-2.62327	0	0	-0	0	0	0	4.901	-83.7653	-23.6539	-11.1483	0.865926	-0.154366	
25875	1580482314.208682534	0.0023931	-0.895102	2.13235	-2.79044	-1.56954	-2.62332	0	0	-0	0	0	0	4.49258	-83.6439	-23.6539	-11.3627	0.915408	-0.231549	
25876	1580482314.216914538	0.00241707	-0.895042	2.13237	-2.79041	-1.56954	-2.62329	0	0	-0	0	0	0	4.35645	-83.826	-23.9034	-11.2674	0.915408	-0.128638	
25877	1580482314.224672444	0.0023931	-0.895078	2.1324	-2.79043	-1.56955	-2.62332	0	0	-0	0	0	0	4.49258	-83.6439	-23.9782	-11.1006	0.940149	-0.128638	
25878	1580482314.232650512	0.00236913	-0.895089	2.13237	-2.79043	-1.56951	-2.6233	0	0	-0	0	0	0	4.0161	-84.0688	-23.8535	-11.4103	0.791704	-0.257277	
25879	1580482314.240651152	0.00240508	-0.895066	2.13237	-2.79044	-1.56955	-2.62331	0	0	-0	0	0	0	3.94803	-84.6151	-23.4293	-11.2197	0.964889	-0.154366	
25880	1580482314.248658227	0.00240508	-0.895102	2.13238	-2.79043	-1.56952	-2.62326	0	0	-0	0	0	0	3.94803	-84.5544	-23.3794	-11.1245	0.791704	-0.283005	
25881	1580482314.256649027	0.0023931	-0.895054	2.13235	-2.7904	-1.56954	-2.62327	0	0	-0	0	0	0	3.67575	-83.9474	-23.9034	-11.1006	1.01437	-0.283005	
25882	1580482314.264659323	0.00240508	-0.895078	2.13235	-2.79045	-1.56954	-2.6233	0	0	-0	0	0	0	3.81189	-84.0688	-23.7038	-11.315	0.865926	-0.180094	
25883	1580482314.272614669	0.00242905	-0.895102	2.13235	-2.79045	-1.56951	-2.62331	0	0	-0	0	0	0	4.56065	-83.5225	-23.7038	-11.2197	0.865926	-0.33446	
25884	1580482314.280663758	0.00238112	-0.895078	2.13237	-2.79044	-1.56952	-2.62331	0	0	-0	0	0	0	5.17328	-84.7972	-23.7038	-11.315	0.964889	-0.128638	
25885	1580482314.288678805	0.00238112	-0.895054	2.13236	-2.79043	-1.56954	-2.62331	0	0	-0	0	0	0	5.30942	-84.0688	-23.6289	-11.1959	0.940149	-0.205822	
25886	1580482314.296665066	0.0023931	-0.895078	2.13231	-2.79043	-1.56955	-2.6233	0	0	-0	0	0	0	4.22031	-84.0081	-23.6539	-11.2436	0.964889	-0.180094	
25887	1580482314.304675941	0.00235715	-0.895078	2.13237	-2.79041	-1.56955	-2.6233	0	0	-0	0	0	0	4.08417	-83.8867	-23.6289	-11.2674	0.964889	-0.205822	
25888	1580482314.312676530	0.0023931	-0.895078	2.13236	-2.79041	-1.56954	-2.62331	0	0	-0	0	0	0	4.28838	-83.7046	-23.7287	-11.3388	0.964889	-0.180094	
25889	1580482314.320655417	0.00236913	-0.895089	2.13236	-2.79044	-1.56952	-2.6233	0	0	-0	0	0	0	4.49258	-84.1295	-23.5291	-11.2197	0.940149	-0.180094	
25890	1580482314.328683304	0.00236913	-0.895078	2.13235	-2.79041	-1.56955	-2.62325	0	0	-0	0	0	0	3.81189	-83.7653	-23.4293	-11.2197	0.865926	-0.231549	
25891	1580482314.336684798	0.00241707	-0.895078	2.13235	-2.79045	-1.56952	-2.62332	0	0	-0	0	0	0	3.81189	-84.3116	-23.3794	-11.3388	0.964889	-0.257277	
25892	1580482314.344697292	0.00238112	-0.895089	2.13236	-2.79043	-1.56952	-2.62332	0	0	-0	0	0	0	4.42452	-83.8867	-23.5541	-11.2674	0.841186	-0.154366	
25893	1580482314.352682656	0.0023931	-0.895018	2.13231	-2.79043	-1.56952	-2.6233	0	0	-0	0	0	0	5.03714	-84.0081	-23.8036	-11.315	0.940149	-0.205822	
25894	1580482314.360684998	0.0023931	-0.895066	2.13236	-2.79041	-1.56952	-2.62332	0	0	-0	0	0	0	4.49258	-84.3116	-23.8036	-11.2674	0.964889	-0.128638	
25895	1580482314.368643243	0.00238112	-0.895102	2.13235	-2.79043	-1.56952	-2.6233	0	0	-0	0	0	0	4.42452	-84.3723	-23.5042	-11.1483	0.865926	-0.257277	
25896	1580482314.376716050	0.00238112	-0.895102	2.13234	-2.79045	-1.56957	-2.6233	0	0	-0	0	0	0	3.74382	-84.0081	-23.7038	-11.3388	0.890667	-0.205822	
25897	1580482314.384724332	0.00241707	-0.895054	2.13237	-2.79043	-1.56951	-2.62331	0	0	-0	0	0	0	4.08417	-83.826	-23.6539	-11.2674	0.915408	-0.128638	
25898	1580482314.392744819	0.00241707	-0.895078	2.13237	-2.79044	-1.56955	-2.62331	0	0	-0	0	0	0	4.35645	-83.219	-23.4044	-11.1721	0.865926	-0.180094	
25899	1580482314.400686750	0.0023931	-0.895042	2.13237	-2.7904	-1.56954	-2.62332	0	0	-0	0	0	0	4.0161	-83.5225	-23.6788	-11.1959	0.890667	-0.283005	
25900	1580482314.408764084	0.00241707	-0.895078	2.13241	-2.7904	-1.56954	-2.62331	0	0	-0	0	0	0	3.94803	-84.3116	-23.3794	-11.2197	0.964889	-0.154366	
25901	1580482314.416703809	0.00238112	-0.895078	2.13237	-2.7904	-1.56956	-2.6233	0	0	-0	0	0	0	4.42452	-83.8867	-23.6289	-11.1959	0.964889	-0.33446	
25902	1580482314.424700075	0.00244066	-0.895066	2.13238	-2.79044	-1.56954	-2.6233	0	0	-0	0	0	0	4.49258	-84.0081	-23.9533	-11.1721	0.865926	-0.180094	
25903	1580482314.432713376	0.0023931	-0.895102	2.13236	-2.79043	-1.56952	-2.62329	0	0	-0	0	0	0	4.42452	-84.0688	-23.6539	-11.2436	0.841186	-0.231549	
25904	1580482314.440711428	0.00240508	-0.895078	2.13235	-2.79043	-1.56952	-2.62327	0	0	-0	0	0	0	4.42452	-84.3116	-23.6788	-11.315	0.98963	-0.180094	
25905	1580482314.448694558	0.00240508	-0.895066	2.13236	-2.79043	-1.56955	-2.62329	0	0	-0	0	0	0	4.22031	-83.5832	-23.6788	-11.3627	0.98963	-0.283005	
25906	1580482314.456691119	0.00238112	-0.895066	2.13241	-2.79045	-1.56952	-2.62327	0	0	-0	0	0	0	4.0161	-84.3723	-23.6788	-11.3627	0.964889	-0.205822	
25907	1580482314.464691125	0.0023931	-0.895042	2.13237	-2.79044	-1.56951	-2.62326	0	0	-0	0	0	0	4.0161	-83.7046	-23.8535	-11.2912	0.791704	-0.180094	
25908	1580482314.472731841	0.00240508	-0.895102	2.13235	-2.79043	-1.56956	-2.6233	0	0	-0	0	0	0	3.47154	-84.1295	-23.7537	-11.315	0.964889	-0.205822	
25909	1580482314.480693218	0.00240508	-0.895102	2.1324	-2.79043	-1.56952	-2.62336	0	0	-0	0	0	0	3.47154	-83.6439	-23.604	-11.2197	1.03911	-0.33446	
25910	1580482314.488693889	0.00240508	-0.895089	2.13236	-2.79043	-1.56954	-2.62331	0	0	-0	0	0	0	4.22031	-83.8867	-23.7786	-11.3388	0.865926	-0.205822	
25911	1580482314.496699272	0.00238112	-0.895089	2.13236	-2.79043	-1.56954	-2.6233	0	0	-0	0	0	0	3.40347	-84.1902	-23.7038	-11.2912	0.98963	-0.180094	
25912	1580482314.504661202	0.0023931	-0.895089	2.13235	-2.79041	-1.56957	-2.6233	0	0	-0	0	0	0	4.62872	-84.3116	-23.3794	-11.2197	0.98963	-0.360188	
25913	1580482314.512671876	0.00240508	-0.895102	2.13231	-2.79043	-1.56952	-2.62333	0	0	-0	0	0	0	4.0161	-83.5225	-23.6788	-11.2436	0.890667	-0.154366	
25914	1580482314.520689307	0.0023931	-0.895102	2.13236	-2.79043	-1.56955	-2.62329	0	0	-0	0	0	0	3.60768	-83.9474	-23.7038	-11.2436	0.964889	-0.231549	
25915	1580482314.528695866	0.0023931	-0.895089	2.13236	-2.7904	-1.56952	-2.62326	0	0	-0	0	0	0	4.08417	-83.2797	-23.604	-11.315	0.964889	-0.205822	
25916	1580482314.536724070	0.00240508	-0.895078	2.13237	-2.79043	-1.56954	-2.62332	0	0	-0	0	0	0	4.22031	-84.3723	-23.604	-11.2912	0.964889	-0.257277	
25917	1580482314.544690622	0.00242905	-0.895054	2.13237	-2.79045	-1.56954	-2.62325	0	0	-0	0	0	0	4.76486	-84.6758	-23.8036	-11.1959	0.915408	-0.231549	
25918	1580482314.552694142	0.00241707	-0.895089	2.13236	-2.79045	-1.56955	-2.62332	0	0	-0	0	0	0	4.08417	-84.3116	-23.6788	-11.2674	0.915408	-0.231549	
25919	1580482314.560671150	0.0023931	-0.895089	2.13236	-2.79044	-1.56955	-2.6233	0	0	-0	0	0	0	3.74382	-84.3723	-23.4792	-11.2912	0.915408	-0.231549	
25920	1580482314.568710436	0.00240508	-0.895054	2.13237	-2.79041	-1.56951	-2.62329	0	0	-0	0	0	0	4.62872	-84.3723	-23.8036	-11.1483	0.890667	-0.154366	
25921	1580482314.576690709	0.0023931	-0.895078	2.13237	-2.79044	-1.56957	-2.62331	0	0	-0	0	0	0	4.901	-83.6439	-23.7038	-11.3388	0.98963	-0.283005	
25922	1580482314.584697799	0.00238112	-0.895089	2.13235	-2.79045	-1.56955	-2.62332	0	0	-0	0	0	0	4.0161	-84.0081	-23.6788	-11.2912	0.890667	-0.180094	
25923	1580482314.592657791	0.00235715	-0.895066	2.13236	-2.79039	-1.56951	-2.6233	0	0	-0	0	0	0	4.901	-83.5225	-23.5541	-11.2197	0.791704	-0.205822	
25924	1580482314.600722657	0.0023931	-0.895089	2.1324	-2.7904	-1.56955	-2.6233	0	0	-0	0	0	0	4.22031	-84.3116	-23.6788	-11.1245	0.915408	-0.128638	
25925	1580482314.608686639	0.00240508	-0.895042	2.13236	-2.79044	-1.56954	-2.62327	0	0	-0	0	0	0	4.49258	-83.8867	-23.6788	-11.2436	0.940149	-0.180094	
25926	1580482314.616687905	0.00235715	-0.895078	2.13236	-2.79041	-1.56951	-2.62333	0	0	-0	0	0	0	4.0161	-83.7046	-23.7537	-11.1959	0.841186	-0.154366	
25927	1580482314.624649999	0.00240508	-0.895126	2.13241	-2.79043	-1.56955	-2.6233	0	0	-0	0	0	0	4.42452	-84.6151	-23.7537	-11.2674	0.964889	-0.257277	
25928	1580482314.632681978	0.00238112	-0.895078	2.13235	-2.7904	-1.56951	-2.6233	0	0	-0	0	0	0	5.17328	-84.4937	-23.6289	-11.2436	0.890667	-0.154366	
25929	1580482314.640664368	0.0023931	-0.895089	2.13238	-2.79044	-1.56956	-2.6233	0	0	-0	0	0	0	4.15224	-84.0081	-23.9034	-11.1721	0.98963	-0.154366	
25930	1580482314.648689817	0.00240508	-0.895078	2.13238	-2.7904	-1.56954	-2.6233	0	0	-0	0	0	0	5.10521	-83.2797	-23.8535	-11.1245	0.98963	-0.180094	
25931	1580482314.656662754	0.00240508	-0.895089	2.13238	-2.79044	-1.56954	-2.6233	0	0	-0	0	0	0	4.22031	-83.5832	-23.579	-11.2674	0.98963	-0.205822	
25932	1580482314.664701299	0.00238112	-0.895114	2.13234	-2.79043	-1.56951	-2.62331	0	0	-0	0	0	0	4.96907	-83.8867	-23.9034	-11.315	0.98963	-0.154366	
25933	1580482314.672696079	0.0023931	-0.895102	2.13236	-2.79045	-1.5695	-2.6233	0	0	-0	0	0	0	3.60768	-83.4011	-23.5541	-11.1245	0.890667	-0.180094	
25934	1580482314.680692849	0.0023931	-0.895078	2.13237	-2.79041	-1.56952	-2.62326	0	0	-0	0	0	0	4.42452	-83.3404	-23.8036	-11.315	0.890667	-0.231549	
25935	1580482314.688698289	0.0023931	-0.895102	2.13237	-2.79043	-1.56954	-2.62331	0	0	-0	0	0	0	4.83293	-83.5225	-23.579	-11.3627	0.964889	-0.231549	
25936	1580482314.696703522	0.00238112	-0.895054	2.13234	-2.79043	-1.56956	-2.6233	0	0	-0	0	0	0	4.28838	-84.2509	-23.9034	-11.3627	0.890667	-0.257277	
25937	1580482314.704716829	0.00238112	-0.895078	2.13238	-2.79043	-1.56956	-2.62326	0	0	-0	0	0	0	4.08417	-84.2509	-23.579	-11.3627	0.915408	-0.257277	
25938	1580482314.712686226	0.00238112	-0.895102	2.13235	-2.79044	-1.56958	-2.62327	0	0	-0	0	0	0	5.10521	-84.3116	-23.6539	-11.2912	0.940149	-0.33446	
25939	1580482314.720700430	0.0023931	-0.895066	2.13238	-2.79043	-1.56958	-2.6233	0	0	-0	0	0	0	3.3354	-83.2797	-23.4543	-11.3388	0.915408	-0.180094	
25940	1580482314.728743254	0.0023931	-0.895066	2.13237	-2.79043	-1.56952	-2.62327	0	0	-0	0	0	0	4.49258	-84.1295	-23.9283	-11.2436	0.964889	-0.128638	
25941	1580482314.736639349	0.00240508	-0.895102	2.13238	-2.79043	-1.56955	-2.62327	0	0	-0	0	0	0	3.94803	-84.0081	-23.7537	-11.2674	0.964889	-0.33446	
25942	1580482314.744688761	0.00238112	-0.895114	2.1324	-2.79041	-1.56955	-2.62327	0	0	-0	0	0	0	4.49258	-84.2509	-23.8036	-11.2197	0.865926	-0.154366	
25943	1580482314.752697871	0.00241707	-0.895066	2.13241	-2.79046	-1.56951	-2.6233	0	0	-0	0	0	0	3.60768	-84.1902	-23.5291	-11.315	0.964889	-0.283005	
25944	1580482314.760705095	0.00240508	-0.895089	2.13238	-2.79044	-1.56955	-2.62332	0	0	-0	0	0	0	3.67575	-84.3116	-23.3545	-11.315	0.915408	-0.257277	
25945	1580482314.768665559	0.00241707	-0.895102	2.13237	-2.79043	-1.56952	-2.6233	0	0	-0	0	0	0	4.42452	-83.9474	-23.7038	-11.315	0.890667	-0.205822	
25946	1580482314.776692975	0.00240508	-0.895089	2.13241	-2.79045	-1.56955	-2.62327	0	0	-0	0	0	0	3.74382	-84.2509	-23.3545	-11.3388	0.98963	-0.257277	
25947	1580482314.784695282	0.0023931	-0.895054	2.13231	-2.79043	-1.56951	-2.62329	0	0	-0	0	0	0	4.56065	-84.1902	-23.7287	-11.2436	0.816445	-0.180094	
25948	1580482314.792759723	0.00241707	-0.89503	2.13238	-2.79043	-1.56954	-2.62332	0	0	-0	0	0	0	3.87996	-84.3116	-23.8784	-11.2197	0.98963	-0.231549	
25949	1580482314.800703247	0.00242905	-0.895114	2.1324	-2.79043	-1.56952	-2.6233	0	0	-0	0	0	0	3.74382	-84.433	-23.5291	-11.3388	0.940149	-0.257277	
25950	1580482314.808682330	0.00238112	-0.895078	2.13236	-2.79043	-1.56954	-2.62329	0	0	-0	0	0	0	4.83293	-83.8867	-23.579	-11.2197	0.98963	-0.283005	
25951	1580482314.816703667	0.00238112	-0.895078	2.13238	-2.79041	-1.56952	-2.62329	0	0	-0	0	0	0	4.42452	-84.3723	-23.579	-11.1721	0.890667	-0.257277	
25952	1580482314.824798014	0.00240508	-0.895089	2.13236	-2.7904	-1.56958	-2.62331	0	0	-0	0	0	0	4.69679	-84.433	-23.5291	-11.1245	0.890667	-0.283005	
25953	1580482314.832702176	0.00241707	-0.895114	2.13235	-2.79043	-1.56954	-2.62331	0	0	-0	0	0	0	4.49258	-83.9474	-23.7038	-11.2674	0.915408	-0.180094	
25954	1580482314.840702584	0.00240508	-0.895089	2.13238	-2.79044	-1.56955	-2.62329	0	0	-0	0	0	0	4.76486	-83.4011	-23.6289	-11.2912	0.915408	-0.180094	
25955	1580482314.848712331	0.0023931	-0.895054	2.13236	-2.79044	-1.56954	-2.62331	0	0	-0	0	0	0	4.15224	-84.3116	-23.7786	-11.2436	0.865926	-0.205822	
25956	1580482314.856696541	0.00238112	-0.895054	2.1324	-2.79043	-1.56951	-2.62332	0	0	-0	0	0	0	4.69679	-84.0688	-23.8285	-11.1721	0.940149	-0.283005	
25957	1580482314.864685728	0.00242905	-0.895078	2.1324	-2.7904	-1.56957	-2.6233	0	0	-0	0	0	0	5.64977	-83.6439	-23.6289	-11.2197	0.915408	-0.154366	
25958	1580482314.872707469	0.00238112	-0.895054	2.1324	-2.79043	-1.56957	-2.62333	0	0	-0	0	0	0	4.69679	-83.7653	-23.579	-11.2436	0.717482	-0.205822	
25959	1580482314.880708562	0.00236913	-0.895089	2.13238	-2.79044	-1.56957	-2.62331	0	0	-0	0	0	0	4.35645	-84.1902	-23.6788	-11.315	0.964889	-0.231549	
25960	1580482314.888713462	0.0023931	-0.895089	2.13232	-2.79045	-1.56955	-2.62329	0	0	-0	0	0	0	4.0161	-84.6151	-23.4293	-11.2674	0.865926	-0.205822	
25961	1580482314.896704843	0.00241707	-0.895089	2.13237	-2.79041	-1.56954	-2.62327	0	0	-0	0	0	0	4.22031	-84.1295	-23.6289	-11.2912	0.940149	-0.205822	
25962	1580482314.904694244	0.00240508	-0.895078	2.13242	-2.79043	-1.56955	-2.6233	0	0	-0	0	0	0	3.81189	-83.5832	-23.4792	-11.315	0.940149	-0.257277	
25963	1580482314.912645339	0.00241707	-0.895054	2.13237	-2.79044	-1.56958	-2.62331	0	0	-0	0	0	0	4.49258	-83.4618	-23.8535	-11.3627	0.865926	-0.231549	
25964	1580482314.920786648	0.00240508	-0.895078	2.13237	-2.7904	-1.56955	-2.62326	0	0	-0	0	0	0	4.0161	-84.6151	-23.4543	-11.1721	0.964889	-0.231549	
25965	1580482314.928652682	0.00240508	-0.895042	2.13241	-2.79041	-1.56954	-2.62332	0	0	-0	0	0	0	4.08417	-83.8867	-23.7287	-11.2674	1.03911	-0.128638	
25966	1580482314.936699906	0.00240508	-0.895078	2.13242	-2.79045	-1.56955	-2.62327	0	0	-0	0	0	0	4.35645	-83.6439	-23.7786	-11.1483	0.964889	-0.0514554	
25967	1580482314.944707648	0.00240508	-0.895066	2.13238	-2.79041	-1.56955	-2.62329	0	0	-0	0	0	0	5.10521	-84.1295	-23.604	-11.3865	0.940149	-0.205822	
25968	1580482314.952767796	0.00238112	-0.895078	2.13238	-2.79043	-1.56956	-2.62329	0	0	-0	0	0	0	4.83293	-84.3723	-23.7038	-11.2674	0.940149	-0.180094	
25969	1580482314.960713017	0.00241707	-0.89503	2.13236	-2.79043	-1.56956	-2.62329	0	0	-0	0	0	0	4.56065	-84.0688	-24.0032	-11.2674	0.940149	-0.180094	
25970	1580482314.968667298	0.00241707	-0.895066	2.13241	-2.7904	-1.56956	-2.62327	0	0	-0	0	0	0	4.96907	-83.8867	-23.6289	-11.2674	0.964889	-0.283005	
25971	1580482314.976705547	0.0023931	-0.895066	2.13235	-2.79043	-1.56955	-2.6233	0	0	-0	0	0	0	4.42452	-84.5544	-23.8036	-11.3627	0.915408	-0.257277	
25972	1580482314.984769069	0.00236913	-0.895042	2.13235	-2.79041	-1.56955	-2.62332	0	0	-0	0	0	0	4.901	-84.1295	-23.8036	-11.1483	0.865926	-0.283005	
25973	1580482314.992683674	0.0023931	-0.895078	2.1324	-2.79043	-1.56954	-2.6233	0	0	-0	0	0	0	4.96907	-84.433	-23.6539	-11.1959	0.890667	-0.180094	
25974	1580482315.000713861	0.00241707	-0.895089	2.13238	-2.79043	-1.56954	-2.6233	0	0	-0	0	0	0	4.0161	-84.2509	-23.5291	-11.1959	0.940149	-0.283005	
25975	1580482315.008682616	0.00240508	-0.895102	2.13237	-2.79041	-1.56952	-2.62329	0	0	-0	0	0	0	4.83293	-84.433	-23.5541	-11.2436	0.915408	-0.154366	
25976	1580482315.016740830	0.0023931	-0.895089	2.13234	-2.7904	-1.56955	-2.62331	0	0	-0	0	0	0	3.87996	-84.433	-23.8036	-11.2674	0.890667	-0.180094	
25977	1580482315.024718367	0.00240508	-0.895089	2.13237	-2.79045	-1.56954	-2.62333	0	0	-0	0	0	0	4.08417	-84.0688	-23.8036	-11.1959	0.841186	-0.180094	
25978	1580482315.032692837	0.00236913	-0.895078	2.13236	-2.79043	-1.56951	-2.62329	0	0	-0	0	0	0	4.42452	-84.3116	-23.4792	-11.2674	0.940149	-0.231549	
25979	1580482315.040694266	0.00238112	-0.895078	2.13238	-2.79044	-1.56955	-2.62329	0	0	-0	0	0	0	4.15224	-84.433	-23.6539	-11.2436	0.915408	-0.283005	
25980	1580482315.048756416	0.00238112	-0.895078	2.13237	-2.7904	-1.5695	-2.62327	0	0	-0	0	0	0	3.74382	-84.1902	-23.7287	-11.2436	0.865926	-0.308732	
25981	1580482315.056708072	0.00240508	-0.895066	2.1324	-2.79041	-1.56957	-2.62327	0	0	-0	0	0	0	3.74382	-83.8867	-23.4792	-11.1483	0.890667	-0.102911	
25982	1580482315.064714412	0.00242905	-0.895054	2.13237	-2.79043	-1.56954	-2.62331	0	0	-0	0	0	0	4.28838	-83.6439	-23.7287	-11.2674	0.865926	-0.154366	
25983	1580482315.072726429	0.0023931	-0.895078	2.1324	-2.79045	-1.56952	-2.6233	0	0	-0	0	0	0	3.94803	-84.1902	-23.604	-11.2197	0.964889	-0.257277	
25984	1580482315.080749336	0.00236913	-0.895114	2.1324	-2.79043	-1.56952	-2.62329	0	0	-0	0	0	0	3.94803	-84.1902	-23.7287	-11.2912	0.865926	-0.180094	
25985	1580482315.088709161	0.00238112	-0.895042	2.13235	-2.79043	-1.56952	-2.62331	0	0	-0	0	0	0	4.35645	-83.9474	-23.604	-11.2197	0.865926	-0.360188	
25986	1580482315.096710269	0.00241707	-0.895078	2.13237	-2.79045	-1.56952	-2.62327	0	0	-0	0	0	0	4.42452	-84.4937	-24.2028	-11.315	0.890667	-0.231549	
25987	1580482315.104678693	0.00238112	-0.895054	2.13237	-2.79044	-1.56951	-2.62331	0	0	-0	0	0	0	4.69679	-83.5832	-23.6289	-11.315	0.791704	-0.180094	
25988	1580482315.112684609	0.00240508	-0.895042	2.13237	-2.79044	-1.56955	-2.62329	0	0	-0	0	0	0	4.15224	-83.0976	-23.3794	-11.1721	1.01437	-0.205822	
25989	1580482315.120691143	0.0023931	-0.895102	2.13236	-2.79044	-1.56952	-2.62329	0	0	-0	0	0	0	3.53961	-83.7046	-23.4792	-11.315	0.865926	-0.180094	
25990	1580482315.128717592	0.0023931	-0.895054	2.13238	-2.79043	-1.56955	-2.62327	0	0	-0	0	0	0	4.35645	-84.0081	-23.6289	-11.1245	0.890667	-0.231549	
25991	1580482315.136666484	0.0023931	-0.895066	2.13236	-2.79045	-1.56955	-2.62326	0	0	-0	0	0	0	4.22031	-84.0081	-23.7786	-11.2197	0.940149	-0.154366	
25992	1580482315.144725575	0.0023931	-0.895114	2.13237	-2.7904	-1.56955	-2.6233	0	0	-0	0	0	0	3.87996	-84.3116	-23.6539	-11.1721	0.841186	-0.231549	
25993	1580482315.152729275	0.00241707	-0.895042	2.13236	-2.7904	-1.56955	-2.62331	0	0	-0	0	0	0	4.42452	-83.9474	-23.6289	-11.2912	0.890667	-0.308732	
25994	1580482315.160729951	0.0023931	-0.895078	2.13237	-2.7904	-1.56954	-2.62329	0	0	-0	0	0	0	4.83293	-84.2509	-23.6539	-11.2197	0.915408	-0.257277	
25995	1580482315.168715468	0.00240508	-0.895102	2.13236	-2.79044	-1.56954	-2.62331	0	0	-0	0	0	0	3.53961	-84.0688	-23.4792	-11.2436	0.915408	-0.231549	
25996	1580482315.176760369	0.0023931	-0.895066	2.13237	-2.79044	-1.56954	-2.62329	0	0	-0	0	0	0	4.0161	-84.0081	-23.5541	-11.2674	0.865926	-0.180094	
25997	1580482315.184730646	0.00238112	-0.895078	2.13238	-2.79043	-1.56952	-2.62329	0	0	-0	0	0	0	4.22031	-84.2509	-23.5291	-11.2436	0.890667	-0.33446	
25998	1580482315.192709311	0.00240508	-0.895066	2.13237	-2.79043	-1.56954	-2.62331	0	0	-0	0	0	0	4.69679	-83.0976	-23.8036	-11.315	0.915408	-0.257277	
25999	1580482315.200721967	0.0023931	-0.895102	2.13236	-2.79044	-1.56954	-2.6233	0	0	-0	0	0	0	4.83293	-84.1295	-23.5291	-11.315	0.865926	-0.231549	
26000	1580482315.208784921	0.0023931	-0.895054	2.1324	-2.79043	-1.56954	-2.62332	0	0	-0	0	0	0	4.42452	-83.8867	-23.4792	-11.3865	0.841186	-0.180094	
26001	1580482315.216736538	0.00238112	-0.895066	2.13234	-2.79043	-1.56956	-2.62327	0	0	-0	0	0	0	4.76486	-84.3723	-23.5291	-11.315	0.964889	-0.205822	
26002	1580482315.224744350	0.00242905	-0.895089	2.1324	-2.79045	-1.56956	-2.62327	0	0	-0	0	0	0	4.49258	-84.1295	-23.4543	-11.315	0.841186	-0.102911	
26003	1580482315.232738070	0.0023931	-0.895054	2.13235	-2.79043	-1.56957	-2.62327	0	0	-0	0	0	0	4.22031	-83.826	-23.8036	-11.2912	0.98963	-0.283005	
26004	1580482315.240748931	0.00240508	-0.895042	2.13236	-2.79043	-1.56952	-2.62326	0	0	-0	0	0	0	4.49258	-83.6439	-23.6289	-11.2436	0.915408	-0.231549	
26005	1580482315.248742710	0.0023931	-0.895078	2.13236	-2.79041	-1.56957	-2.62333	0	0	-0	0	0	0	4.28838	-84.0081	-23.6539	-11.2912	0.964889	-0.205822	
26006	1580482315.256757870	0.00241707	-0.895089	2.13235	-2.79041	-1.56955	-2.62327	0	0	-0	0	0	0	4.56065	-83.6439	-23.4792	-11.1959	0.915408	-0.205822	
26007	1580482315.264696114	0.00240508	-0.895066	2.1324	-2.79044	-1.56956	-2.62332	0	0	-0	0	0	0	4.62872	-83.826	-23.5291	-11.2912	0.964889	-0.128638	
26008	1580482315.272752410	0.00241707	-0.895066	2.13235	-2.79044	-1.56955	-2.62327	0	0	-0	0	0	0	4.42452	-84.2509	-23.604	-11.3388	0.915408	-0.205822	
26009	1580482315.280744838	0.00241707	-0.895054	2.13236	-2.79044	-1.56954	-2.6233	0	0	-0	0	0	0	4.42452	-83.7046	-23.6289	-11.3388	0.841186	-0.102911	
26010	1580482315.288727943	0.00238112	-0.895066	2.13237	-2.79041	-1.56954	-2.62326	0	0	-0	0	0	0	3.53961	-84.3723	-23.604	-11.053	1.01437	-0.231549	
26011	1580482315.296723097	0.00240508	-0.895042	2.13237	-2.79041	-1.56951	-2.62329	0	0	-0	0	0	0	4.901	-84.6151	-23.4044	-11.2436	0.841186	-0.205822	
26012	1580482315.304730141	0.00241707	-0.895042	2.1324	-2.7904	-1.56956	-2.6233	0	0	-0	0	0	0	3.60768	-83.5225	-23.6289	-11.1483	0.915408	-0.180094	
26013	1580482315.312716315	0.00240508	-0.895078	2.13238	-2.79043	-1.56954	-2.62325	0	0	-0	0	0	0	5.30942	-83.8867	-23.4792	-11.315	0.890667	-0.308732	
26014	1580482315.320728104	0.00241707	-0.895089	2.13238	-2.79046	-1.56952	-2.6233	0	0	-0	0	0	0	4.69679	-84.433	-23.8285	-11.2674	1.03911	-0.231549	
26015	1580482315.328730839	0.0023931	-0.895078	2.13234	-2.79043	-1.56952	-2.62332	0	0	-0	0	0	0	4.0161	-84.3723	-23.6539	-11.2674	0.964889	-0.180094	
26016	1580482315.336744486	0.00238112	-0.895078	2.13237	-2.79043	-1.56952	-2.6233	0	0	-0	0	0	0	3.87996	-83.4618	-23.7038	-11.2674	0.692741	-0.128638	
26017	1580482315.344685515	0.00240508	-0.895042	2.13237	-2.79043	-1.56952	-2.62329	0	0	-0	0	0	0	4.35645	-83.9474	-23.8036	-11.2674	0.841186	-0.205822	
26018	1580482315.352718932	0.0023931	-0.895102	2.1324	-2.79043	-1.56952	-2.6233	0	0	-0	0	0	0	3.94803	-83.9474	-23.7038	-11.2436	0.841186	-0.308732	
26019	1580482315.360714014	0.00241707	-0.895102	2.13236	-2.79044	-1.56955	-2.62329	0	0	-0	0	0	0	2.79085	-83.4011	-23.6289	-11.2436	0.964889	-0.231549	
26020	1580482315.368708426	0.00238112	-0.895089	2.13238	-2.79045	-1.56956	-2.62329	0	0	-0	0	0	0	4.62872	-84.1902	-23.8036	-11.2674	0.915408	-0.180094	
26021	1580482315.376683127	0.00242905	-0.895078	2.13237	-2.79044	-1.56956	-2.62325	0	0	-0	0	0	0	4.42452	-84.0688	-23.7537	-11.1959	0.915408	-0.231549	
26022	1580482315.384703374	0.00240508	-0.895078	2.13237	-2.79043	-1.56955	-2.62327	0	0	-0	0	0	0	3.87996	-84.433	-23.7287	-11.2912	0.915408	-0.231549	
26023	1580482315.392712340	0.00238112	-0.895066	2.13237	-2.79043	-1.56956	-2.62329	0	0	-0	0	0	0	4.49258	-83.4011	-23.4543	-11.1959	0.915408	-0.257277	
26024	1580482315.400739555	0.00240508	-0.895066	2.13236	-2.79044	-1.56956	-2.62327	0	0	-0	0	0	0	3.94803	-83.3404	-23.5541	-11.2436	0.915408	-0.283005	
26025	1580482315.408687961	0.00240508	-0.895066	2.13236	-2.79043	-1.56956	-2.62329	0	0	-0	0	0	0	4.0161	-83.7046	-23.6539	-11.1959	0.940149	-0.257277	
26026	1580482315.416690435	0.00240508	-0.895078	2.13235	-2.79045	-1.56955	-2.6233	0	0	-0	0	0	0	3.53961	-83.826	-23.5291	-11.1959	0.915408	-0.205822	
26027	1580482315.424672947	0.0023931	-0.895042	2.1324	-2.79041	-1.56956	-2.62331	0	0	-0	0	0	0	4.15224	-84.2509	-23.4543	-11.2197	0.841186	-0.102911	
26028	1580482315.432709458	0.00238112	-0.895066	2.13234	-2.79041	-1.56954	-2.62332	0	0	-0	0	0	0	4.49258	-84.1902	-23.7038	-11.2912	0.915408	-0.33446	
26029	1580482315.440694255	0.0023931	-0.895054	2.13237	-2.79041	-1.56951	-2.62332	0	0	-0	0	0	0	4.42452	-84.3723	-23.5042	-11.4103	0.964889	-0.231549	
26030	1580482315.448702062	0.0023931	-0.895089	2.13232	-2.79041	-1.56951	-2.62326	0	0	-0	0	0	0	4.15224	-83.9474	-23.7537	-11.2674	0.940149	-0.231549	
26031	1580482315.456664332	0.0023931	-0.895078	2.13237	-2.79041	-1.56956	-2.6233	0	0	-0	0	0	0	4.901	-84.4937	-23.4792	-11.2436	0.940149	-0.180094	
26032	1580482315.464737772	0.00241707	-0.895089	2.13235	-2.79043	-1.56952	-2.62329	0	0	-0	0	0	0	4.62872	-84.0688	-23.5291	-11.2912	0.915408	-0.205822	
26033	1580482315.472648526	0.00236913	-0.895078	2.13235	-2.7904	-1.56952	-2.62327	0	0	-0	0	0	0	4.83293	-83.3404	-23.5541	-11.2197	0.915408	-0.257277	
26034	1580482315.480689733	0.0023931	-0.895126	2.1324	-2.79044	-1.56955	-2.62331	0	0	-0	0	0	0	4.49258	-83.0976	-23.5042	-11.1245	0.841186	-0.154366	
26035	1580482315.488702327	0.0023931	-0.895089	2.13237	-2.79044	-1.56956	-2.62331	0	0	-0	0	0	0	4.62872	-84.1902	-23.5291	-11.2912	0.890667	-0.128638	
26036	1580482315.496771739	0.00240508	-0.895089	2.13234	-2.7904	-1.56954	-2.62329	0	0	-0	0	0	0	4.56065	-83.5832	-23.4293	-11.3388	0.890667	-0.231549	
26037	1580482315.504690428	0.00240508	-0.895066	2.13237	-2.79043	-1.56952	-2.62329	0	0	-0	0	0	0	4.22031	-83.8867	-23.6788	-11.315	0.841186	-0.154366	
26038	1580482315.512691451	0.0023931	-0.895089	2.1324	-2.79044	-1.56957	-2.62332	0	0	-0	0	0	0	3.94803	-83.4618	-23.579	-11.2436	0.964889	-0.257277	
26039	1580482315.520687795	0.00238112	-0.895066	2.13238	-2.79041	-1.56956	-2.62331	0	0	-0	0	0	0	3.94803	-84.4937	-23.4543	-11.2436	0.865926	-0.308732	
26040	1580482315.528720194	0.00241707	-0.895066	2.13236	-2.79043	-1.56954	-2.6233	0	0	-0	0	0	0	5.24135	-84.3116	-23.4044	-11.1959	0.964889	-0.128638	
26041	1580482315.536731752	0.0023931	-0.895078	2.13235	-2.79043	-1.56951	-2.6233	0	0	-0	0	0	0	4.35645	-84.0688	-23.604	-11.2912	0.890667	-0.257277	
26042	1580482315.544708861	0.0023931	-0.895078	2.13237	-2.79043	-1.56952	-2.62329	0	0	-0	0	0	0	4.28838	-84.1295	-23.8535	-11.3388	0.940149	-0.360188	
26043	1580482315.552702750	0.0023931	-0.895089	2.13237	-2.79043	-1.56957	-2.62329	0	0	-0	0	0	0	4.56065	-84.1295	-23.7786	-11.2197	0.915408	-0.154366	
26044	1580482315.560719329	0.00242905	-0.895089	2.13236	-2.79043	-1.56956	-2.62332	0	0	-0	0	0	0	4.0161	-83.8867	-23.8036	-11.2436	0.890667	-0.102911	
26045	1580482315.568698165	0.00244066	-0.895102	2.13237	-2.79043	-1.56955	-2.62327	0	0	-0	0	0	0	3.87996	-83.8867	-23.9782	-11.2912	0.865926	-0.180094	
26046	1580482315.576684269	0.00240508	-0.895078	2.13238	-2.79044	-1.56951	-2.62329	0	0	-0	0	0	0	4.15224	-84.0081	-23.8784	-11.2912	0.915408	-0.308732	
26047	1580482315.584702625	0.0023931	-0.895054	2.13236	-2.79044	-1.56952	-2.62326	0	0	-0	0	0	0	5.10521	-83.826	-23.5291	-11.4103	0.915408	-0.257277	
26048	1580482315.592711675	0.0023931	-0.895066	2.1324	-2.79043	-1.56954	-2.62327	0	0	-0	0	0	0	3.81189	-83.6439	-23.3046	-11.2912	0.915408	-0.128638	
26049	1580482315.600695683	0.0023931	-0.895078	2.13236	-2.79041	-1.56955	-2.62327	0	0	-0	0	0	0	4.76486	-84.2509	-23.6788	-11.2674	0.915408	-0.205822	
26050	1580482315.608691547	0.00241707	-0.895054	2.13235	-2.79041	-1.56954	-2.62327	0	0	-0	0	0	0	4.901	-84.0081	-23.5042	-11.2197	0.890667	-0.308732	
26051	1580482315.616676225	0.00242905	-0.895114	2.1324	-2.79043	-1.56956	-2.62327	0	0	-0	0	0	0	3.74382	-84.1902	-23.579	-11.2436	0.940149	-0.180094	
26052	1580482315.624727284	0.00238112	-0.89503	2.13231	-2.79041	-1.56955	-2.62335	0	0	-0	0	0	0	3.47154	-84.1902	-23.8784	-11.2197	0.940149	-0.128638	
26053	1580482315.632699023	0.00240508	-0.895042	2.13236	-2.79044	-1.56952	-2.62327	0	0	-0	0	0	0	4.49258	-84.1902	-23.8784	-11.2674	0.890667	-0.308732	
26054	1580482315.640694769	0.00238112	-0.895102	2.13238	-2.79044	-1.56954	-2.62327	0	0	-0	0	0	0	4.08417	-84.3723	-23.6539	-11.315	0.890667	-0.231549	
26055	1580482315.648697540	0.00238112	-0.895054	2.13241	-2.79043	-1.56956	-2.62331	0	0	-0	0	0	0	4.42452	-83.6439	-23.5291	-11.2912	0.865926	-0.231549	
26056	1580482315.656657420	0.0023931	-0.895078	2.13236	-2.79044	-1.56952	-2.62327	0	0	-0	0	0	0	4.35645	-84.0081	-23.7537	-11.1959	0.890667	-0.231549	
26057	1580482315.664690482	0.00238112	-0.895054	2.13236	-2.79043	-1.56954	-2.6233	0	0	-0	0	0	0	4.22031	-84.0688	-23.9034	-11.1959	0.890667	-0.33446	
26058	1580482315.672688769	0.00240508	-0.895066	2.13238	-2.79043	-1.56952	-2.6233	0	0	-0	0	0	0	3.67575	-83.9474	-23.604	-11.2912	0.940149	-0.283005	
26059	1580482315.680690277	0.00240508	-0.895089	2.13241	-2.79041	-1.56952	-2.62335	0	0	-0	0	0	0	4.35645	-84.7972	-23.604	-11.2436	0.890667	-0.231549	
26060	1580482315.688669319	0.00242905	-0.895066	2.13235	-2.79043	-1.56954	-2.62325	0	0	-0	0	0	0	4.56065	-84.3116	-23.604	-11.2912	0.915408	-0.205822	
26061	1580482315.696686443	0.0023931	-0.895089	2.13234	-2.79043	-1.56951	-2.62331	0	0	-0	0	0	0	4.28838	-84.4937	-23.6539	-11.3388	0.915408	-0.283005	
26062	1580482315.704703574	0.00241707	-0.895066	2.13236	-2.79045	-1.56952	-2.62331	0	0	-0	0	0	0	3.87996	-84.0081	-23.8285	-11.1006	0.98963	-0.180094	
26063	1580482315.712704236	0.00240508	-0.895078	2.13237	-2.79043	-1.56957	-2.62327	0	0	-0	0	0	0	4.08417	-84.1295	-23.6289	-11.2912	0.98963	-0.231549	
26064	1580482315.720673290	0.00238112	-0.895089	2.13236	-2.79043	-1.56957	-2.62332	0	0	-0	0	0	0	3.26733	-83.7046	-23.6289	-11.2912	0.964889	-0.180094	
26065	1580482315.728690814	0.00240508	-0.895066	2.13241	-2.79041	-1.56952	-2.62331	0	0	-0	0	0	0	4.56065	-83.5832	-23.7038	-11.2674	0.890667	-0.283005	
26066	1580482315.736697979	0.00238112	-0.895042	2.13236	-2.79045	-1.56955	-2.62329	0	0	-0	0	0	0	4.49258	-84.0688	-23.7537	-11.3388	0.915408	-0.257277	
26067	1580482315.744690036	0.0023931	-0.895078	2.13234	-2.7904	-1.56954	-2.62327	0	0	-0	0	0	0	4.15224	-84.0688	-23.3794	-11.2674	1.08859	-0.205822	
26068	1580482315.752712015	0.00240508	-0.895054	2.13236	-2.79043	-1.56952	-2.62329	0	0	-0	0	0	0	4.08417	-83.7653	-23.7537	-11.2912	0.841186	-0.231549	
26069	1580482315.760691990	0.00240508	-0.895089	2.13236	-2.79044	-1.56954	-2.6233	0	0	-0	0	0	0	4.28838	-83.826	-23.3295	-11.1959	0.816445	-0.180094	
26070	1580482315.768690072	0.00240508	-0.895089	2.13238	-2.79041	-1.56954	-2.62329	0	0	-0	0	0	0	4.56065	-84.433	-23.6788	-11.1959	0.915408	-0.180094	
26071	1580482315.776703253	0.00241707	-0.895054	2.13235	-2.7904	-1.56954	-2.62332	0	0	-0	0	0	0	4.08417	-84.3116	-23.7038	-11.1483	0.915408	-0.205822	
26072	1580482315.784688627	0.00240508	-0.895042	2.13235	-2.7904	-1.56954	-2.62331	0	0	-0	0	0	0	3.87996	-84.1295	-23.8036	-11.3865	1.01437	-0.283005	
26073	1580482315.792684886	0.00236913	-0.895114	2.13236	-2.79043	-1.56954	-2.6233	0	0	-0	0	0	0	4.22031	-84.0081	-23.7287	-11.315	0.940149	-0.205822	
26074	1580482315.800698204	0.0023931	-0.895066	2.13236	-2.79045	-1.56954	-2.6233	0	0	-0	0	0	0	4.35645	-84.1902	-23.7786	-11.1483	0.915408	-0.102911	
26075	1580482315.808700609	0.00240508	-0.895126	2.13234	-2.7904	-1.56955	-2.62332	0	0	-0	0	0	0	4.0161	-83.7653	-23.579	-11.1959	0.940149	-0.231549	
26076	1580482315.816718765	0.00238112	-0.895054	2.13238	-2.79044	-1.56955	-2.62329	0	0	-0	0	0	0	4.08417	-84.0688	-23.8285	-11.2912	0.940149	-0.205822	
26077	1580482315.824672066	0.00240508	-0.895089	2.1324	-2.79043	-1.56956	-2.62331	0	0	-0	0	0	0	4.0161	-83.6439	-23.9034	-11.2197	0.890667	-0.180094	
26078	1580482315.832695909	0.0023931	-0.895078	2.13234	-2.79045	-1.56951	-2.62327	0	0	-0	0	0	0	3.81189	-84.0688	-23.8285	-11.3627	0.915408	-0.411643	
26079	1580482315.840702809	0.00238112	-0.895078	2.13237	-2.79043	-1.56951	-2.62331	0	0	-0	0	0	0	3.81189	-83.4011	-23.8535	-11.2674	0.964889	-0.154366	
26080	1580482315.848662208	0.00238112	-0.895102	2.13237	-2.79044	-1.56956	-2.6233	0	0	-0	0	0	0	5.03714	-84.0688	-23.7537	-11.1721	0.841186	-0.180094	
26081	1580482315.856705361	0.0023931	-0.895078	2.1324	-2.79045	-1.56952	-2.6233	0	0	-0	0	0	0	4.15224	-83.8867	-23.8784	-11.1959	0.940149	-0.231549	
26082	1580482315.864701002	0.0023931	-0.895054	2.1324	-2.79043	-1.56954	-2.62332	0	0	-0	0	0	0	4.83293	-84.0688	-23.5541	-11.2674	0.816445	-0.283005	
26083	1580482315.872711280	0.00241707	-0.895066	2.13237	-2.79043	-1.56952	-2.62326	0	0	-0	0	0	0	4.15224	-83.5832	-23.5291	-11.2674	0.816445	-0.283005	
26084	1580482315.880723842	0.00241707	-0.895066	2.13235	-2.79043	-1.56954	-2.6233	0	0	-0	0	0	0	4.0161	-83.8867	-23.2796	-11.2436	0.915408	-0.257277	
26085	1580482315.888715296	0.00238112	-0.895018	2.1324	-2.79043	-1.56955	-2.62329	0	0	-0	0	0	0	4.901	-84.1902	-23.7287	-11.1959	0.964889	-0.102911	
26086	1580482315.896699804	0.00241707	-0.895114	2.1324	-2.79041	-1.56952	-2.62329	0	0	-0	0	0	0	3.94803	-84.0688	-23.8784	-11.3627	0.98963	-0.257277	
26087	1580482315.904726159	0.0023931	-0.895078	2.13237	-2.79043	-1.56956	-2.6233	0	0	-0	0	0	0	3.81189	-84.1902	-23.5541	-11.1721	0.915408	-0.231549	
26088	1580482315.912712576	0.00240508	-0.895078	2.13238	-2.79043	-1.56951	-2.62331	0	0	-0	0	0	0	4.08417	-83.0369	-23.579	-11.2674	0.865926	-0.205822	
26089	1580482315.920689216	0.00240508	-0.895078	2.13238	-2.79043	-1.56955	-2.6233	0	0	-0	0	0	0	4.08417	-84.6151	-23.5042	-11.3388	0.890667	-0.360188	
26090	1580482315.928691459	0.00238112	-0.895042	2.13236	-2.79041	-1.56954	-2.62329	0	0	-0	0	0	0	4.901	-83.9474	-23.7786	-11.2912	0.915408	-0.180094	
26091	1580482315.936709149	0.00240508	-0.895042	2.13237	-2.79043	-1.56955	-2.62332	0	0	-0	0	0	0	4.35645	-84.1295	-24.0032	-11.2674	0.964889	-0.128638	
26092	1580482315.944708882	0.00240508	-0.895102	2.13236	-2.79045	-1.56957	-2.62329	0	0	-0	0	0	0	4.08417	-84.2509	-23.2297	-11.3627	0.98963	-0.257277	
26093	1580482315.952691456	0.0023931	-0.895089	2.13237	-2.79045	-1.56955	-2.62332	0	0	-0	0	0	0	3.3354	-83.7046	-23.5042	-11.2674	0.915408	-0.180094	
26094	1580482315.960673796	0.0023931	-0.895102	2.13237	-2.79043	-1.56956	-2.62329	0	0	-0	0	0	0	3.53961	-83.826	-23.7038	-11.2674	0.890667	-0.205822	
26095	1580482315.968691500	0.00238112	-0.895089	2.13235	-2.79043	-1.56952	-2.62329	0	0	-0	0	0	0	4.56065	-83.7046	-23.6539	-11.1721	0.816445	-0.180094	
26096	1580482315.976741560	0.00242905	-0.895078	2.13237	-2.7904	-1.56956	-2.62327	0	0	-0	0	0	0	3.87996	-83.6439	-23.6539	-11.2912	0.98963	-0.257277	
26097	1580482315.984683162	0.00240508	-0.895089	2.1324	-2.79043	-1.56954	-2.62331	0	0	-0	0	0	0	4.69679	-83.7653	-23.7038	-11.1959	0.816445	-0.154366	
26098	1580482315.992639202	0.00236913	-0.895089	2.13235	-2.79044	-1.56956	-2.62332	0	0	-0	0	0	0	3.87996	-84.0688	-23.7786	-11.1959	0.865926	-0.231549	
26099	1580482316.000696627	0.00238112	-0.895089	2.13237	-2.79043	-1.56951	-2.6233	0	0	-0	0	0	0	4.49258	-84.2509	-23.5042	-11.315	0.890667	-0.205822	
26100	1580482316.008764862	0.00240508	-0.895078	2.13236	-2.7904	-1.56951	-2.62329	0	0	-0	0	0	0	4.62872	-83.6439	-23.6289	-11.1959	0.890667	-0.231549	
26101	1580482316.016662720	0.00236913	-0.895102	2.1324	-2.79044	-1.56954	-2.62329	0	0	-0	0	0	0	2.72278	-83.826	-23.7287	-11.2436	0.940149	-0.180094	
26102	1580482316.024692800	0.00240508	-0.895054	2.13236	-2.79045	-1.56952	-2.62332	0	0	-0	0	0	0	3.87996	-84.0688	-23.604	-11.2436	0.890667	-0.308732	
26103	1580482316.032671013	0.00241707	-0.895102	2.13237	-2.79043	-1.56954	-2.62327	0	0	-0	0	0	0	4.22031	-84.2509	-23.7038	-11.315	0.890667	-0.283005	
26104	1580482316.040687202	0.0023931	-0.895078	2.13238	-2.79041	-1.56955	-2.62325	0	0	-0	0	0	0	4.08417	-83.826	-23.6539	-11.1959	0.915408	-0.154366	
26105	1580482316.048726486	0.00240508	-0.895078	2.1324	-2.79041	-1.56954	-2.62327	0	0	-0	0	0	0	3.87996	-84.0081	-23.6289	-11.315	0.98963	-0.180094	
26106	1580482316.056698681	0.00238112	-0.895078	2.13237	-2.79045	-1.56954	-2.6233	0	0	-0	0	0	0	5.17328	-84.0688	-23.8535	-11.2674	0.940149	-0.205822	
26107	1580482316.064693196	0.0023931	-0.895018	2.13236	-2.79041	-1.56952	-2.62327	0	0	-0	0	0	0	3.94803	-84.2509	-23.7786	-11.2912	0.964889	-0.180094	
26108	1580482316.072749871	0.00240508	-0.895114	2.13234	-2.79043	-1.56954	-2.62326	0	0	-0	0	0	0	4.0161	-84.3116	-23.7786	-11.1483	0.841186	-0.180094	
26109	1580482316.080708732	0.00241707	-0.895078	2.13236	-2.79041	-1.56954	-2.62327	0	0	-0	0	0	0	4.49258	-84.2509	-23.9034	-11.3388	0.865926	-0.33446	
26110	1580482316.088689231	0.00240508	-0.895042	2.13236	-2.79041	-1.56954	-2.62332	0	0	-0	0	0	0	4.49258	-83.9474	-23.6788	-11.2912	0.890667	-0.180094	
26111	1580482316.096711192	0.00240508	-0.895054	2.13241	-2.79045	-1.56954	-2.62327	0	0	-0	0	0	0	3.81189	-83.8867	-23.4792	-11.2197	0.915408	-0.231549	
26112	1580482316.104666889	0.00238112	-0.895102	2.1324	-2.7904	-1.56954	-2.62327	0	0	-0	0	0	0	4.62872	-83.9474	-23.5541	-11.2197	0.940149	-0.283005	
26113	1580482316.112675474	0.00241707	-0.895114	2.13238	-2.79041	-1.56951	-2.6233	0	0	-0	0	0	0	3.94803	-83.8867	-23.8036	-11.2197	0.841186	-0.257277	
26114	1580482316.120691673	0.00238112	-0.895089	2.13236	-2.7904	-1.56956	-2.62333	0	0	-0	0	0	0	3.3354	-84.2509	-23.7786	-11.2197	0.940149	-0.283005	
26115	1580482316.128679161	0.00240508	-0.895078	2.13238	-2.79041	-1.56954	-2.62329	0	0	-0	0	0	0	4.69679	-83.9474	-23.6539	-11.2912	0.940149	-0.205822	
26116	1580482316.136730289	0.00242905	-0.895078	2.13237	-2.79043	-1.56952	-2.62326	0	0	-0	0	0	0	4.62872	-84.0081	-23.5042	-11.315	0.940149	-0.231549	
26117	1580482316.144693485	0.00241707	-0.895054	2.13236	-2.79043	-1.56954	-2.6233	0	0	-0	0	0	0	3.94803	-83.219	-23.6539	-11.3388	0.915408	-0.102911	
26118	1580482316.152694337	0.00240508	-0.895089	2.13235	-2.79041	-1.56952	-2.6233	0	0	-0	0	0	0	4.0161	-83.5832	-23.6539	-11.2436	0.890667	-0.231549	
26119	1580482316.160693597	0.0023931	-0.895054	2.13237	-2.79043	-1.56954	-2.62329	0	0	-0	0	0	0	4.28838	-83.6439	-23.9034	-11.1959	0.915408	-0.154366	
26120	1580482316.168691621	0.00244066	-0.895066	2.13236	-2.79043	-1.56955	-2.6233	0	0	-0	0	0	0	4.22031	-83.9474	-23.7038	-11.315	0.865926	-0.308732	
26121	1580482316.176647149	0.00238112	-0.895078	2.13235	-2.7904	-1.56955	-2.62331	0	0	-0	0	0	0	4.28838	-84.0688	-23.604	-11.2674	0.915408	-0.205822	
26122	1580482316.184620500	0.0023931	-0.895078	2.13231	-2.79044	-1.56955	-2.6233	0	0	-0	0	0	0	4.42452	-84.0688	-23.8036	-11.2436	0.964889	-0.308732	
26123	1580482316.192646719	0.00244066	-0.895089	2.13242	-2.79041	-1.56955	-2.6233	0	0	-0	0	0	0	3.74382	-83.826	-23.6289	-11.315	0.915408	-0.154366	
26124	1580482316.200744059	0.00241707	-0.895042	2.13235	-2.79044	-1.56955	-2.62331	0	0	-0	0	0	0	4.62872	-84.0081	-23.7786	-11.2674	0.890667	-0.257277	
26125	1580482316.208698309	0.00244066	-0.895066	2.13234	-2.79043	-1.56957	-2.62329	0	0	-0	0	0	0	4.08417	-83.8867	-23.6539	-11.3865	0.915408	-0.205822	
26126	1580482316.216668113	0.00242905	-0.895114	2.13236	-2.79044	-1.56951	-2.62329	0	0	-0	0	0	0	3.53961	-83.6439	-23.4044	-11.315	0.816445	-0.180094	
26127	1580482316.224701657	0.0023931	-0.895089	2.13238	-2.79041	-1.56957	-2.62327	0	0	-0	0	0	0	3.87996	-83.826	-23.7038	-11.2674	0.865926	-0.205822	
26128	1580482316.232702868	0.00238112	-0.895054	2.13238	-2.7904	-1.56952	-2.62331	0	0	-0	0	0	0	4.49258	-83.8867	-23.7038	-11.2436	0.915408	-0.180094	
26129	1580482316.240715557	0.00242905	-0.895078	2.13238	-2.79044	-1.56956	-2.62329	0	0	-0	0	0	0	3.94803	-83.6439	-23.9034	-11.3627	0.940149	-0.180094	
26130	1580482316.248693037	0.00238112	-0.895042	2.1324	-2.79044	-1.56955	-2.6233	0	0	-0	0	0	0	3.87996	-83.5225	-23.6788	-11.2197	0.890667	-0.308732	
26131	1580482316.256694696	0.0023931	-0.895078	2.13238	-2.79041	-1.56954	-2.62329	0	0	-0	0	0	0	3.87996	-84.0081	-23.7537	-11.2912	0.940149	-0.231549	
26132	1580482316.264722940	0.00240508	-0.895066	2.13237	-2.79043	-1.56955	-2.62331	0	0	-0	0	0	0	4.15224	-84.0081	-23.6539	-11.1483	0.940149	-0.257277	
26133	1580482316.272678659	0.0023931	-0.895078	2.13234	-2.79043	-1.56954	-2.6233	0	0	-0	0	0	0	4.22031	-83.219	-23.5042	-11.315	0.98963	-0.231549	
26134	1580482316.280653000	0.00238112	-0.89503	2.13236	-2.79041	-1.56955	-2.62327	0	0	-0	0	0	0	3.94803	-84.1902	-23.6289	-11.1483	0.940149	-0.205822	
26135	1580482316.288689575	0.00241707	-0.895042	2.13241	-2.79041	-1.56954	-2.62326	0	0	-0	0	0	0	3.3354	-84.2509	-23.3794	-11.2674	0.865926	-0.360188	
26136	1580482316.296722587	0.0023931	-0.895054	2.13238	-2.79041	-1.56955	-2.62329	0	0	-0	0	0	0	3.81189	-84.2509	-23.7537	-11.2436	0.890667	-0.308732	
26137	1580482316.304723583	0.00238112	-0.895078	2.13237	-2.79041	-1.56955	-2.62331	0	0	-0	0	0	0	3.67575	-84.3116	-23.7537	-11.2436	0.915408	-0.257277	
26138	1580482316.312721736	0.0023931	-0.895078	2.13237	-2.7904	-1.56955	-2.62329	0	0	-0	0	0	0	4.0161	-83.7653	-23.5291	-11.1483	0.940149	-0.180094	
26139	1580482316.320732483	0.0023931	-0.895078	2.13236	-2.79044	-1.56952	-2.6233	0	0	-0	0	0	0	3.67575	-84.433	-23.6289	-11.3627	0.940149	-0.180094	
26140	1580482316.328724125	0.0023931	-0.895054	2.13236	-2.7904	-1.56952	-2.62329	0	0	-0	0	0	0	3.94803	-84.3723	-23.604	-11.2674	0.964889	-0.205822	
26141	1580482316.336732275	0.0023931	-0.895102	2.13237	-2.79043	-1.56954	-2.62331	0	0	-0	0	0	0	4.15224	-84.1295	-23.6539	-11.1245	0.940149	-0.33446	
26142	1580482316.344658743	0.00240508	-0.895078	2.13236	-2.79043	-1.56955	-2.62327	0	0	-0	0	0	0	3.94803	-84.0081	-23.579	-11.315	0.816445	-0.205822	
26143	1580482316.352703771	0.0023931	-0.895138	2.13237	-2.79043	-1.56954	-2.62329	0	0	-0	0	0	0	4.22031	-84.0688	-23.4044	-11.315	0.940149	-0.257277	
26144	1580482316.360664817	0.00238112	-0.895089	2.1324	-2.7904	-1.5695	-2.62329	0	0	-0	0	0	0	3.53961	-83.7653	-23.579	-11.1721	0.890667	-0.102911	
26145	1580482316.368687242	0.00238112	-0.895089	2.1324	-2.79043	-1.56955	-2.6233	0	0	-0	0	0	0	4.69679	-84.2509	-23.4792	-11.2436	0.841186	-0.308732	
26146	1580482316.376667868	0.00238112	-0.895066	2.13235	-2.79043	-1.56952	-2.62329	0	0	-0	0	0	0	3.1312	-83.826	-23.7038	-11.2436	0.964889	-0.205822	
26147	1580482316.384683953	0.00240508	-0.895089	2.13235	-2.79044	-1.56954	-2.62331	0	0	-0	0	0	0	3.87996	-84.3116	-23.6539	-11.2674	0.841186	-0.128638	
26148	1580482316.392683729	0.0023931	-0.895066	2.13238	-2.7904	-1.56957	-2.62329	0	0	-0	0	0	0	4.08417	-84.5544	-23.5042	-11.2674	0.915408	-0.205822	
26149	1580482316.400700232	0.00240508	-0.895114	2.13236	-2.79045	-1.56956	-2.62332	0	0	-0	0	0	0	3.94803	-85.04	-23.5291	-11.315	0.98963	-0.180094	
26150	1580482316.408665361	0.00236913	-0.895102	2.13238	-2.79041	-1.56957	-2.62327	0	0	-0	0	0	0	3.74382	-83.826	-23.7537	-11.2674	0.964889	-0.257277	
26151	1580482316.416681098	0.0023931	-0.895089	2.13237	-2.7904	-1.56954	-2.62331	0	0	-0	0	0	0	4.15224	-84.1295	-23.8285	-11.2674	0.865926	-0.205822	
26152	1580482316.424633417	0.00242905	-0.895054	2.13238	-2.79041	-1.56954	-2.62326	0	0	-0	0	0	0	4.49258	-84.0688	-23.604	-11.3627	0.98963	-0.180094	
26153	1580482316.432685725	0.00240508	-0.895089	2.13238	-2.79041	-1.56955	-2.6233	0	0	-0	0	0	0	3.67575	-83.9474	-23.5291	-11.2912	0.915408	-0.231549	
26154	1580482316.440721388	0.00235715	-0.89515	2.13234	-2.79041	-1.56952	-2.62327	0	0	-0	0	0	0	3.74382	-84.3723	-23.8036	-11.2912	0.865926	-0.180094	
26155	1580482316.448718541	0.0023931	-0.895054	2.13238	-2.79045	-1.56952	-2.62332	0	0	-0	0	0	0	4.35645	-83.9474	-23.6539	-11.315	0.940149	-0.154366	
26156	1580482316.456690514	0.0023931	-0.895089	2.1324	-2.79043	-1.56949	-2.6233	0	0	-0	0	0	0	4.08417	-84.4937	-23.6788	-11.1245	0.964889	-0.180094	
26157	1580482316.464730554	0.0023931	-0.895066	2.1324	-2.79044	-1.56954	-2.6233	0	0	-0	0	0	0	4.08417	-83.826	-23.5291	-11.2674	1.01437	-0.205822	
26158	1580482316.472699363	0.00240508	-0.895066	2.13237	-2.79043	-1.56955	-2.62331	0	0	-0	0	0	0	4.49258	-84.1295	-23.6539	-11.3388	0.865926	-0.257277	
26159	1580482316.480721158	0.00240508	-0.895078	2.13241	-2.79044	-1.56955	-2.62331	0	0	-0	0	0	0	3.87996	-84.3116	-23.579	-11.2436	0.940149	-0.231549	
26160	1580482316.488742374	0.0023931	-0.895078	2.13237	-2.79044	-1.56954	-2.62327	0	0	-0	0	0	0	5.17328	-84.3116	-23.6289	-11.3627	0.890667	-0.257277	
26161	1580482316.496737269	0.00242905	-0.895078	2.13241	-2.7904	-1.56951	-2.62331	0	0	-0	0	0	0	4.0161	-83.826	-23.4293	-11.4103	0.964889	-0.257277	
26162	1580482316.504757203	0.00242905	-0.895054	2.13237	-2.79044	-1.56955	-2.62331	0	0	-0	0	0	0	3.87996	-84.1295	-23.7287	-11.2674	0.915408	-0.411643	
26163	1580482316.512726538	0.00240508	-0.89503	2.1324	-2.7904	-1.56951	-2.62331	0	0	-0	0	0	0	4.15224	-84.0688	-23.6539	-11.315	0.915408	-0.180094	
26164	1580482316.520767129	0.00238112	-0.895054	2.13243	-2.79045	-1.56955	-2.62326	0	0	-0	0	0	0	3.74382	-83.826	-23.6788	-11.2912	0.841186	-0.102911	
26165	1580482316.528759057	0.00238112	-0.895078	2.13235	-2.79041	-1.56956	-2.62326	0	0	-0	0	0	0	4.15224	-84.1902	-23.5291	-11.2912	0.890667	-0.283005	
26166	1580482316.536725051	0.00240508	-0.895078	2.13237	-2.79045	-1.56952	-2.6233	0	0	-0	0	0	0	4.49258	-83.9474	-23.579	-11.2674	0.964889	-0.231549	
26167	1580482316.544726880	0.00240508	-0.895066	2.1324	-2.79043	-1.56958	-2.62326	0	0	-0	0	0	0	4.69679	-84.0081	-23.8036	-11.2197	0.841186	-0.231549	
26168	1580482316.552709625	0.00238112	-0.895089	2.13236	-2.79043	-1.56952	-2.62327	0	0	-0	0	0	0	4.08417	-84.1295	-23.8036	-11.2912	0.890667	-0.154366	
26169	1580482316.560732590	0.0023931	-0.895102	2.13236	-2.79041	-1.56951	-2.62332	0	0	-0	0	0	0	4.22031	-84.4937	-23.7786	-11.2912	0.940149	-0.205822	
26170	1580482316.568724167	0.0023931	-0.895042	2.13236	-2.79045	-1.56954	-2.62332	0	0	-0	0	0	0	4.901	-84.0688	-23.6289	-11.2197	0.964889	-0.180094	
26171	1580482316.576703859	0.00234516	-0.895089	2.1324	-2.79043	-1.56954	-2.62329	0	0	-0	0	0	0	4.22031	-84.2509	-23.7786	-11.2674	0.890667	-0.205822	
26172	1580482316.584741946	0.00240508	-0.895089	2.1324	-2.7904	-1.56952	-2.62329	0	0	-0	0	0	0	4.0161	-83.7653	-23.8285	-11.2674	0.890667	-0.154366	
26173	1580482316.592717822	0.00240508	-0.895078	2.13237	-2.79041	-1.56954	-2.62329	0	0	-0	0	0	0	4.49258	-84.5544	-23.5291	-11.2674	0.890667	-0.205822	
26174	1580482316.600676247	0.00241707	-0.895102	2.13237	-2.79043	-1.56956	-2.62327	0	0	-0	0	0	0	4.08417	-83.7653	-23.8784	-11.2436	0.890667	-0.231549	
26175	1580482316.608720310	0.00238112	-0.895078	2.13237	-2.79043	-1.56955	-2.6233	0	0	-0	0	0	0	4.76486	-83.5225	-23.6289	-11.1721	0.940149	-0.283005	
26176	1580482316.616719726	0.00240508	-0.895078	2.13238	-2.7904	-1.56954	-2.62327	0	0	-0	0	0	0	3.74382	-84.0688	-23.7287	-11.315	0.890667	-0.33446	
26177	1580482316.624678892	0.0023931	-0.895102	2.13236	-2.79041	-1.56951	-2.6233	0	0	-0	0	0	0	4.15224	-84.433	-23.6289	-11.1959	0.915408	-0.283005	
26178	1580482316.632703831	0.00240508	-0.895114	2.1324	-2.79045	-1.56951	-2.62326	0	0	-0	0	0	0	3.67575	-83.1583	-23.7537	-11.315	0.98963	-0.205822	
26179	1580482316.640703743	0.00236913	-0.895066	2.1324	-2.79045	-1.56956	-2.6233	0	0	-0	0	0	0	3.87996	-83.7046	-23.6539	-11.2674	0.890667	-0.154366	
26180	1580482316.648689706	0.0023931	-0.895054	2.13235	-2.79044	-1.56949	-2.62327	0	0	-0	0	0	0	4.15224	-84.1902	-23.4792	-11.2197	0.915408	-0.205822	
26181	1580482316.656693549	0.00240508	-0.895042	2.13236	-2.79044	-1.56955	-2.62329	0	0	-0	0	0	0	3.81189	-83.4011	-23.8285	-11.2436	0.841186	-0.231549	
26182	1580482316.664695489	0.00238112	-0.895054	2.13237	-2.79044	-1.56954	-2.62333	0	0	-0	0	0	0	4.08417	-83.7046	-23.6539	-11.3865	0.890667	-0.128638	
26183	1580482316.672696941	0.00238112	-0.895078	2.13236	-2.79043	-1.56954	-2.6233	0	0	-0	0	0	0	5.10521	-84.2509	-23.7038	-11.2436	0.964889	-0.257277	
26184	1580482316.680708031	0.0023931	-0.895102	2.13234	-2.79043	-1.56951	-2.62332	0	0	-0	0	0	0	4.49258	-83.8867	-23.7537	-11.2197	0.940149	-0.283005	
26185	1580482316.688692741	0.00238112	-0.895089	2.13237	-2.79041	-1.56954	-2.62332	0	0	-0	0	0	0	4.0161	-83.7046	-23.6289	-11.4103	0.915408	-0.128638	
26186	1580482316.696673562	0.0023931	-0.895102	2.13235	-2.79043	-1.56956	-2.62327	0	0	-0	0	0	0	4.62872	-84.433	-23.8036	-11.2197	0.964889	-0.231549	
26187	1580482316.704702754	0.00241707	-0.895078	2.1324	-2.79039	-1.56956	-2.62326	0	0	-0	0	0	0	4.35645	-84.0081	-23.4293	-11.2436	0.890667	-0.257277	
26188	1580482316.712735845	0.00238112	-0.895078	2.13236	-2.79045	-1.56951	-2.6233	0	0	-0	0	0	0	4.15224	-83.5832	-23.579	-11.1483	0.915408	-0.231549	
26189	1580482316.720673148	0.00238112	-0.895054	2.13238	-2.79045	-1.56954	-2.6233	0	0	-0	0	0	0	5.24135	-84.1295	-23.604	-11.1959	0.940149	-0.180094	
26190	1580482316.728687830	0.00241707	-0.895066	2.13241	-2.79043	-1.56954	-2.6233	0	0	-0	0	0	0	3.94803	-83.3404	-23.6289	-11.3865	0.865926	-0.205822	
26191	1580482316.736707742	0.0023931	-0.895102	2.13237	-2.79043	-1.56954	-2.62327	0	0	-0	0	0	0	4.56065	-83.826	-23.604	-11.2912	0.791704	-0.308732	
26192	1580482316.744685404	0.00240508	-0.895054	2.13237	-2.79044	-1.56954	-2.62331	0	0	-0	0	0	0	4.62872	-84.0081	-23.604	-11.1483	0.915408	-0.154366	
26193	1580482316.752690693	0.00241707	-0.895078	2.13236	-2.79045	-1.56955	-2.62326	0	0	-0	0	0	0	4.0161	-83.826	-23.8036	-11.2912	0.865926	-0.283005	
26194	1580482316.760700960	0.00240508	-0.895042	2.1324	-2.79044	-1.56955	-2.62329	0	0	-0	0	0	0	4.0161	-84.2509	-23.5541	-11.3388	0.940149	-0.385915	
26195	1580482316.768713623	0.00235715	-0.895078	2.13237	-2.79041	-1.56956	-2.62327	0	0	-0	0	0	0	4.08417	-83.7653	-23.7537	-11.1959	0.841186	-0.180094	
26196	1580482316.776712725	0.00236913	-0.895042	2.13234	-2.7904	-1.56954	-2.62331	0	0	-0	0	0	0	4.56065	-84.1902	-23.579	-11.1959	0.915408	-0.180094	
26197	1580482316.784688398	0.0023931	-0.895089	2.13238	-2.79045	-1.56955	-2.6233	0	0	-0	0	0	0	4.901	-83.4618	-23.8036	-11.2436	0.964889	-0.283005	
26198	1580482316.792671862	0.00238112	-0.89503	2.1324	-2.79043	-1.56954	-2.6233	0	0	-0	0	0	0	4.49258	-83.9474	-23.7287	-11.3388	0.865926	-0.257277	
26199	1580482316.800657560	0.00241707	-0.895089	2.13234	-2.79041	-1.56956	-2.62329	0	0	-0	0	0	0	4.76486	-84.2509	-23.6289	-11.2912	0.841186	-0.231549	
26200	1580482316.808727282	0.00238112	-0.895078	2.13238	-2.79041	-1.56954	-2.62329	0	0	-0	0	0	0	4.22031	-84.0081	-23.5541	-11.2912	0.915408	-0.257277	
26201	1580482316.816659872	0.00240508	-0.895066	2.13238	-2.7904	-1.56954	-2.62332	0	0	-0	0	0	0	4.76486	-83.9474	-23.604	-11.3865	0.890667	-0.308732	
26202	1580482316.824673959	0.0023931	-0.895102	2.13238	-2.79041	-1.56949	-2.62332	0	0	-0	0	0	0	4.15224	-83.9474	-23.7038	-11.2436	0.890667	-0.360188	
26203	1580482316.832725644	0.00238112	-0.895078	2.13235	-2.79043	-1.56955	-2.62327	0	0	-0	0	0	0	4.901	-84.3723	-23.4293	-11.2674	0.890667	-0.128638	
26204	1580482316.840740510	0.00240508	-0.895114	2.1324	-2.79043	-1.56954	-2.6233	0	0	-0	0	0	0	4.28838	-83.4011	-23.5042	-11.1245	0.816445	-0.205822	
26205	1580482316.848713848	0.0023931	-0.895066	2.13237	-2.79044	-1.56952	-2.62331	0	0	-0	0	0	0	3.94803	-84.3723	-23.4792	-11.3865	0.964889	-0.257277	
26206	1580482316.856692691	0.00236913	-0.895054	2.13238	-2.79043	-1.56951	-2.6233	0	0	-0	0	0	0	3.94803	-84.1295	-23.8535	-11.2674	0.890667	-0.205822	
26207	1580482316.864675444	0.00236913	-0.895089	2.13238	-2.79041	-1.56954	-2.62329	0	0	-0	0	0	0	4.42452	-84.1295	-23.7786	-11.1483	0.964889	-0.308732	
26208	1580482316.872728668	0.0023931	-0.895078	2.13238	-2.79044	-1.56954	-2.62331	0	0	-0	0	0	0	5.03714	-84.3116	-23.8036	-11.1959	0.816445	-0.102911	
26209	1580482316.880702218	0.00238112	-0.895089	2.1324	-2.79043	-1.56955	-2.6233	0	0	-0	0	0	0	3.81189	-83.9474	-23.6788	-11.2674	1.03911	-0.257277	
26210	1580482316.888676045	0.00238112	-0.895078	2.13236	-2.7904	-1.56957	-2.62329	0	0	-0	0	0	0	4.22031	-84.433	-23.579	-11.1483	0.940149	-0.308732	
26211	1580482316.896714624	0.00240508	-0.89503	2.13237	-2.79043	-1.56954	-2.62332	0	0	-0	0	0	0	4.83293	-83.6439	-23.4044	-11.2436	0.964889	-0.385915	
26212	1580482316.904775254	0.00240508	-0.895054	2.13237	-2.7904	-1.56954	-2.62329	0	0	-0	0	0	0	4.56065	-84.1295	-23.6539	-11.3627	0.890667	-0.180094	
26213	1580482316.912676064	0.0023931	-0.895054	2.13236	-2.79041	-1.56954	-2.6233	0	0	-0	0	0	0	3.94803	-83.826	-23.7287	-11.2912	1.01437	-0.205822	
26214	1580482316.920689734	0.0023931	-0.895089	2.13236	-2.79043	-1.56954	-2.62329	0	0	-0	0	0	0	3.74382	-84.1902	-23.8036	-11.2436	0.964889	-0.360188	
26215	1580482316.928695740	0.00244066	-0.895054	2.13238	-2.79041	-1.56952	-2.62329	0	0	-0	0	0	0	5.03714	-83.7653	-23.7287	-11.2197	0.964889	-0.257277	
26216	1580482316.936718068	0.00238112	-0.895138	2.13236	-2.79043	-1.56951	-2.62329	0	0	-0	0	0	0	3.47154	-83.9474	-23.579	-11.4341	0.915408	-0.205822	
26217	1580482316.944688100	0.00240508	-0.895054	2.13241	-2.79043	-1.56956	-2.62329	0	0	-0	0	0	0	3.94803	-83.7046	-23.7038	-11.1959	0.940149	-0.283005	
26218	1580482316.952689730	0.00238112	-0.895078	2.13238	-2.79044	-1.56952	-2.6233	0	0	-0	0	0	0	4.28838	-83.826	-23.7038	-11.2197	0.915408	-0.0771831	
26219	1580482316.960689184	0.0023931	-0.895078	2.13238	-2.79044	-1.56952	-2.62329	0	0	-0	0	0	0	4.69679	-84.433	-23.7038	-11.1483	0.964889	-0.231549	
26220	1580482316.968764178	0.0023931	-0.895066	2.13232	-2.79041	-1.56954	-2.62329	0	0	-0	0	0	0	4.49258	-84.3116	-23.4543	-11.2197	0.890667	-0.205822	
26221	1580482316.976696981	0.0023931	-0.895054	2.13236	-2.79043	-1.56951	-2.62331	0	0	-0	0	0	0	4.0161	-83.826	-23.8784	-11.2436	0.964889	-0.283005	
26222	1580482316.984649410	0.00241707	-0.895066	2.13234	-2.79041	-1.56956	-2.62332	0	0	-0	0	0	0	3.94803	-83.5225	-23.8285	-11.315	0.841186	-0.180094	
26223	1580482316.992636592	0.00235715	-0.895114	2.13234	-2.79044	-1.56955	-2.62326	0	0	-0	0	0	0	4.901	-84.433	-23.6788	-11.1959	0.964889	-0.180094	
26224	1580482317.000725450	0.0023931	-0.895054	2.13238	-2.7904	-1.56955	-2.62332	0	0	-0	0	0	0	4.42452	-84.5544	-23.5291	-11.2674	0.890667	-0.257277	
26225	1580482317.008697278	0.00238112	-0.895089	2.13236	-2.79043	-1.56956	-2.62327	0	0	-0	0	0	0	4.08417	-83.826	-23.7786	-11.2197	1.06385	-0.180094	
26226	1580482317.016703648	0.00238112	-0.895089	2.13237	-2.79043	-1.56954	-2.62329	0	0	-0	0	0	0	4.28838	-84.0081	-23.6788	-11.2197	0.865926	-0.205822	
26227	1580482317.024694079	0.00240508	-0.895078	2.1324	-2.79043	-1.5695	-2.62329	0	0	-0	0	0	0	4.08417	-83.826	-23.579	-11.2197	0.890667	-0.154366	
26228	1580482317.032737059	0.00236913	-0.895066	2.13235	-2.79043	-1.56956	-2.6233	0	0	-0	0	0	0	4.15224	-84.3723	-23.6788	-11.2674	1.01437	-0.180094	
26229	1580482317.040698663	0.00236913	-0.895089	2.13237	-2.79044	-1.56954	-2.62332	0	0	-0	0	0	0	4.08417	-83.8867	-23.604	-11.2197	0.915408	-0.283005	
26230	1580482317.048647630	0.00238112	-0.895066	2.13237	-2.7904	-1.56951	-2.62332	0	0	-0	0	0	0	4.83293	-84.2509	-23.6289	-11.2674	0.890667	-0.283005	
26231	1580482317.056698873	0.00240508	-0.895054	2.13237	-2.79041	-1.56951	-2.62329	0	0	-0	0	0	0	4.15224	-84.2509	-23.5291	-11.315	0.915408	-0.154366	
26232	1580482317.064674433	0.00236913	-0.895078	2.13237	-2.7904	-1.56954	-2.62325	0	0	-0	0	0	0	5.17328	-83.5225	-23.8036	-11.2912	0.964889	-0.231549	
26233	1580482317.072693625	0.0023931	-0.895078	2.13238	-2.79041	-1.56951	-2.62329	0	0	-0	0	0	0	3.87996	-84.3116	-23.604	-11.2674	0.890667	-0.231549	
26234	1580482317.080699907	0.00244066	-0.895102	2.13238	-2.79043	-1.56954	-2.62327	0	0	-0	0	0	0	3.1312	-84.3116	-23.2796	-11.2197	0.98963	-0.231549	
26235	1580482317.088693634	0.00240508	-0.895066	2.13238	-2.79043	-1.56957	-2.62326	0	0	-0	0	0	0	4.35645	-84.5544	-23.604	-11.2912	0.98963	-0.180094	
26236	1580482317.096723022	0.00238112	-0.895102	2.13238	-2.79041	-1.56951	-2.62329	0	0	-0	0	0	0	4.0161	-84.6758	-23.8784	-11.2436	0.841186	-0.257277	
26237	1580482317.104708875	0.00240508	-0.895089	2.13242	-2.79043	-1.56955	-2.62327	0	0	-0	0	0	0	3.94803	-83.6439	-23.604	-11.1721	0.964889	-0.205822	
26238	1580482317.112720493	0.00240508	-0.895114	2.13236	-2.79043	-1.5695	-2.62331	0	0	-0	0	0	0	4.15224	-84.3723	-23.3295	-11.1483	0.890667	-0.180094	
26239	1580482317.120712161	0.0023931	-0.895054	2.13236	-2.79041	-1.56957	-2.62329	0	0	-0	0	0	0	4.15224	-83.7046	-23.7287	-11.2674	0.890667	-0.205822	
26240	1580482317.128706604	0.00241707	-0.895089	2.13236	-2.79044	-1.56955	-2.62327	0	0	-0	0	0	0	3.67575	-83.7653	-23.7786	-11.315	0.940149	-0.180094	
26241	1580482317.136702813	0.00241707	-0.895078	2.13238	-2.79045	-1.56952	-2.6233	0	0	-0	0	0	0	4.15224	-84.6758	-23.5042	-11.1959	0.964889	-0.205822	
26242	1580482317.144706352	0.00241707	-0.895089	2.13235	-2.7904	-1.56958	-2.62329	0	0	-0	0	0	0	3.40347	-83.6439	-23.7038	-11.315	0.865926	-0.205822	
26243	1580482317.152666954	0.00240508	-0.895066	2.13234	-2.79044	-1.56952	-2.62327	0	0	-0	0	0	0	4.42452	-83.826	-23.5291	-11.4103	0.865926	-0.154366	
26244	1580482317.160788837	0.0023931	-0.895054	2.13236	-2.79043	-1.56951	-2.6233	0	0	-0	0	0	0	3.60768	-84.5544	-23.6539	-11.2912	0.915408	-0.231549	
26245	1580482317.168664377	0.0023931	-0.895102	2.13237	-2.79043	-1.56956	-2.62331	0	0	-0	0	0	0	4.35645	-83.8867	-23.579	-11.2436	0.940149	-0.205822	
26246	1580482317.176698808	0.00240508	-0.895078	2.13242	-2.79041	-1.56954	-2.62327	0	0	-0	0	0	0	4.15224	-84.433	-23.7786	-11.2912	0.940149	-0.257277	
26247	1580482317.184696757	0.00241707	-0.895066	2.13236	-2.79043	-1.56954	-2.62331	0	0	-0	0	0	0	4.42452	-84.2509	-23.5541	-11.1959	0.865926	-0.180094	
26248	1580482317.192776439	0.0023931	-0.895066	2.13238	-2.79044	-1.56954	-2.62333	0	0	-0	0	0	0	3.87996	-83.7046	-23.7038	-11.2436	1.03911	-0.308732	
26249	1580482317.200973456	0.00240508	-0.895066	2.13238	-2.7904	-1.56951	-2.62327	0	0	-0	0	0	0	4.49258	-84.0688	-23.6289	-11.2436	0.940149	-0.283005	
26250	1580482317.208704284	0.00241707	-0.895042	2.13235	-2.79044	-1.56952	-2.62329	0	0	-0	0	0	0	4.15224	-83.5225	-23.604	-11.1245	0.915408	-0.308732	
26251	1580482317.216708199	0.00241707	-0.895066	2.13236	-2.7904	-1.56954	-2.62326	0	0	-0	0	0	0	3.47154	-84.5544	-23.5541	-11.3627	0.964889	-0.205822	
26252	1580482317.224741608	0.00238112	-0.895066	2.13238	-2.79044	-1.56955	-2.6233	0	0	-0	0	0	0	4.15224	-83.6439	-23.604	-11.1959	0.915408	-0.308732	
26253	1580482317.232707647	0.00241707	-0.895066	2.13241	-2.79043	-1.56954	-2.62329	0	0	-0	0	0	0	3.47154	-83.826	-23.6788	-11.2674	0.940149	-0.360188	
26254	1580482317.240708382	0.0023931	-0.895042	2.13237	-2.79043	-1.56954	-2.62329	0	0	-0	0	0	0	4.69679	-84.2509	-23.7786	-11.2674	0.915408	-0.231549	
26255	1580482317.248722070	0.00236913	-0.895078	2.13242	-2.79043	-1.56954	-2.62331	0	0	-0	0	0	0	4.42452	-84.2509	-23.5291	-11.315	0.841186	-0.257277	
26256	1580482317.256785598	0.00238112	-0.895078	2.13238	-2.79043	-1.5695	-2.6233	0	0	-0	0	0	0	3.47154	-84.0688	-23.6289	-11.2436	0.98963	-0.360188	
26257	1580482317.264691769	0.00240508	-0.895042	2.13235	-2.79045	-1.56954	-2.6233	0	0	-0	0	0	0	4.22031	-83.7653	-23.579	-11.2912	0.890667	-0.231549	
26258	1580482317.272671606	0.00241707	-0.895054	2.13235	-2.79043	-1.56955	-2.62327	0	0	-0	0	0	0	4.83293	-84.0081	-23.8285	-11.1959	0.841186	-0.231549	
26259	1580482317.280643085	0.00240508	-0.895078	2.13238	-2.79043	-1.56952	-2.62331	0	0	-0	0	0	0	3.74382	-84.0688	-23.9283	-11.3627	0.890667	-0.231549	
26260	1580482317.288659310	0.0023931	-0.895078	2.1324	-2.79043	-1.56954	-2.62329	0	0	-0	0	0	0	4.83293	-83.5225	-23.5291	-11.3388	0.915408	-0.180094	
26261	1580482317.296672846	0.00241707	-0.895066	2.13236	-2.79044	-1.5695	-2.62331	0	0	-0	0	0	0	4.49258	-84.6151	-23.4543	-11.3388	1.01437	-0.257277	
26262	1580482317.304604442	0.00241707	-0.895089	2.1324	-2.79043	-1.56955	-2.62331	0	0	-0	0	0	0	4.96907	-84.0688	-23.5541	-11.2912	0.964889	-0.231549	
26263	1580482317.312666639	0.00240508	-0.895066	2.13238	-2.79041	-1.56951	-2.6233	0	0	-0	0	0	0	4.42452	-84.1902	-23.604	-11.315	0.865926	-0.102911	
26264	1580482317.320617706	0.0023931	-0.895089	2.13235	-2.79045	-1.5695	-2.6233	0	0	-0	0	0	0	3.81189	-84.1295	-23.7287	-11.315	0.964889	-0.205822	
26265	1580482317.328681431	0.00242905	-0.895054	2.13235	-2.79044	-1.56954	-2.6233	0	0	-0	0	0	0	3.81189	-83.8867	-23.6539	-11.2912	0.865926	-0.180094	
26266	1580482317.336667492	0.00238112	-0.895078	2.13237	-2.79041	-1.56956	-2.62331	0	0	-0	0	0	0	4.62872	-84.433	-23.7287	-11.2436	0.940149	-0.308732	
26267	1580482317.344603821	0.0023931	-0.895102	2.13237	-2.79043	-1.56956	-2.62331	0	0	-0	0	0	0	4.69679	-83.7653	-23.7786	-11.2912	0.940149	-0.308732	
26268	1580482317.352669378	0.0023931	-0.895066	2.13235	-2.79043	-1.56952	-2.62329	0	0	-0	0	0	0	4.08417	-83.6439	-23.3794	-11.2436	0.964889	-0.257277	
26269	1580482317.360674756	0.00240508	-0.895102	2.13235	-2.79044	-1.56955	-2.6233	0	0	-0	0	0	0	3.53961	-83.7653	-23.7038	-11.3627	0.890667	-0.128638	
26270	1580482317.368678436	0.00238112	-0.895078	2.13236	-2.7904	-1.56956	-2.6233	0	0	-0	0	0	0	4.15224	-83.8867	-23.6289	-11.315	0.865926	-0.231549	
26271	1580482317.376697684	0.00240508	-0.895066	2.1324	-2.79043	-1.56951	-2.6233	0	0	-0	0	0	0	4.15224	-83.8867	-23.6788	-11.2912	0.890667	-0.0771831	
