terrinbabu/Matlab/log_filtering/UR10_35_KF/mjt_KF2_3kg_lift_drop.txt
seq	time	q0	q1	q2	q3	q4	q5	Dq0	Dq1	Dq2	Dq3	Dq4	Dq5	eff0	eff1	eff2	eff3	eff4	eff5	
37	1580482312.352676028	0.00238982	-0.895069	2.13237	-2.79043	-1.56954	-2.62329	-9.01114e-06	5.61099e-05	1.57137e-05	1.90824e-06	1.3529e-05	4.84176e-05	3.98119	-83.9334	-23.652	-11.2668	0.913505	-0.23023	
38	1580482312.360752229	0.00239012	-0.895071	2.13237	-2.79042	-1.56953	-2.62329	-6.47797e-06	4.0701e-05	2.82428e-05	1.06151e-05	2.30849e-05	2.33752e-05	3.96845	-83.9307	-23.6564	-11.2698	0.915408	-0.232192	
39	1580482312.368744982	0.00239172	-0.895071	2.13237	-2.79042	-1.56954	-2.62329	4.54121e-06	3.56311e-05	3.9207e-05	1.81364e-05	1.39278e-05	3.62042e-05	3.97625	-83.9429	-23.6551	-11.2668	0.918425	-0.230922	
40	1580482312.376709651	0.00239321	-0.895073	2.13237	-2.79042	-1.56954	-2.62329	1.42426e-05	2.24309e-05	2.32077e-05	1.5745e-05	-3.10054e-06	3.00742e-05	3.97882	-83.9474	-23.6551	-11.2663	0.918353	-0.231549	
41	1580482312.384704023	0.00238688	-0.895076	2.13237	-2.79042	-1.56954	-2.62329	-2.76162e-05	1.93052e-06	5.08008e-05	2.21768e-05	7.22313e-06	4.13386e-05	3.96703	-83.9445	-23.6527	-11.2663	0.916559	-0.230951	
42	1580482312.392839386	0.00238987	-0.895075	2.13237	-2.79042	-1.56954	-2.62329	-6.91871e-06	8.62021e-06	1.77428e-05	1.91904e-05	-1.67934e-05	3.45351e-05	3.97278	-83.9529	-23.6539	-11.2668	0.918219	-0.235058	
43	1580482312.400720091	0.00238766	-0.895076	2.13237	-2.79042	-1.56954	-2.62329	-2.08476e-05	-1.60881e-06	-3.59867e-06	2.92511e-07	-1.36246e-05	4.45456e-05	3.97374	-83.9487	-23.6555	-11.2653	0.919257	-0.232693	
44	1580482312.408666070	0.00238931	-0.895076	2.13236	-2.79042	-1.56954	-2.62329	-9.29769e-06	-2.84223e-06	-2.25334e-05	-7.83403e-07	-3.48179e-05	2.93325e-05	3.98502	-83.954	-23.6609	-11.2648	0.915408	-0.232668	
45	1580482312.416684190	0.00238963	-0.895075	2.13236	-2.79043	-1.56954	-2.62329	-6.75922e-06	3.81475e-06	-3.92859e-05	-2.51474e-05	-2.21752e-05	4.71756e-05	3.99148	-83.9512	-23.6571	-11.2659	0.916987	-0.232097	
46	1580482312.424724936	0.00238872	-0.895074	2.13236	-2.79043	-1.56954	-2.62329	-1.21525e-05	9.72108e-06	-3.87315e-05	-8.28123e-06	-1.84536e-05	4.71152e-05	3.98774	-83.9486	-23.6549	-11.2659	0.918501	-0.233157	
47	1580482312.432687319	0.00238907	-0.895077	2.13236	-2.79043	-1.56954	-2.62329	-9.33931e-06	-8.00465e-06	-5.31185e-05	-8.57721e-06	-2.26092e-05	3.17252e-05	3.9772	-83.9449	-23.6559	-11.2659	0.920962	-0.232599	
48	1580482312.440703785	0.0023906	-0.895075	2.13236	-2.79042	-1.56954	-2.62329	7.1638e-07	6.13899e-06	-3.60063e-05	6.32392e-06	-2.62679e-05	4.79423e-05	3.96845	-83.9486	-23.6569	-11.2645	0.920356	-0.233607	
49	1580482312.448669259	0.00239085	-0.895075	2.13236	-2.79042	-1.56954	-2.62329	2.39187e-06	4.12962e-06	-1.30728e-05	1.232e-05	-3.71056e-05	4.71781e-05	3.95737	-83.9616	-23.6553	-11.265	0.920259	-0.233063	
50	1580482312.456703361	0.00238875	-0.895076	2.13236	-2.79042	-1.56954	-2.62329	-1.06633e-05	-4.9704e-06	-2.85222e-05	1.76318e-05	-3.19635e-05	2.45285e-05	3.95196	-83.9637	-23.652	-11.2656	0.919214	-0.230065	
51	1580482312.464674097	0.00239025	-0.895078	2.13236	-2.79042	-1.56954	-2.62329	-8.2375e-07	-1.31924e-05	-2.08466e-05	2.23161e-05	-2.00588e-05	-1.05016e-05	3.95959	-83.96	-23.6515	-11.2633	0.919609	-0.230578	
52	1580482312.472698684	0.00239052	-0.895078	2.13236	-2.79042	-1.56954	-2.62329	9.78421e-07	-1.35346e-05	-4.20429e-05	2.64246e-05	-9.23314e-06	5.09941e-07	3.95181	-83.9609	-23.6493	-11.2625	0.917699	-0.229643	
53	1580482312.480707801	0.00238849	-0.895076	2.13236	-2.79042	-1.56954	-2.62329	-1.14247e-05	1.4614e-07	-2.61078e-05	2.27426e-05	-6.39231e-06	1.04317e-05	3.96412	-83.9727	-23.6457	-11.2622	0.918107	-0.227807	
54	1580482312.488697156	0.00239111	-0.895072	2.13236	-2.79042	-1.56954	-2.62329	5.14484e-06	1.9422e-05	-1.15237e-05	1.92832e-05	-1.07052e-05	-1.50302e-06	3.96748	-83.9755	-23.6454	-11.2648	0.919826	-0.227414	
55	1580482312.496700436	0.00238796	-0.895072	2.13236	-2.79042	-1.56954	-2.62329	-1.4147e-05	2.31636e-05	-5.03001e-06	1.60362e-05	-9.33368e-07	-1.23638e-05	3.97191	-83.9782	-23.6478	-11.2628	0.920182	-0.227487	
56	1580482312.504702265	0.00239057	-0.895071	2.13236	-2.79042	-1.56954	-2.62329	2.33513e-06	2.64569e-05	-3.31039e-05	2.00152e-05	-5.56779e-06	-1.82659e-06	3.97854	-83.9819	-23.6423	-11.2608	0.9201	-0.22667	
57	1580482312.512668834	0.00239305	-0.895074	2.13236	-2.79042	-1.56954	-2.6233	1.73201e-05	9.02085e-06	-2.47865e-05	9.89299e-06	-9.76782e-06	-2.59553e-05	3.98495	-83.9834	-23.6429	-11.2605	0.919182	-0.226753	
58	1580482312.520875975	0.00239318	-0.895076	2.13236	-2.79042	-1.56954	-2.6233	1.76056e-05	-6.90069e-06	9.63552e-06	-6.00408e-06	-6.94744e-06	-2.12678e-05	3.99227	-83.9737	-23.6385	-11.2606	0.918294	-0.227261	
59	1580482312.528714288	0.00239549	-0.895074	2.13236	-2.79042	-1.56954	-2.62329	3.09788e-05	5.05488e-06	7.99613e-06	-7.40225e-06	-4.35957e-06	-1.69563e-05	3.99378	-83.9772	-23.6375	-11.2619	0.917436	-0.227753	
60	1580482312.536702887	0.0023955	-0.895078	2.13237	-2.79042	-1.56954	-2.62329	3.0033e-05	-1.67672e-05	2.59706e-05	-8.68536e-06	-1.99005e-06	6.84676e-06	4.00073	-83.9807	-23.6366	-11.2609	0.918201	-0.22491	
61	1580482312.544738767	0.0023955	-0.895077	2.13236	-2.79042	-1.56954	-2.62329	2.90735e-05	-1.06926e-05	1.02066e-05	-9.85904e-06	1.30215e-05	-1.04107e-05	4.00637	-83.9869	-23.6337	-11.2621	0.917764	-0.224607	
62	1580482312.552695875	0.0023955	-0.89508	2.13237	-2.79042	-1.56954	-2.6233	2.8104e-05	-3.08379e-05	1.49047e-05	-1.09287e-05	7.59161e-06	-2.61644e-05	4.01184	-83.9891	-23.6324	-11.2622	0.915795	-0.225117	
63	1580482312.560682220	0.00239549	-0.895081	2.13237	-2.79042	-1.56954	-2.62329	2.71279e-05	-3.63018e-05	2.54909e-05	9.64667e-07	2.5991e-06	-1.51529e-05	4.01924	-83.9875	-23.6301	-11.2623	0.914266	-0.224029	
64	1580482312.568700053	0.00239654	-0.895081	2.13237	-2.79042	-1.56954	-2.6233	3.24313e-05	-3.49471e-05	3.51244e-05	5.56229e-06	1.0519e-05	-2.39305e-05	4.02126	-83.9832	-23.6312	-11.2623	0.914283	-0.224143	
65	1580482312.576700157	0.0023986	-0.895083	2.13237	-2.79042	-1.56954	-2.62329	4.34098e-05	-4.62465e-05	4.38604e-05	9.72554e-06	-7.29842e-06	-6.75865e-06	4.02321	-83.9854	-23.6282	-11.2621	0.912823	-0.223869	
66	1580482312.584728268	0.0024016	-0.895085	2.13237	-2.79042	-1.56954	-2.62329	5.95013e-05	-5.64612e-05	5.17515e-05	1.34814e-05	-1.10703e-05	-9.82446e-06	4.0171	-83.9768	-23.6242	-11.2628	0.912133	-0.223982	
67	1580482312.592704480	0.00240129	-0.895084	2.13237	-2.79042	-1.56954	-2.62329	5.5693e-05	-4.71418e-05	4.66675e-05	1.05218e-05	-2.31653e-06	-1.26244e-05	4.00525	-83.9808	-23.6242	-11.2619	0.912539	-0.222228	
68	1580482312.600690589	0.00239785	-0.895081	2.13237	-2.79042	-1.56954	-2.62329	3.38077e-05	-2.63765e-05	4.18832e-05	1.70954e-06	-6.36357e-06	-2.97287e-06	4.00637	-83.976	-23.6247	-11.2616	0.912227	-0.222361	
69	1580482312.608707753	0.00239872	-0.895082	2.13237	-2.79042	-1.56954	-2.6233	3.7702e-05	-3.12066e-05	3.73854e-05	5.81252e-06	-1.62914e-05	-1.82063e-05	4.00843	-83.9747	-23.6282	-11.2613	0.912272	-0.22249	
70	1580482312.616716150	0.00239955	-0.895078	2.13237	-2.79042	-1.56954	-2.6233	4.11571e-05	-1.17838e-05	3.31611e-05	3.35851e-06	-1.32388e-05	-2.62148e-05	4.01137	-83.9701	-23.6265	-11.2611	0.912659	-0.222259	
71	1580482312.624675396	0.00240239	-0.895078	2.13237	-2.79042	-1.56954	-2.62329	5.60535e-05	-1.15937e-05	4.68841e-05	1.07023e-06	-1.03964e-05	-1.57064e-05	4.00211	-83.9723	-23.6245	-11.2599	0.912358	-0.222034	
72	1580482312.632702998	0.00240201	-0.895077	2.13237	-2.79042	-1.56954	-2.6233	5.19304e-05	-5.53987e-06	5.93763e-05	-1.05924e-06	-7.75419e-06	-2.36796e-05	4.01058	-83.9712	-23.6252	-11.258	0.912733	-0.22251	
73	1580482312.640693961	0.00240163	-0.895074	2.13238	-2.79042	-1.56954	-2.6233	4.79742e-05	1.16494e-05	8.25466e-05	-1.46459e-05	-1.11072e-05	-2.51529e-05	4.02427	-83.9773	-23.6239	-11.2585	0.912769	-0.222287	
74	1580482312.648770535	0.00240024	-0.895076	2.13238	-2.79042	-1.56954	-2.6233	3.83902e-05	4.38624e-06	8.61265e-05	-9.61469e-06	-1.41617e-05	-2.06873e-05	4.01968	-83.9801	-23.6233	-11.2583	0.911502	-0.222748	
75	1580482312.656677487	0.0023989	-0.895078	2.13238	-2.79042	-1.56954	-2.6233	2.94425e-05	-8.26633e-06	8.34625e-05	-1.09203e-05	-1.6934e-05	-3.95135e-05	4.02494	-83.9773	-23.6234	-11.2584	0.911231	-0.222528	
76	1580482312.664701318	0.00239863	-0.895076	2.13238	-2.79043	-1.56954	-2.6233	2.68092e-05	3.02768e-06	8.64493e-05	-2.34623e-05	-2.41144e-06	-3.96122e-05	4.02744	-83.9769	-23.6222	-11.2567	0.911602	-0.221654	
77	1580482312.672632952	0.00239836	-0.895077	2.13238	-2.79042	-1.56954	-2.6233	2.42938e-05	-3.48073e-06	7.76885e-05	-1.78424e-05	1.09806e-05	-3.3964e-05	4.0385	-83.9773	-23.6213	-11.258	0.911337	-0.222105	
78	1580482312.680634881	0.0023981	-0.895075	2.13238	-2.79043	-1.56954	-2.6233	2.18935e-05	7.30734e-06	6.37961e-05	-2.40391e-05	6.94933e-07	-3.42619e-05	4.04843	-83.9807	-23.6211	-11.2585	0.911697	-0.221258	
79	1580482312.688609534	0.00240084	-0.895072	2.13238	-2.79043	-1.56954	-2.6233	3.63604e-05	2.27906e-05	5.63553e-05	-2.41483e-05	8.09107e-06	-2.32253e-05	4.05223	-83.9818	-23.6215	-11.2589	0.912048	-0.22075	
80	1580482312.696663641	0.00239947	-0.895071	2.13238	-2.79043	-1.56954	-2.6233	2.74145e-05	2.5979e-05	5.48462e-05	-3.52295e-05	1.4894e-05	-2.9641e-05	4.05013	-83.9829	-23.6228	-11.2598	0.912693	-0.220568	
81	1580482312.704655356	0.00240307	-0.895073	2.13238	-2.79043	-1.56954	-2.6233	4.64339e-05	1.7887e-05	5.32987e-05	-3.98983e-05	2.11329e-05	-3.54888e-05	4.04972	-83.9817	-23.6226	-11.2596	0.913321	-0.22132	
82	1580482312.712663524	0.00240259	-0.89507	2.13238	-2.79043	-1.56953	-2.6233	4.21501e-05	3.21245e-05	5.71616e-05	-3.86708e-05	2.68362e-05	-2.43628e-05	4.04932	-83.982	-23.6236	-11.2609	0.912757	-0.220523	
83	1580482312.720656039	0.00240114	-0.89507	2.13238	-2.79043	-1.56953	-2.6233	3.26269e-05	2.89713e-05	4.97599e-05	-4.28467e-05	2.12195e-05	-3.03429e-05	4.05374	-83.9895	-23.6228	-11.2612	0.91337	-0.219745	
84	1580482312.728670151	0.00240073	-0.895074	2.13238	-2.79043	-1.56954	-2.6233	2.91176e-05	9.64447e-06	4.81464e-05	-3.56451e-05	1.03804e-05	-2.50525e-05	4.04776	-83.9841	-23.6237	-11.2621	0.913394	-0.219882	
85	1580482312.736669218	0.00239935	-0.895072	2.13237	-2.79043	-1.56954	-2.6233	2.0415e-05	1.86245e-05	3.05125e-05	-3.44445e-05	5.87195e-06	-2.54294e-05	4.04818	-83.9871	-23.6198	-11.2611	0.913417	-0.219425	
86	1580482312.744680719	0.00239899	-0.895074	2.13237	-2.79043	-1.56954	-2.6233	1.76222e-05	5.46097e-06	3.00104e-05	-3.32483e-05	1.68124e-06	-2.57121e-05	4.04162	-83.9887	-23.6204	-11.2625	0.912878	-0.220147	
87	1580482312.752671866	0.00239768	-0.895074	2.13237	-2.79043	-1.56954	-2.6233	9.68045e-06	9.26692e-06	1.89246e-05	-3.73264e-05	-2.20558e-06	-1.52666e-05	4.04899	-83.9924	-23.6202	-11.2612	0.912906	-0.220275	
88	1580482312.760692777	0.00239931	-0.895076	2.13237	-2.79043	-1.56954	-2.62329	1.80733e-05	-3.15262e-06	2.43054e-05	-3.57751e-05	-5.67486e-07	5.12418e-06	4.05165	-83.9838	-23.6212	-11.261	0.913484	-0.220401	
89	1580482312.768696427	0.00239894	-0.895075	2.13237	-2.79043	-1.56954	-2.62329	1.53278e-05	1.15786e-06	2.92199e-05	-3.42486e-05	9.48963e-07	2.39998e-05	4.05275	-83.9874	-23.6229	-11.2598	0.913777	-0.219675	
90	1580482312.776734609	0.00239859	-0.895075	2.13237	-2.79043	-1.56954	-2.62329	1.27297e-05	-2.6956e-08	3.36912e-05	-3.27481e-05	2.3493e-06	2.5607e-05	4.05161	-83.9922	-23.623	-11.2604	0.913526	-0.219524	
91	1580482312.784677623	0.0023992	-0.895073	2.13237	-2.79043	-1.56954	-2.62329	1.54409e-05	9.1469e-06	2.23242e-05	-4.15535e-05	-1.19842e-05	2.18886e-05	4.05123	-83.9931	-23.6222	-11.2602	0.914078	-0.220207	
92	1580482312.792705848	0.00239883	-0.895073	2.13237	-2.79043	-1.56954	-2.62329	1.27664e-05	1.25168e-05	1.17167e-05	-4.96149e-05	-2.01404e-05	1.32719e-05	4.05737	-83.9932	-23.6223	-11.2598	0.914355	-0.219506	
93	1580482312.800708230	0.00239657	-0.895073	2.13237	-2.79043	-1.56954	-2.62329	2.81482e-08	1.05265e-05	1.19947e-05	-5.18894e-05	-1.2219e-05	2.05773e-05	4.06267	-83.9927	-23.6218	-11.2591	0.913845	-0.220987	
94	1580482312.808771909	0.00239535	-0.895073	2.13237	-2.79043	-1.56954	-2.62329	-6.73124e-06	8.64625e-06	7.16568e-06	-5.38682e-05	-1.49353e-05	7.00488e-06	4.06786	-83.9942	-23.6227	-11.2587	0.913346	-0.220829	
95	1580482312.816725517	0.00239324	-0.895073	2.13237	-2.79043	-1.56954	-2.62329	-1.80484e-05	1.18923e-05	-2.363e-06	-5.05481e-05	-7.38075e-06	9.44254e-06	4.07575	-83.9955	-23.621	-11.2568	0.912857	-0.220409	
96	1580482312.824693723	0.00239497	-0.895073	2.13237	-2.79043	-1.56954	-2.62329	-8.45374e-06	9.87927e-06	-1.62048e-05	-4.73355e-05	-5.33842e-06	-3.29479e-06	4.08208	-84	-23.6218	-11.2567	0.912631	-0.221836	
97	1580482312.832698707	0.0023957	-0.895072	2.13236	-2.79043	-1.56954	-2.62329	-4.51979e-06	1.29413e-05	-2.40668e-05	-4.91931e-05	-8.39179e-06	-5.19652e-06	4.09104	-83.9976	-23.6206	-11.2573	0.912409	-0.222194	
98	1580482312.840762177	0.0023964	-0.895071	2.13237	-2.79043	-1.56954	-2.6233	-8.63524e-07	2.0684e-05	-2.14478e-05	-4.58578e-05	-1.12091e-05	-1.18897e-05	4.08213	-83.9996	-23.6197	-11.2576	0.911944	-0.221515	
99	1580482312.848732871	0.002398	-0.895071	2.13237	-2.79043	-1.56954	-2.6233	7.46152e-06	1.80066e-05	-4.23997e-06	-3.75348e-05	-8.89222e-06	-8.26799e-06	4.08147	-83.9954	-23.6213	-11.2577	0.911979	-0.222634	
100	1580482312.856708142	0.0023986	-0.89507	2.13237	-2.79043	-1.56954	-2.6233	1.02663e-05	2.52296e-05	2.00276e-06	-3.96573e-05	-1.66751e-05	-2.45075e-05	4.0855	-83.9944	-23.6194	-11.2573	0.912012	-0.222469	
101	1580482312.864726677	0.00240103	-0.895072	2.13237	-2.79043	-1.56954	-2.6233	2.26025e-05	1.22628e-05	-1.91171e-06	-3.66737e-05	-4.25711e-06	-2.00355e-05	4.08483	-83.9933	-23.6173	-11.2572	0.911805	-0.222057	
102	1580482312.872731961	0.00240058	-0.895073	2.13237	-2.79043	-1.56954	-2.6233	1.94489e-05	5.18404e-06	-5.55421e-06	-2.87796e-05	-1.22047e-05	-2.06573e-05	4.08286	-83.9958	-23.6186	-11.2571	0.911364	-0.220912	
103	1580482312.880693935	0.00239831	-0.895073	2.13237	-2.79043	-1.56954	-2.6233	6.79645e-06	8.18501e-06	-4.13127e-06	-3.11576e-05	-9.77087e-06	-2.11874e-05	4.08287	-83.9965	-23.6185	-11.2572	0.911638	-0.220768	
104	1580482312.888694372	0.0023998	-0.895074	2.13237	-2.79043	-1.56954	-2.6233	1.42096e-05	1.39349e-06	1.9782e-06	-2.35401e-05	-2.70169e-06	-2.64101e-05	4.07967	-84.0035	-23.6183	-11.257	0.911673	-0.221113	
105	1580482312.896708740	0.00240122	-0.895071	2.13237	-2.79043	-1.56954	-2.6233	2.10687e-05	1.40779e-05	-6.6059e-06	-2.6083e-05	3.88835e-06	-2.17015e-05	4.07971	-84.0047	-23.6182	-11.2576	0.912402	-0.218565	
106	1580482312.904684436	0.00240167	-0.895074	2.13237	-2.79043	-1.56954	-2.6233	2.26417e-05	2.0111e-06	-9.85994e-06	-2.3652e-05	1.94792e-05	-2.19943e-05	4.08102	-84.0019	-23.6195	-11.2575	0.912659	-0.220353	
107	1580482312.912688464	0.00239937	-0.895075	2.13237	-2.79043	-1.56954	-2.6233	9.84822e-06	-4.34861e-06	5.95414e-06	-2.13237e-05	1.51332e-05	-2.69214e-05	4.07792	-84.0042	-23.6207	-11.2573	0.912911	-0.219984	
108	1580482312.920702847	0.00239897	-0.895078	2.13237	-2.79043	-1.56954	-2.6233	7.30718e-06	-1.98257e-05	1.13085e-05	-2.84625e-05	1.1047e-05	-1.7306e-05	4.07674	-84.0036	-23.6214	-11.2576	0.911809	-0.220323	
109	1580482312.928670524	0.00239948	-0.895078	2.13237	-2.79043	-1.56953	-2.6233	9.59568e-06	-2.00473e-05	2.09296e-05	-2.57231e-05	2.11916e-05	-1.77139e-05	4.0762	-84.0026	-23.6202	-11.2573	0.911396	-0.220424	
110	1580482312.936729910	0.00240088	-0.895074	2.13238	-2.79043	-1.56953	-2.6233	1.6359e-05	-1.66364e-06	2.9848e-05	-2.31007e-05	2.13267e-05	-1.80516e-05	4.07384	-83.9972	-23.6227	-11.2576	0.911432	-0.219834	
111	1580482312.944689241	0.00239951	-0.895077	2.13237	-2.79043	-1.56954	-2.6233	8.7012e-06	-1.70065e-05	1.96335e-05	-2.05931e-05	1.67875e-05	-9.00133e-06	4.07393	-84.0016	-23.6239	-11.2583	0.911686	-0.219938	
112	1580482312.952668093	0.00240089	-0.895076	2.13237	-2.79043	-1.56954	-2.6233	1.53778e-05	-8.13931e-06	1.9239e-05	-2.73832e-05	3.1437e-06	-1.89978e-05	4.07103	-83.9958	-23.6263	-11.2586	0.911936	-0.220039	
113	1580482312.960689528	0.00239953	-0.895078	2.13237	-2.79043	-1.56954	-2.6233	7.77759e-06	-1.83169e-05	1.88217e-05	-1.97528e-05	8.8692e-06	-2.371e-05	4.06937	-83.9991	-23.6263	-11.2581	0.911966	-0.219692	
114	1580482312.968734166	0.00239821	-0.895077	2.13237	-2.79043	-1.56954	-2.6233	6.55673e-07	-1.39492e-05	1.8384e-05	-2.64069e-05	1.41918e-05	-3.26014e-05	4.0695	-84.0007	-23.6266	-11.2579	0.911995	-0.219794	
115	1580482312.976688587	0.00239873	-0.895077	2.13237	-2.79043	-1.56953	-2.6233	3.09958e-06	-1.43718e-05	4.34363e-06	-1.42568e-05	1.91274e-05	-3.62977e-05	4.06613	-84.0008	-23.6277	-11.2574	0.911602	-0.219455	
116	1580482312.984686360	0.00239745	-0.895078	2.13237	-2.79043	-1.56954	-2.6233	-3.69722e-06	-1.92448e-05	-8.78323e-06	-2.10786e-05	5.48198e-06	-3.51571e-05	4.06398	-83.9993	-23.6279	-11.2589	0.911844	-0.220212	
117	1580482312.992692097	0.00239798	-0.895078	2.13237	-2.79043	-1.56954	-2.6233	-1.0259e-06	-1.92699e-05	5.89002e-06	-1.37548e-05	1.08481e-05	-2.02796e-05	4.06072	-83.9933	-23.6285	-11.259	0.911666	-0.220523	
118	1580482313.000707668	0.0023985	-0.895077	2.13237	-2.79043	-1.56954	-2.6233	1.46311e-06	-1.47868e-05	-2.75104e-06	-1.15176e-05	6.90266e-06	-2.44639e-05	4.05637	-83.9873	-23.6291	-11.2598	0.911491	-0.220401	
119	1580482313.008639282	0.00239988	-0.895079	2.13237	-2.79043	-1.56954	-2.6233	8.2469e-06	-2.40837e-05	-6.37857e-06	-9.39221e-06	-1.03187e-05	-3.27616e-05	4.0566	-83.9875	-23.6287	-11.2591	0.911319	-0.22028	
120	1580482313.016677810	0.00240208	-0.895081	2.13237	-2.79043	-1.56954	-2.6233	1.90108e-05	-3.27224e-05	-1.41864e-05	-1.18025e-05	-4.08479e-06	-3.60138e-05	4.05627	-83.9911	-23.6293	-11.2582	0.911149	-0.219951	
121	1580482313.024668292	0.00240156	-0.89508	2.13237	-2.79043	-1.56954	-2.6233	1.57319e-05	-2.73307e-05	-1.70521e-05	-5.03057e-06	1.75051e-06	-3.01557e-05	4.05428	-83.9883	-23.6285	-11.2581	0.91058	-0.219836	
122	1580482313.032686817	0.00240106	-0.895079	2.13237	-2.79043	-1.56954	-2.6233	1.26224e-05	-2.22301e-05	-2.40863e-05	-3.2416e-06	2.81374e-06	-2.89939e-05	4.05178	-83.99	-23.6271	-11.2574	0.910619	-0.219515	
123	1580482313.040689021	0.00240057	-0.895079	2.13236	-2.79043	-1.56954	-2.6233	9.67766e-06	-1.74117e-05	-2.62476e-05	7.35969e-06	3.80026e-06	-1.90132e-05	4.05367	-83.9872	-23.6277	-11.2575	0.910658	-0.219612	
124	1580482313.048665529	0.00239923	-0.895079	2.13236	-2.79043	-1.56954	-2.6233	2.51983e-06	-1.72167e-05	-3.25657e-05	8.39546e-06	1.34132e-05	-2.2766e-05	4.05824	-83.982	-23.6287	-11.2574	0.910499	-0.219502	
125	1580482313.056699240	0.00239967	-0.89508	2.13236	-2.79043	-1.56953	-2.6233	4.5173e-06	-2.13287e-05	-2.5415e-05	1.81908e-05	2.23771e-05	-3.05538e-05	4.05576	-83.9799	-23.6287	-11.2578	0.911317	-0.219192	
126	1580482313.064656700	0.0024001	-0.895077	2.13237	-2.79042	-1.56953	-2.6233	6.36846e-06	-7.87788e-06	-1.86701e-05	3.16399e-05	2.64026e-05	-3.77699e-05	4.05811	-83.9858	-23.6297	-11.2581	0.911735	-0.219087	
127	1580482313.072696004	0.0024005	-0.895078	2.13237	-2.79042	-1.56953	-2.6233	8.07924e-06	-1.24507e-05	-1.66134e-05	3.11109e-05	2.15212e-05	-2.71702e-05	4.06359	-83.9859	-23.6305	-11.2578	0.912148	-0.219383	
128	1580482313.080668153	0.00239917	-0.895077	2.13237	-2.79042	-1.56953	-2.6233	1.0551e-06	-8.15014e-06	-1.03763e-05	3.05555e-05	1.69022e-05	-3.00987e-05	4.06218	-83.9843	-23.631	-11.2568	0.911982	-0.219081	
129	1580482313.088691222	0.0023996	-0.895076	2.13237	-2.79042	-1.56953	-2.6233	3.03191e-06	1.54821e-07	-4.51496e-06	2.14565e-05	2.53174e-05	-3.27699e-05	4.06234	-83.984	-23.6314	-11.2565	0.912575	-0.218587	
130	1580482313.096683347	0.00240088	-0.895075	2.13237	-2.79042	-1.56953	-2.6233	9.13403e-06	3.69124e-06	-3.25913e-06	3.00337e-05	2.88999e-05	-3.51948e-05	4.06612	-83.9837	-23.6308	-11.2567	0.912597	-0.217516	
131	1580482313.104696346	0.00240039	-0.895075	2.13237	-2.79042	-1.56953	-2.6233	6.32783e-06	2.77162e-06	-6.3022e-06	3.3785e-05	2.79664e-05	-2.89336e-05	4.07035	-83.9843	-23.6306	-11.2565	0.912804	-0.217815	
132	1580482313.112659715	0.00239906	-0.895074	2.13237	-2.79042	-1.56953	-2.6233	-5.53366e-07	6.11295e-06	-9.14129e-06	3.28565e-05	2.28207e-05	-2.72065e-05	4.0674	-83.9841	-23.6302	-11.2564	0.912269	-0.218109	
133	1580482313.120632920	0.00240034	-0.895074	2.13237	-2.79042	-1.56953	-2.6233	5.63296e-06	5.04031e-06	7.91096e-07	1.93466e-05	1.79466e-05	-1.70557e-05	4.06854	-83.9851	-23.6302	-11.2557	0.911926	-0.2184	
134	1580482313.128692844	0.00240242	-0.895075	2.13237	-2.79042	-1.56953	-2.6233	1.56095e-05	-1.5035e-07	1.42736e-05	1.49965e-05	2.58614e-05	-1.59306e-05	4.07015	-83.9875	-23.6315	-11.2563	0.911952	-0.218875	
135	1580482313.136659107	0.00240102	-0.895074	2.13237	-2.79042	-1.56953	-2.6233	8.19941e-06	7.46011e-06	1.02481e-05	1.50488e-05	2.49061e-05	-6.4338e-06	4.07026	-83.9903	-23.6335	-11.2559	0.912338	-0.218404	
136	1580482313.144618925	0.00239882	-0.895074	2.13237	-2.79042	-1.56953	-2.6233	-2.9378e-06	6.2959e-06	1.05938e-05	1.50695e-05	1.98115e-05	6.80103e-06	4.0669	-83.9905	-23.6336	-11.255	0.912898	-0.218126	
137	1580482313.152618455	0.0023967	-0.895073	2.13237	-2.79042	-1.56953	-2.6233	-1.3384e-05	9.31779e-06	6.76849e-06	1.9352e-05	1.4988e-05	1.07066e-05	4.06752	-83.988	-23.6347	-11.2545	0.913094	-0.218223	
138	1580482313.160694382	0.00239635	-0.895073	2.13237	-2.79042	-1.56953	-2.6233	-1.48969e-05	1.21332e-05	7.27602e-06	1.90562e-05	2.27602e-05	1.4356e-05	4.06958	-83.9877	-23.6348	-11.255	0.912934	-0.218685	
139	1580482313.168670557	0.00239685	-0.895075	2.13237	-2.79043	-1.56953	-2.6233	-1.21757e-05	2.30037e-06	2.00215e-05	1.05513e-05	1.34556e-05	9.56776e-06	4.06824	-83.9883	-23.6357	-11.2554	0.912776	-0.218412	
140	1580482313.176659833	0.00239565	-0.895073	2.13237	-2.79043	-1.56953	-2.6233	-1.78069e-05	9.55123e-06	1.56196e-05	1.07107e-05	8.93516e-06	9.82964e-07	4.06835	-83.9914	-23.6351	-11.2558	0.912794	-0.218685	
141	1580482313.184634037	0.0023945	-0.895074	2.13238	-2.79043	-1.56953	-2.6233	-2.30616e-05	8.20739e-06	2.77132e-05	1.084e-05	1.68628e-05	5.12482e-06	4.06322	-83.9924	-23.6338	-11.2557	0.912986	-0.218416	
142	1580482313.193269056	0.00239507	-0.895071	2.13238	-2.79043	-1.56953	-2.6233	-1.98113e-05	1.90772e-05	2.68586e-05	6.89144e-06	1.61658e-05	4.95964e-06	4.06337	-83.9925	-23.6343	-11.2555	0.912487	-0.218328	
143	1580482313.200665726	0.00239394	-0.895072	2.13237	-2.79043	-1.56953	-2.6233	-2.48372e-05	1.71393e-05	1.38968e-05	7.20626e-06	1.1439e-05	7.66781e-07	4.06727	-83.9905	-23.6367	-11.2552	0.912507	-0.218597	
144	1580482313.208631439	0.00239454	-0.895072	2.13237	-2.79043	-1.56954	-2.6233	-2.14294e-05	1.52847e-05	1.7775e-05	3.46873e-06	2.79187e-06	-7.18482e-06	4.06832	-83.9889	-23.6361	-11.2558	0.912527	-0.218333	
145	1580482313.216645168	0.00239511	-0.895071	2.13237	-2.79043	-1.56954	-2.6233	-1.81908e-05	1.75167e-05	1.33687e-05	3.95795e-06	-5.33963e-06	-6.62119e-06	4.07028	-83.9854	-23.6344	-11.256	0.912547	-0.218773	
146	1580482313.224684189	0.00239814	-0.895071	2.13237	-2.79042	-1.56954	-2.6233	-3.20691e-06	1.95771e-05	1.31915e-05	1.6542e-05	-4.8309e-06	-2.08171e-06	4.07129	-83.9884	-23.6345	-11.2568	0.912232	-0.219033	
147	1580482313.232659791	0.0023986	-0.89507	2.13238	-2.79043	-1.56954	-2.6233	-9.96356e-07	2.14724e-05	2.49252e-05	8.2903e-06	-1.64369e-05	-9.7362e-06	4.07503	-83.991	-23.6335	-11.2565	0.912419	-0.21739	
148	1580482313.240652201	0.00239904	-0.895069	2.13238	-2.79042	-1.56954	-2.6233	1.07873e-06	2.71715e-05	3.58972e-05	1.2567e-05	-1.13062e-05	-1.69025e-05	4.07418	-83.989	-23.6331	-11.2571	0.912934	-0.21697	
149	1580482313.248683349	0.00239946	-0.895069	2.13238	-2.79043	-1.56954	-2.6233	3.02283e-06	2.85233e-05	3.03404e-05	4.55861e-06	-1.84703e-05	-1.57005e-05	4.07109	-83.9908	-23.6329	-11.2559	0.913278	-0.217237	
150	1580482313.256789850	0.00239905	-0.89507	2.13238	-2.79043	-1.56954	-2.6233	8.85058e-07	2.18668e-05	4.07927e-05	8.98423e-06	-2.10797e-05	-1.84684e-05	4.07387	-83.9889	-23.6332	-11.2564	0.912804	-0.216993	
151	1580482313.264659933	0.00239699	-0.895069	2.13238	-2.79043	-1.56954	-2.6233	-9.01282e-06	2.34064e-05	3.87716e-05	5.12845e-06	-1.17332e-05	-1.7107e-05	4.07349	-83.9914	-23.6341	-11.2574	0.912982	-0.217088	
152	1580482313.272697811	0.00239666	-0.895069	2.13238	-2.79043	-1.56954	-2.6233	-1.04478e-05	2.48057e-05	2.1163e-05	5.40094e-06	-6.83487e-06	-1.57875e-05	4.07223	-83.9915	-23.6338	-11.2575	0.912998	-0.217516	
153	1580482313.280699697	0.00239716	-0.895069	2.13238	-2.79043	-1.56954	-2.6233	-7.86563e-06	2.21766e-05	2.01363e-05	5.64669e-06	-1.00072e-05	-6.64442e-06	4.07143	-83.9908	-23.6339	-11.2568	0.913333	-0.217606	
154	1580482313.288805110	0.002396	-0.89507	2.13237	-2.79043	-1.56954	-2.6233	-1.32276e-05	1.96583e-05	1.52465e-05	5.86683e-06	-1.70103e-05	-5.86584e-06	4.06497	-83.9882	-23.6336	-11.2573	0.913663	-0.218356	
155	1580482313.296695874	0.0023957	-0.895069	2.13238	-2.79043	-1.56954	-2.6233	-1.43602e-05	2.11161e-05	2.22155e-05	6.06246e-06	-1.95451e-05	-5.11586e-06	4.06769	-83.9864	-23.6327	-11.2577	0.913675	-0.218931	
156	1580482313.304693915	0.0023946	-0.895068	2.13237	-2.79043	-1.56954	-2.6233	-1.92756e-05	2.62978e-05	1.33055e-05	6.23465e-06	-2.59036e-05	-5.39818e-07	4.0721	-83.9835	-23.6322	-11.2576	0.913529	-0.218685	
157	1580482313.312696033	0.00239435	-0.895068	2.13238	-2.79043	-1.56954	-2.6233	-2.00036e-05	2.34357e-05	2.41002e-05	2.54295e-06	-1.63189e-05	-3.91052e-06	4.06662	-83.9829	-23.6332	-11.2575	0.913385	-0.218281	
158	1580482313.320715294	0.0023933	-0.895071	2.13238	-2.79043	-1.56954	-2.6233	-2.45019e-05	1.28834e-05	1.88906e-05	2.89302e-06	-1.49295e-05	-7.06842e-06	4.0646	-83.9864	-23.6333	-11.2568	0.913398	-0.218042	
159	1580482313.328702917	0.00239555	-0.895072	2.13238	-2.79043	-1.56954	-2.6233	-1.33445e-05	6.89365e-06	2.53954e-05	3.2166e-06	-1.35957e-05	-2.38827e-06	4.06895	-83.9877	-23.633	-11.2564	0.913718	-0.218126	
160	1580482313.336694921	0.00239528	-0.895074	2.13238	-2.79043	-1.56954	-2.6233	-1.42917e-05	-2.71675e-06	2.00528e-05	3.51468e-06	-4.70912e-06	-9.38395e-06	4.06988	-83.9863	-23.6315	-11.2558	0.913881	-0.21805	
161	1580482313.344653297	0.00239584	-0.895072	2.13238	-2.79042	-1.56954	-2.6233	-1.13462e-05	3.55491e-06	3.01456e-05	1.15225e-05	3.66294e-06	-1.59453e-05	4.0708	-83.9857	-23.6314	-11.256	0.914042	-0.217975	
162	1580482313.352709569	0.00239638	-0.89507	2.13238	-2.79043	-1.56954	-2.6233	-8.55326e-06	1.32275e-05	2.82474e-05	3.77172e-06	-3.73129e-06	-2.96434e-06	4.06632	-83.9881	-23.6314	-11.2561	0.914201	-0.218215	
163	1580482313.360714938	0.0023969	-0.89507	2.13238	-2.79043	-1.56954	-2.6233	-5.90858e-06	1.4772e-05	3.39351e-05	-3.53361e-06	4.53055e-06	5.35174e-06	4.0656	-83.99	-23.6298	-11.2558	0.913759	-0.217828	
164	1580482313.368646437	0.00239902	-0.89507	2.13238	-2.79043	-1.56954	-2.6233	4.14166e-06	1.24399e-05	3.17116e-05	-6.6519e-06	-2.86935e-06	1.31787e-05	4.06449	-83.992	-23.6295	-11.256	0.914365	-0.217755	
165	1580482313.376684587	0.00239865	-0.89507	2.13238	-2.79043	-1.56954	-2.6233	2.30964e-06	1.39593e-05	3.32949e-05	-5.83384e-06	5.28712e-06	2.05312e-05	4.06664	-83.9939	-23.6294	-11.2555	0.914223	-0.218146	
166	1580482313.384731033	0.00239669	-0.895068	2.13238	-2.79043	-1.56954	-2.62329	-6.9232e-06	2.28228e-05	4.21803e-05	-8.7842e-06	1.76486e-06	2.36183e-05	4.06553	-83.9936	-23.6303	-11.2553	0.914377	-0.218226	
167	1580482313.392724573	0.0023964	-0.895067	2.13238	-2.79043	-1.56954	-2.62329	-8.13028e-06	2.74065e-05	3.93069e-05	-1.15477e-05	-1.55795e-06	2.64879e-05	4.06524	-83.9955	-23.631	-11.2555	0.91453	-0.218	
168	1580482313.400692009	0.00239852	-0.895067	2.13238	-2.79043	-1.56954	-2.62329	1.92972e-06	2.42542e-05	3.28121e-05	-1.04224e-05	-1.59594e-05	2.54396e-05	4.06695	-83.9963	-23.6319	-11.2551	0.914535	-0.218383	
169	1580482313.408694450	0.00239817	-0.895069	2.13238	-2.79043	-1.56954	-2.62329	2.56229e-07	1.75381e-05	3.03208e-05	-1.67362e-05	-3.47806e-06	2.8106e-05	4.06904	-83.9985	-23.6316	-11.2548	0.914685	-0.218309	
170	1580482313.416784929	0.00239783	-0.895066	2.13238	-2.79043	-1.56954	-2.62329	-1.32198e-06	2.9598e-05	2.05394e-05	-1.52853e-05	-2.7662e-06	4.18481e-05	4.06834	-83.9975	-23.6331	-11.2555	0.914976	-0.218985	
171	1580482313.424700423	0.00239671	-0.895065	2.13238	-2.79043	-1.56954	-2.62329	-6.50113e-06	3.35576e-05	1.12748e-05	-1.38898e-05	-5.76531e-06	5.47273e-05	4.0704	-83.9975	-23.6315	-11.2555	0.914979	-0.219355	
172	1580482313.432650634	0.00239642	-0.895062	2.13238	-2.79043	-1.56954	-2.62329	-7.68968e-06	4.45495e-05	9.83879e-06	-1.62116e-05	-8.58293e-06	5.55631e-05	4.07243	-83.9979	-23.6314	-11.256	0.915266	-0.219277	
173	1580482313.440675429	0.00239535	-0.895065	2.13237	-2.79043	-1.56954	-2.62329	-1.24679e-05	3.27693e-05	1.15553e-06	-1.0921e-05	-1.12247e-05	5.62528e-05	4.07328	-83.9973	-23.6314	-11.2564	0.914842	-0.219053	
174	1580482313.448735808	0.00239511	-0.895064	2.13238	-2.79043	-1.56954	-2.62329	-1.32909e-05	3.63062e-05	3.88074e-06	-2.27176e-06	-1.36961e-05	5.31626e-05	4.07759	-83.9984	-23.6312	-11.2557	0.914705	-0.218832	
175	1580482313.456696229	0.00239329	-0.895064	2.13238	-2.79043	-1.56954	-2.62329	-2.13418e-05	3.231e-05	6.43552e-06	-1.51612e-06	-1.23726e-05	5.01541e-05	4.07571	-83.9954	-23.631	-11.2557	0.914849	-0.218758	
176	1580482313.464669581	0.0023947	-0.895064	2.13237	-2.79043	-1.56954	-2.62329	-1.43425e-05	3.20963e-05	-9.27052e-06	-8e-07	-1.47222e-05	3.62974e-05	4.07384	-83.9954	-23.6308	-11.2555	0.915408	-0.219986	
177	1580482313.472692064	0.00239291	-0.895066	2.13237	-2.79043	-1.56954	-2.62329	-2.22261e-05	2.46136e-05	-1.32497e-05	-1.22362e-07	-1.33038e-05	3.40609e-05	4.07618	-83.9928	-23.631	-11.2558	0.914993	-0.219476	
178	1580482313.480695830	0.00239433	-0.895064	2.13237	-2.79043	-1.56954	-2.62329	-1.51543e-05	3.18965e-05	-1.69871e-05	7.85772e-06	-1.19424e-05	4.28999e-05	4.07925	-83.9936	-23.6323	-11.2556	0.914858	-0.219829	
179	1580482313.488686054	0.00239256	-0.895064	2.13237	-2.79043	-1.56954	-2.62329	-2.28818e-05	2.7941e-05	-1.3315e-05	8.05435e-06	-2.51305e-05	4.01836e-05	4.08229	-83.9943	-23.6325	-11.2557	0.915135	-0.219609	
180	1580482313.496698293	0.00239321	-0.895065	2.13237	-2.79042	-1.56954	-2.62329	-1.93431e-05	2.41523e-05	-9.83371e-06	1.55236e-05	-1.95003e-05	3.39712e-05	4.08379	-83.9941	-23.6332	-11.2556	0.914864	-0.219392	
181	1580482313.504698201	0.00239149	-0.895065	2.13237	-2.79042	-1.56954	-2.62329	-2.67263e-05	2.40941e-05	5.95634e-07	1.8978e-05	-2.4996e-05	4.25289e-05	4.08826	-83.9925	-23.6336	-11.2559	0.914867	-0.219599	
182	1580482313.512683327	0.00239139	-0.895066	2.13237	-2.79042	-1.56954	-2.62329	-2.64948e-05	1.6876e-05	3.31717e-06	1.8506e-05	-2.64391e-05	4.6829e-05	4.08972	-83.9906	-23.6333	-11.2552	0.915139	-0.219804	
183	1580482313.520692263	0.00238896	-0.895068	2.13237	-2.79042	-1.56954	-2.62329	-3.69246e-05	1.00263e-05	-1.21936e-06	2.17167e-05	-3.14423e-05	4.71854e-05	4.09263	-83.9913	-23.6351	-11.2557	0.915542	-0.220285	
184	1580482313.528641433	0.00238895	-0.89507	2.13237	-2.79042	-1.56955	-2.62329	-3.60374e-05	-1.42377e-07	-1.96902e-06	1.74948e-05	-3.61089e-05	4.38998e-05	4.09332	-83.9921	-23.6355	-11.2553	0.915408	-0.220069	
185	1580482313.536710936	0.00238895	-0.89507	2.13237	-2.79042	-1.56955	-2.62329	-3.51352e-05	9.7157e-07	8.47235e-07	1.70051e-05	-4.39766e-05	3.36651e-05	4.09436	-83.9931	-23.6369	-11.2552	0.916069	-0.219992	
186	1580482313.544681444	0.00238818	-0.89507	2.13238	-2.79042	-1.56955	-2.62329	-3.77554e-05	-1.50259e-06	7.01543e-06	1.65128e-05	-4.41525e-05	3.80771e-05	4.09937	-83.9942	-23.6372	-11.2553	0.915934	-0.219643	
187	1580482313.552690947	0.00238743	-0.895071	2.13237	-2.79042	-1.56955	-2.62329	-4.01614e-05	-3.84346e-06	-1.20611e-06	1.25118e-05	-4.42399e-05	4.58202e-05	4.10254	-83.9923	-23.6374	-11.2555	0.91567	-0.219706	
188	1580482313.560679731	0.00238828	-0.895071	2.13237	-2.79042	-1.56955	-2.62329	-3.53295e-05	-6.05454e-06	1.51813e-06	1.58455e-05	-4.07462e-05	4.2347e-05	4.10781	-83.995	-23.6368	-11.2552	0.915538	-0.219498	
189	1580482313.568710228	0.00238832	-0.895073	2.13237	-2.79042	-1.56955	-2.62328	-3.42081e-05	-1.5254e-05	-6.38018e-06	2.24534e-05	-4.08612e-05	4.96612e-05	4.11054	-83.9963	-23.6365	-11.2549	0.915537	-0.219157	
190	1580482313.576681053	0.00239145	-0.895074	2.13237	-2.79042	-1.56955	-2.62328	-1.92095e-05	-2.03065e-05	-1.03568e-05	2.15598e-05	-3.74182e-05	5.28619e-05	4.11111	-83.9951	-23.6357	-11.2545	0.915279	-0.219221	
191	1580482313.584673172	0.00239064	-0.895076	2.13237	-2.79042	-1.56955	-2.62328	-2.23312e-05	-2.86583e-05	-1.41008e-05	2.06775e-05	-3.75668e-05	4.87827e-05	4.11133	-83.9927	-23.6351	-11.2549	0.91528	-0.219019	
192	1580482313.592698303	0.00238986	-0.895077	2.13237	-2.79042	-1.56954	-2.62328	-2.5238e-05	-2.94487e-05	-7.24118e-06	2.34049e-05	-2.03427e-05	4.82988e-05	4.10838	-83.9905	-23.6357	-11.2547	0.914898	-0.218685	
193	1580482313.600698883	0.00238988	-0.895078	2.13237	-2.79042	-1.56954	-2.62328	-2.4469e-05	-3.36011e-05	-1.11026e-05	2.23523e-05	-1.09302e-05	4.08532e-05	4.10895	-83.9937	-23.6353	-11.2541	0.915154	-0.219279	
194	1580482313.608670697	0.00239221	-0.895076	2.13237	-2.79042	-1.56954	-2.62329	-1.33194e-05	-2.37101e-05	-1.47372e-05	1.78772e-05	-1.93545e-05	3.71823e-05	4.10848	-83.9926	-23.6347	-11.2541	0.914651	-0.219473	
195	1580482313.616658540	0.00239063	-0.895077	2.13237	-2.79042	-1.56954	-2.62328	-2.00049e-05	-2.80542e-05	-1.47199e-05	1.36159e-05	-2.02778e-05	4.05751e-05	4.10801	-83.9933	-23.6342	-11.2542	0.914654	-0.219404	
196	1580482313.624699566	0.00238987	-0.895078	2.13237	-2.79042	-1.56955	-2.62328	-2.28443e-05	-3.56764e-05	-1.46831e-05	1.65453e-05	-2.46709e-05	3.67924e-05	4.1072	-83.9933	-23.6338	-11.254	0.915158	-0.219075	
197	1580482313.632718532	0.00238991	-0.895079	2.13237	-2.79042	-1.56955	-2.62329	-2.20533e-05	-3.58614e-05	-1.46276e-05	1.23205e-05	-2.18136e-05	2.9734e-05	4.10538	-83.9907	-23.6338	-11.2542	0.915035	-0.219267	
198	1580482313.640771648	0.00239148	-0.895079	2.13237	-2.79042	-1.56955	-2.62329	-1.44184e-05	-3.59798e-05	-1.45545e-05	1.17084e-05	-2.24756e-05	2.64086e-05	4.10867	-83.9905	-23.6355	-11.2538	0.914789	-0.218943	
199	1580482313.648700852	0.00239377	-0.895079	2.13237	-2.79042	-1.56955	-2.62329	-3.75783e-06	-3.60349e-05	-1.44647e-05	1.46391e-05	-2.30588e-05	3.36035e-05	4.10787	-83.9945	-23.6355	-11.2536	0.914546	-0.218877	
200	1580482313.656692138	0.00239293	-0.89508	2.13237	-2.79042	-1.56955	-2.62328	-7.28679e-06	-3.94167e-05	-1.7746e-05	1.04738e-05	-2.35666e-05	3.33648e-05	4.10675	-83.9924	-23.6365	-11.2537	0.914673	-0.218558	
201	1580482313.664664272	0.00239289	-0.895079	2.13237	-2.79042	-1.56954	-2.62329	-7.2104e-06	-3.57949e-05	-2.42004e-05	1.34066e-05	-1.38679e-05	2.96972e-05	4.10831	-83.9952	-23.637	-11.254	0.914799	-0.219129	
202	1580482313.672746302	0.00239361	-0.89508	2.13237	-2.79042	-1.56954	-2.62329	-3.73385e-06	-3.56821e-05	-1.67889e-05	2.54229e-06	-8.03741e-06	2.95406e-05	4.10853	-83.9953	-23.637	-11.2542	0.915044	-0.218812	
203	1580482313.680712444	0.00239431	-0.895078	2.13237	-2.79043	-1.56954	-2.62329	-4.34847e-07	-2.87963e-05	-1.31153e-05	-1.0176e-06	-9.22637e-06	2.59741e-05	4.10808	-83.9971	-23.6377	-11.2545	0.914684	-0.218748	
204	1580482313.688689233	0.00239575	-0.895078	2.13237	-2.79043	-1.56954	-2.62329	6.06117e-06	-2.8942e-05	-1.63264e-05	-1.03335e-06	-1.03302e-05	2.25493e-05	4.10796	-83.9989	-23.638	-11.2547	0.914447	-0.219435	
205	1580482313.696658112	0.00239639	-0.895078	2.13237	-2.79043	-1.56954	-2.62329	8.83896e-06	-2.90331e-05	-1.93392e-05	-4.39312e-06	-1.32035e-06	1.92638e-05	4.10686	-83.9984	-23.6378	-11.254	0.914571	-0.219618	
206	1580482313.704727674	0.00239549	-0.895079	2.13237	-2.79043	-1.56954	-2.62329	4.75048e-06	-3.24078e-05	-2.21595e-05	-7.62484e-07	-6.26482e-06	2.63218e-05	4.10609	-83.9943	-23.6384	-11.2538	0.914218	-0.21918	
207	1580482313.712720577	0.00239613	-0.89508	2.13237	-2.79043	-1.56954	-2.62328	7.5688e-06	-3.22207e-05	-2.14663e-05	-4.11629e-06	-4.13972e-06	2.9487e-05	4.10859	-83.9944	-23.6387	-11.2534	0.913869	-0.220101	
208	1580482313.720700473	0.00239449	-0.895081	2.13237	-2.79043	-1.56954	-2.62328	2.17909e-07	-3.87616e-05	-2.40958e-05	-7.28531e-06	4.52075e-06	3.24246e-05	4.10524	-83.9913	-23.6382	-11.2538	0.913876	-0.220033	
209	1580482313.728711343	0.00239516	-0.895081	2.13237	-2.79043	-1.56954	-2.62329	3.25071e-06	-3.81337e-05	-3.31674e-05	-3.52082e-06	-3.9721e-06	2.51442e-05	4.11062	-83.994	-23.6389	-11.2542	0.914118	-0.219966	
210	1580482313.736772646	0.00239805	-0.895083	2.13237	-2.79043	-1.56954	-2.62329	1.59759e-05	-4.42141e-05	-3.17919e-05	-3.38952e-06	-8.6951e-06	2.48093e-05	4.11274	-83.9946	-23.6374	-11.2538	0.913774	-0.220263	
211	1580482313.744705714	0.00239786	-0.895084	2.13237	-2.79043	-1.56954	-2.62328	1.48533e-05	-4.64698e-05	-2.05561e-05	-6.55639e-06	-1.31459e-05	2.78032e-05	4.10973	-83.995	-23.6374	-11.2543	0.913666	-0.220316	
212	1580482313.752714929	0.00239616	-0.895083	2.13237	-2.79043	-1.56954	-2.62329	7.16287e-06	-4.19556e-05	-1.97479e-05	-9.54538e-06	-1.06281e-05	1.73714e-05	4.11184	-83.9947	-23.6378	-11.2546	0.913211	-0.219767	
213	1580482313.760664645	0.00239452	-0.895083	2.13237	-2.79043	-1.56954	-2.62329	-1.24677e-07	-4.08916e-05	-2.87864e-05	-1.56397e-05	-8.22258e-06	1.72945e-05	4.10886	-83.9942	-23.6383	-11.2548	0.912991	-0.219703	
214	1580482313.768741176	0.00239368	-0.895084	2.13237	-2.79043	-1.56954	-2.62329	-3.73203e-06	-4.64881e-05	-3.07557e-05	-1.14436e-05	-1.25989e-05	1.06435e-05	4.10969	-83.9943	-23.6372	-11.2553	0.913003	-0.219757	
215	1580482313.776657117	0.00239437	-0.895084	2.13237	-2.79043	-1.56954	-2.62329	-5.78003e-07	-4.50538e-05	-2.60454e-05	-7.4543e-06	-1.00611e-05	1.08453e-05	4.10926	-83.9946	-23.6377	-11.2551	0.913242	-0.219575	
216	1580482313.784701067	0.00239578	-0.895083	2.13237	-2.79043	-1.56955	-2.62329	5.68468e-06	-3.71111e-05	-2.8053e-05	-3.66681e-06	-1.75317e-05	7.75486e-06	4.11289	-83.9958	-23.6374	-11.2547	0.913025	-0.219394	
217	1580482313.792717524	0.00239715	-0.895083	2.13237	-2.79043	-1.56955	-2.62329	1.16091e-05	-3.60218e-05	-2.99085e-05	-6.70007e-06	-1.47015e-05	4.80678e-06	4.11338	-83.9928	-23.6383	-11.2548	0.913261	-0.219566	
218	1580482313.800723340	0.00239699	-0.89508	2.13237	-2.79043	-1.56954	-2.62329	1.0691e-05	-2.52113e-05	-1.52907e-05	2.84371e-07	-1.19928e-05	1.9981e-06	4.11758	-83.9954	-23.6391	-11.2546	0.913496	-0.21927	
219	1580482313.808693825	0.00239683	-0.895079	2.13237	-2.79043	-1.56954	-2.62329	9.80751e-06	-1.81609e-05	-4.78219e-06	3.04556e-07	-9.40324e-06	-3.90592e-06	4.11497	-83.9916	-23.6397	-11.2546	0.913617	-0.219559	
220	1580482313.816705817	0.00239592	-0.895079	2.13237	-2.79042	-1.56954	-2.62329	5.71683e-06	-1.78987e-05	-1.26853e-06	3.67497e-06	-6.93046e-06	-3.05237e-06	4.11422	-83.9887	-23.6401	-11.2545	0.913402	-0.219728	
221	1580482313.824697833	0.00239579	-0.895077	2.13237	-2.79042	-1.56955	-2.62329	5.06946e-06	-7.96816e-06	-1.15356e-06	3.5151e-06	-1.43505e-05	-2.24783e-06	4.11469	-83.9901	-23.6394	-11.2549	0.913411	-0.220128	
222	1580482313.832728586	0.00239566	-0.895078	2.13237	-2.79042	-1.56954	-2.62329	4.45085e-06	-1.47183e-05	2.16766e-06	3.3568e-06	-8.38683e-06	-4.69989e-06	4.11577	-83.9918	-23.6398	-11.2547	0.913309	-0.220064	
223	1580482313.840694830	0.0023948	-0.89508	2.13237	-2.79042	-1.56954	-2.62329	6.4163e-07	-2.10858e-05	-4.29309e-06	9.73171e-06	-9.12199e-06	-7.02393e-06	4.11775	-83.9911	-23.6404	-11.2551	0.913429	-0.22	
224	1580482313.848694502	0.00239544	-0.895078	2.13237	-2.79042	-1.56954	-2.62329	3.45663e-06	-1.41763e-05	2.37103e-06	1.5755e-05	-9.799e-06	-9.22307e-06	4.11881	-83.9898	-23.6404	-11.2554	0.913766	-0.219938	
225	1580482313.856709474	0.00239532	-0.895079	2.13237	-2.79042	-1.56954	-2.62329	2.91698e-06	-1.39769e-05	8.68306e-06	1.17477e-05	-1.042e-05	-1.13004e-05	4.11955	-83.9923	-23.6412	-11.255	0.913882	-0.220555	
226	1580482313.864753916	0.00239447	-0.895079	2.13237	-2.79042	-1.56954	-2.62329	-7.93249e-07	-1.37617e-05	1.93313e-06	7.93054e-06	-7.8072e-06	-1.00793e-05	4.1194	-83.9937	-23.6401	-11.2557	0.914106	-0.220152	
227	1580482313.872697005	0.00239438	-0.895079	2.13237	-2.79042	-1.56954	-2.62329	-1.11648e-06	-1.67043e-05	-1.29294e-06	7.47167e-06	-8.4863e-06	-1.84315e-05	4.12192	-83.994	-23.6402	-11.2561	0.914111	-0.219865	
228	1580482313.880644390	0.00239429	-0.89508	2.13237	-2.79042	-1.56954	-2.62329	-1.41886e-06	-1.94628e-05	-1.18197e-06	1.03155e-05	3.84445e-07	-1.03094e-05	4.12235	-83.9909	-23.6402	-11.256	0.914117	-0.219804	
229	1580482313.888721450	0.0023942	-0.895081	2.13237	-2.79042	-1.56954	-2.62329	-1.70106e-06	-2.20426e-05	5.24258e-06	6.55051e-06	2.48049e-06	-5.88667e-06	4.12365	-83.9915	-23.6407	-11.256	0.914016	-0.220078	
230	1580482313.896640708	0.00239486	-0.89508	2.13237	-2.79042	-1.56954	-2.62329	1.20412e-06	-1.8147e-05	-1.27913e-06	6.12097e-06	4.46856e-06	-4.90626e-06	4.12495	-83.9918	-23.6408	-11.2559	0.913808	-0.219905	
231	1580482313.904734008	0.0023955	-0.895082	2.13237	-2.79042	-1.56954	-2.62329	3.95843e-06	-2.39794e-05	1.15319e-05	1.21165e-05	3.20716e-06	-7.12005e-06	4.12536	-83.9922	-23.6407	-11.2565	0.913497	-0.219955	
232	1580482313.912731457	0.00239685	-0.895081	2.13237	-2.79042	-1.56954	-2.62329	9.71944e-06	-2.30672e-05	7.84949e-06	1.4643e-05	-4.38853e-06	-1.23515e-05	4.12838	-83.9909	-23.6401	-11.2562	0.913716	-0.220335	
233	1580482313.920713289	0.00239596	-0.895082	2.13237	-2.79042	-1.56954	-2.6233	5.72821e-06	-2.52922e-05	4.34703e-06	1.37587e-05	1.06727e-06	-2.36218e-05	4.12646	-83.992	-23.6398	-11.2557	0.913723	-0.220492	
234	1580482313.928755437	0.00239436	-0.895084	2.13237	-2.79042	-1.56954	-2.62329	-1.20296e-06	-3.06063e-05	1.02023e-06	1.28972e-05	-3.15674e-09	-1.52884e-05	4.12945	-83.9924	-23.6401	-11.2558	0.913835	-0.22043	
235	1580482313.936727501	0.00239501	-0.895083	2.13237	-2.79042	-1.56954	-2.6233	1.62718e-06	-2.92359e-05	7.21414e-06	1.20585e-05	-4.25472e-06	-2.63167e-05	4.13127	-83.994	-23.6404	-11.2562	0.913842	-0.220368	
236	1580482313.944745180	0.0023949	-0.895085	2.13238	-2.79042	-1.56954	-2.6233	1.18424e-06	-3.73396e-05	1.30778e-05	1.12427e-05	1.17772e-06	-3.67405e-05	4.13079	-83.9923	-23.6399	-11.2562	0.913849	-0.220199	
237	1580482313.952718885	0.00239407	-0.895085	2.13237	-2.79042	-1.56954	-2.6233	-2.35526e-06	-3.55301e-05	9.31091e-06	7.34672e-06	9.4354e-06	-3.41022e-05	4.13372	-83.9916	-23.64	-11.2563	0.914062	-0.220031	
238	1580482313.960739638	0.00239473	-0.895087	2.13237	-2.79042	-1.56954	-2.6233	5.18183e-07	-4.31665e-05	8.8208e-06	5.41968e-07	1.72576e-05	-2.83948e-05	4.13664	-83.9924	-23.6405	-11.2561	0.913965	-0.220079	
239	1580482313.968735228	0.00239536	-0.895086	2.13237	-2.79043	-1.56954	-2.6233	3.24468e-06	-3.78569e-05	1.14325e-05	-5.91569e-06	2.15658e-05	-2.91834e-05	4.13557	-83.9909	-23.6404	-11.2563	0.914073	-0.220233	
240	1580482313.976723518	0.00239452	-0.895085	2.13238	-2.79043	-1.56954	-2.6233	-3.70714e-07	-3.27567e-05	1.38932e-05	-8.95189e-06	2.25412e-05	-3.29744e-05	4.13424	-83.9925	-23.6409	-11.2565	0.914283	-0.22028	
241	1580482313.984724607	0.0023937	-0.895087	2.13237	-2.79043	-1.56954	-2.6233	-3.79836e-06	-3.72144e-05	1.00543e-05	-8.74461e-06	1.71606e-05	-2.40351e-05	4.13571	-83.9926	-23.6411	-11.2566	0.914593	-0.22075	
242	1580482313.992703414	0.00239291	-0.895085	2.13238	-2.79043	-1.56954	-2.6233	-7.04301e-06	-2.89792e-05	1.25367e-05	-1.16066e-05	1.5226e-05	-2.79846e-05	4.13578	-83.9916	-23.6402	-11.2564	0.914597	-0.2209	
243	1580482314.000729446	0.0023936	-0.895083	2.13237	-2.79043	-1.56954	-2.6233	-3.95033e-06	-2.11152e-05	8.74674e-06	-1.73699e-05	1.33709e-05	-2.2442e-05	4.13612	-83.9912	-23.6401	-11.256	0.9146	-0.220838	
244	1580482314.008744491	0.00239281	-0.895084	2.13237	-2.79043	-1.56954	-2.6233	-7.15431e-06	-2.2785e-05	-7.21207e-06	-1.97576e-05	1.77074e-05	-2.02701e-05	4.13785	-83.991	-23.6399	-11.256	0.914503	-0.220777	
245	1580482314.016716033	0.0023935	-0.895084	2.13237	-2.79043	-1.56954	-2.62329	-4.04919e-06	-2.12781e-05	-1.00218e-05	-2.80962e-05	1.87485e-05	-1.50699e-05	4.13515	-83.9896	-23.6397	-11.2556	0.914707	-0.220925	
246	1580482314.024708189	0.00239561	-0.895082	2.13237	-2.79043	-1.56954	-2.62329	5.02568e-06	-1.37212e-05	-9.62946e-06	-3.29252e-05	1.97113e-05	-1.62639e-05	4.1344	-83.9914	-23.6406	-11.2556	0.914809	-0.220864	
247	1580482314.032718305	0.00239478	-0.895082	2.13237	-2.79043	-1.56954	-2.62329	1.41734e-06	-1.25969e-05	-9.2427e-06	-3.13852e-05	1.75606e-05	-1.12389e-05	4.13584	-83.991	-23.6403	-11.2551	0.91511	-0.220907	
248	1580482314.040740511	0.00239541	-0.895084	2.13237	-2.79043	-1.56954	-2.62329	4.087e-06	-2.37507e-05	-1.79559e-05	-2.98777e-05	2.15584e-05	-1.56098e-05	4.13536	-83.9925	-23.6412	-11.2551	0.91521	-0.220744	
249	1580482314.048640736	0.00239458	-0.895086	2.13237	-2.79043	-1.56954	-2.6233	5.3418e-07	-2.82453e-05	-1.71245e-05	-2.84033e-05	2.83484e-05	-1.97374e-05	4.13542	-83.9909	-23.6414	-11.2554	0.915112	-0.220684	
250	1580482314.056771625	0.00239594	-0.895086	2.13237	-2.79043	-1.56954	-2.6233	6.26714e-06	-2.93233e-05	-1.93284e-05	-2.38223e-05	2.87162e-05	-2.36283e-05	4.13711	-83.9914	-23.6418	-11.2552	0.91531	-0.221034	
251	1580482314.064724312	0.00239797	-0.895084	2.13237	-2.79043	-1.56953	-2.6233	1.47306e-05	-1.82453e-05	-2.74173e-05	-1.94384e-05	3.20374e-05	-2.42761e-05	4.13529	-83.9903	-23.6421	-11.2557	0.915799	-0.22138	
252	1580482314.072721496	0.00239779	-0.895085	2.13237	-2.79043	-1.56953	-2.6233	1.36779e-05	-2.28466e-05	-2.00229e-05	-1.22411e-05	3.21382e-05	-3.08699e-05	4.13509	-83.9921	-23.6427	-11.256	0.916382	-0.221218	
253	1580482314.080746149	0.00239833	-0.895086	2.13237	-2.79043	-1.56953	-2.6233	1.5676e-05	-2.71744e-05	-1.2972e-05	-1.45107e-05	3.21878e-05	-3.40859e-05	4.13115	-83.9904	-23.6427	-11.2558	0.916378	-0.220955	
254	1580482314.088750370	0.00239742	-0.895086	2.13237	-2.79043	-1.56953	-2.6233	1.15307e-05	-2.51278e-05	-9.25148e-06	-1.66441e-05	3.21886e-05	-3.70905e-05	4.13336	-83.991	-23.6433	-11.2558	0.916374	-0.220997	
255	1580482314.096684131	0.00239797	-0.895085	2.13237	-2.79043	-1.56953	-2.6233	1.35871e-05	-2.01517e-05	-2.37537e-05	-1.56568e-05	3.51312e-05	-3.08651e-05	4.13158	-83.9901	-23.644	-11.2557	0.916274	-0.220638	
256	1580482314.104691543	0.00239921	-0.895084	2.13236	-2.79043	-1.56953	-2.6233	1.85192e-05	-1.83713e-05	-3.43883e-05	-1.46958e-05	3.78747e-05	-3.68976e-05	4.13245	-83.9883	-23.6443	-11.2557	0.916271	-0.22068	
257	1580482314.112696231	0.0023997	-0.895086	2.13236	-2.79043	-1.56953	-2.6233	2.01848e-05	-2.27178e-05	-2.95546e-05	-1.3761e-05	4.04251e-05	-2.75123e-05	4.13121	-83.9891	-23.6448	-11.2553	0.916363	-0.220722	
258	1580482314.120713037	0.00240017	-0.895085	2.13236	-2.79043	-1.56953	-2.6233	2.1738e-05	-2.07455e-05	-2.78897e-05	-1.28524e-05	3.3758e-05	-2.46774e-05	4.1326	-83.9889	-23.6447	-11.2553	0.916264	-0.220862	
259	1580482314.128664022	0.00239778	-0.895084	2.13236	-2.79043	-1.56953	-2.6233	1.12609e-05	-1.58696e-05	-2.92308e-05	-1.49343e-05	3.34236e-05	-2.49131e-05	4.13189	-83.9881	-23.644	-11.2553	0.916261	-0.220903	
260	1580482314.136720031	0.00239687	-0.895083	2.13236	-2.79043	-1.56953	-2.6233	7.24144e-06	-8.24835e-06	-2.75016e-05	-1.98481e-05	3.60155e-05	-2.51002e-05	4.13405	-83.9881	-23.6439	-11.2557	0.916258	-0.220846	
261	1580482314.144715116	0.0023967	-0.895082	2.13236	-2.79043	-1.56953	-2.6233	6.38147e-06	-6.89462e-06	-2.87701e-05	-1.55093e-05	3.84244e-05	-2.81938e-05	4.13412	-83.9898	-23.6438	-11.2558	0.915878	-0.220495	
262	1580482314.152727437	0.00239796	-0.895081	2.13236	-2.79043	-1.56953	-2.6233	1.1481e-05	-2.64364e-06	-2.99314e-05	-1.44289e-05	3.77091e-05	-2.81439e-05	4.13496	-83.9894	-23.645	-11.2554	0.915783	-0.220342	
263	1580482314.160731138	0.00239634	-0.895081	2.13237	-2.79043	-1.56953	-2.6233	4.48129e-06	1.40667e-06	-2.21649e-05	-7.37971e-06	4.28563e-05	-2.21131e-05	4.13426	-83.9884	-23.6457	-11.2553	0.915688	-0.22019	
264	1580482314.168702084	0.00239334	-0.895081	2.13236	-2.79043	-1.56953	-2.6233	-8.07845e-06	-6.10763e-07	-2.64939e-05	-9.59453e-06	4.1812e-05	-1.0361e-05	4.1356	-83.9884	-23.6458	-11.2553	0.91578	-0.220426	
265	1580482314.176702304	0.00239326	-0.895082	2.13236	-2.79043	-1.56953	-2.6233	-8.21897e-06	-2.51935e-06	-2.17764e-05	-1.46138e-05	3.78276e-05	-1.10735e-05	4.1349	-83.9881	-23.6465	-11.2552	0.915686	-0.219697	
266	1580482314.184718978	0.0023939	-0.895081	2.13237	-2.79043	-1.56953	-2.6233	-5.40092e-06	-1.39765e-06	-1.72595e-05	-1.35123e-05	4.27578e-05	-8.80873e-06	4.13395	-83.9884	-23.6468	-11.2552	0.915408	-0.219549	
267	1580482314.192663023	0.0023924	-0.895079	2.13237	-2.79043	-1.56953	-2.6233	-1.15179e-05	8.43383e-06	-7.10166e-06	-1.53634e-05	4.44605e-05	-9.56089e-06	4.13402	-83.9889	-23.6465	-11.2553	0.915684	-0.220072	
268	1580482314.200703473	0.00239164	-0.895077	2.13237	-2.79043	-1.56953	-2.62329	-1.43863e-05	1.48594e-05	-9.08725e-06	-1.11561e-05	5.47518e-05	-4.37572e-06	4.13686	-83.9881	-23.6465	-11.2549	0.9155	-0.219829	
269	1580482314.208682534	0.00239162	-0.895079	2.13237	-2.79043	-1.56953	-2.6233	-1.41689e-05	9.20564e-06	-1.38659e-05	-1.30713e-05	5.28213e-05	-1.11281e-05	4.13817	-83.9868	-23.6465	-11.2553	0.915499	-0.219872	
270	1580482314.216914538	0.00239301	-0.895077	2.13237	-2.79043	-1.56953	-2.6233	-8.1069e-06	1.8452e-05	-1.25808e-05	-8.95104e-06	5.09077e-05	-8.82229e-06	4.13897	-83.9862	-23.6475	-11.2553	0.915499	-0.219537	
271	1580482314.224672444	0.00239296	-0.895076	2.13237	-2.79043	-1.56953	-2.6233	-8.15684e-06	1.85318e-05	-5.54493e-06	-8.03238e-06	4.6116e-05	-1.53059e-05	4.14027	-83.9849	-23.6487	-11.2547	0.915589	-0.219204	
272	1580482314.232650512	0.00239149	-0.895077	2.13237	-2.79043	-1.56953	-2.6233	-1.40054e-05	1.56967e-05	-4.6277e-06	-7.14579e-06	5.01648e-05	-1.56634e-05	4.13982	-83.9852	-23.6494	-11.2553	0.915137	-0.219343	
273	1580482314.240651152	0.00239219	-0.895076	2.13237	-2.79043	-1.56953	-2.6233	-1.08421e-05	1.87569e-05	-3.74584e-06	-9.17659e-06	4.52813e-05	-1.88649e-05	4.13912	-83.9875	-23.6486	-11.2552	0.915318	-0.219106	
274	1580482314.248658227	0.00239286	-0.895078	2.13237	-2.79043	-1.56953	-2.6233	-7.8188e-06	1.28896e-05	-1.85017e-08	-8.21205e-06	4.63303e-05	-1.01859e-05	4.13843	-83.9896	-23.6476	-11.2547	0.91487	-0.219338	
275	1580482314.256649027	0.00239282	-0.895076	2.13237	-2.79043	-1.56953	-2.6233	-7.82297e-06	1.89134e-05	-5.09616e-06	-1.41649e-06	4.43824e-05	-4.90756e-06	4.13676	-83.9894	-23.6486	-11.2541	0.915229	-0.219568	
276	1580482314.264659323	0.00239347	-0.895076	2.13237	-2.79043	-1.56953	-2.6233	-4.93043e-06	1.88807e-05	-9.91375e-06	-6.54425e-06	4.24624e-05	-5.67622e-06	4.13559	-83.9897	-23.6488	-11.2544	0.915052	-0.219426	
277	1580482314.272614669	0.00239552	-0.895077	2.13237	-2.79043	-1.56952	-2.6233	3.58675e-06	1.29853e-05	-1.44776e-05	-1.14089e-05	4.63001e-05	-9.26123e-06	4.13711	-83.988	-23.649	-11.2542	0.914876	-0.219838	
278	1580482314.280663758	0.0023947	-0.895077	2.13237	-2.79043	-1.56952	-2.6233	1.84954e-07	1.31984e-05	-1.3076e-05	-1.31579e-05	4.70199e-05	-1.26551e-05	4.14081	-83.9909	-23.6492	-11.2545	0.915055	-0.219512	
279	1580482314.288678805	0.00239391	-0.895076	2.13237	-2.79043	-1.56952	-2.6233	-3.04966e-06	1.90949e-05	-1.45754e-05	-1.1947e-05	4.47787e-05	-1.58628e-05	4.14497	-83.9912	-23.6491	-11.2542	0.915144	-0.219464	
280	1580482314.296665066	0.00239384	-0.895076	2.13236	-2.79043	-1.56953	-2.6233	-3.25728e-06	1.89838e-05	-2.7486e-05	-1.07765e-05	3.97298e-05	-1.60405e-05	4.14524	-83.9913	-23.6491	-11.2542	0.91532	-0.219324	
281	1580482314.304675941	0.00239168	-0.895076	2.13236	-2.79043	-1.56953	-2.6233	-1.20249e-05	1.88562e-05	-2.53931e-05	-6.68887e-06	3.48658e-05	-1.61848e-05	4.14502	-83.9909	-23.649	-11.2543	0.915495	-0.219276	
282	1580482314.312676530	0.00239167	-0.895076	2.13236	-2.79043	-1.56953	-2.6233	-1.17871e-05	1.87129e-05	-2.62019e-05	-2.78935e-06	3.30223e-05	-1.91353e-05	4.14553	-83.9899	-23.6493	-11.2546	0.915669	-0.219138	
283	1580482314.320655417	0.00239027	-0.895076	2.13236	-2.79043	-1.56953	-2.6233	-1.724e-05	1.57216e-05	-2.69314e-05	-4.85339e-06	3.4049e-05	-1.90797e-05	4.14674	-83.9904	-23.6489	-11.2544	0.915755	-0.219001	
284	1580482314.328683304	0.00238891	-0.895076	2.13236	-2.79043	-1.56953	-2.6233	-2.24025e-05	1.56861e-05	-3.04123e-05	-1.03877e-06	2.93154e-05	-7.5162e-06	4.14557	-83.9896	-23.6481	-11.2543	0.915581	-0.219045	
285	1580482314.336684798	0.00239038	-0.895076	2.13236	-2.79043	-1.56953	-2.6233	-1.59303e-05	1.56343e-05	-3.36778e-05	-5.98771e-06	3.04102e-05	-1.36092e-05	4.14441	-83.9907	-23.6472	-11.2546	0.915753	-0.219178	
286	1580482314.344697292	0.00238972	-0.895077	2.13236	-2.79043	-1.56953	-2.6233	-1.82483e-05	1.27491e-05	-3.39164e-05	-5.0498e-06	3.14024e-05	-1.93844e-05	4.14538	-83.9904	-23.6469	-11.2546	0.915494	-0.218953	
287	1580482314.352682656	0.00238978	-0.895073	2.13236	-2.79043	-1.56953	-2.6233	-1.75996e-05	2.68668e-05	-4.54563e-05	-4.14824e-06	3.22956e-05	-1.9224e-05	4.14847	-83.9904	-23.6474	-11.2549	0.915579	-0.218908	
288	1580482314.360684998	0.00238984	-0.895073	2.13236	-2.79043	-1.56953	-2.6233	-1.69569e-05	2.90344e-05	-4.50259e-05	-3.6232e-07	3.30936e-05	-2.46577e-05	4.14966	-83.9915	-23.6479	-11.2549	0.915749	-0.218597	
289	1580482314.368643243	0.0023892	-0.895074	2.13236	-2.79043	-1.56953	-2.6233	-1.91385e-05	2.25394e-05	-4.7353e-05	3.27907e-07	3.37997e-05	-2.41855e-05	4.1506	-83.9928	-23.6475	-11.2545	0.915578	-0.21873	
290	1580482314.376716050	0.00238859	-0.895076	2.13235	-2.79043	-1.56953	-2.6233	-2.11867e-05	1.63308e-05	-5.22957e-05	-4.6093e-06	2.31139e-05	-2.37001e-05	4.14921	-83.9929	-23.6476	-11.2548	0.915493	-0.218685	
291	1580482314.384724332	0.00239008	-0.895074	2.13235	-2.79043	-1.56953	-2.6233	-1.46819e-05	2.16863e-05	-4.85438e-05	-3.71325e-06	2.69821e-05	-2.59955e-05	4.14898	-83.9923	-23.6477	-11.2549	0.915492	-0.218378	
292	1580482314.392744819	0.00239152	-0.895074	2.13236	-2.79043	-1.56953	-2.6233	-8.46951e-06	2.11796e-05	-4.49017e-05	-5.64133e-06	2.22542e-05	-2.81412e-05	4.14969	-83.9897	-23.6468	-11.2546	0.915324	-0.218248	
293	1580482314.400686750	0.00239155	-0.895072	2.13236	-2.79043	-1.56953	-2.6233	-8.13964e-06	2.90203e-05	-4.13686e-05	9.94533e-07	2.04993e-05	-3.29248e-05	4.14924	-83.9881	-23.6469	-11.2544	0.91524	-0.218467	
294	1580482314.408764084	0.00239296	-0.895072	2.13236	-2.79043	-1.56953	-2.6233	-2.2264e-06	2.81104e-05	-2.96086e-05	7.31132e-06	1.87929e-05	-3.46511e-05	4.14856	-83.9892	-23.646	-11.2543	0.915408	-0.218251	
295	1580482314.416703809	0.00239226	-0.895072	2.13236	-2.79042	-1.56953	-2.6233	-4.95791e-06	2.72079e-05	-2.66894e-05	1.33162e-05	1.14769e-05	-3.347e-05	4.14949	-83.9889	-23.646	-11.2541	0.915575	-0.218642	
296	1580482314.424700075	0.002395	-0.895072	2.13236	-2.79043	-1.56953	-2.6233	6.28113e-06	2.90823e-05	-2.10993e-05	1.05991e-05	1.01375e-05	-3.22964e-05	4.15064	-83.9889	-23.647	-11.2538	0.915408	-0.218513	
297	1580482314.432713376	0.00239494	-0.895073	2.13236	-2.79043	-1.56953	-2.6233	5.94556e-06	2.24259e-05	-2.12711e-05	1.07644e-05	1.16044e-05	-2.83674e-05	4.15155	-83.9892	-23.647	-11.2538	0.91516	-0.218556	
298	1580482314.440711428	0.00239557	-0.895073	2.13236	-2.79043	-1.56953	-2.6233	8.39394e-06	2.16888e-05	-2.41587e-05	1.09091e-05	1.29772e-05	-2.17701e-05	4.15246	-83.9903	-23.6471	-11.254	0.915408	-0.218428	
299	1580482314.448694558	0.00239618	-0.895073	2.13236	-2.79042	-1.56953	-2.6233	1.07155e-05	2.37133e-05	-2.41142e-05	1.1034e-05	8.74937e-06	-1.8265e-05	4.15269	-83.9889	-23.6472	-11.2543	0.915655	-0.218643	
300	1580482314.456691119	0.0023954	-0.895072	2.13236	-2.79043	-1.56953	-2.6233	7.38419e-06	2.56096e-05	-1.30333e-05	5.63999e-06	1.0204e-05	-1.20938e-05	4.15224	-83.9902	-23.6474	-11.2547	0.915818	-0.2186	
301	1580482314.464691125	0.00239532	-0.89507	2.13236	-2.79043	-1.56953	-2.6233	6.96391e-06	3.28717e-05	-1.06943e-05	3.24337e-06	1.43125e-05	-3.34204e-06	4.15179	-83.9892	-23.648	-11.2548	0.915408	-0.218473	
302	1580482314.472731841	0.00239593	-0.895072	2.13236	-2.79043	-1.56953	-2.6233	9.31112e-06	2.59304e-05	-1.39271e-05	3.69904e-06	7.12556e-06	-3.38567e-06	4.14955	-83.9897	-23.6484	-11.255	0.915571	-0.218432	
303	1580482314.480693218	0.00239653	-0.895073	2.13236	-2.79043	-1.56953	-2.6233	1.15353e-05	1.92862e-05	-6.0365e-06	4.12944e-06	8.58168e-06	-1.71524e-05	4.14733	-83.9886	-23.6482	-11.2549	0.915976	-0.218812	
304	1580482314.488693889	0.0023971	-0.895074	2.13236	-2.79043	-1.56953	-2.6233	1.36394e-05	1.57737e-05	-6.70166e-06	4.53517e-06	7.21764e-06	-1.92548e-05	4.14757	-83.9882	-23.6487	-11.2552	0.915812	-0.218769	
305	1580482314.496699272	0.00239629	-0.895075	2.13236	-2.79043	-1.56953	-2.6233	1.01438e-05	1.24073e-05	-7.31954e-06	4.91686e-06	5.90117e-06	-1.84999e-05	4.14514	-83.9889	-23.6488	-11.2553	0.916053	-0.218643	
306	1580482314.504661202	0.00239619	-0.895076	2.13236	-2.79043	-1.56953	-2.6233	9.53919e-06	9.18435e-06	-1.06139e-05	8.10623e-06	-3.64377e-06	-1.77516e-05	4.14671	-83.9899	-23.648	-11.2552	0.916292	-0.219103	
307	1580482314.512671876	0.00239677	-0.895077	2.13236	-2.79043	-1.56953	-2.6233	1.16839e-05	3.27559e-06	-2.19927e-05	8.30796e-06	-1.75805e-06	-2.52181e-05	4.14629	-83.9884	-23.6481	-11.2551	0.916209	-0.218894	
308	1580482314.520689307	0.00239665	-0.895078	2.13236	-2.79043	-1.56953	-2.6233	1.09846e-05	-2.35729e-06	-2.18339e-05	8.49028e-06	-5.39358e-06	-2.13846e-05	4.14455	-83.9883	-23.6482	-11.2551	0.916366	-0.218934	
309	1580482314.528695866	0.00239653	-0.895079	2.13236	-2.79042	-1.56953	-2.6233	1.0305e-05	-4.90322e-06	-2.16473e-05	1.41796e-05	-3.43944e-06	-1.212e-05	4.14436	-83.986	-23.6481	-11.2553	0.916522	-0.218892	
310	1580482314.536724070	0.00239709	-0.895079	2.13236	-2.79042	-1.56953	-2.6233	1.23635e-05	-4.61832e-06	-1.87301e-05	1.40647e-05	-4.28499e-06	-1.69573e-05	4.1446	-83.9872	-23.648	-11.2554	0.916677	-0.219015	
311	1580482314.544690622	0.002399	-0.895078	2.13236	-2.79043	-1.56953	-2.6233	1.97372e-05	1.05817e-06	-1.59199e-05	8.53801e-06	-5.09201e-06	-5.17725e-06	4.14658	-83.9894	-23.6485	-11.2552	0.916673	-0.219055	
312	1580482314.552694142	0.00240018	-0.895078	2.13236	-2.79043	-1.56953	-2.6233	2.40269e-05	-1.62212e-06	-1.59106e-05	3.26255e-06	-8.55654e-06	-1.0277e-05	4.14638	-83.9905	-23.6486	-11.2552	0.916669	-0.219095	
313	1580482314.560671150	0.00239996	-0.895079	2.13236	-2.79043	-1.56953	-2.6233	2.26722e-05	-4.17406e-06	-1.58741e-05	9.23969e-07	-1.18529e-05	-9.73503e-06	4.14511	-83.9917	-23.648	-11.2554	0.916665	-0.219135	
314	1580482314.568710436	0.00240042	-0.895078	2.13236	-2.79043	-1.56953	-2.6233	2.4053e-05	1.45935e-06	-1.31252e-05	4.176e-06	-6.92491e-06	-6.5143e-06	4.14664	-83.9929	-23.6485	-11.255	0.916582	-0.21893	
315	1580482314.576690709	0.00240019	-0.895078	2.13236	-2.79043	-1.56954	-2.6233	2.2641e-05	1.45997e-06	-1.04823e-05	1.79792e-06	-1.57456e-05	-8.79656e-06	4.14902	-83.9918	-23.6487	-11.2553	0.916813	-0.219132	
316	1580482314.584697799	0.00239928	-0.895078	2.13236	-2.79043	-1.56954	-2.6233	1.85739e-05	-1.21974e-06	-1.32994e-05	-3.14771e-06	-1.86733e-05	-1.36327e-05	4.1486	-83.9918	-23.6488	-11.2554	0.916731	-0.219009	
317	1580482314.592657791	0.00239704	-0.895077	2.13236	-2.79043	-1.56953	-2.6233	9.29842e-06	1.57513e-06	-1.32863e-05	5.61933e-06	-1.3424e-05	-1.2871e-05	4.15096	-83.9904	-23.6485	-11.2553	0.916339	-0.218968	
318	1580482314.600722657	0.00239689	-0.895078	2.13236	-2.79042	-1.56954	-2.6233	8.4976e-06	-1.1027e-06	-5.24181e-06	1.12977e-05	-1.64184e-05	-1.21235e-05	4.15117	-83.9914	-23.6486	-11.2549	0.916336	-0.218685	
319	1580482314.608686639	0.00239742	-0.895076	2.13236	-2.79043	-1.56954	-2.6233	1.04023e-05	7.00657e-06	-5.55729e-06	8.59328e-06	-1.65914e-05	-6.00694e-06	4.15224	-83.991	-23.6487	-11.2548	0.91641	-0.218565	
320	1580482314.616687905	0.00239523	-0.895076	2.13236	-2.79042	-1.56953	-2.6233	1.50386e-06	6.743e-06	-5.84415e-06	1.14333e-05	-1.14187e-05	-1.35754e-05	4.15181	-83.9902	-23.649	-11.2547	0.916176	-0.218366	
321	1580482314.624649999	0.00239579	-0.895079	2.13236	-2.79042	-1.56954	-2.6233	3.70333e-06	-4.25e-06	4.52287e-06	1.13627e-05	-1.44491e-05	-1.27433e-05	4.15266	-83.9921	-23.6493	-11.2547	0.916327	-0.218486	
322	1580482314.632681978	0.002395	-0.895079	2.13236	-2.79042	-1.56953	-2.6233	4.61471e-07	-4.00707e-06	1.14264e-06	1.6692e-05	-9.36694e-06	-1.19287e-05	4.15581	-83.9936	-23.6493	-11.2547	0.916248	-0.218288	
323	1580482314.640664368	0.00239489	-0.895079	2.13236	-2.79042	-1.56954	-2.6233	3.26069e-08	-6.41905e-06	5.87019e-06	1.37e-05	-1.52144e-05	-1.1132e-05	4.1558	-83.9937	-23.65	-11.2544	0.916474	-0.218092	
324	1580482314.648689817	0.00239547	-0.895079	2.13237	-2.79042	-1.56954	-2.6233	2.28132e-06	-6.06635e-06	1.03752e-05	1.88682e-05	-1.53798e-05	-1.03532e-05	4.15871	-83.9915	-23.6507	-11.254	0.916698	-0.217975	
325	1580482314.656662754	0.00239602	-0.89508	2.13237	-2.79042	-1.56954	-2.6233	4.42148e-06	-8.36265e-06	1.46625e-05	1.57455e-05	-1.55225e-05	-9.59247e-06	4.1589	-83.9902	-23.6504	-11.2541	0.916921	-0.217938	
326	1580482314.664701299	0.00239522	-0.895082	2.13237	-2.79042	-1.56953	-2.6233	1.15602e-06	-1.59183e-05	8.19372e-06	1.5384e-05	-1.03716e-05	-1.14857e-05	4.16137	-83.9899	-23.6512	-11.2542	0.917143	-0.217744	
327	1580482314.672696079	0.00239511	-0.895083	2.13236	-2.79042	-1.56953	-2.6233	6.86539e-07	-2.04696e-05	7.28537e-06	9.75633e-06	-2.82058e-06	-1.06393e-05	4.15969	-83.9881	-23.6509	-11.2538	0.917062	-0.21763	
328	1580482314.680692849	0.002395	-0.895083	2.13237	-2.79042	-1.56953	-2.6233	2.37534e-07	-1.94227e-05	9.04323e-06	1.23659e-05	-8.77255e-07	-1.77353e-06	4.16049	-83.9862	-23.6514	-11.254	0.916982	-0.217672	
329	1580482314.688698289	0.0023949	-0.895084	2.13237	-2.79042	-1.56953	-2.6233	-1.91389e-07	-2.37517e-05	1.07132e-05	1.21094e-05	-1.65093e-06	-3.96469e-06	4.16252	-83.9848	-23.6512	-11.2544	0.917127	-0.217714	
330	1580482314.696703522	0.00239413	-0.895083	2.13236	-2.79042	-1.56953	-2.6233	-3.23397e-06	-1.72666e-05	4.43891e-06	1.1849e-05	-7.73417e-06	-3.42447e-06	4.1629	-83.9856	-23.6519	-11.2547	0.917047	-0.217833	
331	1580482314.704716829	0.00239338	-0.895083	2.13237	-2.79042	-1.56954	-2.6233	-6.1315e-06	-1.62915e-05	8.91741e-06	1.15851e-05	-1.35288e-05	5.10295e-06	4.16266	-83.9864	-23.6517	-11.255	0.917042	-0.217951	
332	1580482314.712686226	0.00239265	-0.895084	2.13236	-2.79042	-1.56954	-2.6233	-8.88717e-06	-2.06679e-05	5.34757e-06	8.70679e-06	-2.42637e-05	1.05168e-05	4.16548	-83.9873	-23.6517	-11.2551	0.917112	-0.2183	
333	1580482314.720700430	0.0023926	-0.895083	2.13237	-2.79042	-1.56954	-2.6233	-8.88291e-06	-1.68882e-05	9.7637e-06	8.55773e-06	-3.44734e-05	1.0404e-05	4.16301	-83.9852	-23.6511	-11.2554	0.917107	-0.218186	
334	1580482314.728743254	0.00239256	-0.895082	2.13237	-2.79042	-1.56954	-2.6233	-8.86801e-06	-1.32619e-05	1.13642e-05	8.40403e-06	-3.10487e-05	1.55468e-05	4.16399	-83.9857	-23.652	-11.2553	0.917249	-0.21792	
335	1580482314.736639349	0.00239319	-0.895083	2.13237	-2.79042	-1.56954	-2.62329	-6.22967e-06	-1.76883e-05	1.54803e-05	8.24608e-06	-3.29455e-05	2.04361e-05	4.16335	-83.9857	-23.6523	-11.2554	0.91739	-0.218266	
336	1580482314.744688761	0.00239247	-0.895085	2.13237	-2.79042	-1.56954	-2.62329	-8.92439e-06	-2.44824e-05	2.19865e-05	1.07836e-05	-3.4716e-05	2.50778e-05	4.16432	-83.9865	-23.6527	-11.2553	0.917238	-0.218076	
337	1580482314.752697871	0.00239377	-0.895084	2.13237	-2.79043	-1.56954	-2.62329	-3.66748e-06	-2.04607e-05	3.07602e-05	2.71933e-06	-2.85889e-05	2.42424e-05	4.16268	-83.9871	-23.6523	-11.2554	0.917378	-0.218268	
338	1580482314.760705095	0.00239437	-0.895085	2.13237	-2.79043	-1.56954	-2.62329	-1.25036e-06	-2.17734e-05	3.39188e-05	1.98646e-07	-3.04745e-05	1.82436e-05	4.16125	-83.9881	-23.6515	-11.2556	0.917373	-0.218383	
339	1580482314.768665559	0.00239562	-0.895086	2.13237	-2.79043	-1.56954	-2.62329	3.65416e-06	-2.56842e-05	3.43092e-05	3.76908e-07	-2.70695e-05	1.76701e-05	4.16202	-83.9879	-23.6516	-11.2558	0.917294	-0.218346	
340	1580482314.776692975	0.00239618	-0.895086	2.13237	-2.79043	-1.56954	-2.62329	5.73423e-06	-2.66982e-05	4.2382e-05	-4.61424e-06	-2.89494e-05	2.23158e-05	4.1608	-83.9887	-23.6507	-11.256	0.917506	-0.21846	
341	1580482314.784695282	0.00239605	-0.895085	2.13237	-2.79043	-1.56954	-2.62329	5.12144e-06	-1.99025e-05	2.93218e-05	-4.21847e-06	-2.29802e-05	2.40953e-05	4.16196	-83.9893	-23.651	-11.256	0.917211	-0.218348	
342	1580482314.792759723	0.00239725	-0.895082	2.13237	-2.79043	-1.56954	-2.62329	9.70207e-06	-8.24878e-06	3.23655e-05	-3.8365e-06	-2.2403e-05	1.80493e-05	4.16114	-83.9902	-23.6516	-11.2559	0.917422	-0.218386	
343	1580482314.800703247	0.00239908	-0.895084	2.13237	-2.79043	-1.56954	-2.62329	1.66418e-05	-1.52006e-05	3.78e-05	-3.46814e-06	-1.92575e-05	1.73986e-05	4.15993	-83.9915	-23.6513	-11.2561	0.917488	-0.218499	
344	1580482314.808682330	0.00239822	-0.895083	2.13237	-2.79043	-1.56954	-2.62329	1.29288e-05	-1.4016e-05	3.52465e-05	-3.11316e-06	-1.87984e-05	1.93235e-05	4.16188	-83.9912	-23.6511	-11.256	0.917696	-0.218685	
345	1580482314.816703667	0.00239737	-0.895083	2.13237	-2.79043	-1.56954	-2.62329	9.36988e-06	-1.28666e-05	3.78903e-05	-1.08117e-07	-1.57773e-05	2.11385e-05	4.16263	-83.9923	-23.6509	-11.2558	0.917618	-0.218797	
346	1580482314.824798014	0.00239787	-0.895084	2.13237	-2.79042	-1.56954	-2.62329	1.11034e-05	-1.43092e-05	3.52538e-05	5.31555e-06	-2.57636e-05	1.77325e-05	4.16417	-83.9936	-23.6505	-11.2554	0.917541	-0.218981	
347	1580482314.832702176	0.00239901	-0.895085	2.13237	-2.79042	-1.56954	-2.62329	1.53101e-05	-2.08748e-05	3.01429e-05	5.27466e-06	-2.49459e-05	1.44629e-05	4.16511	-83.9935	-23.6507	-11.2554	0.917535	-0.21887	
348	1580482314.840702584	0.00239946	-0.895086	2.13237	-2.79043	-1.56954	-2.62329	1.67416e-05	-2.19109e-05	3.28789e-05	2.67883e-06	-2.6685e-05	1.64263e-05	4.16682	-83.9918	-23.6506	-11.2555	0.917529	-0.218759	
349	1580482314.848712331	0.00239924	-0.895084	2.13237	-2.79043	-1.56954	-2.6233	1.55269e-05	-1.52329e-05	3.03588e-05	1.97711e-07	-2.57662e-05	1.31899e-05	4.16678	-83.9927	-23.651	-11.2555	0.917382	-0.218722	
350	1580482314.856696541	0.00239836	-0.895083	2.13237	-2.79043	-1.56954	-2.6233	1.17923e-05	-8.83926e-06	3.55438e-05	3.71147e-07	-1.97737e-05	7.54494e-06	4.16829	-83.9929	-23.6515	-11.2553	0.917446	-0.218905	
351	1580482314.864685728	0.00240014	-0.895082	2.13238	-2.79042	-1.56954	-2.6233	1.84206e-05	-7.80141e-06	4.04491e-05	5.7139e-06	-2.68244e-05	7.22713e-06	4.17248	-83.9919	-23.6514	-11.2552	0.91744	-0.218722	
352	1580482314.872707469	0.00239923	-0.895081	2.13238	-2.79042	-1.56954	-2.6233	1.453e-05	-1.72951e-06	4.50814e-05	5.63414e-06	-3.35205e-05	-7.38441e-07	4.17397	-83.9913	-23.6512	-11.2551	0.916876	-0.218685	
353	1580482314.880708562	0.00239769	-0.895081	2.13238	-2.79043	-1.56954	-2.6233	8.25331e-06	-3.52342e-06	4.69164e-05	3.01922e-06	-3.987e-05	-3.22545e-06	4.17448	-83.9918	-23.6513	-11.2553	0.917011	-0.218722	
354	1580482314.888713462	0.0023975	-0.895082	2.13238	-2.79043	-1.56955	-2.6233	7.33323e-06	-5.22904e-06	3.59729e-05	-2.00855e-06	-4.07249e-05	-5.38672e-07	4.17403	-83.9936	-23.6507	-11.2553	0.916867	-0.218685	
355	1580482314.896704843	0.00239863	-0.895082	2.13238	-2.79043	-1.56954	-2.6233	1.15195e-05	-6.84838e-06	3.55787e-05	8.66743e-07	-3.89666e-05	4.60239e-06	4.17416	-83.994	-23.6506	-11.2554	0.916933	-0.218649	
356	1580482314.904694244	0.00239907	-0.895082	2.13238	-2.79043	-1.56955	-2.6233	1.29666e-05	-5.86321e-06	4.53403e-05	9.88376e-07	-3.97601e-05	4.41465e-06	4.17315	-83.9928	-23.6501	-11.2556	0.916997	-0.218757	
357	1580482314.912645339	0.00240015	-0.895081	2.13238	-2.79043	-1.56955	-2.6233	1.68609e-05	1.19936e-07	4.4435e-05	-1.41415e-06	-4.81186e-05	1.71489e-06	4.17404	-83.9913	-23.6507	-11.2559	0.916855	-0.218793	
358	1580482314.920786648	0.00240055	-0.89508	2.13238	-2.79042	-1.56955	-2.6233	1.80302e-05	8.07374e-07	4.35157e-05	3.93316e-06	-4.83979e-05	9.34022e-06	4.1736	-83.9931	-23.6501	-11.2557	0.916989	-0.218828	
359	1580482314.928652682	0.00240094	-0.895078	2.13238	-2.79042	-1.56955	-2.6233	1.91231e-05	8.99347e-06	5.01125e-05	6.52285e-06	-4.60945e-05	3.91147e-06	4.17336	-83.9928	-23.6504	-11.2557	0.917327	-0.218578	
360	1580482314.936699906	0.00240131	-0.895078	2.13238	-2.79043	-1.56955	-2.6233	2.01419e-05	9.28185e-06	5.89542e-05	1.3683e-06	-4.63436e-05	8.79943e-06	4.17386	-83.9918	-23.6507	-11.2554	0.917458	-0.218117	
361	1580482314.944707648	0.00240167	-0.895077	2.13238	-2.79042	-1.56955	-2.6233	2.10886e-05	1.20505e-05	5.97147e-05	4.05221e-06	-4.65231e-05	1.09041e-05	4.17643	-83.9922	-23.6506	-11.2558	0.917521	-0.218083	
362	1580482314.952767796	0.00240071	-0.895077	2.13238	-2.79042	-1.56955	-2.62329	1.69409e-05	1.21823e-05	6.03664e-05	4.01009e-06	-4.92346e-05	1.29016e-05	4.17823	-83.9932	-23.6507	-11.2558	0.917583	-0.217979	
363	1580482314.960713017	0.00240173	-0.895075	2.13238	-2.79042	-1.56955	-2.62329	2.04845e-05	2.22771e-05	5.59223e-05	3.96423e-06	-5.17614e-05	1.47944e-05	4.17928	-83.9934	-23.6517	-11.2558	0.917645	-0.217875	
364	1580482314.968667298	0.00240272	-0.895074	2.13238	-2.79042	-1.56955	-2.62329	2.38415e-05	2.44149e-05	6.15764e-05	8.99845e-06	-5.41086e-05	1.91266e-05	4.18144	-83.9931	-23.6516	-11.2559	0.917774	-0.218053	
365	1580482314.976705547	0.00240237	-0.895073	2.13238	-2.79042	-1.56955	-2.62329	2.20129e-05	2.64285e-05	5.44556e-05	8.71726e-06	-5.36933e-05	1.82144e-05	4.1821	-83.9947	-23.652	-11.2562	0.917767	-0.21816	
366	1580482314.984769069	0.00240073	-0.895071	2.13238	-2.79042	-1.56955	-2.62329	1.52418e-05	3.3291e-05	4.75869e-05	1.10218e-05	-5.32287e-05	1.23521e-05	4.18405	-83.995	-23.6525	-11.2559	0.917627	-0.218336	
367	1580482314.992683674	0.00240043	-0.895071	2.13238	-2.79042	-1.56955	-2.62329	1.37449e-05	3.23607e-05	5.08931e-05	1.06276e-05	-5.02357e-05	1.17031e-05	4.18618	-83.9962	-23.6525	-11.2557	0.917553	-0.218232	
368	1580482315.000713861	0.00240144	-0.895072	2.13238	-2.79042	-1.56955	-2.62329	1.72794e-05	2.89564e-05	5.15073e-05	1.02373e-05	-4.73131e-05	1.10698e-05	4.18572	-83.9969	-23.6521	-11.2555	0.917615	-0.218407	
369	1580482315.008682616	0.00240177	-0.895074	2.13238	-2.79042	-1.56955	-2.62329	1.81439e-05	2.30977e-05	4.95531e-05	1.24251e-05	-4.19863e-05	1.2927e-05	4.18746	-83.9981	-23.6519	-11.2555	0.917609	-0.218235	
370	1580482315.016740830	0.00240144	-0.895074	2.13238	-2.79042	-1.56955	-2.6233	1.64611e-05	2.00455e-05	4.02089e-05	1.697e-05	-4.17868e-05	9.74294e-06	4.18664	-83.9993	-23.6523	-11.2555	0.917536	-0.218132	
371	1580482315.024718367	0.00240176	-0.895075	2.13238	-2.79042	-1.56955	-2.6233	1.73128e-05	1.7107e-05	3.86355e-05	1.13187e-05	-3.90737e-05	1.70537e-06	4.18636	-83.9994	-23.6527	-11.2554	0.917331	-0.21803	
372	1580482315.032692837	0.00240012	-0.895075	2.13238	-2.79042	-1.56955	-2.6233	1.06701e-05	1.6745e-05	3.46172e-05	1.08356e-05	-3.15016e-05	3.93441e-06	4.187	-84.0003	-23.6522	-11.2554	0.917393	-0.218066	
373	1580482315.040694266	0.00239918	-0.895075	2.13238	-2.79042	-1.56955	-2.6233	6.78441e-06	1.63795e-05	3.56551e-05	7.89874e-06	-3.16102e-05	6.05907e-06	4.18691	-84.0014	-23.6522	-11.2554	0.917387	-0.218239	
374	1580482315.048756416	0.00239825	-0.895075	2.13238	-2.79042	-1.56955	-2.62329	3.06213e-06	1.6011e-05	3.41411e-05	1.25547e-05	-2.18395e-05	1.05886e-05	4.18573	-84.0019	-23.6524	-11.2553	0.91725	-0.21848	
375	1580482315.056708072	0.00239864	-0.895074	2.13238	-2.79042	-1.56955	-2.62329	4.43548e-06	1.80946e-05	3.7558e-05	1.45315e-05	-2.73006e-05	1.49029e-05	4.18456	-84.0016	-23.652	-11.2551	0.91718	-0.218174	
376	1580482315.064714412	0.00240032	-0.895073	2.13238	-2.79042	-1.56955	-2.62329	1.06681e-05	2.25147e-05	3.58695e-05	1.38519e-05	-2.50278e-05	1.1604e-05	4.18483	-84.0007	-23.6522	-11.2551	0.917044	-0.218005	
377	1580482315.072726429	0.00240001	-0.895073	2.13238	-2.79042	-1.56955	-2.62329	9.22404e-06	2.18146e-05	3.91042e-05	8.28889e-06	-2.03735e-05	1.08867e-05	4.18421	-84.0012	-23.652	-11.255	0.91717	-0.218108	
378	1580482315.080749336	0.00239841	-0.895075	2.13238	-2.79042	-1.56954	-2.62329	2.91576e-06	1.36879e-05	4.21425e-05	7.85236e-06	-1.58975e-05	1.26332e-05	4.18359	-84.0017	-23.6522	-11.2551	0.917036	-0.218008	
379	1580482315.088709161	0.0023975	-0.895073	2.13238	-2.79042	-1.56954	-2.62329	-6.62682e-07	2.06532e-05	3.52239e-05	7.42449e-06	-1.1597e-05	9.40406e-06	4.18404	-84.0015	-23.6521	-11.255	0.916901	-0.218382	
380	1580482315.096710269	0.00239855	-0.895073	2.13238	-2.79042	-1.56954	-2.62329	3.26982e-06	1.99687e-05	3.34424e-05	2.12916e-06	-7.46889e-06	1.36707e-05	4.18467	-84.0028	-23.6536	-11.2552	0.916833	-0.218416	
381	1580482315.104678693	0.00239764	-0.895072	2.13238	-2.79042	-1.56954	-2.62329	-3.22671e-07	2.41603e-05	3.16947e-05	-4.99445e-07	-1.07554e-06	1.03776e-05	4.18601	-84.0017	-23.6535	-11.2553	0.916506	-0.218316	
382	1580482315.112684609	0.00239804	-0.89507	2.13238	-2.79043	-1.56954	-2.62329	1.13172e-06	3.05677e-05	2.99812e-05	-3.01201e-06	-2.25488e-06	1.20819e-05	4.18592	-83.9994	-23.6528	-11.2551	0.916761	-0.218283	
383	1580482315.120691143	0.00239778	-0.895072	2.13238	-2.79043	-1.56954	-2.62329	7.62898e-08	2.44142e-05	2.58739e-05	-5.41081e-06	1.48315e-06	1.36958e-05	4.18424	-83.9986	-23.6523	-11.2553	0.916629	-0.218184	
384	1580482315.128717592	0.00239753	-0.895071	2.13238	-2.79043	-1.56954	-2.62329	-9.34764e-07	2.83023e-05	2.67627e-05	-5.27295e-06	2.08316e-07	1.76951e-05	4.18468	-83.9986	-23.6523	-11.2549	0.916562	-0.218219	
385	1580482315.136666484	0.00239728	-0.89507	2.13238	-2.79043	-1.56954	-2.62329	-1.90223e-06	2.95614e-05	2.27301e-05	-9.98047e-06	-1.0048e-06	2.40144e-05	4.18478	-83.9987	-23.6526	-11.2548	0.916623	-0.218054	
386	1580482315.144725575	0.00239704	-0.895072	2.13238	-2.79043	-1.56954	-2.62329	-2.82692e-06	2.09569e-05	2.12621e-05	-4.69685e-06	-2.15764e-06	2.2623e-05	4.18399	-83.9995	-23.6526	-11.2546	0.916428	-0.218089	
387	1580482315.152729275	0.0023981	-0.89507	2.13238	-2.79042	-1.56954	-2.62329	1.14728e-06	2.72983e-05	1.7412e-05	3.5657e-07	-3.25164e-06	1.88505e-05	4.18461	-83.9993	-23.6525	-11.2547	0.916362	-0.218322	
388	1580482315.160729951	0.00239784	-0.895071	2.13238	-2.79042	-1.56954	-2.62329	9.11633e-08	2.60879e-05	1.6118e-05	5.18431e-06	-1.87578e-06	2.00472e-05	4.18627	-84	-23.6525	-11.2546	0.91636	-0.218422	
389	1580482315.168715468	0.00239823	-0.895072	2.13238	-2.79042	-1.56954	-2.62329	1.50156e-06	1.99841e-05	1.24465e-05	2.46664e-06	-5.53601e-07	1.63481e-05	4.18462	-84.0001	-23.6521	-11.2546	0.916357	-0.218455	
390	1580482315.176760369	0.00239796	-0.895072	2.13238	-2.79042	-1.56954	-2.62329	4.26604e-07	2.144e-05	1.13225e-05	-1.34914e-07	7.15718e-07	1.76049e-05	4.18419	-84.0002	-23.6518	-11.2546	0.916228	-0.218357	
391	1580482315.184730646	0.00239706	-0.895072	2.13238	-2.79042	-1.56954	-2.62329	-3.01933e-06	2.04017e-05	1.26313e-05	-2.19509e-07	4.33606e-06	1.87845e-05	4.18428	-84.0008	-23.6515	-11.2546	0.916163	-0.218653	
392	1580482315.192709311	0.00239747	-0.895071	2.13238	-2.79042	-1.56954	-2.62329	-1.48631e-06	2.17835e-05	1.14611e-05	-3.01374e-07	5.39634e-06	1.50891e-05	4.18558	-83.9985	-23.6519	-11.2547	0.916161	-0.218751	
393	1580482315.200721967	0.00239723	-0.895073	2.13238	-2.79043	-1.56954	-2.62329	-2.43096e-06	1.57905e-05	7.92571e-06	-2.77735e-06	6.40831e-06	1.39349e-05	4.18722	-83.9988	-23.6516	-11.2549	0.916034	-0.218783	
394	1580482315.208784921	0.00239699	-0.895072	2.13238	-2.79043	-1.56954	-2.62329	-3.33321e-06	1.97122e-05	1.17118e-05	-2.74836e-06	7.3729e-06	8.02665e-06	4.18782	-83.9986	-23.6512	-11.2552	0.915845	-0.218685	
395	1580482315.216736538	0.00239611	-0.895071	2.13238	-2.79043	-1.56954	-2.62329	-6.59725e-06	2.10453e-05	3.35747e-06	-2.71865e-06	3.41404e-06	1.19786e-05	4.18927	-83.9995	-23.6509	-11.2554	0.915969	-0.218653	
396	1580482315.224744350	0.00239782	-0.895072	2.13238	-2.79043	-1.56954	-2.62329	-1.10714e-07	1.75178e-05	7.2988e-06	-7.46349e-06	-3.69909e-07	1.57412e-05	4.19003	-83.9998	-23.6504	-11.2555	0.915781	-0.218362	
397	1580482315.232738070	0.00239757	-0.895071	2.13238	-2.79043	-1.56954	-2.62329	-1.10319e-06	2.12766e-05	1.51353e-06	-7.22287e-06	-6.36704e-06	1.93184e-05	4.19011	-83.9994	-23.6508	-11.2556	0.915966	-0.218524	
398	1580482315.240748931	0.00239796	-0.895069	2.13237	-2.79043	-1.56954	-2.62329	3.41514e-07	2.72246e-05	-1.64393e-06	-6.98559e-06	-2.4674e-06	2.51913e-05	4.19087	-83.9985	-23.6507	-11.2556	0.915965	-0.218557	
399	1580482315.248742710	0.0023977	-0.895069	2.13237	-2.79043	-1.56954	-2.62329	-6.70666e-07	2.57418e-05	-4.66706e-06	-4.27809e-06	-8.34113e-06	1.63141e-05	4.19111	-83.9985	-23.6507	-11.2557	0.916087	-0.218525	
400	1580482315.256757870	0.00239873	-0.89507	2.13237	-2.79043	-1.56954	-2.62329	3.13671e-06	2.19164e-05	-9.93378e-06	-1.68556e-06	-9.0971e-06	1.97787e-05	4.19203	-83.9976	-23.6503	-11.2555	0.916085	-0.218493	
401	1580482315.264696114	0.00239909	-0.89507	2.13237	-2.79043	-1.56954	-2.62329	4.3865e-06	2.29759e-05	-5.47422e-06	-4.04561e-06	-1.22726e-05	1.35294e-05	4.19311	-83.9972	-23.65	-11.2556	0.916206	-0.21827	
402	1580482315.272752410	0.00240008	-0.895069	2.13237	-2.79043	-1.56954	-2.62329	7.95671e-06	2.39596e-05	-1.06879e-05	-6.29842e-06	-1.28263e-05	1.70619e-05	4.19369	-83.9978	-23.6499	-11.2558	0.916204	-0.21824	
403	1580482315.280744838	0.00240104	-0.895068	2.13237	-2.79043	-1.56954	-2.62329	1.13595e-05	2.72364e-05	-1.33002e-05	-8.44617e-06	-1.09703e-05	1.56379e-05	4.19426	-83.9971	-23.6498	-11.256	0.916019	-0.217955	
404	1580482315.288727943	0.00240007	-0.895068	2.13237	-2.79043	-1.56954	-2.62329	7.47035e-06	2.79719e-05	-1.34251e-05	-5.66944e-06	-9.17884e-06	2.14886e-05	4.19264	-83.998	-23.6497	-11.2555	0.916261	-0.217988	
405	1580482315.296723097	0.00240039	-0.895066	2.13237	-2.79043	-1.56954	-2.62329	8.48715e-06	3.33613e-05	-1.35348e-05	-3.00852e-06	-2.72993e-06	2.21938e-05	4.19438	-83.9996	-23.6491	-11.2555	0.916077	-0.217958	
406	1580482315.304730141	0.00240134	-0.895065	2.13237	-2.79042	-1.56954	-2.62329	1.18181e-05	3.84736e-05	-8.91458e-06	1.89638e-06	-6.08039e-06	2.04832e-05	4.19295	-83.9984	-23.649	-11.2552	0.916075	-0.217866	
407	1580482315.312716315	0.00240163	-0.895065	2.13237	-2.79042	-1.56954	-2.62329	1.26209e-05	3.62513e-05	-6.846e-06	1.78058e-06	-4.46981e-06	2.83815e-05	4.19568	-83.9981	-23.6486	-11.2554	0.916013	-0.218088	
408	1580482315.320728104	0.00240254	-0.895066	2.13237	-2.79043	-1.56954	-2.62329	1.57366e-05	3.17295e-05	-4.8651e-06	-5.38808e-06	-5.68553e-07	2.63523e-05	4.1969	-83.9992	-23.6491	-11.2554	0.916313	-0.218121	
409	1580482315.328730839	0.00240216	-0.895067	2.13237	-2.79043	-1.56954	-2.62329	1.39739e-05	2.9714e-05	-1.23654e-05	-5.19204e-06	3.16727e-06	1.96816e-05	4.19646	-84.0001	-23.6491	-11.2554	0.916431	-0.218028	
410	1580482315.336744486	0.00240115	-0.895067	2.13237	-2.79043	-1.56954	-2.62329	9.91186e-06	2.77488e-05	-1.24919e-05	-4.99931e-06	6.74071e-06	1.79685e-05	4.19569	-83.9988	-23.6492	-11.2555	0.915888	-0.217811	
411	1580482315.344685515	0.00240144	-0.895065	2.13237	-2.79043	-1.56954	-2.62329	1.07244e-05	3.28629e-05	-1.26036e-05	-4.80993e-06	1.01548e-05	1.86501e-05	4.19608	-83.9987	-23.6496	-11.2555	0.915707	-0.217782	
412	1580482315.352718932	0.00240108	-0.895067	2.13237	-2.79043	-1.56954	-2.62329	9.13471e-06	2.59187e-05	-8.02046e-06	-4.62392e-06	1.34128e-05	1.6938e-05	4.19548	-83.9985	-23.6497	-11.2555	0.915527	-0.218002	
413	1580482315.360714014	0.00240199	-0.895069	2.13237	-2.79043	-1.56954	-2.62329	1.23011e-05	1.92431e-05	-1.0644e-05	-6.77858e-06	1.18431e-05	1.76156e-05	4.19209	-83.9971	-23.6497	-11.2554	0.915646	-0.218034	
414	1580482315.368708426	0.00240098	-0.89507	2.13237	-2.79043	-1.56954	-2.62329	8.27334e-06	1.52595e-05	-8.47714e-06	-1.11668e-05	7.90423e-06	1.8241e-05	4.19314	-83.9976	-23.65	-11.2555	0.915646	-0.217943	
415	1580482315.376683127	0.00240253	-0.89507	2.13237	-2.79043	-1.56954	-2.62329	1.37848e-05	1.3759e-05	-8.7307e-06	-1.30208e-05	4.13114e-06	2.59503e-05	4.1937	-83.9977	-23.6503	-11.2553	0.915645	-0.217976	
416	1580482315.384703374	0.00240276	-0.89507	2.13237	-2.79043	-1.56954	-2.62329	1.43571e-05	1.23037e-05	-8.96762e-06	-1.24512e-05	2.94256e-06	2.85421e-05	4.19295	-83.9988	-23.6505	-11.2554	0.915645	-0.218008	
417	1580482315.392712340	0.00240173	-0.89507	2.13237	-2.79043	-1.56954	-2.62329	1.02096e-05	1.32191e-05	-9.18826e-06	-1.18927e-05	-6.13285e-07	2.86139e-05	4.19366	-83.9973	-23.65	-11.2553	0.915644	-0.218102	
418	1580482315.400739555	0.00240199	-0.89507	2.13237	-2.79043	-1.56954	-2.62328	1.0899e-05	1.40756e-05	-1.17161e-05	-1.36684e-05	-4.01094e-06	3.10167e-05	4.19308	-83.9958	-23.6498	-11.2552	0.915644	-0.218257	
419	1580482315.408687961	0.00240223	-0.895069	2.13237	-2.79043	-1.56954	-2.62328	1.1544e-05	1.48748e-05	-1.41251e-05	-1.30317e-05	-7.25362e-06	3.09107e-05	4.19266	-83.9951	-23.6498	-11.2551	0.915702	-0.218349	
420	1580482315.416690435	0.00240247	-0.89507	2.13237	-2.79043	-1.56954	-2.62329	1.21457e-05	1.33008e-05	-1.87352e-05	-1.7043e-05	-7.93437e-06	2.84537e-05	4.19111	-83.9947	-23.6495	-11.255	0.915701	-0.21832	
421	1580482315.424672947	0.00240207	-0.895068	2.13237	-2.79043	-1.56954	-2.62329	1.03785e-05	1.87195e-05	-1.387e-05	-1.38252e-05	-1.09808e-05	2.37529e-05	4.19102	-83.9953	-23.649	-11.2549	0.915525	-0.218047	
422	1580482315.432709458	0.00240105	-0.895068	2.13237	-2.79043	-1.56954	-2.62329	6.34949e-06	1.92548e-05	-2.07624e-05	-1.0731e-05	-9.16376e-06	1.69133e-05	4.19173	-83.9958	-23.6492	-11.255	0.915525	-0.218321	
423	1580482315.440694255	0.00240068	-0.895067	2.13237	-2.79043	-1.56954	-2.62329	4.80636e-06	2.205e-05	-2.041e-05	-7.75834e-06	-2.79351e-06	1.03465e-05	4.19228	-83.9966	-23.6488	-11.2553	0.915641	-0.218352	
424	1580482315.448702062	0.00240032	-0.895068	2.13237	-2.79043	-1.56954	-2.62329	3.32202e-06	1.77765e-05	-2.92786e-05	-4.90516e-06	3.30811e-06	1.5718e-05	4.19218	-83.9965	-23.6491	-11.2554	0.915698	-0.218383	
425	1580482315.456664332	0.00239997	-0.895068	2.13237	-2.79043	-1.56954	-2.62329	1.89556e-06	1.59664e-05	-2.85207e-05	-2.16937e-06	-1.60462e-07	1.37873e-05	4.19384	-83.9977	-23.6487	-11.2553	0.915756	-0.218294	
426	1580482315.464737772	0.00240088	-0.895069	2.13237	-2.79043	-1.56954	-2.62329	5.15221e-06	1.19112e-05	-3.23683e-05	-1.94173e-06	3.51848e-06	1.42216e-05	4.19486	-83.9979	-23.6484	-11.2554	0.915755	-0.218265	
427	1580482315.472648526	0.00239926	-0.89507	2.13236	-2.79043	-1.56954	-2.62329	-9.80939e-07	1.03108e-05	-3.60169e-05	2.96673e-06	7.03818e-06	1.69616e-05	4.19635	-83.9963	-23.6482	-11.2553	0.915754	-0.218356	
428	1580482315.480689733	0.00239893	-0.895072	2.13237	-2.79043	-1.56954	-2.62329	-2.23617e-06	-5.10208e-07	-3.02893e-05	6.82832e-07	5.81081e-06	1.26288e-05	4.19704	-83.9942	-23.6478	-11.255	0.915581	-0.218207	
429	1580482315.488702327	0.00239861	-0.895073	2.13237	-2.79043	-1.56954	-2.62329	-3.4373e-06	-3.90001e-06	-2.93622e-05	-1.50329e-06	2.24843e-06	8.46441e-06	4.19804	-83.9947	-23.6476	-11.2551	0.915523	-0.217999	
430	1580482315.496771739	0.00239892	-0.895074	2.13236	-2.79042	-1.56954	-2.62329	-2.28318e-06	-7.14439e-06	-3.53144e-05	3.3681e-06	3.51125e-06	9.04575e-06	4.19888	-83.9937	-23.6471	-11.2553	0.915465	-0.21803	
431	1580482315.504690428	0.00239922	-0.895074	2.13236	-2.79042	-1.56954	-2.62329	-1.17841e-06	-5.67143e-06	-3.41119e-05	3.36064e-06	7.00611e-06	9.58815e-06	4.19893	-83.9935	-23.6471	-11.2554	0.915294	-0.217883	
432	1580482315.512691451	0.00239889	-0.895075	2.13237	-2.79043	-1.56954	-2.62329	-2.41877e-06	-8.82916e-06	-2.83557e-05	1.06542e-06	1.11616e-06	3.23887e-06	4.19835	-83.9923	-23.647	-11.2554	0.915408	-0.217974	
433	1580482315.520687795	0.00239795	-0.895074	2.13237	-2.79042	-1.56954	-2.62329	-5.89953e-06	-7.28214e-06	-2.50986e-05	3.52292e-06	-2.23761e-06	-5.63581e-07	4.19777	-83.9934	-23.6465	-11.2554	0.915294	-0.218183	
434	1580482315.528720194	0.0023989	-0.895074	2.13237	-2.79042	-1.56954	-2.62329	-2.35255e-06	-5.79768e-06	-2.65133e-05	3.50093e-06	-7.92677e-07	-1.92702e-06	4.20017	-83.9941	-23.646	-11.2553	0.915408	-0.217977	
435	1580482315.536731752	0.00239858	-0.895074	2.13236	-2.79042	-1.56954	-2.62329	-3.53451e-06	-6.65125e-06	-3.0116e-05	3.47623e-06	5.14715e-06	-3.23379e-06	4.20052	-83.9943	-23.6459	-11.2553	0.915351	-0.218067	
436	1580482315.544708861	0.00239827	-0.895074	2.13236	-2.79042	-1.56954	-2.62329	-4.66405e-06	-7.46504e-06	-2.89843e-05	3.44895e-06	8.55565e-06	-2.21089e-06	4.20073	-83.9946	-23.6464	-11.2555	0.915408	-0.218392	
437	1580482315.552702750	0.00239796	-0.895075	2.13236	-2.79042	-1.56954	-2.62329	-5.74216e-06	-1.05111e-05	-2.787e-05	3.41922e-06	2.63525e-06	-1.23308e-06	4.20155	-83.9949	-23.6467	-11.2554	0.915408	-0.218246	
438	1580482315.560719329	0.00239953	-0.895076	2.13236	-2.79042	-1.56954	-2.62329	7.2487e-08	-1.34194e-05	-2.90421e-05	3.38714e-06	-7.63639e-07	-7.10559e-06	4.20112	-83.9947	-23.647	-11.2554	0.915352	-0.217984	
439	1580482315.568698165	0.00240167	-0.895077	2.13236	-2.79042	-1.56954	-2.62329	7.8436e-06	-1.85492e-05	-2.78666e-05	3.35285e-06	-1.65725e-06	-3.61325e-06	4.2004	-83.9944	-23.6478	-11.2555	0.91524	-0.217898	
440	1580482315.576684269	0.00240191	-0.895078	2.13237	-2.79043	-1.56954	-2.62329	8.51697e-06	-1.88257e-05	-2.44477e-05	1.05296e-06	4.28203e-06	-2.57841e-06	4.20029	-83.9945	-23.6483	-11.2556	0.91524	-0.218103	
441	1580482315.584702625	0.00240151	-0.895077	2.13236	-2.79043	-1.56954	-2.62329	6.87751e-06	-1.45517e-05	-2.56699e-05	-1.14986e-06	7.70468e-06	3.06906e-06	4.20233	-83.9941	-23.648	-11.2559	0.91524	-0.218192	
442	1580482315.592711675	0.00240113	-0.895076	2.13237	-2.79043	-1.56954	-2.62329	5.29857e-06	-1.27057e-05	-2.00371e-05	-9.99097e-07	8.71699e-06	6.12029e-06	4.20145	-83.9933	-23.6473	-11.256	0.915241	-0.21799	
443	1580482315.600695683	0.00240075	-0.895076	2.13237	-2.79043	-1.56954	-2.62329	3.77923e-06	-1.31836e-05	-2.13895e-05	1.49235e-06	7.42322e-06	9.03143e-06	4.20272	-83.9939	-23.6473	-11.256	0.915241	-0.217963	
444	1580482315.608691547	0.00240163	-0.895075	2.13236	-2.79042	-1.56954	-2.62329	6.84882e-06	-9.12358e-06	-2.49139e-05	3.87614e-06	8.43184e-06	1.18054e-05	4.20428	-83.9939	-23.647	-11.256	0.915186	-0.218166	
445	1580482315.616676225	0.0024031	-0.895077	2.13237	-2.79042	-1.56954	-2.62329	1.2041e-05	-1.65724e-05	-1.92586e-05	3.81371e-06	4.7993e-06	1.44451e-05	4.20325	-83.9943	-23.6468	-11.2559	0.915242	-0.218081	
446	1580482315.624727284	0.00240205	-0.895075	2.13236	-2.79042	-1.56954	-2.62329	7.95734e-06	-7.86324e-06	-2.96485e-05	6.08781e-06	3.65608e-06	3.37541e-06	4.20162	-83.9948	-23.6474	-11.2558	0.915297	-0.217881	
447	1580482315.632699023	0.00240227	-0.895073	2.13236	-2.79042	-1.56954	-2.62329	8.55156e-06	-1.76401e-06	-3.04923e-05	3.67787e-06	7.05047e-06	6.33192e-06	4.20227	-83.9952	-23.6479	-11.2559	0.915243	-0.218084	
448	1580482315.640694769	0.00240124	-0.895075	2.13236	-2.79043	-1.56954	-2.62329	4.59957e-06	-7.22916e-06	-2.67806e-05	1.36632e-06	8.05204e-06	9.15261e-06	4.202	-83.9961	-23.6479	-11.256	0.915188	-0.218114	
449	1580482315.648697540	0.00240024	-0.895074	2.13237	-2.79043	-1.56954	-2.62329	8.08389e-07	-3.40583e-06	-1.87158e-05	1.39183e-06	4.43382e-06	5.07421e-06	4.2025	-83.9953	-23.6476	-11.2561	0.915079	-0.218143	
450	1580482315.656657420	0.00239988	-0.895074	2.13237	-2.79043	-1.56954	-2.62329	-5.75034e-07	-4.21943e-06	-1.99235e-05	-8.23181e-07	7.76936e-06	7.91846e-06	4.20284	-83.9953	-23.6479	-11.2559	0.915025	-0.218173	
451	1580482315.664690482	0.00239891	-0.895073	2.13236	-2.79043	-1.56954	-2.62329	-4.14843e-06	-5.2574e-07	-2.10574e-05	-7.08044e-07	8.72149e-06	6.11474e-06	4.20288	-83.9955	-23.6484	-11.2558	0.914971	-0.21843	
452	1580482315.672688769	0.00239919	-0.895073	2.13237	-2.79043	-1.56954	-2.62329	-3.0784e-06	7.76652e-07	-1.76536e-05	-5.9706e-07	1.18585e-05	4.3775e-06	4.20172	-83.9954	-23.6483	-11.2559	0.915026	-0.218572	
453	1580482315.680690277	0.00239947	-0.895073	2.13237	-2.79043	-1.56954	-2.62329	-2.05227e-06	-2.44017e-06	-9.91283e-06	1.82945e-06	1.48516e-05	-6.26041e-06	4.20206	-83.9971	-23.6482	-11.2559	0.914973	-0.218601	
454	1580482315.688669319	0.00240098	-0.895073	2.13237	-2.79043	-1.56954	-2.62329	3.41027e-06	-1.06484e-06	-1.36271e-05	1.83426e-06	1.54757e-05	1.55674e-06	4.20284	-83.9978	-23.6481	-11.2559	0.914974	-0.218573	
455	1580482315.696686443	0.0024006	-0.895074	2.13236	-2.79043	-1.56954	-2.62329	1.92457e-06	-4.19975e-06	-1.93937e-05	1.83686e-06	2.05091e-05	-2.22228e-06	4.20303	-83.9989	-23.6481	-11.2561	0.914975	-0.218714	
456	1580482315.704703574	0.00240146	-0.895073	2.13236	-2.79043	-1.56953	-2.62329	4.96732e-06	-2.75409e-06	-2.04484e-05	-2.60858e-06	2.30862e-05	-5.84242e-06	4.20232	-83.9989	-23.6485	-11.2558	0.915138	-0.218629	
457	1580482315.712704236	0.00240168	-0.895074	2.13236	-2.79043	-1.56954	-2.62329	5.64215e-06	-3.58931e-06	-1.92147e-05	-2.42254e-06	1.65602e-05	-2.60066e-06	4.20207	-83.9992	-23.6485	-11.2559	0.9153	-0.218657	
458	1580482315.720673290	0.00240067	-0.895075	2.13236	-2.79043	-1.56954	-2.62329	1.82101e-06	-6.60572e-06	-2.02289e-05	-2.2418e-06	1.02931e-05	-8.41257e-06	4.20003	-83.9986	-23.6485	-11.2559	0.915408	-0.218574	
459	1580482315.728690814	0.00240091	-0.895074	2.13237	-2.79043	-1.56954	-2.62329	2.61203e-06	-5.05883e-06	-1.23145e-05	2.37904e-07	1.32313e-05	-1.17578e-05	4.20082	-83.9977	-23.6486	-11.256	0.915354	-0.218713	
460	1580482315.736697979	0.00239992	-0.895073	2.13237	-2.79043	-1.56954	-2.62329	-1.08471e-06	8.52458e-07	-1.35716e-05	-4.11521e-06	1.16062e-05	-1.0526e-05	4.20145	-83.9978	-23.6488	-11.2561	0.915354	-0.218797	
461	1580482315.744690036	0.00239956	-0.895073	2.13236	-2.79043	-1.56954	-2.62329	-2.40386e-06	-1.20453e-07	-1.91808e-05	6.50801e-07	1.22487e-05	-7.08286e-06	4.20134	-83.998	-23.6482	-11.2562	0.915729	-0.218769	
462	1580482315.752712015	0.00239982	-0.895072	2.13236	-2.79043	-1.56954	-2.62329	-1.44663e-06	3.36231e-06	-2.01149e-05	7.1051e-07	1.50602e-05	-6.03234e-06	4.20109	-83.9975	-23.6485	-11.2562	0.915568	-0.218796	
463	1580482315.760691990	0.00240008	-0.895073	2.13236	-2.79043	-1.56954	-2.62329	-5.29861e-07	7.52493e-08	-2.09864e-05	-1.43895e-06	1.55323e-05	-7.22819e-06	4.20128	-83.9971	-23.6478	-11.2561	0.915355	-0.218713	
464	1580482315.768690072	0.00240033	-0.895074	2.13236	-2.79043	-1.56954	-2.62329	3.47239e-07	-3.07568e-06	-1.739e-05	9.98631e-07	1.59686e-05	-6.16519e-06	4.20205	-83.998	-23.6478	-11.256	0.915355	-0.21863	
465	1580482315.776703253	0.00240119	-0.895073	2.13236	-2.79042	-1.56954	-2.62329	3.39824e-06	5.10374e-07	-2.05274e-05	5.53382e-06	1.63702e-05	-1.17462e-05	4.2018	-83.9987	-23.648	-11.2558	0.915355	-0.218603	
466	1580482315.784688627	0.00240142	-0.895071	2.13236	-2.79042	-1.56954	-2.6233	4.10549e-06	6.14206e-06	-2.35091e-05	9.87269e-06	1.6738e-05	-1.48841e-05	4.20111	-83.999	-23.6483	-11.256	0.915567	-0.21874	
467	1580482315.792684886	0.0023998	-0.895073	2.13236	-2.79042	-1.56954	-2.6233	-1.84691e-06	-1.73682e-06	-2.41423e-05	9.53849e-06	1.7073e-05	-1.56806e-05	4.20115	-83.999	-23.6485	-11.2562	0.915619	-0.218713	
468	1580482315.800698204	0.00239944	-0.895073	2.13236	-2.79042	-1.56954	-2.6233	-3.13812e-06	-4.21764e-07	-2.4721e-05	4.82024e-06	1.73762e-05	-1.64294e-05	4.20148	-83.9994	-23.6487	-11.2559	0.915619	-0.218466	
469	1580482315.808700609	0.0023997	-0.895075	2.13236	-2.79042	-1.56954	-2.6233	-2.17027e-06	-1.02089e-05	-2.96301e-05	9.14856e-06	1.54569e-05	-2.15148e-05	4.20109	-83.9989	-23.6486	-11.2558	0.915671	-0.218494	
470	1580482315.816718765	0.00239874	-0.895074	2.13236	-2.79042	-1.56954	-2.6233	-5.64396e-06	-6.35412e-06	-2.55429e-05	6.63052e-06	1.36018e-05	-1.97989e-05	4.20084	-83.9991	-23.649	-11.2559	0.915722	-0.218467	
471	1580482315.824672066	0.00239902	-0.895075	2.13236	-2.79042	-1.56954	-2.6233	-4.57083e-06	-9.21648e-06	-1.94103e-05	6.39759e-06	9.53567e-06	-2.25096e-05	4.20045	-83.9983	-23.6495	-11.2558	0.915669	-0.218386	
472	1580482315.832695909	0.00239868	-0.895075	2.13236	-2.79042	-1.56954	-2.6233	-5.73541e-06	-9.76658e-06	-2.44338e-05	1.79839e-06	1.44551e-05	-1.84877e-05	4.19963	-83.9985	-23.6499	-11.256	0.915669	-0.218794	
473	1580482315.840702809	0.00239775	-0.895076	2.13236	-2.79042	-1.56953	-2.6233	-9.04051e-06	-1.02851e-05	-2.26722e-05	1.75374e-06	1.91535e-05	-2.12064e-05	4.19881	-83.9972	-23.6503	-11.2561	0.915773	-0.218658	
474	1580482315.848662208	0.00239683	-0.895077	2.13236	-2.79043	-1.56954	-2.6233	-1.21994e-05	-1.52196e-05	-2.09575e-05	-4.71004e-07	1.48286e-05	-2.1611e-05	4.20057	-83.9974	-23.6505	-11.2559	0.915616	-0.218577	
475	1580482315.856705361	0.00239655	-0.895077	2.13236	-2.79043	-1.56954	-2.6233	-1.30258e-05	-1.54914e-05	-1.49344e-05	-4.78016e-06	1.72882e-05	-2.19773e-05	4.20047	-83.9971	-23.651	-11.2557	0.915667	-0.218604	
476	1580482315.864701002	0.00239627	-0.895076	2.13237	-2.79043	-1.56954	-2.6233	-1.38053e-05	-1.13866e-05	-9.14402e-06	-4.55425e-06	1.74515e-05	-2.66572e-05	4.20179	-83.9973	-23.6508	-11.2558	0.91546	-0.218739	
477	1580482315.872711280	0.00239722	-0.895076	2.13237	-2.79043	-1.56953	-2.6233	-1.01701e-05	-9.61534e-06	-7.92836e-06	-4.33323e-06	1.97622e-05	-2.012e-05	4.20169	-83.9964	-23.6505	-11.2558	0.915253	-0.218873	
478	1580482315.880723842	0.00239815	-0.895075	2.13236	-2.79043	-1.56953	-2.6233	-6.67684e-06	-7.90911e-06	-1.10933e-05	-4.1171e-06	1.97847e-05	-2.04775e-05	4.2013	-83.9962	-23.6498	-11.2558	0.915253	-0.218953	
479	1580482315.888715296	0.00239724	-0.895072	2.13237	-2.79043	-1.56953	-2.6233	-9.86278e-06	2.40648e-06	-5.43831e-06	-3.90586e-06	1.76167e-05	-1.86312e-05	4.20276	-83.9966	-23.6499	-11.2556	0.915357	-0.218712	
480	1580482315.896699804	0.00239817	-0.895074	2.13237	-2.79043	-1.56953	-2.6233	-6.37406e-06	-5.12615e-06	-1.00318e-08	-1.4468e-06	1.9852e-05	-1.68432e-05	4.20223	-83.9967	-23.6504	-11.2559	0.915511	-0.218792	
481	1580482315.904726159	0.00239786	-0.895075	2.13237	-2.79043	-1.56954	-2.6233	-7.37533e-06	-5.76323e-06	8.67903e-07	-1.33902e-06	1.5395e-05	-1.72764e-05	4.20142	-83.9971	-23.6502	-11.2557	0.91551	-0.218819	
482	1580482315.912712576	0.00239817	-0.895075	2.13237	-2.79043	-1.56953	-2.6233	-6.15516e-06	-6.36891e-06	3.87297e-06	-1.23446e-06	1.98389e-05	-1.98358e-05	4.20118	-83.9951	-23.6501	-11.2557	0.915408	-0.218792	
483	1580482315.920689216	0.00239848	-0.895075	2.13237	-2.79043	-1.56953	-2.6233	-4.98012e-06	-6.94382e-06	6.75212e-06	-1.13308e-06	1.75988e-05	-2.01094e-05	4.20094	-83.9964	-23.6498	-11.2559	0.915357	-0.219083	
484	1580482315.928691459	0.00239756	-0.895073	2.13237	-2.79043	-1.56953	-2.6233	-8.18641e-06	-1.01766e-06	5.19362e-06	1.20842e-06	1.75895e-05	-1.81941e-05	4.20238	-83.9963	-23.65	-11.256	0.915357	-0.219003	
485	1580482315.936709149	0.00239788	-0.895072	2.13237	-2.79043	-1.56953	-2.6233	-6.91946e-06	4.66261e-06	5.85204e-06	1.21044e-06	1.54064e-05	-2.2804e-05	4.2027	-83.9966	-23.6508	-11.256	0.915459	-0.218817	
486	1580482315.944708882	0.00239819	-0.895073	2.13237	-2.79043	-1.56954	-2.6233	-5.6986e-06	-7.47145e-07	4.32738e-06	-3.094e-06	8.9057e-06	-2.07416e-05	4.20245	-83.9971	-23.6499	-11.2562	0.915611	-0.218896	
487	1580482315.952691456	0.00239789	-0.895074	2.13237	-2.79043	-1.56954	-2.6233	-6.6848e-06	-3.69649e-06	5.01446e-06	-7.21689e-06	7.05061e-06	-2.51942e-05	4.20068	-83.9965	-23.6496	-11.2562	0.91561	-0.218817	
488	1580482315.960673796	0.00239759	-0.895076	2.13237	-2.79043	-1.56954	-2.6233	-7.62384e-06	-8.75468e-06	5.67056e-06	-6.86548e-06	3.02987e-06	-2.29921e-05	4.19933	-83.9962	-23.6497	-11.2563	0.915559	-0.21879	
489	1580482315.968691500	0.0023967	-0.895076	2.13237	-2.79043	-1.56954	-2.6233	-1.06739e-05	-1.13636e-05	2.00461e-06	-6.5216e-06	5.69453e-06	-2.08572e-05	4.20007	-83.9956	-23.6497	-11.2561	0.915358	-0.218712	
490	1580482315.976741560	0.00239826	-0.895076	2.13237	-2.79043	-1.56954	-2.6233	-4.96728e-06	-1.171e-05	2.77808e-06	-1.81229e-06	1.72519e-06	-1.66025e-05	4.19942	-83.9949	-23.6497	-11.2562	0.915509	-0.21879	
491	1580482315.984683162	0.00239856	-0.895077	2.13237	-2.79043	-1.56954	-2.6233	-3.7976e-06	-1.41723e-05	7.80202e-06	-1.66436e-06	2.28542e-06	-1.89732e-05	4.20042	-83.9944	-23.6498	-11.256	0.915308	-0.218659	
492	1580482315.992639202	0.00239705	-0.895078	2.13237	-2.79043	-1.56954	-2.6233	-9.12449e-06	-1.65188e-05	4.0559e-06	-3.66001e-06	-1.54511e-06	-2.33652e-05	4.19978	-83.9945	-23.6501	-11.2559	0.915208	-0.218685	
493	1580482316.000696627	0.00239618	-0.895079	2.13237	-2.79043	-1.56954	-2.6233	-1.2074e-05	-1.87521e-05	4.73679e-06	-3.43242e-06	3.41644e-06	-2.32772e-05	4.20037	-83.9951	-23.6498	-11.256	0.915158	-0.218659	
494	1580482316.008764862	0.00239653	-0.895079	2.13237	-2.79043	-1.56954	-2.6233	-1.05973e-05	-1.87395e-05	3.25223e-06	1.14438e-06	8.16838e-06	-2.10334e-05	4.20123	-83.9944	-23.6498	-11.2559	0.915109	-0.218685	
495	1580482316.016662720	0.00239507	-0.89508	2.13237	-2.79043	-1.56954	-2.6233	-1.56029e-05	-2.30593e-05	8.22581e-06	-9.52042e-07	8.44929e-06	-1.88598e-05	4.19826	-83.994	-23.6499	-11.2559	0.915159	-0.218608	
496	1580482316.024692800	0.00239546	-0.895079	2.13237	-2.79043	-1.56954	-2.6233	-1.3961e-05	-1.85705e-05	6.59667e-06	-5.09145e-06	1.08392e-05	-2.31472e-05	4.19762	-83.9942	-23.6498	-11.2559	0.91511	-0.218789	
497	1580482316.032671013	0.00239644	-0.89508	2.13237	-2.79043	-1.56954	-2.6233	-1.0233e-05	-2.28464e-05	7.1584e-06	-4.79835e-06	1.09898e-05	-1.86774e-05	4.19766	-83.9947	-23.6499	-11.256	0.915061	-0.218917	
498	1580482316.040687202	0.00239619	-0.89508	2.13237	-2.79043	-1.56954	-2.6233	-1.0923e-05	-2.25855e-05	9.81794e-06	-2.30115e-06	8.99555e-06	-1.00343e-05	4.19744	-83.9943	-23.6499	-11.2559	0.915062	-0.218788	
499	1580482316.048726486	0.00239656	-0.89508	2.13237	-2.79043	-1.56954	-2.6233	-9.43829e-06	-2.23122e-05	1.4484e-05	9.56892e-08	9.19681e-06	-6.06856e-06	4.1968	-83.9944	-23.6499	-11.256	0.91521	-0.218711	
500	1580482316.056698681	0.00239571	-0.89508	2.13237	-2.79043	-1.56954	-2.6233	-1.22712e-05	-2.20274e-05	1.47016e-05	-4.05649e-06	9.37901e-06	-6.54482e-06	4.19875	-83.9945	-23.6503	-11.256	0.91526	-0.218685	
501	1580482316.064693196	0.00239548	-0.895077	2.13237	-2.79043	-1.56954	-2.6233	-1.28441e-05	-1.1133e-05	1.27774e-05	-1.58977e-06	1.16624e-05	-2.71187e-06	4.19825	-83.995	-23.6506	-11.2561	0.915359	-0.218609	
502	1580482316.072749871	0.00239587	-0.895079	2.13237	-2.79043	-1.56953	-2.62329	-1.12515e-05	-1.77001e-05	6.68586e-06	-1.42495e-06	1.17211e-05	3.16977e-06	4.19789	-83.9957	-23.6508	-11.2559	0.915212	-0.218532	
503	1580482316.080708732	0.00239684	-0.895079	2.13237	-2.79043	-1.56953	-2.62329	-7.58593e-06	-1.75481e-05	5.07037e-06	9.34741e-07	1.1764e-05	6.60769e-06	4.19847	-83.9962	-23.6513	-11.256	0.915114	-0.218762	
504	1580482316.088689231	0.0023972	-0.895078	2.13237	-2.79042	-1.56953	-2.62329	-6.18747e-06	-1.1044e-05	3.5177e-06	3.19675e-06	1.17916e-05	1.40333e-06	4.19905	-83.9961	-23.6514	-11.2561	0.915066	-0.218685	
505	1580482316.096711192	0.00239755	-0.895076	2.13237	-2.79043	-1.56953	-2.62329	-4.83985e-06	-6.90634e-06	1.04716e-05	-1.05524e-06	1.18045e-05	4.89924e-06	4.19829	-83.9959	-23.651	-11.256	0.915066	-0.218711	
506	1580482316.104666889	0.00239669	-0.895078	2.13237	-2.79042	-1.56953	-2.62329	-7.7829e-06	-1.14515e-05	1.50222e-05	3.38909e-06	1.18033e-05	8.2479e-06	4.19914	-83.9958	-23.6508	-11.2559	0.915116	-0.218837	
507	1580482316.112675474	0.00239765	-0.89508	2.13237	-2.79042	-1.56953	-2.62329	-4.24256e-06	-1.79053e-05	1.72656e-05	5.54096e-06	1.60026e-05	7.19586e-06	4.19864	-83.9955	-23.6511	-11.2559	0.91497	-0.218913	
508	1580482316.120691673	0.00239679	-0.89508	2.13237	-2.79042	-1.56953	-2.62329	-7.19086e-06	-1.97819e-05	1.51912e-05	9.7041e-06	1.15082e-05	-1.7623e-07	4.19695	-83.996	-23.6514	-11.2558	0.91502	-0.219039	
509	1580482316.128679161	0.00239715	-0.89508	2.13237	-2.79042	-1.56953	-2.62329	-5.78286e-06	-1.94581e-05	1.73933e-05	1.15843e-05	1.14742e-05	1.20792e-06	4.19793	-83.9959	-23.6514	-11.2559	0.915069	-0.219013	
510	1580482316.136730289	0.0023987	-0.89508	2.13237	-2.79042	-1.56953	-2.62329	-2.02439e-07	-1.91272e-05	1.73882e-05	1.11911e-05	1.35289e-05	6.86266e-06	4.19877	-83.996	-23.6511	-11.256	0.915118	-0.219037	
511	1580482316.144693485	0.00239961	-0.895079	2.13237	-2.79042	-1.56953	-2.62329	3.04061e-06	-1.45923e-05	1.52682e-05	1.08026e-05	1.33856e-05	5.85826e-06	4.19828	-83.9945	-23.6511	-11.2561	0.915119	-0.218811	
512	1580482316.152694337	0.00239991	-0.89508	2.13237	-2.79042	-1.56953	-2.62329	4.04073e-06	-1.65168e-05	1.11239e-05	1.25995e-05	1.53293e-05	4.88987e-06	4.19793	-83.9937	-23.6511	-11.2561	0.915071	-0.218836	
513	1580482316.160693597	0.0023996	-0.895079	2.13237	-2.79042	-1.56953	-2.62329	2.89067e-06	-1.20614e-05	1.13276e-05	1.21319e-05	1.50818e-05	6.05145e-06	4.1981	-83.993	-23.6516	-11.256	0.915072	-0.21871	
514	1580482316.168691621	0.00240167	-0.895078	2.13237	-2.79042	-1.56953	-2.62329	1.01336e-05	-9.86721e-06	9.42006e-06	1.1671e-05	1.27349e-05	5.06784e-06	4.19814	-83.9929	-23.6517	-11.2561	0.914976	-0.218885	
