terrinbabu/Matlab/log_filtering/UR10_35_KF/rjt_0kg_sinjall_v5_1.txt
seq	time	q0	q1	q2	q3	q4	q5	Dq0	Dq1	Dq2	Dq3	Dq4	Dq5	eff0	eff1	eff2	eff3	eff4	eff5	
36	1573229628.534689197	-1.24448	-2.11502	-1.72713	-1.57546	0.596243	0.727892	0.0169633	0.0173595	0.0158256	0.0163369	0.0170272	0.0160109	2.10371	4.91038	-5.58701	-0.317792	0.0797144	-0.921961	
37	1573229628.542663337	-1.24432	-2.11486	-1.72701	-1.57531	0.596386	0.728012	0.0167204	0.0185995	0.0160045	0.0177558	0.016241	0.0160684	1.54349	2.70097	-6.10219	0.196864	-0.126998	-0.978634	
38	1573229628.550721908	-1.24419	-2.11474	-1.72688	-1.5752	0.596471	0.728144	0.0173084	0.0170655	0.0164008	0.0155316	0.0165862	0.0160109	4.02166	5.161	-5.14612	0.0430661	-0.243958	-0.30546	
39	1573229628.558680295	-1.24407	-2.11461	-1.72676	-1.57504	0.596651	0.728251	0.0171806	0.0179987	0.0164264	0.0172765	0.017334	0.0170655	3.7235	4.01732	-5.93825	0.502342	-0.338762	0.296824	
40	1573229628.566716444	-1.24393	-2.11447	-1.72664	-1.5749	0.596783	0.728419	0.0173595	0.0177175	0.0167587	0.0170272	0.0172956	0.0155507	4.24523	4.03787	-5.70825	0.128585	-0.705814	-0.123911	
41	1573229628.574659830	-1.24374	-2.11435	-1.72649	-1.57478	0.59689	0.728575	0.0160173	0.0175641	0.01456	0.0164136	0.0177558	0.0152631	1.38524	3.34916	-5.53078	0.143776	-0.538572	0.230335	
42	1573229628.582719991	-1.24365	-2.11418	-1.72641	-1.57463	0.597094	0.728671	0.0167076	0.0166181	0.0183311	0.0167971	0.0158767	0.0181777	1.57112	1.77468	-5.19266	0.189856	-0.903943	0.209803	
43	1573229628.590661648	-1.24353	-2.11406	-1.72625	-1.57453	0.59725	0.728814	0.0168866	0.0171806	0.0155571	0.0151481	0.0167971	0.0163369	1.48545	0.984913	-5.34394	-0.47679	-0.755738	0.379194	
44	1573229628.598708952	-1.24341	-2.11394	-1.7261	-1.57435	0.597334	0.728898	0.0154676	0.0173595	0.0177558	0.0157808	0.0176216	0.0163561	0.144488	0.542801	-5.38944	0.118297	-0.312389	0.665231	
45	1573229628.606701945	-1.24326	-2.11377	-1.726	-1.57426	0.597442	0.729042	0.0170783	0.0172956	0.0179987	0.0166437	0.0170847	0.0159917	-0.223402	0.684423	-5.08659	-0.448672	-0.64713	0.16233	
46	1573229628.614668894	-1.24315	-2.11364	-1.72582	-1.57409	0.597622	0.729174	0.0171039	0.0176152	0.0151353	0.0171422	0.0178517	0.0165095	-1.87928	0.917989	-4.8168	-0.194649	-1.20156	0.0949759	
47	1573229628.622655518	-1.24302	-2.11351	-1.72575	-1.57396	0.597754	0.729318	0.0177303	0.0171678	0.0189191	0.0176024	0.0161835	0.0169121	-1.7544	-0.0741898	-4.83531	-0.125836	-0.925774	0.287429	
48	1573229628.630656833	-1.24287	-2.11336	-1.72561	-1.57382	0.597897	0.729449	0.0165031	0.0178325	0.0162858	0.0174107	0.0174874	0.0160684	-4.42547	2.39206	-4.35505	-0.401913	-1.02197	0.348776	
49	1573229628.638647054	-1.24274	-2.11323	-1.72544	-1.57365	0.598041	0.729605	0.0174235	0.0174618	0.0174874	0.0163369	0.0162027	0.0172381	-1.93927	1.25448	-4.37883	-0.871377	-1.50338	0.461435	
50	1573229628.646644986	-1.24259	-2.11309	-1.72531	-1.57352	0.598185	0.729737	0.0173084	0.0181905	0.0178325	0.0180243	0.0178517	0.0190022	-2.12209	1.30154	-4.47376	-0.0740355	-0.475559	0.364637	
51	1573229628.654649189	-1.24243	-2.11292	-1.7252	-1.57339	0.598281	0.729892	0.0172573	0.0177686	0.017449	0.0173532	0.0167396	0.0165862	-2.6616	2.26716	-3.92132	-0.381113	-1.54087	-0.168254	
52	1573229628.662659150	-1.24231	-2.11281	-1.72502	-1.57324	0.598425	0.730012	0.01704	0.0170655	0.0172189	0.0172573	0.01766	0.0146687	-2.05762	2.58806	-3.84406	-0.417201	-0.724233	0.25613	
53	1573229628.670661134	-1.24216	-2.11266	-1.72491	-1.57309	0.598593	0.730156	0.0168866	0.0176408	0.014918	0.0170847	0.0176791	0.0175449	-1.19631	2.98881	-4.03036	-0.513272	-1.03165	0.160095	
54	1573229628.678674292	-1.24201	-2.11254	-1.72476	-1.57299	0.598689	0.730252	0.0158639	0.0175129	0.0187273	0.0169888	0.0169505	0.0153782	-2.39675	3.40629	-3.47396	-0.41342	-0.831322	-0.0498783	
55	1573229628.686657587	-1.24188	-2.11238	-1.72463	-1.57285	0.598821	0.730407	0.0169121	0.0177047	0.0149947	0.0162602	0.0169888	0.0175449	-0.31541	4.27751	-3.98107	-0.358542	-0.893169	-0.236345	
56	1573229628.694680048	-1.24176	-2.11227	-1.72443	-1.57269	0.599024	0.730563	0.0162218	0.0177942	0.0172062	0.0171039	0.0178709	0.0175449	-1.82003	4.03209	-4.04543	0.479678	-0.303608	-0.329372	
57	1573229628.702665648	-1.24163	-2.11214	-1.72435	-1.57257	0.599156	0.730707	0.0167843	0.0166181	0.0161068	0.0167012	0.0172381	0.018101	-1.48784	3.94498	-4.12792	-0.725735	-0.791313	0.237375	
58	1573229628.710679510	-1.24151	-2.11199	-1.72421	-1.57245	0.599229	0.73085	0.0168099	0.0167971	0.0175896	0.0166437	0.0170847	0.018216	-2.36381	3.24069	-3.52952	-0.0146043	0.0183315	0.0262116	
59	1573229628.718682567	-1.24139	-2.11187	-1.72407	-1.57225	0.599433	0.730982	0.0157744	0.0174874	0.0167587	0.0166629	0.0179284	0.016126	-1.8572	3.16536	-3.06921	0.394491	-0.202173	-0.211795	
60	1573229628.726699958	-1.24125	-2.11168	-1.72392	-1.57213	0.59954	0.731066	0.0166693	0.0173468	0.0179604	0.0170272	0.0173915	0.0186762	-0.663217	3.83624	-3.42402	0.068554	-0.0444119	0.0619267	
61	1573229628.734693067	-1.24114	-2.11159	-1.72382	-1.57201	0.599708	0.731246	0.0170272	0.0175769	0.0168354	0.0164136	0.0180051	0.0172381	-0.294354	3.70783	-3.47641	0.392958	0.162644	-0.406486	
62	1573229628.742694213	-1.24097	-2.11145	-1.72368	-1.57184	0.599888	0.731365	0.0171422	0.0177814	0.0176791	0.016682	0.0175066	0.0179092	0.764061	4.67869	-3.92592	0.538169	0.345203	0.0520197	
63	1573229628.750671542	-1.24087	-2.11129	-1.72355	-1.57172	0.600008	0.731521	0.0172701	0.0168227	0.0143939	0.0162794	0.0183502	0.0194624	0.633952	6.49108	-3.611	0.443394	0.486145	-0.333955	
64	1573229628.758694378	-1.24068	-2.11114	-1.72341	-1.57158	0.60014	0.731701	0.0175641	0.0172189	0.0190853	0.0169505	0.0171039	0.0175449	0.205711	3.26064	-4.53539	0.53027	0.667227	-0.0584744	
65	1573229628.766693625	-1.24055	-2.111	-1.72324	-1.57147	0.600331	0.731833	0.0170911	0.0175513	0.0159023	0.0172956	0.0169121	0.0192131	0.952755	5.88873	-3.86904	-0.253705	0.395019	-0.437462	
66	1573229628.774685498	-1.24041	-2.11088	-1.72315	-1.57132	0.60044	0.731965	0.0178453	0.017334	0.0185484	0.0163177	0.0171998	0.0175641	0.584035	4.08689	-4.74325	0.189208	0.222374	-0.155936	
67	1573229628.782644299	-1.24028	-2.11079	-1.72297	-1.57119	0.600547	0.73212	0.0169377	0.0170016	0.0178453	0.0176983	0.0169121	0.0175257	1.1174	4.3955	-4.33698	0.192154	0.343679	-0.350493	
68	1573229628.790706556	-1.24016	-2.11063	-1.72283	-1.57106	0.600691	0.732264	0.0170911	0.0168227	0.017922	0.0170464	0.0169697	0.0175066	0.609162	3.04441	-4.41374	0.115396	0.285934	-0.112386	
69	1573229628.798699013	-1.24001	-2.1105	-1.72268	-1.57093	0.600847	0.732432	0.0169888	0.017155	0.0188935	0.0177558	0.0176983	0.0181201	-0.784235	2.6498	-4.90794	0.0469032	0.788624	-0.163779	
70	1573229628.806691423	-1.23986	-2.11032	-1.72252	-1.57076	0.600967	0.732552	0.0172062	0.0174746	0.0172573	0.0176408	0.0181968	0.0165095	-1.01236	1.19932	-4.83635	0.0873498	0.484173	-0.61661	
71	1573229628.814701850	-1.23971	-2.11019	-1.72242	-1.57063	0.601111	0.732671	0.0174362	0.0168866	0.0188296	0.0170847	0.0152056	0.0173915	-0.969634	1.01377	-5.54848	-0.00962632	0.254222	-0.330914	
72	1573229628.822704719	-1.2396	-2.11006	-1.72227	-1.57046	0.601207	0.732827	0.0169249	0.0171934	0.018216	0.0172573	0.0165478	0.0179668	-1.52536	0.345347	-5.21991	0.255987	0.406927	-0.630343	
73	1573229628.830688231	-1.23948	-2.10993	-1.7221	-1.57038	0.601339	0.732959	0.0171934	0.0169121	0.0189702	0.0168354	0.0166245	0.0176024	-0.449551	1.44573	-5.53032	-0.0739763	0.11584	-0.689451	
74	1573229628.838668024	-1.23927	-2.10978	-1.72199	-1.57016	0.601507	0.733126	0.0175129	0.0169888	0.0191236	0.0173915	0.0169505	0.0179476	-0.342557	1.11891	-5.53231	0.159786	0.0347996	-0.428326	
75	1573229628.846665693	-1.23917	-2.10965	-1.72176	-1.57009	0.601674	0.733222	0.0176663	0.0170655	0.0190597	0.0173532	0.018101	0.0184845	0.0266894	1.43679	-5.49564	0.253195	-0.0112923	-0.392463	
76	1573229628.854685230	-1.23898	-2.10953	-1.72162	-1.56993	0.60177	0.733402	0.0174618	0.0172573	0.0188552	0.0186379	0.0172765	0.0173915	-0.128652	1.11325	-6.00159	0.0974727	-0.237236	-0.339975	
77	1573229628.862678666	-1.23887	-2.10938	-1.72149	-1.56974	0.601926	0.733545	0.016746	0.017449	0.0185612	0.0167971	0.0176408	0.0172765	0.454125	0.942136	-5.52257	0.292983	-0.247328	-0.0442682	
78	1573229628.870659311	-1.23873	-2.10923	-1.72133	-1.56962	0.602022	0.733689	0.0179092	0.0174618	0.0170528	0.0179284	0.0180051	0.0187146	1.17521	0.952637	-5.79303	0.18082	-0.364304	0.105773	
79	1573229628.878684741	-1.2386	-2.1091	-1.72117	-1.56946	0.60219	0.733833	0.0166948	0.0175385	0.0183183	0.0174874	0.0170655	0.0172765	1.28605	-0.35451	-5.877	0.217676	-0.542242	0.0780008	
80	1573229628.886673194	-1.23847	-2.10893	-1.72109	-1.56935	0.602346	0.733977	0.0176791	0.017449	0.0178325	0.0159342	0.0174299	0.0177558	1.24454	-0.562371	-5.70411	0.0428132	-0.667513	0.406767	
81	1573229628.894683384	-1.23832	-2.1088	-1.7209	-1.5692	0.602478	0.734108	0.0176152	0.0173212	0.0182799	0.0169505	0.0178134	0.0184461	1.14521	-1.45441	-5.51685	0.184892	-0.485175	0.66866	
82	1573229628.902662609	-1.23818	-2.10866	-1.72078	-1.56909	0.602622	0.734252	0.017743	0.0176791	0.0188168	0.0158575	0.0180051	0.017775	1.64868	-2.02072	-5.20887	0.0872588	-0.631287	0.689906	
83	1573229628.910706820	-1.23808	-2.10853	-1.72065	-1.5689	0.602778	0.734396	0.0176152	0.0172701	0.0194816	0.0179859	0.0169888	0.0181777	1.3107	-1.21705	-4.9553	0.0852948	-0.747008	0.738104	
84	1573229628.918820026	-1.23788	-2.10839	-1.72046	-1.56877	0.602898	0.734564	0.0178325	0.0176024	0.0178964	0.0171998	0.0194049	0.0181393	1.31355	-1.09972	-4.37077	-0.120948	-0.627688	0.682626	
85	1573229628.926666898	-1.23774	-2.10825	-1.72031	-1.56863	0.603029	0.734684	0.0175385	0.0175129	0.0195327	0.0177942	0.0185036	0.0181777	0.925331	-1.16242	-4.34338	0.0747017	-1.02777	0.804548	
86	1573229628.934676630	-1.23764	-2.10811	-1.72012	-1.56847	0.603221	0.734851	0.0180882	0.0177303	0.0179092	0.0178517	0.0180626	0.0190597	1.08077	-1.49854	-4.59194	-0.405741	-0.93364	0.791486	
87	1573229628.942677122	-1.2375	-2.10795	-1.71999	-1.56834	0.603365	0.734971	0.0169633	0.017807	0.0168994	0.0172956	0.0190597	0.0181968	0.114885	-1.20452	-4.3195	-0.0792054	-0.619679	0.7265	
88	1573229628.950680591	-1.23734	-2.10783	-1.71988	-1.56821	0.603485	0.735127	0.0173723	0.0177942	0.0185612	0.0173723	0.0192515	0.0183502	0.0627126	-2.56724	-4.12851	-0.14643	-0.404816	0.827017	
89	1573229628.958732737	-1.23719	-2.10765	-1.71976	-1.56804	0.603665	0.735294	0.0189191	0.0177942	0.0165414	0.0178901	0.0185803	0.0175066	0.365297	-1.84756	-4.01386	-0.259812	-0.594565	0.659982	
90	1573229628.966679789	-1.23705	-2.10752	-1.71962	-1.56788	0.603809	0.735414	0.0183311	0.0177303	0.0177942	0.0179668	0.0187913	0.0186762	-1.36569	-2.42792	-4.25878	-0.0254013	-0.252078	0.645698	
91	1573229628.974673358	-1.23692	-2.10738	-1.71946	-1.56777	0.603941	0.73557	0.0178837	0.0189191	0.0169633	0.0173148	0.0183502	0.0189447	-2.91563	-2.15926	-4.6897	-0.183963	-0.583057	0.49554	
92	1573229628.982675786	-1.23678	-2.10722	-1.71933	-1.56759	0.60406	0.735713	0.018101	0.0175385	0.0170528	0.016893	0.0192323	0.0176216	-2.25555	-3.37549	-4.84313	-0.461996	-0.355478	0.40802	
93	1573229628.990698052	-1.23659	-2.10711	-1.7192	-1.56746	0.604229	0.735905	0.0185228	0.018101	0.0177303	0.0181777	0.0190789	0.0191939	-2.2718	-5.4146	-4.44389	-0.203454	-0.135714	0.637609	
94	1573229628.998698650	-1.23644	-2.10694	-1.71902	-1.56733	0.604456	0.736049	0.0184717	0.0176919	0.0170272	0.0188488	0.018657	0.0181201	-3.24482	-5.73675	-4.73535	-0.287951	-0.134309	0.314021	
95	1573229629.006670374	-1.23631	-2.10677	-1.71891	-1.56716	0.604564	0.736192	0.0192898	0.0181138	0.0182544	0.0167204	0.0194624	0.0182544	-3.27408	-5.97254	-4.38941	-0.275202	0.12478	0.493875	
96	1573229629.014695140	-1.23617	-2.10665	-1.71877	-1.56702	0.604744	0.736336	0.0184333	0.018804	0.0177814	0.0186187	0.019424	0.0177942	-4.1587	-5.50735	-4.42536	0.263182	0.372208	0.690065	
97	1573229629.022720435	-1.23604	-2.10649	-1.71865	-1.56686	0.604888	0.736492	0.0187913	0.0179859	0.0172189	0.0178901	0.0186954	0.018657	-2.70639	-4.2691	-3.9586	0.182645	0.309787	0.639303	
98	1573229629.030677590	-1.23587	-2.10633	-1.71851	-1.56671	0.605043	0.736612	0.0191108	0.0194688	0.0184461	0.0165095	0.019424	0.0183119	-3.91627	-3.2798	-4.86844	0.272547	0.755847	0.529594	
99	1573229629.038688066	-1.23572	-2.10618	-1.71835	-1.56659	0.605164	0.736743	0.0192387	0.0191236	0.0186634	0.0170847	0.0183886	0.0184269	-2.98158	-0.864587	-4.25688	-0.111183	0.639206	0.714246	
100	1573229629.046673881	-1.23557	-2.10603	-1.71818	-1.56644	0.605356	0.736875	0.019277	0.0185612	0.0172189	0.0170847	0.0189255	0.0181968	-3.39657	0.373722	-4.83827	0.00356102	0.661152	0.340503	
101	1573229629.054667398	-1.2354	-2.1059	-1.71807	-1.56631	0.6055	0.737055	0.0199162	0.0191108	0.0191748	0.0184078	0.0180243	0.0186762	-4.27756	-0.884355	-5.118	0.188797	0.74241	0.44618	
102	1573229629.062731505	-1.23523	-2.10572	-1.71784	-1.56616	0.605607	0.737199	0.0192515	0.0187401	0.0179476	0.0193473	0.018216	0.0186187	-3.56694	0.572906	-4.06183	0.164068	0.744129	0.321064	
103	1573229629.070666195	-1.23509	-2.10558	-1.71769	-1.56599	0.605751	0.737343	0.0193026	0.0190853	0.0187657	0.0181585	0.0172381	0.0192515	-3.65659	-0.367495	-4.35867	-0.153803	0.486662	0.199409	
104	1573229629.078691792	-1.23496	-2.10544	-1.71762	-1.56587	0.605907	0.737546	0.0195071	0.0189191	0.0183055	0.0183502	0.0187146	0.0201143	-2.93136	0.398143	-4.56273	-0.169387	0.802015	0.349957	
105	1573229629.086705409	-1.23478	-2.10532	-1.71742	-1.56571	0.606039	0.737654	0.0192131	0.0192898	0.0174235	0.0185036	0.018657	0.0192515	-2.9637	0.302233	-4.49266	-0.398189	0.446265	-0.0126954	
106	1573229629.095022694	-1.23459	-2.10517	-1.71728	-1.56558	0.606183	0.73781	0.0205426	0.0188424	0.0203125	0.0183694	0.0178901	0.018542	-2.73038	-1.32672	-5.37358	-0.455023	0.636991	-0.043539	
107	1573229629.102664638	-1.23444	-2.10497	-1.71714	-1.56539	0.606375	0.737941	0.0198651	0.0190086	0.0190981	0.0188296	0.0175833	0.0185036	-3.09228	-0.726487	-5.83544	-0.604823	0.227232	-0.191364	
108	1573229629.110684487	-1.23431	-2.10481	-1.71699	-1.56524	0.606507	0.738121	0.0196605	0.0188168	0.0191492	0.0190789	0.0169888	0.0192323	-2.41747	-1.96343	-5.12081	-0.420735	0.0905333	-0.236774	
109	1573229629.118747273	-1.23416	-2.10468	-1.71686	-1.5651	0.60665	0.738313	0.0195966	0.0188935	0.0199801	0.0197692	0.0191364	0.0194816	-0.595634	-1.81964	-5.31489	-0.400738	0.15779	-0.230085	
110	1573229629.126692406	-1.23398	-2.10451	-1.71665	-1.56496	0.606782	0.738408	0.0196989	0.0183439	0.0198651	0.0177175	0.0188871	0.0191172	0.208245	-1.6966	-4.94158	-0.687722	-0.371952	-0.165051	
111	1573229629.134694387	-1.23383	-2.10435	-1.71655	-1.56479	0.606914	0.738576	0.0195199	0.0193537	0.0196605	0.0187146	0.0184653	0.0187529	-1.13608	-2.2755	-5.1943	-0.49466	-0.354213	0.123564	
112	1573229629.142701249	-1.23369	-2.1042	-1.71635	-1.56466	0.607034	0.738696	0.0196989	0.0192259	0.0222299	0.018868	0.0178901	0.0185612	-0.569477	-2.01807	-5.44655	-0.45707	-0.264897	0.247784	
113	1573229629.150669230	-1.23355	-2.10401	-1.71621	-1.56448	0.607202	0.738815	0.0200696	0.0188807	0.0186634	0.0179859	0.018657	0.0185612	0.500147	-1.38494	-4.90168	-0.588538	-0.719731	0.201444	
114	1573229629.158673087	-1.2334	-2.10388	-1.71599	-1.56433	0.60737	0.738983	0.0200057	0.018689	0.0218081	0.0191172	0.0194624	0.0198842	-1.96303	-2.81281	-5.2125	-0.401263	-0.472004	0.616885	
115	1573229629.166661339	-1.2332	-2.10378	-1.71585	-1.56419	0.607562	0.739151	0.0201207	0.018868	0.018689	0.0196541	0.0198651	0.0195966	-0.385704	-3.05085	-4.95274	-0.560694	-0.911476	0.565299	
116	1573229629.174692261	-1.23303	-2.10362	-1.71571	-1.56401	0.607682	0.739295	0.0200184	0.018395	0.0201974	0.0190981	0.0192323	0.0197308	-1.06512	-2.85614	-5.20133	-0.481187	-0.985036	0.819436	
117	1573229629.182686054	-1.2329	-2.10351	-1.71559	-1.56385	0.60791	0.739474	0.0198906	0.01975	0.0176024	0.0184653	0.0197117	0.0190789	-1.20311	-2.24587	-5.40647	-0.683207	-0.972603	0.54719	
118	1573229629.190728521	-1.23271	-2.10332	-1.71541	-1.56371	0.608017	0.739582	0.0193409	0.0200824	0.0195327	0.0191939	0.0183694	0.0185995	-1.08562	-2.67739	-5.8558	-0.579785	-1.14521	0.609161	
119	1573229629.198707445	-1.23261	-2.10315	-1.71532	-1.56358	0.608173	0.739738	0.0193537	0.0193921	0.0170911	0.0182927	0.0185612	0.0189063	-1.1159	-0.722305	-5.46069	-0.81223	-1.33712	0.273264	
120	1573229629.206674189	-1.23241	-2.103	-1.71515	-1.56343	0.608293	0.739918	0.0203764	0.0195966	0.0204531	0.0189063	0.0180818	0.0190214	-0.118008	-1.80431	-5.97594	-0.790617	-1.33807	0.605092	
121	1573229629.214689655	-1.23224	-2.10279	-1.71497	-1.56325	0.608449	0.740097	0.0190086	0.0192642	0.0173595	0.0180243	0.0189447	0.0198842	-0.0419023	0.29095	-5.26656	-0.955665	-1.30132	0.244778	
122	1573229629.222694502	-1.23208	-2.10268	-1.71482	-1.56313	0.608617	0.740217	0.0205042	0.0203125	0.0211817	0.0195966	0.0188104	0.0190022	-1.27366	-0.575076	-5.4387	-0.949225	-0.988841	0.314798	
123	1573229629.230681463	-1.23192	-2.10249	-1.71465	-1.56297	0.608761	0.740361	0.0193921	0.0198651	0.0188424	0.0203252	0.0191748	0.0185612	0.455395	1.27932	-4.05188	-1.00045	-1.1329	0.071057	
124	1573229629.238693175	-1.2318	-2.10233	-1.71451	-1.5628	0.608929	0.740516	0.0193409	0.0190725	0.0187146	0.0207471	0.0189255	0.0185612	2.02796	1.07767	-4.38133	-1.0041	-1.29806	-0.00833522	
125	1573229629.246711448	-1.23164	-2.10217	-1.71437	-1.56262	0.609133	0.74066	0.0196733	0.0201207	0.0192387	0.0213032	0.0183119	0.0197117	3.13274	0.476056	-4.45349	-0.731133	-1.02056	-0.0480475	
126	1573229629.254750591	-1.23147	-2.10197	-1.71423	-1.56253	0.609205	0.740816	0.0193026	0.0193282	0.0196861	0.0193473	0.0180818	0.0195774	2.68777	1.6364	-3.72604	-0.949523	-1.23035	-0.438058	
127	1573229629.262664062	-1.23129	-2.10184	-1.71407	-1.56232	0.609384	0.740996	0.019571	0.0191108	0.0185484	0.0196733	0.0194624	0.0187146	2.91998	1.22359	-3.9471	-0.855043	-0.881293	-0.364393	
128	1573229629.270677986	-1.23116	-2.1017	-1.71391	-1.56219	0.609528	0.741127	0.0193665	0.0195327	0.0198523	0.0185803	0.0174107	0.018657	1.92432	0.00189301	-4.08477	-1.06336	-1.14407	-0.16054	
129	1573229629.270677986	-1.23116	-2.1017	-1.71391	-1.56219	0.609528	0.741127	0.0193665	0.0195327	0.0198523	0.0185803	0.0174107	0.018657	2.06108	0.464853	-3.79786	-1.03226	-1.08122	-0.174297	
130	1573229629.286686351	-1.23084	-2.1014	-1.7136	-1.56187	0.60984	0.741391	0.0187146	0.0195327	0.0184845	0.0203828	0.0180434	0.0191556	1.10511	-1.26113	-3.16312	-0.488918	-0.735739	-0.416802	
131	1573229629.294670992	-1.23071	-2.10121	-1.71345	-1.56175	0.609984	0.741606	0.0197628	0.0189191	0.0176152	0.0194624	0.0178325	0.0189447	1.27012	-0.550957	-3.82532	-0.536838	-0.62807	-0.333302	
132	1573229629.302688084	-1.23054	-2.10106	-1.71335	-1.56157	0.610176	0.74175	0.0189958	0.018868	0.0195199	0.0195007	0.0196733	0.0190214	-0.225919	-0.905974	-3.88271	-0.416358	-0.249569	-0.593072	
133	1573229629.310711305	-1.23041	-2.1009	-1.71322	-1.56139	0.610343	0.741882	0.0187401	0.0188296	0.0170911	0.0188488	0.0187337	0.0200568	-1.08263	0.23103	-4.39291	-0.31622	-0.359709	-0.13055	
134	1573229629.318683812	-1.23025	-2.10077	-1.71302	-1.56127	0.610475	0.742061	0.0190853	0.0181649	0.0194816	0.0195774	0.0190405	0.0196158	-2.21981	0.69272	-3.57876	-0.1715	-0.00978114	-0.787557	
135	1573229629.326737425	-1.23007	-2.10062	-1.71287	-1.5611	0.610631	0.742169	0.019162	0.0199034	0.0193026	0.0194624	0.0180626	0.0172573	-2.77141	0.0461433	-4.43923	-0.549291	-0.0279249	-0.354599	
136	1573229629.334677318	-1.22992	-2.10047	-1.71272	-1.56095	0.610775	0.742325	0.0188168	0.0190086	0.0207471	0.0186954	0.0187529	0.0199801	-1.82954	1.5086	-3.19999	-0.460111	-0.124846	-0.577462	
137	1573229629.342682830	-1.22978	-2.1003	-1.71261	-1.56081	0.610967	0.742517	0.0184845	0.0192131	0.0179476	0.0196158	0.018216	0.0180818	-2.25828	1.79492	-3.92627	-0.574682	-0.462479	-0.941843	
138	1573229629.350660942	-1.22965	-2.10014	-1.71245	-1.56065	0.611075	0.742672	0.0181649	0.0191236	0.0206065	0.0192323	0.0186762	0.0213415	-3.34541	0.733715	-3.36721	-0.625883	-0.220881	-0.223392	
139	1573229629.358688483	-1.2295	-2.09996	-1.71228	-1.56049	0.611243	0.742828	0.0192387	0.019162	0.0187018	0.0189447	0.0190789	0.0196733	-2.36503	1.79388	-3.21237	-0.959992	-0.391395	-0.809019	
140	1573229629.366698001	-1.22934	-2.09977	-1.71207	-1.56034	0.611374	0.742984	0.0190214	0.0190214	0.0223194	0.0199418	0.0189447	0.0191556	-3.44343	1.65164	-3.31526	-0.911539	-0.0576151	-0.795245	
141	1573229629.374686748	-1.2292	-2.09964	-1.71195	-1.56023	0.611579	0.743116	0.0187785	0.0197372	0.0190597	0.0199993	0.0209005	0.0193665	-2.34229	3.64569	-2.96991	-0.618387	-0.341285	-0.718961	
142	1573229629.382710335	-1.22905	-2.09947	-1.71178	-1.56005	0.611711	0.743295	0.0188168	0.0188807	0.0204275	0.0199801	0.0182927	0.02161	-2.00471	3.15813	-2.69428	-1.10293	-0.444117	-0.897693	
143	1573229629.390711494	-1.22887	-2.09936	-1.7116	-1.55988	0.611903	0.743427	0.0187657	0.0184206	0.0206832	0.0205937	0.0186187	0.0196158	-0.117512	2.79838	-2.40935	-0.902278	-0.259321	-0.296524	
144	1573229629.398709390	-1.22872	-2.09923	-1.71143	-1.55972	0.612046	0.743643	0.0193793	0.018868	0.0196094	0.0201718	0.0184269	0.0197117	1.02504	1.84417	-3.11291	-0.798804	-0.603313	-0.424354	
145	1573229629.406717916	-1.22858	-2.09905	-1.7113	-1.55958	0.612178	0.743798	0.0190853	0.0186123	0.0198267	0.0209772	0.020517	0.0197884	-0.38915	3.40338	-2.90384	-0.779992	-0.494552	-0.154729	
146	1573229629.414710187	-1.22843	-2.0989	-1.71113	-1.5594	0.612322	0.743906	0.018804	0.0186251	0.0207471	0.0204978	0.0193665	0.0198459	2.12163	2.6112	-3.0551	-0.750496	-0.763046	-0.188547	
147	1573229629.422683956	-1.22825	-2.09869	-1.71099	-1.55925	0.612526	0.744098	0.0183311	0.0197244	0.0188424	0.0195774	0.0187146	0.0177558	1.42461	1.95404	-4.41624	-0.933423	-1.19714	-0.276986	
148	1573229629.430718039	-1.22814	-2.09859	-1.71082	-1.5591	0.61267	0.744241	0.0182927	0.0185612	0.0205681	0.0199226	0.0172765	0.0200376	0.792336	0.910523	-3.61754	-0.802568	-0.85881	0.548353	
149	1573229629.438711789	-1.22797	-2.09842	-1.71064	-1.55892	0.612826	0.744385	0.0190725	0.0186251	0.0211434	0.0193857	0.0210539	0.0209388	1.52606	-0.723961	-3.69722	-0.670481	-0.652337	0.108969	
150	1573229629.446678775	-1.22782	-2.0983	-1.71056	-1.5588	0.612946	0.744541	0.0179987	0.0182416	0.0200824	0.0206129	0.0193473	0.0191556	0.0483482	-0.288454	-4.15258	-0.897758	-1.44664	0.145811	
151	1573229629.454780680	-1.22768	-2.09813	-1.71037	-1.55866	0.613137	0.744661	0.0184717	0.0190341	0.0202358	0.0204019	0.0204595	0.0201335	-0.205983	-1.27347	-4.22966	-0.671964	-1.22728	0.507452	
152	1573229629.462710807	-1.22755	-2.09796	-1.71019	-1.55847	0.613257	0.744876	0.0189702	0.0193409	0.0212584	0.0218017	0.0198651	0.0205937	0.796346	-0.692206	-4.11638	-1.0707	-1.06727	0.418538	
153	1573229629.470697127	-1.22737	-2.09781	-1.71001	-1.5583	0.613413	0.744996	0.0186634	0.0194432	0.022818	0.0210539	0.0195583	0.0202294	-0.995118	-1.75595	-4.06516	-0.819353	-1.43509	0.409109	
154	1573229629.478869734	-1.22723	-2.09768	-1.70985	-1.55813	0.613533	0.745128	0.0185995	0.0187401	0.0188807	0.0208813	0.0193857	0.0193857	-0.743775	0.74338	-4.15427	-1.17705	-1.69986	-0.100195	
155	1573229629.486674027	-1.22707	-2.09747	-1.7097	-1.55795	0.613725	0.745332	0.018689	0.0182927	0.0208238	0.0209772	0.019309	0.0200376	-1.54438	-0.737914	-4.28141	-1.17351	-1.59509	0.466217	
156	1573229629.494702876	-1.22691	-2.09733	-1.70952	-1.55782	0.613905	0.745487	0.0192003	0.0194688	0.021284	0.0208238	0.0211498	0.0202485	-0.857201	-0.452138	-4.46137	-0.786368	-1.27072	0.129562	
157	1573229629.502668077	-1.22679	-2.09722	-1.70939	-1.55763	0.614013	0.745655	0.0188424	0.0193282	0.0199929	0.0211881	0.0198267	0.0195774	-0.545174	0.339706	-4.10946	-0.762992	-1.46175	-0.0333509	
158	1573229629.510666024	-1.2266	-2.09704	-1.70921	-1.55748	0.614192	0.745799	0.0192642	0.0185995	0.0201335	0.021284	0.020076	0.0208238	-1.04019	0.874482	-4.32982	-0.882533	-1.42827	-0.1901	
159	1573229629.518666706	-1.22652	-2.09687	-1.70904	-1.55732	0.614372	0.74599	0.0186251	0.018804	0.0209133	0.0211498	0.0210539	0.0203636	-1.54255	0.0818661	-4.31914	-0.729574	-1.06133	0.0443098	
160	1573229629.526709786	-1.2263	-2.09677	-1.70888	-1.55715	0.614492	0.74611	0.0189447	0.0199545	0.0201335	0.0191939	0.0202677	0.0196733	-0.813505	-0.136325	-4.77435	-1.09898	-1.07153	0.0899986	
161	1573229629.534691080	-1.22614	-2.0966	-1.7087	-1.55697	0.614708	0.746302	0.0194432	0.0190086	0.0189958	0.0197884	0.0213223	0.0217634	-0.0918403	1.16089	-3.87569	-0.514193	-0.707643	-0.19983	
162	1573229629.542689283	-1.22595	-2.09644	-1.70859	-1.55684	0.614864	0.746469	0.0199673	0.0186379	0.0211306	0.0200376	0.0208621	0.0189447	-0.567268	-1.18929	-4.16798	-0.654574	-0.598769	0.0902564	
163	1573229629.550681938	-1.22586	-2.09629	-1.70843	-1.55673	0.615032	0.746637	0.0196477	0.0201718	0.0191236	0.0201143	0.0202677	0.0214566	0.600494	-1.1434	-4.4453	0.0460809	-0.419818	0.0375736	
164	1573229629.558738260	-1.22571	-2.09611	-1.70826	-1.55654	0.615164	0.746781	0.0195838	0.019277	0.0199545	0.0216291	0.0206896	0.0208238	0.0283082	-1.01326	-4.35895	-0.361373	-0.1114	-0.0200513	
165	1573229629.566681839	-1.22553	-2.09595	-1.70807	-1.55637	0.615332	0.746948	0.0192898	0.0195199	0.022166	0.0198267	0.0202677	0.0201143	1.21116	-1.2416	-4.12779	-0.0720068	-0.637937	0.13973	
166	1573229629.574654100	-1.22537	-2.09583	-1.70792	-1.5562	0.615464	0.747128	0.0207215	0.0199673	0.0188807	0.020191	0.0204403	0.0210155	1.76637	0.56071	-4.25012	-0.241691	0.165859	0.175662	
167	1573229629.582672110	-1.22521	-2.09566	-1.70776	-1.55607	0.615655	0.747272	0.0202358	0.0194049	0.020517	0.0200568	0.0216483	0.0210347	0.510438	0.408638	-3.70941	0.335564	0.114347	-0.177704	
168	1573229629.590708391	-1.22503	-2.09552	-1.70759	-1.55588	0.615847	0.747439	0.0200696	0.0201335	0.0207343	0.0207279	0.0208813	0.0189638	0.585817	0.790335	-3.85655	-0.18193	0.512843	-0.245557	
169	1573229629.598722559	-1.2249	-2.09533	-1.70744	-1.55572	0.616075	0.747619	0.019571	0.0196605	0.0198778	0.0211498	0.0214566	0.0201143	-0.761327	0.710365	-3.61823	0.144813	0.325978	-0.157825	
170	1573229629.606682284	-1.2247	-2.09514	-1.70729	-1.55558	0.616147	0.747799	0.0201079	0.0193537	0.0197117	0.0210731	0.0199034	0.021399	-0.994984	-0.562526	-3.92575	-0.405858	0.0084466	-0.292734	
171	1573229629.614657643	-1.22455	-2.095	-1.70713	-1.55541	0.616351	0.747931	0.0193026	0.0202613	0.0209644	0.0204595	0.0197692	0.0195966	-3.08199	-1.33038	-4.09523	-0.428751	0.370108	-0.501605	
172	1573229629.622703461	-1.22437	-2.09487	-1.70699	-1.55523	0.616471	0.748062	0.0204019	0.0190981	0.0192515	0.0218401	0.020632	0.0199034	-2.76502	-1.01829	-3.73202	-0.255191	0.500301	-0.51259	
173	1573229629.630679097	-1.22423	-2.09467	-1.7068	-1.5551	0.616615	0.748254	0.0194049	0.0193921	0.019635	0.0207471	0.020191	0.0199418	-5.19566	-2.42331	-4.33416	-0.459007	0.0897942	-0.49829	
174	1573229629.638690465	-1.22409	-2.09456	-1.70665	-1.55492	0.616794	0.748422	0.0204147	0.0192642	0.0211945	0.0199801	0.01975	0.0203252	-5.4022	-3.86545	-4.10347	-0.234356	0.0156162	-0.45588	
175	1573229629.646667321	-1.22392	-2.09441	-1.70655	-1.55478	0.616986	0.748577	0.019635	0.0193793	0.019162	0.0210347	0.0214374	0.0210539	-6.885	-3.07946	-3.79914	-0.166269	-0.0749548	-0.444356	
176	1573229629.654677980	-1.22377	-2.09421	-1.70637	-1.5546	0.61713	0.748733	0.0210411	0.0201463	0.0195583	0.0205745	0.0202677	0.0198459	-5.22407	-4.95129	-4.55255	-0.387088	-0.177723	-0.321688	
177	1573229629.662667563	-1.22357	-2.09407	-1.7062	-1.55445	0.617298	0.748877	0.0207087	0.0196733	0.022345	0.0209197	0.0203828	0.0202677	-5.44508	-5.19684	-4.21978	0.0188566	-0.166252	0.0731318	
178	1573229629.670692562	-1.22343	-2.09393	-1.70603	-1.55428	0.617466	0.749068	0.0212201	0.0207982	0.0199162	0.0214566	0.0203252	0.020517	-4.7544	-3.75759	-4.89729	-0.0989692	-0.284728	0.123998	
179	1573229629.678686831	-1.22323	-2.09375	-1.70585	-1.55412	0.617586	0.749212	0.020811	0.0198139	0.022166	0.0195391	0.0202677	0.0198842	-4.92349	-2.96081	-3.73351	-0.17681	-0.451571	0.258543	
180	1573229629.686680681	-1.22304	-2.09357	-1.70572	-1.55395	0.617777	0.749356	0.0212584	0.0209772	0.0198523	0.0210347	0.0204403	0.0213607	-6.00931	-2.57692	-4.51363	0.0921757	-0.404911	0.762038	
181	1573229629.694735664	-1.2229	-2.09342	-1.70554	-1.55378	0.617921	0.749535	0.0209516	0.0203636	0.0203252	0.0206704	0.0195391	0.0210731	-5.22991	-2.90571	-3.75391	0.119089	-0.569937	0.553313	
182	1573229629.702676351	-1.22273	-2.09322	-1.70541	-1.55364	0.618137	0.749715	0.0211562	0.0209005	0.0217953	0.021284	0.0222811	0.0213415	-4.85796	-3.67656	-3.81606	0.240423	-0.4533	0.798353	
183	1573229629.710664208	-1.22258	-2.09309	-1.70522	-1.55344	0.618282	0.749895	0.0207087	0.0203892	0.0190597	0.0213032	0.0197692	0.0211114	-4.41726	-2.43895	-4.38968	-0.0494117	-0.99523	0.615047	
184	1573229629.718700345	-1.22238	-2.0929	-1.70505	-1.55329	0.618461	0.750039	0.0209516	0.0208749	0.0219998	0.0212456	0.0214566	0.0203444	-4.3293	-3.6598	-4.43921	0.156298	-0.672255	1.03027	
185	1573229629.726671768	-1.2222	-2.09277	-1.70489	-1.55311	0.618617	0.750195	0.0216163	0.0204786	0.0199929	0.0211306	0.0204786	0.0216291	-2.78217	-2.3084	-4.03237	-0.256944	-0.97827	0.842618	
186	1573229629.734673438	-1.22205	-2.0926	-1.70474	-1.55294	0.618773	0.750362	0.02099	0.0214246	0.0215396	0.0210922	0.0201335	0.0198842	-3.8833	-2.6254	-4.69419	0.0966904	-0.666975	0.781883	
187	1573229629.734673438	-1.22205	-2.0926	-1.70474	-1.55294	0.618773	0.750362	0.02099	0.0214246	0.0215396	0.0210922	0.0201335	0.0198842	-3.47887	-1.97917	-4.38256	0.04963	-0.735293	0.749236	
188	1573229629.750655776	-1.22173	-2.09225	-1.70438	-1.55259	0.619096	0.750733	0.0210411	0.0213096	0.0220638	0.0207663	0.0211114	0.0197308	-2.51727	-1.99599	-4.39212	0.0920893	-0.521153	0.517377	
189	1573229629.758693878	-1.22153	-2.09207	-1.70426	-1.55244	0.619277	0.750865	0.0223322	0.0204403	0.019277	0.0213032	0.0195583	0.0205553	-1.04193	-2.5603	-4.92287	-0.10085	-0.621508	0.588532	
190	1573229629.766661640	-1.22138	-2.09193	-1.70407	-1.55228	0.619504	0.751057	0.0214629	0.0218209	0.022166	0.0215716	0.0215524	0.0202677	-2.9423	-3.17279	-5.27319	0.528176	-0.105514	0.725869	
191	1573229629.774670138	-1.22121	-2.09172	-1.7039	-1.55208	0.619576	0.751177	0.0223578	0.0207599	0.0188935	0.020843	0.0205553	0.0195774	-0.786865	-1.86426	-5.08987	-0.0508147	-0.725043	0.282995	
192	1573229629.782680095	-1.22103	-2.09156	-1.70371	-1.55193	0.619756	0.751356	0.0215908	0.0215524	0.0230353	0.0214374	0.020517	0.0216483	-3.13429	-2.22254	-5.41842	0.703917	0.247243	0.889306	
193	1573229629.790734745	-1.22085	-2.09141	-1.70359	-1.55176	0.619924	0.751524	0.0222172	0.0211178	0.0192387	0.0212648	0.0208046	0.0199034	-1.11716	-1.63542	-4.92722	0.310235	-0.132139	0.361352	
194	1573229629.798691008	-1.22068	-2.09121	-1.70339	-1.55161	0.620068	0.751668	0.0215908	0.0211562	0.0209772	0.0220701	0.0207663	0.0204978	-3.10539	-1.41007	-5.29069	0.830363	0.270126	0.663356	
195	1573229629.806673644	-1.2205	-2.09106	-1.7032	-1.55142	0.62032	0.751836	0.0213479	0.0208621	0.0211945	0.0214757	0.021399	0.0206512	-2.59111	-1.39366	-4.65249	0.86888	0.227569	0.580321	
196	1573229629.814689846	-1.22035	-2.09091	-1.70306	-1.55126	0.620451	0.752015	0.0218976	0.0224984	0.0201591	0.0207663	0.0201718	0.0211689	-1.40522	-1.40825	-6.09273	0.697532	0.648919	0.659732	
197	1573229629.822687792	-1.22017	-2.09073	-1.70284	-1.55107	0.620607	0.752135	0.0215141	0.0210922	0.0208749	0.0203252	0.0216675	0.0205937	-0.741895	-0.0534356	-4.56826	1.0531	1.05983	0.349526	
198	1573229629.830664539	-1.22	-2.09057	-1.70271	-1.55094	0.620799	0.752339	0.0219871	0.0211945	0.0193026	0.0211498	0.0201143	0.0204019	0.135124	1.31372	-5.79146	0.803181	0.92158	0.629851	
199	1573229629.838684549	-1.2198	-2.09039	-1.70258	-1.55078	0.620955	0.752482	0.0214246	0.0219487	0.0226518	0.0198075	0.0218784	0.0198267	-1.01985	0.699103	-5.01571	1.01141	1.32453	0.368671	
200	1573229629.846682397	-1.21962	-2.09021	-1.70241	-1.55059	0.621147	0.752638	0.0222172	0.0209772	0.0182416	0.0202677	0.0201718	0.0212265	2.59402	2.50031	-4.84535	0.222904	0.890236	0.267597	
201	1573229629.854673882	-1.21949	-2.09006	-1.70222	-1.55043	0.621279	0.752818	0.0216547	0.0223706	0.0226901	0.020958	0.0205553	0.0209964	1.3149	1.17031	-5.33	0.555118	1.26298	0.57125	
202	1573229629.862679317	-1.21928	-2.08988	-1.70209	-1.55029	0.621471	0.752973	0.0209644	0.0213862	0.0196733	0.0211498	0.0204403	0.0214566	2.26976	3.36769	-4.39762	0.156271	0.927965	0.325126	
203	1573229629.870703721	-1.21912	-2.0897	-1.70186	-1.55011	0.621603	0.753165	0.0215524	0.0219359	0.0229458	0.0209197	0.0191556	0.0219168	1.32447	2.08311	-4.95152	0.466707	0.921514	0.336525	
204	1573229629.878686809	-1.21897	-2.08953	-1.70171	-1.54998	0.62177	0.753332	0.0215141	0.0213735	0.0196733	0.0216867	0.0215141	0.02161	1.72968	3.48274	-3.99532	0.312317	1.28031	-0.048868	
205	1573229629.886721258	-1.21878	-2.08932	-1.70156	-1.54977	0.62195	0.753536	0.0203764	0.0214118	0.0233421	0.0205553	0.0190405	0.0216867	0.904251	1.94876	-4.30597	0.520816	0.452344	0.063278	
206	1573229629.894680690	-1.2186	-2.08917	-1.70139	-1.54962	0.622094	0.753668	0.0212073	0.0211945	0.0185867	0.0208238	0.0190981	0.0209772	2.89664	3.12655	-3.64147	0.207084	0.413743	-0.245718	
207	1573229629.902691382	-1.21846	-2.08898	-1.70123	-1.54944	0.622286	0.75386	0.0206065	0.0217825	0.0223322	0.0215716	0.0198651	0.0217634	0.874639	1.0954	-4.26691	0.717069	0.752848	0.241597	
208	1573229629.910692538	-1.21825	-2.08885	-1.70102	-1.54928	0.622442	0.754003	0.0208621	0.0202997	0.0192259	0.0213607	0.0206129	0.0204403	1.44359	2.96517	-3.83235	0.521414	0.0376903	-0.0580944	
209	1573229629.918675240	-1.21811	-2.08866	-1.70085	-1.54913	0.622562	0.754195	0.0206448	0.0215141	0.0219615	0.0202294	0.0208621	0.0215524	0.683601	0.831615	-4.75236	0.562995	0.229318	0.477554	
210	1573229629.926668668	-1.21794	-2.08853	-1.70072	-1.54898	0.622706	0.754351	0.0211178	0.0204659	0.0189319	0.0214757	0.0198651	0.0209005	1.13445	1.33179	-4.19616	0.343056	-0.248407	0.310351	
211	1573229629.934661372	-1.2178	-2.08835	-1.70055	-1.5488	0.622921	0.754531	0.0207343	0.021693	0.0221277	0.0208621	0.0211498	0.0215716	-1.75209	-0.651379	-4.39855	0.693895	0.156617	0.777225	
212	1573229629.942669502	-1.21758	-2.08814	-1.70039	-1.54866	0.623065	0.75471	0.0202741	0.0209516	0.0187146	0.0213607	0.0209005	0.0214757	-1.17146	-0.206672	-3.79364	0.24385	-0.404815	0.630003	
213	1573229629.950667625	-1.21745	-2.08799	-1.70025	-1.54846	0.623221	0.754866	0.0208877	0.0211817	0.0218464	0.0212456	0.0210539	0.0217825	-1.36761	-2.78832	-4.94948	0.305596	-0.21851	0.864601	
214	1573229629.958713374	-1.21726	-2.08786	-1.7001	-1.54831	0.623365	0.75501	0.0207982	0.0222299	0.0191492	0.0215908	0.0219743	0.0204403	-1.00115	-0.483481	-4.69304	0.189325	-0.421443	0.620718	
215	1573229629.966726065	-1.2171	-2.08768	-1.69986	-1.54816	0.623593	0.755225	0.0196094	0.0212456	0.0223578	0.0209197	0.0211114	0.0210731	-3.16843	0.575883	-3.84004	0.440854	-0.65388	0.839244	
216	1573229629.974700802	-1.21692	-2.08751	-1.69974	-1.54799	0.623689	0.755369	0.0211434	0.0221788	0.0198267	0.0210731	0.0210155	0.020517	-1.23352	2.16168	-4.31429	-0.149971	-0.779342	0.560255	
217	1573229629.982666256	-1.21677	-2.08732	-1.69955	-1.54781	0.623941	0.755536	0.0198139	0.0221021	0.0226901	0.0211881	0.0210155	0.0214566	-1.80742	3.22877	-3.25268	0.363618	-0.966925	0.698088	
218	1573229629.990691948	-1.21662	-2.08713	-1.6994	-1.54768	0.624085	0.75574	0.0194816	0.0221149	0.0188935	0.0240068	0.0206896	0.0212073	-0.149339	5.62801	-2.74276	0.152488	-0.993496	0.512993	
219	1573229629.998772872	-1.21648	-2.08696	-1.69921	-1.5475	0.624264	0.755908	0.0201591	0.0213096	0.0228819	0.0222619	0.0224728	0.020843	-0.605956	5.28783	-3.15382	0.334821	-0.671728	0.318195	
220	1573229630.006714033	-1.21633	-2.08678	-1.69905	-1.54729	0.624396	0.756039	0.0193665	0.0217186	0.0181905	0.0219743	0.0207087	0.02161	0.0116486	6.75434	-2.97446	-0.103283	-1.07061	0.105594	
221	1573229630.014696659	-1.21615	-2.08659	-1.6989	-1.54712	0.624612	0.756231	0.0202741	0.0214246	0.0224345	0.0214566	0.0208046	0.0209772	1.25216	6.05393	-4.28608	0.280623	-0.588226	0.107121	
222	1573229630.022692809	-1.21599	-2.08645	-1.69872	-1.54699	0.624816	0.756387	0.0202613	0.0216675	0.0186507	0.0211881	0.0205937	0.0206512	0.177067	6.21391	-3.88579	-0.301538	-0.981468	-0.327547	
223	1573229630.030735531	-1.21582	-2.0863	-1.69855	-1.54678	0.624936	0.756566	0.0205809	0.0205042	0.0222172	0.0203061	0.0211881	0.0211114	0.261783	5.3875	-3.76876	0.148636	-0.914087	0.226192	
224	1573229630.038704882	-1.21568	-2.08612	-1.6984	-1.54661	0.625104	0.756722	0.0197884	0.0201079	0.0216675	0.022492	0.0208813	0.0206512	1.36282	4.49726	-4.15185	0.584167	-0.503159	-0.26482	
225	1573229630.046677749	-1.2155	-2.08599	-1.69822	-1.54643	0.625248	0.75689	0.020632	0.0209516	0.0204659	0.0225495	0.0199034	0.0205937	1.52265	2.90831	-4.69742	0.327061	-0.659491	-0.181422	
226	1573229630.054681868	-1.2153	-2.08583	-1.69804	-1.54625	0.625416	0.757022	0.0200696	0.0206193	0.0229586	0.0221277	0.0214566	0.0204019	2.11542	2.26157	-4.37933	0.717909	-0.205534	0.0877857	
227	1573229630.062659828	-1.21516	-2.08564	-1.69789	-1.54612	0.625631	0.75719	0.0207087	0.0210795	0.0201591	0.0226646	0.0206129	0.0222235	1.55718	3.08781	-4.79259	0.590526	-0.282608	-0.214432	
228	1573229630.070700614	-1.21498	-2.0855	-1.69773	-1.54591	0.625763	0.757393	0.0197244	0.0205681	0.0233165	0.0203252	0.0209388	0.0213799	1.40747	2.7193	-5.19115	0.930161	-0.243879	-0.187891	
229	1573229630.078696597	-1.2148	-2.0853	-1.69751	-1.54578	0.625919	0.757585	0.0201718	0.0211434	0.0225879	0.0223578	0.0215141	0.0213032	0.425663	3.31651	-5.35894	0.74021	0.304532	0.023889	
230	1573229630.086677708	-1.21465	-2.08514	-1.69736	-1.54555	0.626123	0.75774	0.019929	0.0202613	0.0224728	0.0211498	0.0217825	0.0214566	0.769816	4.37018	-5.1737	0.459822	-0.0220635	-0.12886	
231	1573229630.094667596	-1.21451	-2.08498	-1.69714	-1.54539	0.626219	0.757908	0.0203252	0.0213096	0.02494	0.020632	0.0222044	0.0204403	0.410492	3.16753	-4.99817	0.458431	0.423728	-0.452066	
232	1573229630.102920571	-1.21434	-2.0848	-1.69692	-1.54522	0.626482	0.758088	0.0196605	0.0213096	0.0223066	0.0224536	0.0214374	0.022166	-0.931775	4.79216	-4.99057	-0.140139	0.0512621	-0.355567	
233	1573229630.110665763	-1.21419	-2.08465	-1.69676	-1.54509	0.626639	0.758231	0.0206704	0.0207343	0.0250295	0.0215141	0.0223002	0.0211689	-0.0757116	2.66784	-5.08107	0.146445	0.156256	-0.313129	
234	1573229630.118684508	-1.21398	-2.08445	-1.69658	-1.54491	0.626794	0.758471	0.021284	0.0218209	0.023521	0.0216675	0.0232015	0.0224153	-0.680208	3.5786	-4.71782	0.122144	0.311987	-0.544344	
235	1573229630.126703590	-1.21385	-2.08433	-1.6964	-1.54475	0.626974	0.758615	0.020632	0.0212456	0.0218592	0.0210922	0.0223578	0.0220701	-1.64936	3.9917	-4.758	0.38598	0.115147	-0.537992	
236	1573229630.134690483	-1.21368	-2.08417	-1.69622	-1.54453	0.627142	0.758782	0.0216547	0.0219487	0.0246843	0.0215716	0.0215908	0.0230097	-0.0805785	2.75052	-4.56804	0.67926	0.150269	-0.184748	
237	1573229630.142673474	-1.2135	-2.08399	-1.69604	-1.54432	0.627346	0.75901	0.0217697	0.0220254	0.0199801	0.0237	0.0225687	0.0225303	1.66675	3.19072	-4.91072	0.542335	-0.352667	-0.501002	
238	1573229630.150673025	-1.21331	-2.08381	-1.69586	-1.5442	0.627502	0.759154	0.02246	0.0230736	0.0230864	0.0214949	0.0215524	0.0219359	2.10559	1.29296	-5.44254	0.433498	-0.0731773	0.228437	
239	1573229630.158706653	-1.21318	-2.08365	-1.69568	-1.54401	0.627694	0.759357	0.0220254	0.0217442	0.0219359	0.0227796	0.0218592	0.0225112	3.2339	1.82723	-5.04881	0.540704	-0.443848	0.157752	
240	1573229630.166670788	-1.21296	-2.08347	-1.69552	-1.5438	0.627861	0.759561	0.0222044	0.0228819	0.0207982	0.0216483	0.022818	0.0218592	3.77324	0.621915	-5.72582	0.0321222	-0.150104	0.406363	
241	1573229630.174681170	-1.21282	-2.08328	-1.69534	-1.54365	0.628065	0.759729	0.0224728	0.0222427	0.0213479	0.0223386	0.0234316	0.0228755	3.26432	0.80384	-5.50219	0.250426	-0.337374	0.600262	
242	1573229630.183208903	-1.21261	-2.08311	-1.69514	-1.54347	0.628245	0.759908	0.0227413	0.0230736	0.0234571	0.0222235	0.0216291	0.0224153	2.01089	-1.6378	-5.77113	0.227417	-0.780755	0.917619	
243	1573229630.190690855	-1.21245	-2.08292	-1.69498	-1.54327	0.628461	0.76004	0.0221149	0.022933	0.0223578	0.022166	0.0230289	0.022607	1.14367	-1.81243	-5.09633	0.162998	-0.535699	0.485886	
244	1573229630.198676067	-1.21223	-2.08274	-1.69479	-1.54305	0.628617	0.760244	0.0227668	0.0225623	0.0211178	0.0237575	0.0223961	0.0215333	0.289521	-2.6816	-5.44774	-0.217725	-0.871456	0.655811	
245	1573229630.206674857	-1.21207	-2.08257	-1.69464	-1.54288	0.628809	0.760411	0.0223833	0.0224217	0.0227157	0.0221085	0.022818	0.022166	-1.56772	-4.0053	-5.17689	-0.013744	-0.78943	0.597004	
246	1573229630.214663711	-1.21187	-2.08238	-1.69446	-1.54272	0.628905	0.760591	0.0226518	0.0225623	0.022754	0.0231631	0.0225687	0.0246204	-2.77167	-3.02573	-5.16286	-0.311391	-1.36294	0.616151	
247	1573229630.222690519	-1.21171	-2.08221	-1.69426	-1.54253	0.629168	0.760807	0.0229841	0.0229586	0.0226007	0.0214566	0.023259	0.0227604	-2.34795	-3.66328	-5.42481	-0.553632	-1.38636	0.356043	
248	1573229630.230678896	-1.21152	-2.08202	-1.69412	-1.54233	0.629348	0.760974	0.0234955	0.0232909	0.0229714	0.022933	0.0219551	0.0219743	-3.13404	-4.13603	-5.27137	-0.510288	-1.36736	0.277526	
249	1573229630.238680916	-1.21133	-2.08183	-1.69392	-1.54212	0.629504	0.761154	0.0236872	0.0233676	0.0216803	0.0231439	0.0246587	0.0225879	-3.51141	-3.1713	-4.94975	0.123182	-0.785779	0.606309	
250	1573229630.246675713	-1.21116	-2.08168	-1.69371	-1.54194	0.629744	0.761345	0.0239429	0.0240451	0.0232909	0.0234316	0.0231439	0.0218592	-4.19585	-3.18835	-5.59769	-0.483644	-1.31663	0.0814052	
251	1573229630.254675856	-1.21094	-2.08145	-1.69352	-1.54176	0.6299	0.761549	0.0242752	0.0240707	0.0229841	0.0225879	0.0231823	0.0230289	-3.68465	-2.6732	-5.01276	-0.271825	-0.998661	0.510288	
252	1573229630.262696361	-1.21078	-2.08126	-1.69333	-1.5416	0.630068	0.761717	0.0246843	0.024173	0.0224345	0.0231248	0.0231439	0.0232782	-2.66356	-1.40394	-5.08517	-0.137126	-0.678595	0.346933	
253	1573229630.271064306	-1.21054	-2.08108	-1.69316	-1.54139	0.630247	0.761885	0.0244798	0.025349	0.023227	0.0235274	0.0231439	0.0230097	-4.19902	-2.36507	-5.02627	-0.285374	-0.652162	-0.0701356	
254	1573229630.278698120	-1.21037	-2.08087	-1.69295	-1.54119	0.630475	0.7621	0.0244414	0.0245309	0.0235594	0.0239493	0.0243136	0.0240835	-3.51095	-1.89161	-4.65577	0.641305	-0.491514	0.0698581	
255	1573229630.286680805	-1.21015	-2.08065	-1.69279	-1.54101	0.630679	0.762268	0.0251445	0.0247866	0.0230097	0.0229714	0.0241794	0.0228563	-3.09152	-1.74806	-4.65799	0.496137	-0.0897305	0.138952	
256	1573229630.294696752	-1.21	-2.08045	-1.69256	-1.5408	0.630895	0.762472	0.0243903	0.0247354	0.0245565	0.0232782	0.0242752	0.0251765	-3.12426	0.0835172	-4.41968	0.724984	0.0716363	0.390879	
257	1573229630.302684471	-1.20975	-2.08025	-1.6924	-1.54064	0.631075	0.762663	0.0251701	0.0249528	0.0233804	0.0236233	0.025234	0.0243136	-1.06054	0.670849	-5.43619	0.485476	0.208328	0.266677	
258	1573229630.310669136	-1.20957	-2.08005	-1.69218	-1.54043	0.631242	0.762891	0.0250167	0.0246076	0.0246587	0.0236425	0.0252148	0.024026	-0.850566	1.01731	-4.97174	0.244841	0.587822	0.12597	
259	1573229630.318691142	-1.20942	-2.07987	-1.69202	-1.54024	0.631435	0.763023	0.0252723	0.0247099	0.0243008	0.023585	0.0246779	0.0249272	-1.09469	0.498759	-5.13349	0.502048	0.599728	0.0406457	
260	1573229630.326671201	-1.20916	-2.07968	-1.69181	-1.54005	0.631698	0.76325	0.025822	0.0247099	0.0247994	0.0234124	0.0249655	0.0257325	-0.717489	0.0462039	-5.33827	0.123141	0.457293	0.135572	
261	1573229630.334711287	-1.20898	-2.07946	-1.69163	-1.53982	0.63189	0.763466	0.0252468	0.0256047	0.0265251	0.0243136	0.0248697	0.0246204	-2.67932	-1.29556	-5.68382	0.317482	0.452813	-0.00257768	
262	1573229630.342699335	-1.20876	-2.07927	-1.69141	-1.53964	0.632082	0.763681	0.0258731	0.0248121	0.0253874	0.0239876	0.0249655	0.0265187	-2.56835	-1.06681	-6.25953	0.206855	0.457868	-0.142404	
263	1573229630.350688968	-1.20854	-2.0791	-1.6912	-1.53945	0.63225	0.763861	0.0254513	0.0246587	0.0255663	0.0242561	0.0234891	0.0246587	-2.84035	-2.2549	-6.21239	0.202164	0.280307	-0.376444	
264	1573229630.358745341	-1.20834	-2.07891	-1.69099	-1.53926	0.632478	0.76404	0.026001	0.0249144	0.0258348	0.0244862	0.0234699	0.0249272	-3.06637	-2.17616	-6.51253	0.41479	0.333679	-0.0700034	
265	1573229630.366752451	-1.20815	-2.07868	-1.69078	-1.53904	0.632669	0.76428	0.0271131	0.0248761	0.0247994	0.0257134	0.0237384	0.0248313	-0.64416	-1.95452	-6.55454	0.43965	0.012877	0.117603	
266	1573229630.374693561	-1.20787	-2.07849	-1.69056	-1.53883	0.632873	0.764496	0.0263973	0.0264356	0.0252212	0.024793	0.025349	0.025349	-0.349626	-1.84375	-6.6754	0.64095	0.0729109	0.169447	
267	1573229630.382661176	-1.20768	-2.07825	-1.69033	-1.53863	0.633077	0.764699	0.0259115	0.0261799	0.025234	0.0248121	0.0250614	0.0257709	-0.191726	-0.551588	-6.94096	0.596565	-0.259902	0.520821	
268	1573229630.390690083	-1.20751	-2.07806	-1.69017	-1.53839	0.633281	0.764915	0.0261416	0.026116	0.0258731	0.0247163	0.0245245	0.026116	0.545421	-0.139516	-6.43083	0.594525	-0.290636	0.799384	
269	1573229630.398682938	-1.2073	-2.07787	-1.68992	-1.5382	0.633497	0.765119	0.0257837	0.0260393	0.0256303	0.0238918	0.0243328	0.0255791	0.928282	-1.07093	-5.73955	0.420981	-0.443832	1.02531	
270	1573229630.406673353	-1.20706	-2.07764	-1.68969	-1.53802	0.633689	0.765322	0.0271515	0.0266529	0.0245181	0.0250231	0.0244478	0.0257325	1.42126	-0.586191	-5.54167	0.480494	-0.417713	1.03784	
271	1573229630.414661481	-1.20685	-2.0774	-1.68953	-1.53782	0.63388	0.765502	0.0266274	0.0265507	0.025822	0.0242944	0.0249847	0.0251381	1.0375	-0.823726	-5.25357	0.309436	-0.507607	0.984293	
272	1573229630.422695569	-1.20666	-2.07723	-1.68932	-1.53761	0.634084	0.765741	0.0264995	0.0267168	0.0257581	0.0234124	0.0258284	0.0259818	1.6704	0.552544	-4.90857	0.393051	-0.683108	1.13394	
273	1573229630.430688074	-1.20645	-2.07698	-1.68912	-1.53741	0.634264	0.765945	0.0261288	0.0272282	0.0243903	0.0249655	0.0254833	0.0254257	0.59314	1.01687	-4.99419	0.0756492	-0.763544	1.09482	
274	1573229630.438690376	-1.20624	-2.07675	-1.68891	-1.53718	0.634456	0.766137	0.0271642	0.0263078	0.0257325	0.0255983	0.0249272	0.0250806	1.61687	0.810929	-4.16026	0.356532	-0.730155	1.13679	
275	1573229630.446730787	-1.206	-2.07656	-1.68873	-1.53698	0.634684	0.766316	0.0268702	0.0269981	0.0245181	0.0251573	0.0267871	0.0246396	-0.379319	0.944378	-4.40477	0.362204	-0.524045	0.797884	
276	1573229630.454696436	-1.20582	-2.07637	-1.6885	-1.53674	0.634864	0.76652	0.0261288	0.0273816	0.0249655	0.024793	0.0262694	0.0257901	0.771767	1.86349	-4.57049	0.417334	-0.542908	1.01012	
277	1573229630.462668779	-1.2056	-2.07611	-1.68832	-1.53656	0.635067	0.766759	0.0266785	0.0265379	0.0254385	0.0237	0.02556	0.02556	-0.221147	1.09001	-3.99264	0.0835379	-0.465489	0.767216	
278	1573229630.470688829	-1.20537	-2.07589	-1.68809	-1.53636	0.635283	0.766927	0.0268063	0.027177	0.0252084	0.0253107	0.0264803	0.0260777	-0.860369	0.0765283	-4.09345	0.267561	-0.118824	0.889517	
279	1573229630.478697305	-1.20519	-2.0757	-1.68789	-1.53614	0.635511	0.767143	0.0266401	0.0278673	0.0246587	0.0242177	0.0267104	0.0255216	-2.96352	-0.147596	-4.01172	0.274988	-0.142414	0.722078	
280	1573229630.486701979	-1.20492	-2.0755	-1.68769	-1.53594	0.635691	0.767358	0.0262055	0.0265379	0.0268191	0.024793	0.027209	0.0247163	-2.83392	0.272273	-3.15558	0.541173	0.155974	0.89621	
281	1573229630.494689342	-1.20473	-2.07528	-1.68754	-1.53572	0.635931	0.767598	0.0269725	0.0266913	0.0242369	0.0258284	0.0277651	0.0259243	-1.2016	1.51658	-4.08341	0.590954	0.323282	0.844	
282	1573229630.502687562	-1.20455	-2.07508	-1.68732	-1.53549	0.636159	0.767778	0.0266018	0.0276628	0.0257709	0.0244095	0.0288197	0.026883	-1.08258	2.77115	-3.38366	0.750016	0.705003	0.925255	
283	1573229630.510706851	-1.20435	-2.07481	-1.68708	-1.53532	0.636386	0.767993	0.025643	0.027062	0.0261927	0.0252723	0.0279568	0.0262119	-0.608783	4.4751	-3.28296	0.675917	0.797259	0.702342	
284	1573229630.518685262	-1.2041	-2.07462	-1.68686	-1.53512	0.636566	0.768221	0.0267935	0.0268063	0.0259243	0.0253682	0.0275158	0.0259243	-2.11225	4.73275	-3.88176	0.31567	0.836207	0.667051	
285	1573229630.526697104	-1.20391	-2.07437	-1.68668	-1.53488	0.636866	0.7684	0.0264228	0.0278034	0.027356	0.0248313	0.0264036	0.0260968	-1.78528	3.59508	-3.5104	0.288211	0.748158	0.621958	
286	1573229630.534694406	-1.20372	-2.07418	-1.68645	-1.53469	0.637034	0.768628	0.0261288	0.0263461	0.0258348	0.0264612	0.0268255	0.0271515	-1.97699	5.44702	-3.09902	0.0463237	0.927169	0.552862	
287	1573229630.534694406	-1.20372	-2.07418	-1.68645	-1.53469	0.637034	0.768628	0.0261288	0.0263461	0.0258348	0.0264612	0.0268255	0.0271515	-2.05341	4.51118	-3.58513	0.0420607	0.952781	0.575721	
288	1573229630.550750788	-1.20328	-2.07374	-1.686	-1.53426	0.637514	0.769047	0.0262822	0.0263973	0.0269981	0.0265379	0.0265187	0.0276692	-1.58262	3.45339	-4.08584	0.226101	0.665454	0.102253	
289	1573229630.559011039	-1.2031	-2.07356	-1.68575	-1.53404	0.637693	0.769275	0.0266657	0.0263589	0.0289539	0.0257517	0.0255408	0.02765	-0.090677	2.08429	-3.78777	-0.0797909	0.356364	0.246201	
290	1573229630.566706615	-1.20286	-2.07335	-1.6856	-1.53382	0.637873	0.769502	0.0262822	0.0268191	0.0254513	0.0264036	0.0266337	0.0284937	0.683207	1.90164	-3.9488	-0.0238138	0.0423095	0.402265	
291	1573229630.574659878	-1.20265	-2.07315	-1.68534	-1.53363	0.638089	0.769742	0.0266274	0.0259498	0.0291712	0.0266146	0.0263269	0.0271898	1.7052	0.168211	-4.97662	0.067464	-0.0631255	0.425214	
292	1573229630.582661492	-1.20247	-2.0729	-1.6851	-1.53339	0.638329	0.769945	0.02641	0.026768	0.0279696	0.0276117	0.0270939	0.0277459	0.250356	-0.745695	-4.64493	0.197915	-0.304674	0.702256	
293	1573229630.590663460	-1.20223	-2.07269	-1.68488	-1.53319	0.638533	0.770173	0.0269086	0.0259115	0.028123	0.0267104	0.0264995	0.0272473	-0.283048	-1.89432	-5.72947	0.0340358	-0.638057	0.735761	
294	1573229630.598660460	-1.20202	-2.0725	-1.68467	-1.53294	0.638748	0.770377	0.0264867	0.0263078	0.0283786	0.0270364	0.0276117	0.028417	-0.586546	-3.37296	-4.78264	0.243581	-0.630241	1.15717	
295	1573229630.606667247	-1.20179	-2.07229	-1.68445	-1.53276	0.638988	0.770616	0.0276372	0.025528	0.0275477	0.0272282	0.0270556	0.0281294	0.448366	-2.7365	-5.06595	-0.0982549	-1.06138	0.928881	
296	1573229630.614695804	-1.2016	-2.07205	-1.68418	-1.53252	0.639192	0.770832	0.0266274	0.0269725	0.0290817	0.0269405	0.0284937	0.0271131	-1.38336	-2.96713	-4.47308	0.0857781	-0.860649	0.699309	
297	1573229630.622690959	-1.20137	-2.07182	-1.68398	-1.53228	0.639432	0.771071	0.0273049	0.026589	0.0275989	0.0275158	0.0271131	0.0279185	-0.233672	-1.16842	-4.8761	-0.358468	-1.3864	0.764964	
298	1573229630.630658578	-1.20115	-2.07165	-1.68371	-1.53207	0.639624	0.771287	0.027356	0.027177	0.0288516	0.0277459	0.0273624	0.0272282	0.867322	-1.22978	-3.98569	-0.317192	-1.33865	0.667362	
299	1573229630.638666073	-1.20095	-2.07139	-1.68353	-1.53183	0.639876	0.771467	0.0271515	0.0274966	0.0281997	0.0273432	0.0280527	0.0279376	0.784544	-1.32192	-4.02102	-0.388495	-1.05389	0.310366	
300	1573229630.646676217	-1.20072	-2.07121	-1.68331	-1.53162	0.640067	0.77173	0.0275222	0.0263589	0.0280079	0.0281294	0.0273624	0.0277075	1.93951	-0.966539	-3.63818	-0.478239	-1.45996	0.0691001	
301	1573229630.654656714	-1.20051	-2.07098	-1.68307	-1.53137	0.640307	0.771934	0.0276628	0.0278034	0.0282764	0.0278801	0.0277459	0.0273624	2.45075	-2.35749	-3.67601	-0.360064	-1.57847	0.196706	
302	1573229630.662654024	-1.20028	-2.07077	-1.68285	-1.53117	0.640547	0.772161	0.0282764	0.0271642	0.0273049	0.0279185	0.0278418	0.0274007	2.59226	-2.51084	-3.44305	-0.417321	-1.17071	0.0492858	
303	1573229630.670672745	-1.2001	-2.07056	-1.68265	-1.53093	0.640774	0.772365	0.0270748	0.027177	0.0281869	0.0282444	0.0284553	0.0277842	0.21726	-5.10934	-3.08469	-0.143485	-0.918662	-0.0143643	
304	1573229630.678661311	-1.19985	-2.07032	-1.68244	-1.53073	0.640979	0.772592	0.0280207	0.0279057	0.0280335	0.0273816	0.0279568	0.0278418	1.10906	-4.90235	-3.52313	-0.113112	-0.975678	-0.118939	
305	1573229630.686663022	-1.1996	-2.07008	-1.6822	-1.53049	0.641182	0.772796	0.0279185	0.02765	0.0263333	0.0283595	0.027976	0.0284553	-0.497382	-4.29599	-3.39554	-0.116943	-0.8078	-0.109265	
306	1573229630.694657152	-1.19937	-2.06984	-1.68198	-1.53029	0.641434	0.773048	0.0288133	0.0277011	0.0286343	0.0275925	0.0286087	0.0284937	-1.63299	-5.30856	-3.30115	-0.185445	-0.470699	0.106203	
307	1573229630.702996673	-1.19917	-2.06965	-1.68176	-1.53004	0.641626	0.773263	0.0284042	0.0280335	0.0280463	0.0281485	0.0292607	0.0290114	-4.01512	-5.14986	-3.5253	0.467861	-0.666332	-0.0530343	
308	1573229630.710663246	-1.19894	-2.06944	-1.68152	-1.52981	0.641878	0.773503	0.0273049	0.0270364	0.028417	0.028417	0.0292032	0.028091	-4.45545	-5.12858	-3.34774	0.146508	-0.57631	-0.227636	
309	1573229630.718669576	-1.19873	-2.06919	-1.68132	-1.52959	0.642106	0.773718	0.0278162	0.0281741	0.027471	0.0281869	0.0282252	0.0295291	-5.55214	-5.38776	-3.69218	-0.496134	-0.46555	-0.322479	
310	1573229630.726660992	-1.19848	-2.06897	-1.68111	-1.52936	0.642334	0.773946	0.0285193	0.0284426	0.0288133	0.0261927	0.0292415	0.0288005	-5.61055	-4.848	-3.13541	-0.690922	-0.21138	-0.544903	
311	1573229630.734663783	-1.19828	-2.06872	-1.68083	-1.52914	0.642609	0.774198	0.0286215	0.028711	0.0285448	0.0286087	0.0289922	0.0286087	-7.53106	-4.44595	-3.49515	-0.448036	-0.586222	-0.294189	
312	1573229630.742665408	-1.19805	-2.06851	-1.68064	-1.52893	0.642825	0.774437	0.029657	0.0284298	0.0281741	0.0305837	0.0282828	0.0283978	-5.74843	-3.59058	-3.53778	-0.425635	-0.390265	-0.471843	
313	1573229630.750680023	-1.19779	-2.06827	-1.68039	-1.52869	0.643041	0.774689	0.0296186	0.0288005	0.0283403	0.0289539	0.0282636	0.029184	-4.74982	-3.98035	-4.64646	-0.38865	-0.729014	-0.029202	
314	1573229630.758655406	-1.19756	-2.06802	-1.68016	-1.52844	0.643245	0.774928	0.0300021	0.0287877	0.0274583	0.0287813	0.028743	0.0294908	-3.9319	-3.67852	-4.53856	-0.633117	-0.596831	-0.188308	
315	1573229630.766701887	-1.19732	-2.06778	-1.67993	-1.52821	0.643508	0.77518	0.0308202	0.0281358	0.0294908	0.0284745	0.0290306	0.0293949	-2.57598	-4.39663	-4.29535	-0.608153	-1.09338	0.0905844	
316	1573229630.774725242	-1.19705	-2.06754	-1.67968	-1.52797	0.643748	0.775395	0.0302578	0.0288644	0.0280207	0.0296825	0.0301044	0.0288388	-2.78697	-5.37841	-5.09289	-0.550154	-1.18554	0.859131	
317	1573229630.782679042	-1.19682	-2.06734	-1.67948	-1.52774	0.644048	0.775659	0.0302578	0.0289028	0.0290945	0.0284937	0.0294524	0.0299318	-3.11492	-6.72975	-5.14848	-0.774707	-1.3041	0.824193	
318	1573229630.790667929	-1.1966	-2.06708	-1.67925	-1.52753	0.644192	0.775838	0.0307307	0.0291584	0.0297848	0.0292415	0.0290881	0.0285704	-3.19555	-7.06776	-5.06905	-0.573956	-1.51303	0.778857	
319	1573229630.798651966	-1.19635	-2.06686	-1.67902	-1.52729	0.644479	0.776078	0.0302833	0.0294141	0.0297337	0.0290881	0.0287621	0.029184	-3.56417	-6.35523	-5.11602	-0.611946	-1.43722	0.45525	
320	1573229630.806676544	-1.19611	-2.06662	-1.67878	-1.52705	0.644696	0.776318	0.0306668	0.0298359	0.030424	0.0297784	0.0288197	0.0298168	-4.57609	-5.96459	-5.04696	-0.637496	-1.74401	0.633144	
321	1573229630.814655393	-1.19582	-2.06637	-1.67853	-1.52682	0.644947	0.776558	0.0301299	0.0296058	0.0302578	0.0292032	0.0297976	0.0302386	-4.44527	-4.94754	-5.1751	-0.684231	-1.94521	0.351105	
322	1573229630.822656919	-1.1956	-2.06614	-1.67834	-1.52656	0.645127	0.776773	0.030539	0.0303728	0.0303856	0.0309672	0.0294333	0.0298168	-3.62414	-4.95791	-5.45991	-0.396222	-1.57218	0.0986439	
323	1573229630.830664961	-1.19533	-2.06589	-1.67808	-1.52632	0.645403	0.777025	0.0303856	0.0307563	0.030833	0.0300085	0.0297209	0.0283211	-4.03168	-2.66382	-5.20177	-0.663009	-1.84007	0.162007	
324	1573229630.838680866	-1.19512	-2.06564	-1.67785	-1.52607	0.645643	0.777252	0.0298615	0.0307435	0.0309353	0.0304112	0.0297209	0.0284362	-2.94656	-1.757	-4.4939	-0.262833	-1.70177	0.300307	
325	1573229630.846691370	-1.19488	-2.06536	-1.67756	-1.52587	0.645858	0.777516	0.0304112	0.0309608	0.0319196	0.0306796	0.0317151	0.0303153	-2.65194	-1.77831	-3.81882	-0.529566	-1.03314	0.129307	
326	1573229630.854653731	-1.19466	-2.06515	-1.67732	-1.52562	0.646146	0.777695	0.0303217	0.0313188	0.0309608	0.0304495	0.0304687	0.0302961	-1.29438	-1.85274	-3.33288	-0.507493	-0.875294	-0.163074	
327	1573229630.862661854	-1.19439	-2.06487	-1.6771	-1.52537	0.64641	0.778007	0.0309353	0.0312293	0.0318429	0.0300085	0.0305837	0.0301811	-0.791962	-0.929469	-3.20967	-0.119382	-0.456049	0.0211742	
328	1573229630.870696633	-1.19415	-2.0646	-1.67684	-1.52509	0.646638	0.778222	0.0309992	0.0309992	0.0303473	0.0301427	0.0318685	0.030066	-1.34332	0.837928	-2.48651	-0.0822025	-0.232342	0.303701	
329	1573229630.878695503	-1.1939	-2.06435	-1.67663	-1.52484	0.646842	0.778462	0.0309864	0.0312932	0.0310887	0.0305837	0.0308905	0.0302002	-1.59336	1.8148	-2.87049	0.136788	0.0129176	-0.0280212	
330	1573229630.886678556	-1.19367	-2.06411	-1.67635	-1.52463	0.647153	0.778665	0.0306285	0.0308586	0.0297976	0.0302961	0.0298935	0.0302194	-2.88045	2.65373	-2.22554	0.0782841	0.12487	-0.246997	
331	1573229630.894664681	-1.19339	-2.06388	-1.67609	-1.52436	0.647417	0.778929	0.0310631	0.030245	0.0302322	0.0309481	0.030718	0.0299893	-4.43227	1.68093	-2.56116	-0.115089	0.221339	-0.0328912	
332	1573229630.902688473	-1.19314	-2.06364	-1.67585	-1.52415	0.647645	0.77918	0.0311526	0.0302961	0.0297464	0.0307563	0.0313124	0.0309289	-5.37462	0.419357	-2.9505	-0.0527526	0.291211	-0.400898	
333	1573229630.910724369	-1.19289	-2.06339	-1.67565	-1.52388	0.647825	0.779408	0.0311142	0.0303856	0.0292351	0.0316192	0.0300085	0.0312549	-5.99062	0.046937	-2.88256	-0.0600707	0.209942	-0.512209	
334	1573229630.918678385	-1.19261	-2.06314	-1.67543	-1.52364	0.648136	0.77966	0.030718	0.030718	0.028711	0.0302769	0.0295291	0.0307563	-4.16723	-0.296464	-3.45477	-0.231186	0.00387642	-0.420621	
335	1573229630.926716218	-1.19241	-2.06292	-1.67519	-1.52342	0.648365	0.779947	0.0301172	0.03036	0.0287877	0.0307755	0.0298743	0.0302386	-3.81792	0.216217	-2.91756	-0.0606975	-0.191977	-0.177215	
336	1573229630.934670410	-1.19214	-2.06267	-1.67494	-1.5232	0.648592	0.780175	0.0302194	0.0307691	0.0291201	0.0313891	0.0304303	0.0310631	-4.61258	0.0917389	-3.88711	-0.0747273	-0.159076	0.160612	
337	1573229630.942731599	-1.19192	-2.06243	-1.67472	-1.52294	0.64882	0.780426	0.0301555	0.0307819	0.0295419	0.030833	0.0297976	0.030833	-5.30668	0.403075	-3.99647	0.0725797	-0.438535	0.416102	
338	1573229630.950674989	-1.19168	-2.06218	-1.67448	-1.52266	0.649084	0.780654	0.0301427	0.0306029	0.029657	0.0313699	0.0298551	0.031159	-5.45893	-0.336958	-3.63211	0.150246	-0.558932	0.593081	
339	1573229630.958683278	-1.19143	-2.06192	-1.67424	-1.52244	0.64936	0.780833	0.0297592	0.0310375	0.0313571	0.0315617	0.0302769	0.030507	-5.32889	-0.194894	-3.67574	0.242115	-0.60811	0.827284	
340	1573229630.966675998	-1.19121	-2.06166	-1.67398	-1.52219	0.649563	0.781157	0.0300532	0.0310248	0.0312165	0.0317342	0.0301044	0.0304687	-4.12613	0.549035	-3.72609	0.157178	-0.680299	0.731123	
341	1573229630.974663363	-1.191	-2.0614	-1.67372	-1.52193	0.649803	0.78142	0.0303217	0.0307435	0.0317278	0.0302002	0.0306796	0.0313316	-3.40456	1.30502	-3.46625	0.0746121	-0.708382	0.687923	
342	1573229630.982673935	-1.19073	-2.06114	-1.67349	-1.52169	0.650043	0.781624	0.0295675	0.0309225	0.0317278	0.0317342	0.0310439	0.0306988	-4.19461	1.59033	-3.19755	0.0875051	-0.749868	0.706482	
343	1573229630.990729904	-1.19047	-2.06089	-1.67325	-1.52144	0.650283	0.781875	0.0299382	0.0307052	0.0310375	0.0319835	0.0325204	0.0305837	-3.6211	1.47009	-3.11595	0.157853	-0.337884	0.403941	
344	1573229630.998688260	-1.19028	-2.06068	-1.673	-1.52117	0.650558	0.782127	0.0309608	0.0300021	0.0325332	0.0317342	0.0318301	0.0305262	-1.12418	0.652955	-3.37231	0.249675	-0.323546	0.591813	
345	1573229631.006697052	-1.18999	-2.06042	-1.67272	-1.52094	0.65081	0.782379	0.0303984	0.029951	0.0314977	0.0313891	0.0319068	0.0310056	-2.56748	0.677723	-3.70011	0.111555	-0.333715	0.46725	
346	1573229631.014659838	-1.18975	-2.06017	-1.67251	-1.52068	0.651086	0.782642	0.0301555	0.0294524	0.0322136	0.0314658	0.0319643	0.0308714	-3.06014	-0.290716	-3.86934	0.221348	-0.044897	0.346438	
347	1573229631.022688812	-1.18949	-2.05994	-1.67217	-1.52041	0.651314	0.782822	0.0310631	0.0300532	0.0321113	0.0312549	0.0319452	0.0304112	-2.0009	-2.31209	-3.90528	0.363443	0.285026	0.477638	
348	1573229631.030686216	-1.18924	-2.05977	-1.67194	-1.52019	0.651566	0.783049	0.0301683	0.0295419	0.0311909	0.0316192	0.0319835	0.0305837	-2.07103	-0.651161	-3.95158	0.554675	0.56833	0.364079	
349	1573229631.038682565	-1.189	-2.0595	-1.67174	-1.51994	0.651865	0.783349	0.030424	0.0297209	0.0332746	0.0310823	0.0324053	0.0316192	-0.332874	-1.3277	-4.38742	0.604423	0.986567	0.584329	
350	1573229631.046703708	-1.18877	-2.05926	-1.67146	-1.51971	0.652082	0.783588	0.0307435	0.0299893	0.0304879	0.0311015	0.0317151	0.0314274	-0.542507	1.08642	-4.12177	0.397179	1.02137	0.231516	
351	1573229631.054714539	-1.18854	-2.05903	-1.67119	-1.51945	0.652381	0.78384	0.0305007	0.0305134	0.0325587	0.0311206	0.0318109	0.0317151	-0.808062	-0.405188	-4.34396	0.667454	1.47157	0.104007	
352	1573229631.062666162	-1.18827	-2.05877	-1.67098	-1.51923	0.652549	0.784115	0.0305262	0.0306924	0.031421	0.0316575	0.0301619	0.0316	-0.543999	0.165787	-3.98454	-0.0321709	1.05349	-0.0268606	
353	1573229631.070694878	-1.18805	-2.05856	-1.67076	-1.51898	0.652825	0.784331	0.0304112	0.0298359	0.0321497	0.0325012	0.0311398	0.0321177	-1.4025	-1.08409	-4.64255	0.0312024	1.24169	-0.0697434	
354	1573229631.078715599	-1.18779	-2.0583	-1.67051	-1.51875	0.653041	0.784606	0.0303217	0.0305646	0.0307691	0.0319068	0.0299318	0.0312932	-1.33263	-2.35719	-4.85824	-0.227971	0.883386	-0.289398	
355	1573229631.086688695	-1.18751	-2.05804	-1.67018	-1.51847	0.65334	0.784858	0.0311398	0.0302833	0.0312549	0.0316	0.0314466	0.0312932	0.070374	-2.23431	-4.62793	-0.192231	0.890949	-0.376244	
356	1573229631.095233075	-1.18731	-2.05776	-1.66993	-1.51826	0.653544	0.785121	0.0308586	0.0314977	0.0317534	0.0321944	0.0308522	0.0319835	-1.18196	-3.50426	-4.82521	-0.0273347	0.543455	0.000424006	
357	1573229631.102692687	-1.18702	-2.05754	-1.66967	-1.51797	0.653796	0.785349	0.0302578	0.0304495	0.0309864	0.0333257	0.0311782	0.0318876	-3.85648	-3.46238	-4.68586	0.117455	0.223961	0.037007	
358	1573229631.110653376	-1.18677	-2.05731	-1.6694	-1.51774	0.654012	0.785612	0.0312804	0.0300916	0.0300916	0.0329231	0.0302578	0.0320986	-2.55135	-5.03742	-5.00309	-0.0640742	-0.0967447	0.389881	
359	1573229631.118668179	-1.18654	-2.05705	-1.66921	-1.51748	0.654251	0.785852	0.0310375	0.0309736	0.0302066	0.0322903	0.0310439	0.0316384	-5.35591	-6.86488	-5.24092	-0.0353323	-0.149234	0.474336	
360	1573229631.126696164	-1.1863	-2.05684	-1.66896	-1.51722	0.654515	0.786103	0.0303856	0.0313699	0.0310503	0.0334216	0.0313891	0.0321369	-6.11095	-7.90092	-5.16188	-0.0121944	-0.286326	0.509113	
361	1573229631.134664034	-1.18603	-2.05655	-1.66872	-1.51696	0.654779	0.786367	0.0311398	0.0313955	0.0301939	0.0325012	0.0324245	0.0322328	-6.20545	-6.38698	-5.51465	-0.336729	-0.398821	0.152745	
362	1573229631.142714854	-1.18579	-2.0563	-1.66847	-1.51674	0.654983	0.786606	0.0313443	0.0324309	0.0322647	0.0326738	0.0316384	0.0319643	-7.14293	-5.32529	-5.32184	-0.413781	-0.537302	0.3462	
363	1573229631.151084990	-1.18555	-2.05606	-1.66825	-1.5165	0.655282	0.78687	0.0312037	0.0318045	0.0329295	0.0344954	0.0320986	0.032482	-6.04415	-3.36524	-4.33374	-0.348891	-0.560588	0.189014	
364	1573229631.158676804	-1.1853	-2.05583	-1.66799	-1.51623	0.655546	0.787157	0.0318429	0.0316128	0.0313699	0.0333066	0.0328272	0.0325204	-5.23081	-3.78743	-4.60775	-0.354917	-0.67648	-0.572586	
365	1573229631.166668732	-1.18502	-2.05557	-1.66774	-1.51594	0.65581	0.787409	0.0322264	0.0329167	0.032367	0.0347255	0.0321944	0.0332299	-5.04648	-2.51617	-5.33377	-0.477816	-0.555078	-0.216684	
366	1573229631.174696280	-1.18475	-2.05527	-1.66745	-1.5157	0.656062	0.787661	0.032546	0.0324053	0.0341566	0.0336517	0.0322136	0.0322711	-3.89445	-1.54007	-4.64189	-0.242191	-1.01686	-0.410478	
367	1573229631.182678351	-1.1845	-2.05503	-1.66715	-1.51544	0.656278	0.787936	0.0332363	0.0335303	0.0325076	0.035876	0.032367	0.0312549	-3.04552	-2.64132	-5.25272	-0.017585	-0.588486	-0.450541	
368	1573229631.190675566	-1.18422	-2.05479	-1.66691	-1.51514	0.656554	0.788188	0.032661	0.0331596	0.0348853	0.0338243	0.032482	0.0315041	-2.59964	-3.03634	-4.82277	0.331149	-0.394991	-0.56033	
369	1573229631.198675762	-1.18395	-2.05453	-1.6666	-1.51485	0.65683	0.788439	0.033313	0.0334152	0.0326738	0.0342461	0.032808	0.0330573	-2.02176	-2.11383	-4.97037	0.167231	-0.188088	-0.64382	
370	1573229631.206722318	-1.18368	-2.05423	-1.66635	-1.5146	0.657081	0.788666	0.0331596	0.0329422	0.0342333	0.0329806	0.0328655	0.0309672	-2.67643	-1.52336	-4.57855	-0.137843	0.203408	-0.726187	
371	1573229631.214707973	-1.18344	-2.05399	-1.66611	-1.51436	0.657369	0.788906	0.0334919	0.0338243	0.0328144	0.0325396	0.0322136	0.0317726	-2.24211	-0.950452	-5.55274	0.207251	-0.0415026	-0.773313	
372	1573229631.222678801	-1.18311	-2.05372	-1.66582	-1.51411	0.657656	0.789205	0.0332363	0.0332363	0.032073	0.0330573	0.0319643	0.0331915	-3.14256	0.121875	-5.7896	-0.394067	0.396195	-0.712146	
373	1573229631.230682751	-1.18289	-2.05344	-1.66556	-1.51387	0.657873	0.789445	0.033134	0.0340799	0.0328016	0.0333066	0.0317918	0.0336134	-3.96425	0.0270278	-6.04812	-0.580296	0.0470361	-0.503041	
374	1573229631.238693857	-1.18262	-2.05321	-1.66533	-1.51359	0.658124	0.789697	0.0341694	0.0340288	0.0330701	0.0325971	0.0331915	0.0324629	-2.02324	0.712166	-6.44535	0.0225278	0.209029	-1.09618	
375	1573229631.246744579	-1.18235	-2.05293	-1.66505	-1.51328	0.658364	0.790008	0.0332235	0.0337604	0.0333513	0.0331532	0.031159	0.0336901	-1.01058	1.77541	-5.30968	-0.387161	0.146293	-0.991573	
376	1573229631.254696723	-1.18208	-2.05268	-1.66477	-1.51305	0.658592	0.790248	0.0336837	0.0341566	0.0330573	0.0330956	0.0321561	0.0320602	0.77251	1.85152	-5.98209	-0.747538	-0.214136	-0.682256	
377	1573229631.262678465	-1.1818	-2.05241	-1.66444	-1.51279	0.658856	0.790511	0.0340416	0.0343356	0.0342717	0.0330189	0.0324629	0.0337476	2.6903	1.4342	-5.46322	-0.301193	-0.196296	-0.136151	
378	1573229631.270724228	-1.18154	-2.05213	-1.6642	-1.51254	0.659155	0.790775	0.0334536	0.0347191	0.0321625	0.0320602	0.0325012	0.0322711	1.89181	1.73063	-5.53235	-0.504352	-0.461584	0.122779	
379	1573229631.278719081	-1.18125	-2.05186	-1.66395	-1.51225	0.659419	0.791063	0.0339138	0.0341183	0.0318429	0.0339202	0.0336517	0.0328655	2.77729	0.824877	-5.02909	-0.439836	-0.558386	0.245558	
380	1573229631.286694681	-1.181	-2.05158	-1.66369	-1.51198	0.659659	0.791314	0.0331979	0.0348214	0.0318045	0.0334408	0.0329998	0.0323095	-1.60386	0.226418	-4.66978	-0.467326	-0.77879	-0.128148	
381	1573229631.294739365	-1.18076	-2.05132	-1.66342	-1.5117	0.659887	0.791602	0.0330829	0.0342078	0.0321752	0.0336901	0.0324629	0.0329231	-1.9744	0.0762232	-5.21735	-0.661555	-1.1683	-0.319473	
382	1573229631.302679425	-1.18046	-2.05102	-1.66322	-1.51144	0.66021	0.791829	0.0334024	0.0347958	0.0319707	0.0338243	0.0316	0.0329998	-1.16013	0.638507	-4.37265	-0.709151	-1.70427	-0.283929	
383	1573229631.310705527	-1.18021	-2.05074	-1.66295	-1.51118	0.660426	0.792116	0.0327633	0.0344123	0.0331723	0.0341694	0.0332107	0.030833	-3.15754	1.2413	-3.65434	-0.52685	-1.05177	-0.0839205	
384	1573229631.318704352	-1.17992	-2.05047	-1.66271	-1.51093	0.660714	0.792368	0.032546	0.0352176	0.0316895	0.03346	0.0333449	0.0335558	-2.00806	2.37915	-4.02968	-0.989584	-1.29742	-0.371033	
385	1573229631.326741688	-1.17968	-2.05024	-1.66243	-1.51066	0.660978	0.792643	0.0324437	0.0336837	0.033722	0.0319068	0.0327121	0.0331915	-0.841155	3.6381	-3.29187	-0.886176	-1.1449	-0.72113	
386	1573229631.334714064	-1.17937	-2.04994	-1.66212	-1.51033	0.661217	0.792883	0.032661	0.0345529	0.0316128	0.0339393	0.0337859	0.0334216	-1.37721	3.25065	-3.61009	-0.0542294	-0.692666	-0.0962051	
387	1573229631.342714351	-1.17911	-2.0497	-1.66193	-1.51016	0.661482	0.79317	0.0323414	0.0331596	0.0331596	0.0327505	0.0337284	0.0322711	-1.70645	3.40975	-3.25283	-0.034188	-0.675023	-0.504752	
388	1573229631.350748068	-1.17886	-2.04941	-1.66166	-1.50982	0.661745	0.79341	0.0318045	0.0335686	0.031485	0.0320986	0.0343995	0.0328272	-1.24626	4.02175	-3.42657	0.184226	-0.208137	-0.421226	
389	1573229631.350748068	-1.17886	-2.04941	-1.66166	-1.50982	0.661745	0.79341	0.0318045	0.0335686	0.031485	0.0320986	0.0343995	0.0328272	-1.29507	3.87969	-3.62805	0.129696	-0.153759	-0.379927	
390	1573229631.359246035	-1.17859	-2.04915	-1.66136	-1.50955	0.662057	0.793674	0.0311909	0.0335558	0.0315105	0.0322711	0.0349939	0.0335175	0.578078	4.70044	-3.2916	-0.0424228	0.26485	-0.444791	
391	1573229631.374779806	-1.17809	-2.04865	-1.66088	-1.50905	0.662633	0.794213	0.0309225	0.0333641	0.0316895	0.0316767	0.0340736	0.0334791	-0.260684	4.07283	-4.71357	-0.40995	0.327224	-0.498349	
392	1573229631.374779806	-1.17809	-2.04865	-1.66088	-1.50905	0.662633	0.794213	0.0309225	0.0333641	0.0316895	0.0316767	0.0340736	0.0334791	-0.228559	4.04217	-4.69907	-0.392366	0.388743	-0.481711	
393	1573229631.382732153	-1.17786	-2.04835	-1.66062	-1.50877	0.662884	0.794476	0.0308586	0.0322775	0.032546	0.0330381	0.0339202	0.0340544	-0.605433	3.22224	-4.83829	-0.401314	0.453755	-0.472948	
394	1573229631.382732153	-1.17786	-2.04835	-1.66062	-1.50877	0.662884	0.794476	0.0308586	0.0322775	0.032546	0.0330381	0.0339202	0.0340544	-0.502298	2.86225	-4.93874	-0.410323	0.412747	-0.506146	
395	1573229631.406766682	-1.17707	-2.04758	-1.65978	-1.50796	0.6637	0.795314	0.032073	0.0319963	0.0344123	0.0317151	0.0326546	0.033575	-1.46617	-0.162155	-6.6828	-0.436391	0.0580017	-0.501165	
396	1573229631.414692036	-1.17684	-2.04735	-1.65954	-1.50772	0.664011	0.79559	0.0317151	0.0315489	0.0322903	0.0329614	0.0334024	0.034016	1.08146	0.728194	-6.21557	-0.106203	-0.0529197	-0.228184	
397	1573229631.422776518	-1.17657	-2.04707	-1.65928	-1.50744	0.664263	0.795829	0.032073	0.033134	0.0338754	0.0326546	0.0326738	0.0329998	1.17906	-1.13163	-6.60349	-0.0664178	-0.181541	-0.0114563	
398	1573229631.430691336	-1.17629	-2.04683	-1.65902	-1.50718	0.664503	0.796129	0.0316511	0.0318045	0.0326227	0.0321944	0.0329422	0.0338626	2.41166	0.558673	-6.22482	-0.107544	-0.366889	0.351091	
399	1573229631.438681449	-1.17605	-2.04659	-1.65869	-1.50693	0.664766	0.796429	0.0327121	0.0332107	0.0346552	0.0317151	0.0326546	0.0329998	2.85788	-3.11364	-6.43827	-0.211704	-0.253606	0.742202	
400	1573229631.446706735	-1.17578	-2.04632	-1.65845	-1.50663	0.665006	0.796644	0.0322519	0.0319963	0.0335686	0.031485	0.0329231	0.0334216	2.98511	-1.28132	-5.48506	-0.348044	-0.447083	0.715731	
401	1573229631.454729029	-1.17553	-2.04604	-1.65816	-1.50639	0.665294	0.796943	0.0324309	0.033249	0.0360102	0.0311782	0.0330573	0.0335367	2.81366	-2.08848	-4.87816	-0.526173	-0.381696	0.736585	
402	1573229631.462664146	-1.17532	-2.04576	-1.65789	-1.50612	0.66557	0.797183	0.0316384	0.0323159	0.0326866	0.0332107	0.0331915	0.032808	1.80139	-0.4477	-3.68239	-0.487744	-0.530046	0.779729	
403	1573229631.470695302	-1.17506	-2.04554	-1.65759	-1.50586	0.665869	0.797458	0.0320858	0.0327761	0.0354222	0.0315617	0.0342461	0.0329422	1.52786	-2.57123	-3.84837	-0.369089	-0.216336	0.612304	
404	1573229631.478723489	-1.17478	-2.04527	-1.65734	-1.5056	0.666109	0.797746	0.0319579	0.0319324	0.0336964	0.0327121	0.0331148	0.0330573	-0.306956	-1.79008	-3.61928	-0.532849	-0.297123	0.456841	
405	1573229631.486743242	-1.17451	-2.04499	-1.65707	-1.50532	0.666373	0.798009	0.0317534	0.0327888	0.0327121	0.0318301	0.033134	0.0333066	-3.02998	-3.34327	-4.15024	-0.475885	-0.105548	0.497905	
406	1573229631.494666796	-1.17423	-2.04474	-1.65681	-1.50507	0.666613	0.798285	0.0324437	0.0334024	0.0335175	0.0323095	0.0341119	0.0338435	-3.43701	-5.01467	-3.40085	-0.105498	0.228038	0.706784	
407	1573229631.502712815	-1.17397	-2.04447	-1.65651	-1.50482	0.666876	0.798524	0.0327249	0.0324309	0.0320602	0.0313699	0.0329422	0.0329231	-3.72568	-4.07378	-3.39271	-0.324013	0.194249	0.395684	
408	1573229631.510702503	-1.17373	-2.04422	-1.65628	-1.50456	0.667188	0.798776	0.0322519	0.0329806	0.0328016	0.0319643	0.033901	0.0334408	-4.8784	-3.74504	-3.76222	0.265829	0.953178	0.67225	
409	1573229631.518670482	-1.17348	-2.04393	-1.65602	-1.50428	0.667476	0.799052	0.0330701	0.0335558	0.031779	0.0319068	0.0348789	0.0325012	-3.59449	-2.15117	-4.33527	-0.235328	1.10954	0.468599	
410	1573229631.526691947	-1.17323	-2.04365	-1.65573	-1.50402	0.667764	0.799315	0.0335175	0.0323159	0.031894	0.0323095	0.0340352	0.0339393	-2.85046	-1.20641	-4.0758	-0.280354	1.05379	0.342368	
411	1573229631.534689839	-1.17296	-2.0434	-1.65548	-1.50375	0.668028	0.799567	0.0331468	0.0329806	0.0319196	0.0327121	0.0323095	0.0339777	-4.52607	-1.58462	-5.15479	-0.442544	0.97147	0.237619	
412	1573229631.542677341	-1.17268	-2.04314	-1.65525	-1.50349	0.66828	0.799878	0.034016	0.033607	0.0330062	0.0326546	0.0325587	0.0338626	-3.35359	-1.45594	-4.7492	-0.74553	1.20098	0.04853	
413	1573229631.550684768	-1.17241	-2.04285	-1.65494	-1.50323	0.668531	0.800105	0.0345913	0.0328016	0.0335814	0.0337476	0.0321752	0.0333449	-3.81426	-0.575736	-5.18732	-0.626488	1.00301	-0.240148	
414	1573229631.558723470	-1.17213	-2.0426	-1.65464	-1.50296	0.668819	0.800405	0.0350642	0.0338754	0.033249	0.032482	0.0312932	0.0341694	-3.45273	-2.11546	-5.56163	-0.876644	0.694267	-0.222672	
415	1573229631.566666168	-1.17185	-2.04231	-1.6544	-1.50267	0.669059	0.800632	0.0343612	0.0343228	0.0351282	0.03346	0.0323286	0.0339777	-3.03283	-2.22712	-5.00378	-0.482132	0.627984	0.154543	
416	1573229631.574702476	-1.17159	-2.04206	-1.65414	-1.50239	0.669323	0.80092	0.0354477	0.033543	0.0329039	0.0333257	0.0319835	0.0335942	-1.00524	-1.60113	-5.19446	-0.643932	0.0940781	0.181464	
417	1573229631.582687786	-1.17129	-2.0418	-1.65391	-1.50213	0.669598	0.801219	0.03555	0.0342973	0.0342845	0.0330765	0.0328272	0.0338435	-0.789913	-2.92673	-5.23527	-0.423673	0.0562333	0.72276	
418	1573229631.590725782	-1.17105	-2.04153	-1.65364	-1.50187	0.669886	0.801483	0.0361125	0.0342461	0.0346808	0.0334983	0.0331532	0.0346104	-1.85334	-2.99249	-5.35294	-0.549102	-0.164498	0.705783	
419	1573229631.598681720	-1.17075	-2.04123	-1.65334	-1.50159	0.670138	0.801735	0.0359207	0.0348214	0.0332235	0.0337092	0.0332299	0.0331915	-1.2415	-3.53668	-5.689	-0.69939	-0.555932	0.400429	
420	1573229631.606682924	-1.17043	-2.04096	-1.65306	-1.50134	0.670402	0.801998	0.0361253	0.0346041	0.0351793	0.0329806	0.0330765	0.0338435	-0.559449	-1.88342	-4.94889	-0.774881	-0.803573	0.551549	
421	1573229631.614676423	-1.17017	-2.04062	-1.65276	-1.50106	0.670689	0.802249	0.03679	0.0350003	0.0352816	0.0333833	0.0318685	0.0340927	-0.279964	-0.483429	-4.52122	-0.912777	-1.00968	0.393347	
422	1573229631.622672306	-1.16989	-2.04041	-1.6525	-1.50076	0.670953	0.802537	0.0367133	0.0351537	0.033901	0.0336134	0.0329998	0.0334408	-0.466331	0.906474	-3.85339	-0.958783	-0.851631	0.042356	
423	1573229631.630758023	-1.16955	-2.04011	-1.65221	-1.50049	0.671217	0.802824	0.0357545	0.0354733	0.0359207	0.0341694	0.0341119	0.0338818	1.40218	0.603631	-2.78566	-0.789224	-0.671869	-0.0558075	
424	1573229631.630758023	-1.16955	-2.04011	-1.65221	-1.50049	0.671217	0.802824	0.0357545	0.0354733	0.0359207	0.0341694	0.0341119	0.0338818	1.86939	0.864741	-2.66719	-0.965975	-0.804105	-0.127515	
425	1573229631.638789703	-1.1693	-2.0398	-1.65192	-1.50022	0.671469	0.8031	0.0361636	0.0345401	0.032367	0.0326354	0.032482	0.0345529	4.52397	1.95876	-2.83914	-1.28481	-1.40797	-0.107505	
426	1573229631.654826405	-1.16873	-2.03927	-1.6514	-1.49968	0.671972	0.803651	0.0348214	0.0354222	0.033722	0.03346	0.0337092	0.0329422	1.5425	0.0732497	-2.81797	-0.879386	-0.171583	0.0170247	
427	1573229631.654826405	-1.16873	-2.03927	-1.6514	-1.49968	0.671972	0.803651	0.0348214	0.0354222	0.033722	0.03346	0.0337092	0.0329422	2.11766	0.479179	-2.69112	-1.03626	-0.311512	-0.0277105	
428	1573229631.670839112	-1.16814	-2.03867	-1.65087	-1.49918	0.672584	0.804166	0.0354094	0.0348725	0.033543	0.0323095	0.0336517	0.0338243	0.793711	1.7998	-2.0713	-0.694653	0.0653073	-0.468192	
429	1573229631.678753371	-1.16814	-2.03867	-1.65087	-1.49918	0.672584	0.804166	0.0354094	0.0348725	0.033543	0.0323095	0.0336517	0.0338243	0.499059	1.60714	-2.10786	-0.656676	0.133185	-0.437469	
430	1573229631.678753371	-1.16814	-2.03867	-1.65087	-1.49918	0.672584	0.804166	0.0354094	0.0348725	0.033543	0.0323095	0.0336517	0.0338243	0.499059	1.60714	-2.10786	-0.656676	0.133185	-0.437469	
431	1573229631.694793114	-1.16731	-2.03782	-1.65009	-1.49834	0.673387	0.804981	0.0345657	0.0345018	0.0327377	0.0339777	0.0327697	0.0333833	-1.80039	2.3216	-2.82748	-1.39551	0.237078	-0.696184	
432	1573229631.694793114	-1.16731	-2.03782	-1.65009	-1.49834	0.673387	0.804981	0.0345657	0.0345018	0.0327377	0.0339777	0.0327697	0.0333833	-1.56455	2.00398	-3.03838	-1.38596	0.253159	-0.696578	
433	1573229631.710759962	-1.1668	-2.03726	-1.64959	-1.49778	0.673974	0.80552	0.033134	0.0308969	0.0284553	0.0327505	0.0321177	0.0352432	1.43992	7.34087	-1.90137	-0.63137	-0.596562	-0.800337	
434	1573229631.718684907	-1.16651	-2.03696	-1.64931	-1.49752	0.674166	0.805807	0.0334663	0.0333513	0.0361892	0.0348214	0.0316959	0.0336901	-0.56324	-0.901796	-3.5765	-0.277917	0.242302	-0.334298	
435	1573229631.726658425	-1.1662	-2.03671	-1.64901	-1.49722	0.674454	0.806095	0.0332618	0.0335814	0.033901	0.0337092	0.0330765	0.0335367	2.59534	4.71199	-2.40406	-0.902868	-0.33875	-0.00675974	
436	1573229631.734713231	-1.16597	-2.03643	-1.64876	-1.49698	0.674766	0.806334	0.034195	0.0331851	0.0345401	0.0336325	0.0334983	0.0334983	2.37779	2.43582	-3.79234	-1.19097	-0.824568	0.39083	
437	1573229631.742667063	-1.16568	-2.03618	-1.64847	-1.4967	0.675005	0.806645	0.0338371	0.0332874	0.0344123	0.0325587	0.0334408	0.034016	3.65924	1.33552	-3.85384	-0.893387	-0.862327	0.646447	
438	1573229631.750724457	-1.16543	-2.03589	-1.64823	-1.49642	0.675282	0.806873	0.0322903	0.0330445	0.0354477	0.0338626	0.0327121	0.0341311	2.59297	0.138368	-3.08913	-1.15498	-0.605385	0.454394	
439	1573229631.758674157	-1.16517	-2.03563	-1.64791	-1.49617	0.675521	0.807196	0.0333641	0.0328911	0.0363042	0.0348214	0.032808	0.0336901	1.3111	-0.094324	-3.30466	-1.11425	-0.926003	0.397053	
440	1573229631.766706895	-1.16492	-2.03534	-1.64762	-1.49592	0.675833	0.807472	0.0319452	0.0321497	0.03555	0.0342845	0.033575	0.0329614	0.662918	0.414721	-3.37977	-1.18768	-1.10016	0.207522	
441	1573229631.774692677	-1.16465	-2.0351	-1.64735	-1.49564	0.676073	0.8077	0.0329295	0.0323159	0.0348469	0.0353966	0.032367	0.0334791	0.553186	-0.76997	-3.73367	-1.37484	-1.41014	0.153031	
442	1573229631.782675660	-1.16438	-2.03486	-1.64707	-1.49535	0.67636	0.807987	0.0329934	0.0328144	0.0355372	0.0357993	0.0341694	0.033249	-0.203032	-0.388063	-3.85641	-1.16098	-1.12865	-0.0206971	
443	1573229631.790665150	-1.16412	-2.03459	-1.64681	-1.49507	0.676624	0.808203	0.0323542	0.0322136	0.0352432	0.0342269	0.0329039	0.0338051	-0.297934	1.00677	-3.20234	-0.996174	-1.26097	0.0437028	
444	1573229631.798687209	-1.16385	-2.03429	-1.64651	-1.49478	0.6769	0.808478	0.0330062	0.0328783	0.0363553	0.0348405	0.0342653	0.0351665	0.891064	0.125537	-3.38526	-0.697447	-0.884949	0.0563769	
445	1573229631.806661632	-1.1636	-2.03404	-1.64623	-1.49449	0.677104	0.808766	0.032955	0.033313	0.0345018	0.0346296	0.0338626	0.0348405	1.85971	-0.171337	-3.04938	-0.441674	-0.908147	0.0322849	
446	1573229631.814657525	-1.16333	-2.03375	-1.64594	-1.49423	0.677452	0.809077	0.0334536	0.0323926	0.0357162	0.0343036	0.034668	0.0355117	2.27475	-0.479868	-2.68011	-0.275224	-0.279438	0.215462	
447	1573229631.822659125	-1.16306	-2.03351	-1.64567	-1.49397	0.677691	0.80934	0.0327633	0.0327249	0.033901	0.0342653	0.0348214	0.0353583	2.31822	0.529527	-3.05535	-0.10498	0.0995543	0.0340836	
448	1573229631.830689668	-1.1628	-2.03325	-1.64537	-1.49369	0.677991	0.809592	0.0332618	0.0330701	0.0352432	0.0339393	0.0365279	0.0347063	1.95248	0.580511	-3.23257	0.0908364	0.527229	0.0495786	
449	1573229631.838693249	-1.16254	-2.03297	-1.64513	-1.4934	0.678255	0.809879	0.0332107	0.0321752	0.0327633	0.0342078	0.0353391	0.0351665	0.427621	0.635868	-2.87291	-0.300186	0.551734	-0.149038	
450	1573229631.846703965	-1.16228	-2.03271	-1.64482	-1.49316	0.678531	0.810179	0.0330573	0.0329422	0.0341055	0.0350323	0.035224	0.0350323	-2.16377	-1.82069	-3.45501	-0.506301	0.73253	-0.136888	
451	1573229631.854679090	-1.16201	-2.03245	-1.64459	-1.49291	0.678818	0.810478	0.0325076	0.0333257	0.0337859	0.0341311	0.0356459	0.0343803	-4.6061	-2.83458	-3.77611	-0.269976	0.553912	-0.396343	
452	1573229631.862711932	-1.16174	-2.03217	-1.64434	-1.49261	0.679082	0.810766	0.0334919	0.0323159	0.0321497	0.0346296	0.0354733	0.0347447	-5.04263	-3.14231	-3.84967	-0.270725	0.614087	-0.252742	
453	1573229631.870724086	-1.16146	-2.03193	-1.64408	-1.49236	0.679406	0.811041	0.0342078	0.0333641	0.0330829	0.0355692	0.0356459	0.0343803	-4.10005	-4.07895	-4.2976	-0.0394769	0.534622	0.19666	
454	1573229631.878658311	-1.16117	-2.03169	-1.64378	-1.49207	0.679622	0.811305	0.0340927	0.0338115	0.034016	0.0351665	0.0357801	0.0345146	-4.07656	-4.20662	-4.64104	-0.0715859	0.196479	0.382373	
455	1573229631.886684914	-1.16094	-2.03137	-1.64357	-1.49179	0.679909	0.811568	0.0345913	0.0334408	0.0342461	0.0349939	0.0350898	0.0342269	-3.47789	-2.86304	-4.56296	-0.143945	-0.117881	0.731896	
456	1573229631.894696573	-1.16066	-2.03111	-1.64326	-1.49152	0.680161	0.811856	0.0344379	0.033901	0.034016	0.0347063	0.0345721	0.0350515	-4.59786	-3.3997	-4.53997	-0.0782757	-0.14097	1.0887	
457	1573229631.902672138	-1.1604	-2.03084	-1.64301	-1.49126	0.680437	0.812167	0.034016	0.0332363	0.0348725	0.0348214	0.0357801	0.0344187	-4.07619	-4.34517	-3.94387	0.0510228	-0.2361	0.940382	
458	1573229631.910722214	-1.16009	-2.03055	-1.64274	-1.49098	0.680737	0.812407	0.0351282	0.0332235	0.0350898	0.0353199	0.0362403	0.0356842	-2.76133	-3.58871	-4.51776	-0.0469698	-0.173979	0.965628	
459	1573229631.918807226	-1.15983	-2.03029	-1.64242	-1.4907	0.681024	0.812646	0.0355756	0.0346296	0.0351026	0.0358185	0.0368347	0.0342845	-2.47433	-3.01502	-4.22309	-0.0788352	-0.354005	0.926066	
460	1573229631.926730928	-1.15953	-2.03004	-1.64212	-1.49038	0.681288	0.812946	0.0362275	0.0347702	0.0356267	0.0368155	0.0363937	0.0333066	-1.51605	-1.95494	-3.88985	0.054299	-0.222632	0.845285	
461	1573229631.934666495	-1.15924	-2.02971	-1.64183	-1.4901	0.681576	0.813233	0.0358952	0.0353199	0.0350259	0.0359527	0.035876	0.0342461	-1.33282	-2.04914	-3.33603	0.133278	-0.04981	0.653695	
462	1573229631.942676049	-1.15898	-2.02944	-1.64157	-1.48987	0.681816	0.813485	0.0362659	0.0340927	0.0350515	0.0357418	0.0356267	0.0340927	-0.709783	-1.1684	-3.87105	0.0439777	-0.241534	0.753394	
463	1573229631.950745913	-1.15867	-2.02917	-1.64131	-1.48957	0.68208	0.813772	0.0364832	0.0351793	0.0341566	0.0360677	0.0370648	0.0339202	-0.932277	-2.15922	-4.10808	0.388966	0.164836	0.801984	
464	1573229631.950745913	-1.15867	-2.02917	-1.64131	-1.48957	0.68208	0.813772	0.0364832	0.0351793	0.0341566	0.0360677	0.0370648	0.0339202	-0.970642	-1.88818	-4.09609	0.348324	0.0901655	0.789818	
465	1573229631.950745913	-1.15867	-2.02917	-1.64131	-1.48957	0.68208	0.813772	0.0364832	0.0351793	0.0341566	0.0360677	0.0370648	0.0339202	-0.970642	-1.88818	-4.09609	0.348324	0.0901655	0.789818	
466	1573229631.966731463	-1.15807	-2.02862	-1.64078	-1.489	0.682655	0.814347	0.0361892	0.0351537	0.0332874	0.035876	0.0360102	0.0342653	-0.556081	-1.66232	-5.14969	0.771241	0.746168	0.793724	
467	1573229631.982726325	-1.15745	-2.02807	-1.64022	-1.48847	0.683254	0.814838	0.0356778	0.0358952	0.0339265	0.0343228	0.0367772	0.0330381	1.81641	1.49328	-4.65229	0.607137	1.40517	0.351138	
468	1573229631.982726325	-1.15745	-2.02807	-1.64022	-1.48847	0.683254	0.814838	0.0356778	0.0358952	0.0339265	0.0343228	0.0367772	0.0330381	1.93551	1.86063	-4.49389	0.537454	1.3997	0.374956	
469	1573229631.998804758	-1.15693	-2.0275	-1.63964	-1.48792	0.683806	0.815401	0.0353071	0.0357162	0.0337092	0.0348597	0.0357226	0.0349939	2.17004	2.42264	-4.63389	0.15947	1.06166	0.281431	
470	1573229631.998804758	-1.15693	-2.0275	-1.63964	-1.48792	0.683806	0.815401	0.0353071	0.0357162	0.0337092	0.0348597	0.0357226	0.0349939	2.26644	2.26792	-4.73763	0.136676	1.09862	0.250995	
471	1573229632.014746840	-1.15631	-2.02693	-1.63913	-1.4874	0.684394	0.815952	0.0358057	0.0361253	0.0345657	0.034668	0.0348022	0.0345337	3.23197	1.53211	-3.96462	0.0774575	0.712194	0.196388	
472	1573229632.014746840	-1.15631	-2.02693	-1.63913	-1.4874	0.684394	0.815952	0.0358057	0.0361253	0.0345657	0.034668	0.0348022	0.0345337	3.23213	1.89657	-3.72022	0.13816	0.69929	0.172105	
473	1573229632.022745114	-1.15606	-2.02661	-1.63885	-1.4871	0.684693	0.816216	0.0348853	0.036432	0.0336709	0.0359143	0.0349939	0.0345146	0.92043	2.30277	-3.88174	0.395289	0.500083	0.285673	
474	1573229632.030756254	-1.15576	-2.02634	-1.63858	-1.48679	0.684933	0.816539	0.0351793	0.0354605	0.0331851	0.0357801	0.035224	0.0346104	0.76946	1.56688	-3.97171	0.320607	0.160682	0.493747	
475	1573229632.046692938	-1.15525	-2.02577	-1.638	-1.48632	0.685497	0.817043	0.0347191	0.0356778	0.0344123	0.0354733	0.0343228	0.0353583	-1.78488	-0.00830685	-3.92956	0.285536	-0.19479	0.931485	
476	1573229632.054725618	-1.15496	-2.02547	-1.63776	-1.48602	0.68576	0.817318	0.0344251	0.036611	0.0347063	0.0355308	0.0361444	0.0341502	-0.497856	0.551059	-3.29451	0.0473652	-0.302972	0.7226	
477	1573229632.062706097	-1.15463	-2.02525	-1.63746	-1.48575	0.68606	0.817629	0.034668	0.0356778	0.0346808	0.0357609	0.0353583	0.0345721	0.725586	2.60426	-3.0753	-0.0532751	-0.783641	0.776735	
478	1573229632.070647825	-1.15438	-2.02497	-1.6372	-1.48544	0.6863	0.817929	0.0340288	0.0359079	0.033901	0.0366046	0.035224	0.034783	-0.647262	4.11151	-2.33973	0.0196302	-0.85888	0.538532	
479	1573229632.078669688	-1.15412	-2.02465	-1.63695	-1.48516	0.686576	0.818192	0.0341439	0.0354733	0.0345913	0.0370073	0.0348214	0.0351282	0.295871	4.56569	-2.60534	0.262463	-0.723828	0.0387329	
480	1573229632.086664135	-1.15383	-2.02436	-1.63667	-1.48486	0.686876	0.818444	0.0333897	0.0363809	0.0337604	0.0361444	0.0341694	0.0345146	1.55018	4.87562	-2.7498	-0.235926	-0.707897	0.114601	
481	1573229632.094714194	-1.15357	-2.02408	-1.63637	-1.48461	0.687163	0.818755	0.0342717	0.0350898	0.0351026	0.0360102	0.0357801	0.0336709	0.483931	5.48535	-2.98623	0.0663161	-0.46767	-0.155046	
482	1573229632.102663529	-1.15327	-2.02378	-1.63607	-1.48437	0.687427	0.819007	0.0336709	0.0348214	0.0345401	0.0359527	0.0349556	0.0339202	1.26831	4.54539	-3.19028	0.130981	-0.486317	-0.29059	
483	1573229632.110670657	-1.15302	-2.02356	-1.6358	-1.48406	0.68769	0.819306	0.0337987	0.0353071	0.0357418	0.0365854	0.0349364	0.0347447	2.40431	3.10905	-3.63624	0.605247	-0.20488	0.240477	
484	1573229632.118679137	-1.15275	-2.02327	-1.63556	-1.48378	0.687966	0.81957	0.0337731	0.0353455	0.0360358	0.0363553	0.0351665	0.0352624	1.60224	4.30324	-3.94086	0.332339	0.336901	-0.333751	
485	1573229632.126672186	-1.15248	-2.02301	-1.63526	-1.48348	0.68829	0.819881	0.0327633	0.0341311	0.0362019	0.0367772	0.0354733	0.0339777	1.0015	4.58397	-3.69778	0.672908	0.477676	-0.441207	
486	1573229632.134671062	-1.1522	-2.02267	-1.63495	-1.48319	0.688554	0.820121	0.0331212	0.0347191	0.0352049	0.036432	0.0351665	0.0352624	0.525109	3.41223	-4.82497	-0.117466	0.538927	-0.468873	
487	1573229632.142666338	-1.15194	-2.02243	-1.63462	-1.48289	0.688842	0.82042	0.0337604	0.0347958	0.0363809	0.0362595	0.0357226	0.0341694	0.368684	2.41798	-4.79083	-0.364003	0.496658	-0.333423	
488	1573229632.150667366	-1.15169	-2.02218	-1.63433	-1.48262	0.689069	0.820671	0.0337092	0.0352432	0.0361508	0.0365279	0.0352816	0.034016	-0.212233	3.00353	-5.32941	0.0293614	0.0329791	-0.748657	
489	1573229632.158695435	-1.15142	-2.0219	-1.63406	-1.48231	0.689417	0.820995	0.0337731	0.0349236	0.0366238	0.0352049	0.0355884	0.0348022	0.494134	4.05671	-4.99939	0.240907	0.339307	-0.569459	
490	1573229632.166649620	-1.15112	-2.02163	-1.63375	-1.48207	0.689633	0.82127	0.0335558	0.0347191	0.0369562	0.0350898	0.0349556	0.0357993	0.664817	2.33943	-4.36315	0.368589	-0.221006	-0.175255	
491	1573229632.174648602	-1.15085	-2.02135	-1.6334	-1.48178	0.689945	0.821534	0.0343228	0.035077	0.0373908	0.0354925	0.0356842	0.035876	2.80593	1.8188	-4.27892	-0.0846617	-0.207339	-0.257644	
492	1573229632.182669275	-1.15061	-2.02111	-1.63317	-1.4815	0.690232	0.821857	0.034489	0.0353071	0.0365215	0.0345721	0.0357993	0.0356651	3.16157	1.3045	-4.10515	-0.172641	-0.566769	0.00156041	
493	1573229632.190666845	-1.15032	-2.02079	-1.6329	-1.48123	0.69046	0.822121	0.0342717	0.0352049	0.0364065	0.0366238	0.0354158	0.0357418	1.50811	-0.0565432	-3.85918	0.139107	-0.652093	0.394982	
494	1573229632.198661008	-1.15002	-2.02054	-1.63261	-1.48089	0.69076	0.822456	0.0342333	0.0354477	0.0335303	0.0366238	0.0361061	0.0349748	1.25606	-1.74839	-3.81588	-0.180258	-0.804427	0.734637	
495	1573229632.206727391	-1.14977	-2.02026	-1.63231	-1.48059	0.691024	0.822732	0.0343612	0.0356906	0.0360613	0.0366813	0.0359335	0.0342269	-0.850943	-3.71817	-4.06806	0.0734011	-1.28007	-0.0315903	
496	1573229632.214655027	-1.14951	-2.02	-1.63203	-1.4803	0.691347	0.822995	0.0347319	0.035435	0.0342589	0.0369498	0.035991	0.0357609	-1.98025	-2.18634	-3.78508	-0.546542	-1.45949	0.586501	
497	1573229632.222678797	-1.1492	-2.01972	-1.63178	-1.47999	0.691623	0.823271	0.0345401	0.0359974	0.0342845	0.0368347	0.0357034	0.0357226	-3.15132	-3.17955	-4.31661	-0.432387	-1.3768	0.283513	
498	1573229632.230956351	-1.14894	-2.01944	-1.63146	-1.47973	0.691911	0.823534	0.0349492	0.0358185	0.0352176	0.0355692	0.03555	0.0351857	-3.55502	-3.28455	-4.44089	-0.0271025	-1.18115	0.0721327	
499	1573229632.238643075	-1.14866	-2.01915	-1.63122	-1.47944	0.69221	0.823833	0.0350131	0.0361636	0.0337987	0.0362978	0.0353007	0.0347063	-3.6753	-2.02352	-3.5608	-0.0661847	-0.778382	-0.337199	
500	1573229632.246653762	-1.14839	-2.01889	-1.63092	-1.47915	0.692486	0.824097	0.0354094	0.0361253	0.0353966	0.0357801	0.0364704	0.0354733	-4.05318	-1.75958	-4.25165	0.339812	-0.479832	-0.0777666	
501	1573229632.254651750	-1.14812	-2.01859	-1.6306	-1.47885	0.692798	0.824397	0.0358185	0.0360102	0.0342589	0.0347063	0.0361636	0.0359719	-3.29143	-1.93815	-3.93961	0.0227563	-0.210817	-0.110177	
502	1573229632.262657649	-1.1478	-2.01828	-1.63037	-1.47856	0.69311	0.824696	0.0368922	0.0362275	0.0353838	0.0353966	0.0364704	0.0356842	-2.9276	-1.66005	-4.82836	0.460562	0.311446	0.0906276	
503	1573229632.270672425	-1.1475	-2.018	-1.63007	-1.47825	0.693374	0.824972	0.0366238	0.0374291	0.0354222	0.0348214	0.0369114	0.0367005	-1.48367	-0.540967	-4.66124	0.237699	0.583674	-0.184057	
504	1573229632.278735205	-1.14717	-2.0177	-1.62976	-1.47798	0.693709	0.825283	0.0371351	0.0367388	0.035256	0.0348405	0.0359143	0.0367964	-1.9412	-0.178356	-4.80034	-0.155865	0.46891	-0.232447	
505	1573229632.286654550	-1.14687	-2.0174	-1.62947	-1.47771	0.693973	0.825606	0.0369562	0.0367644	0.0362786	0.0358952	0.0361636	0.037084	-1.91509	-1.21895	-5.12083	-0.199569	0.612587	-0.289527	
506	1573229632.294700108	-1.1466	-2.0171	-1.62922	-1.47743	0.694248	0.825858	0.0373652	0.0370712	0.0356395	0.0356842	0.036758	0.0360869	-2.64039	-1.5111	-5.58631	0.239231	0.486733	-0.552614	
507	1573229632.302643530	-1.14631	-2.01683	-1.62891	-1.47711	0.69456	0.826193	0.0374036	0.0366366	0.0360486	0.0354158	0.0352816	0.0365471	-2.91691	-1.01892	-6.19024	0.0806749	0.162077	-0.448169	
508	1573229632.310678945	-1.14599	-2.01652	-1.62866	-1.47683	0.694824	0.826456	0.0370073	0.0369562	0.0359846	0.036643	0.0355692	0.0362211	-2.65114	-0.841061	-6.09108	0.482914	0.0429134	-0.343122	
509	1573229632.318672085	-1.1457	-2.01623	-1.62836	-1.47649	0.69516	0.826756	0.038145	0.0373524	0.0369434	0.036317	0.0357034	0.0371607	-0.965529	-0.402254	-6.41961	0.682437	-0.111078	0.0612495	
510	1573229632.326646039	-1.1454	-2.0159	-1.62803	-1.47621	0.6954	0.827056	0.0387586	0.0382089	0.0362147	0.0359719	0.0356075	0.036432	-0.826601	0.123779	-6.06559	0.574066	-0.468126	0.414154	
511	1573229632.334649232	-1.14509	-2.01566	-1.62781	-1.47589	0.695687	0.827343	0.0380811	0.0374419	0.0370584	0.0351665	0.0359527	0.0371607	-0.346809	-0.359255	-5.36547	0.579485	-0.570208	0.619465	
512	1573229632.342662283	-1.14481	-2.01534	-1.62749	-1.47563	0.696023	0.827643	0.0383623	0.0373652	0.036317	0.0345721	0.0360869	0.0368347	1.16459	-1.20613	-5.44403	0.264306	-0.632614	0.670245	
513	1573229632.350657001	-1.14448	-2.01507	-1.62717	-1.47531	0.696299	0.827954	0.0380299	0.037493	0.03679	0.0338243	0.0365854	0.0364129	1.86028	-0.174761	-4.8679	0.372881	-0.633643	0.643802	
514	1573229632.358659022	-1.14417	-2.01475	-1.62689	-1.47503	0.696515	0.82823	0.038145	0.0385796	0.0379149	0.0355692	0.0367388	0.0368922	1.1657	0.317661	-4.34238	0.404394	-0.6015	0.994739	
515	1573229632.366665434	-1.1439	-2.01446	-1.62658	-1.47474	0.696862	0.828505	0.0380683	0.0381322	0.0366877	0.035109	0.0368539	0.0356267	0.319466	1.90874	-3.64112	0.231064	-0.438158	0.503501	
516	1573229632.374679017	-1.14354	-2.0141	-1.62626	-1.47442	0.697126	0.828781	0.037557	0.0377871	0.0364448	0.0349172	0.0363745	0.0356075	-0.252701	1.29183	-3.16841	0.480845	-0.54363	0.424567	
517	1573229632.382676837	-1.14324	-2.01382	-1.62596	-1.47415	0.697426	0.82908	0.0374419	0.0382728	0.0380683	0.0345337	0.0375058	0.0364129	-3.28668	0.292153	-2.72678	0.234618	-0.290128	0.553354	
518	1573229632.390674764	-1.14295	-2.01352	-1.6257	-1.4739	0.697761	0.82938	0.0386819	0.0382345	0.0357162	0.0343803	0.036758	0.0365087	-2.59875	-0.34794	-2.67728	0.237136	-0.0901186	0.498134	
519	1573229632.398670854	-1.14267	-2.0132	-1.62537	-1.47358	0.698037	0.829631	0.0372757	0.0375697	0.0356523	0.0342653	0.0376209	0.0369306	-2.60774	2.40569	-2.66192	0.587019	0.379929	0.579289	
520	1573229632.406695291	-1.14236	-2.01291	-1.62511	-1.4733	0.698349	0.829918	0.0371351	0.0384518	0.0352688	0.0337476	0.0376592	0.0369114	-2.754	3.29029	-3.21167	0.711123	0.598473	0.629811	
521	1573229632.414670988	-1.14208	-2.01256	-1.62482	-1.47299	0.698673	0.830242	0.0366749	0.0379405	0.0352176	0.0340352	0.0373524	0.0368347	-2.41003	6.21418	-3.05385	0.627787	0.847525	0.746535	
522	1573229632.422726073	-1.14178	-2.01226	-1.62453	-1.47276	0.698985	0.830553	0.0371607	0.0374036	0.0344251	0.0336134	0.0365663	0.0374867	-1.93382	5.97003	-3.29675	0.185499	0.786346	0.5223	
523	1573229632.430753471	-1.14152	-2.01198	-1.62425	-1.47241	0.699296	0.830853	0.0369178	0.0373652	0.0353199	0.0347447	0.0363745	0.0372757	-1.65562	4.73015	-3.46666	0.262723	0.739592	0.288148	
524	1573229632.438702076	-1.14121	-2.01169	-1.62397	-1.47218	0.699548	0.83114	0.0371096	0.0370073	0.0368795	0.0346488	0.0365471	0.0372374	-0.81156	3.43609	-3.55479	0.0704637	0.672307	-0.0386923	
525	1573229632.446708589	-1.14093	-2.0114	-1.62371	-1.47186	0.69986	0.831452	0.0367388	0.0364448	0.0371607	0.0350898	0.0352624	0.0381386	-0.463248	2.17211	-4.26516	-0.0493311	0.154187	-0.0477721	
526	1573229632.454663893	-1.14061	-2.01111	-1.62335	-1.47159	0.700148	0.831787	0.0366621	0.0365087	0.0384774	0.0350898	0.0354733	0.038292	1.00611	0.946358	-4.56434	-0.040007	-0.11682	0.384092	
527	1573229632.462707759	-1.14035	-2.01081	-1.62305	-1.4713	0.700423	0.832062	0.0363042	0.0362914	0.0383623	0.0363745	0.0362978	0.0380044	0.867578	0.554411	-4.32748	0.0589979	-0.278233	0.697451	
528	1573229632.462707759	-1.14035	-2.01081	-1.62305	-1.4713	0.700423	0.832062	0.0363042	0.0362914	0.0383623	0.0363745	0.0362978	0.0380044	0.999028	0.381787	-4.44919	0.0152219	-0.34247	0.681942	
529	1573229632.478708314	-1.13977	-2.01022	-1.62247	-1.47072	0.700951	0.832661	0.035844	0.0356778	0.0394872	0.0353199	0.0371032	0.0371415	-2.41679	-2.81272	-4.126	0.0250481	-0.814104	1.08596	
530	1573229632.486669977	-1.13949	-2.0099	-1.62213	-1.47043	0.701287	0.832961	0.0364576	0.0356395	0.0392316	0.0360486	0.0371799	0.0363745	-2.90669	-2.63576	-4.04009	-0.145485	-1.12184	0.80802	
531	1573229632.494689530	-1.13921	-2.00966	-1.62183	-1.47015	0.701538	0.833248	0.0367644	0.0354605	0.0402286	0.037084	0.0362786	0.0367772	-1.46922	-1.20706	-3.74159	-0.133092	-1.41033	0.679976	
532	1573229632.502705626	-1.1389	-2.00939	-1.62151	-1.46983	0.701874	0.833572	0.0365087	0.0366877	0.038439	0.037084	0.0365471	0.0379852	-1.08699	-1.40014	-3.45512	-0.287328	-1.54716	0.427866	
533	1573229632.510686376	-1.1386	-2.00904	-1.6212	-1.46952	0.702162	0.833847	0.037672	0.0362914	0.038912	0.0373524	0.0371032	0.0368155	1.05935	-0.709111	-2.74817	-0.30173	-1.10095	0.210151	
534	1573229632.518681530	-1.13828	-2.00878	-1.62089	-1.46922	0.702473	0.834159	0.036611	0.0365343	0.0382984	0.0371607	0.0369114	0.0360869	1.29269	-1.62899	-2.8445	-0.240219	-1.32713	-0.0232131	
535	1573229632.526716586	-1.138	-2.0085	-1.62057	-1.46892	0.702749	0.83441	0.0363681	0.0360741	0.0376848	0.0371607	0.0369114	0.0364704	1.38301	-2.6791	-2.48159	-0.324633	-1.49792	0.00952424	
536	1573229632.534742686	-1.13771	-2.00816	-1.6203	-1.4686	0.703097	0.83471	0.0367516	0.0355628	0.0364576	0.0376209	0.0376209	0.0369881	0.82216	-3.40476	-2.54137	-0.2773	-1.06882	-0.0417309	
537	1573229632.542682282	-1.13739	-2.00788	-1.62002	-1.46834	0.703385	0.835033	0.0360102	0.0372757	0.0376976	0.036758	0.0377743	0.0374867	-1.19328	-4.73554	-3.03307	0.277603	-0.747466	0.0157984	
538	1573229632.550691216	-1.13716	-2.00759	-1.61974	-1.46804	0.703696	0.835308	0.0363042	0.0360741	0.0354477	0.0366813	0.0380427	0.0368922	-2.30241	-3.4329	-3.29502	-0.0873292	-0.473826	-0.115196	
539	1573229632.558668217	-1.13684	-2.00728	-1.61944	-1.46772	0.704008	0.835584	0.0358824	0.0352816	0.0362531	0.0362211	0.0372949	0.0357993	-3.93275	-4.36489	-3.17892	0.216801	-0.539375	-0.282849	
540	1573229632.566679889	-1.13655	-2.00699	-1.61914	-1.46744	0.704296	0.835907	0.0366877	0.0371607	0.0362914	0.0362786	0.0370456	0.0386371	-5.6344	-5.58086	-3.65636	-0.410399	-0.17006	-0.121793	
541	1573229632.574673841	-1.13625	-2.00672	-1.61887	-1.46714	0.704608	0.836219	0.0372757	0.0360741	0.0376209	0.0368347	0.0380427	0.0380811	-7.68698	-4.06454	-3.43461	-0.264545	-0.606117	-0.519811	
542	1573229632.582672381	-1.13598	-2.00642	-1.61859	-1.46684	0.704931	0.83653	0.037672	0.0364704	0.0370968	0.0381194	0.0370456	0.0372757	-7.96351	-4.37748	-4.06772	-0.368219	-0.714982	-0.795234	
543	1573229632.590725662	-1.13569	-2.00612	-1.61827	-1.46655	0.705219	0.836854	0.0379532	0.0367644	0.0376081	0.0368539	0.0369114	0.0380427	-6.49854	-4.07557	-3.66238	-0.311628	-1.30666	-0.348958	
544	1573229632.598684127	-1.13539	-2.00583	-1.61797	-1.46622	0.705519	0.83713	0.03826	0.0366877	0.0389375	0.0359527	0.0377935	0.0377551	-4.9097	-3.6717	-4.16789	-0.672043	-0.938116	-0.0388068	
545	1573229632.606706851	-1.13507	-2.00551	-1.61763	-1.46592	0.70583	0.837429	0.0391421	0.0373141	0.0385541	0.0376592	0.0377359	0.037525	-3.70946	-4.23054	-4.16749	-0.485298	-0.938181	0.39182	
546	1573229632.614684220	-1.13478	-2.00519	-1.61736	-1.46565	0.706118	0.83774	0.0393594	0.0378126	0.0384134	0.0375634	0.0378702	0.0376976	-2.77237	-6.05915	-4.46138	-0.554907	-1.28667	0.738465	
547	1573229632.622713654	-1.13444	-2.00485	-1.61705	-1.46535	0.706442	0.83804	0.0404971	0.0374291	0.0403693	0.0375442	0.0374291	0.0379085	-2.88315	-6.40513	-4.48631	-0.880841	-1.41737	0.4147	
548	1573229632.630776135	-1.1341	-2.00457	-1.61673	-1.46507	0.706754	0.838339	0.0401008	0.0383367	0.0374803	0.0382536	0.0381578	0.0374867	-4.01265	-5.31648	-4.17965	-0.687293	-1.77173	0.198728	
549	1573229632.638693143	-1.13379	-2.00426	-1.61643	-1.46476	0.707029	0.838662	0.0404332	0.0382089	0.0393083	0.0398835	0.0371032	0.0380811	-4.89856	-4.33928	-4.45281	-0.49746	-1.80276	0.435089	
550	1573229632.646698917	-1.13344	-2.00396	-1.61612	-1.46441	0.707365	0.83895	0.0407783	0.0390015	0.0392955	0.0385988	0.0384646	0.0371223	-3.52654	-3.00059	-4.03668	-0.688565	-1.39621	0.211255	
551	1573229632.654693668	-1.13316	-2.00363	-1.61581	-1.46416	0.707653	0.839273	0.0399985	0.0394872	0.0386052	0.0401136	0.0376976	0.0388289	-3.38567	-1.32695	-4.5942	-0.246188	-1.5402	0.0892969	
