terrinbabu/Matlab/log_filtering/UR10_35_KF/rjt_3kg_lift_drop.txt
seq	time	q0	q1	q2	q3	q4	q5	Dq0	Dq1	Dq2	Dq3	Dq4	Dq5	eff0	eff1	eff2	eff3	eff4	eff5	
38	1580482312.360752229	0.0023931	-0.895089	2.13238	-2.79041	-1.56952	-2.62332	0	0	-0	0	0	0	-3.47154	22.138	8.75959	8.58701	-0.582743	0.304816	
39	1580482312.368744982	0.00240508	-0.895078	2.13238	-2.79041	-1.56955	-2.62327	0	0	-0	0	0	0	-4.28838	22.7448	8.53545	8.3488	-0.63224	0.176171	
40	1580482312.376709651	0.00240508	-0.895089	2.13235	-2.79043	-1.56956	-2.6233	0	0	-0	0	0	0	-4.08417	22.4402	8.5836	8.44402	-0.508551	0.253366	
41	1580482312.384704023	0.00233318	-0.895102	2.13241	-2.79041	-1.56952	-2.62327	0	0	-0	0	0	0	-3.47154	22.1391	8.48553	8.46791	-0.434292	0.201902	
42	1580482312.392839386	0.00241707	-0.895066	2.13232	-2.79043	-1.56957	-2.6233	0	0	-0	0	0	0	-4.22031	22.6209	8.6335	8.49166	-0.582784	0.407731	
43	1580482312.400720091	0.00236913	-0.895089	2.13234	-2.79045	-1.56954	-2.62327	0	0	-0	0	0	0	-4.0161	22.0755	8.65798	8.39633	-0.558006	0.124739	
44	1580482312.408666070	0.00240508	-0.895078	2.13234	-2.79043	-1.56957	-2.62331	0	0	-0	0	0	0	-4.49258	22.5002	8.83312	8.44402	-0.335379	0.227637	
45	1580482312.416684190	0.0023931	-0.895066	2.13234	-2.79046	-1.56952	-2.62326	0	0	-0	0	0	0	-4.28838	22.1357	8.40933	8.51544	-0.582734	0.201921	
46	1580482312.424724936	0.00238112	-0.895066	2.13236	-2.7904	-1.56954	-2.62329	0	0	-0	0	0	0	-3.81189	22.1367	8.48513	8.46791	-0.582749	0.279083	
47	1580482312.432687319	0.0023931	-0.895102	2.13234	-2.79043	-1.56955	-2.62331	0	0	-0	0	0	0	-3.47154	22.0758	8.63262	8.46781	-0.632245	0.201918	
48	1580482312.440703785	0.00240508	-0.895054	2.13238	-2.7904	-1.56955	-2.62326	0	0	-0	0	0	0	-3.53961	22.4408	8.63614	8.39649	-0.483794	0.279073	
49	1580482312.448669259	0.0023931	-0.895078	2.1324	-2.79041	-1.56956	-2.62329	0	0	-0	0	0	0	-3.40347	22.9273	8.51094	8.49175	-0.50855	0.201894	
50	1580482312.456703361	0.00236913	-0.895089	2.13234	-2.79041	-1.56954	-2.62332	0	0	-0	0	0	0	-3.67575	22.3791	8.40853	8.49167	-0.45905	0.0732757	
51	1580482312.464674097	0.00240508	-0.895089	2.13237	-2.79041	-1.56952	-2.62335	0	0	-0	0	0	0	-4.35645	22.0769	8.55955	8.34879	-0.533265	0.253363	
52	1580482312.472698684	0.0023931	-0.895078	2.13232	-2.79041	-1.56952	-2.62327	0	0	-0	0	0	0	-3.53961	22.3177	8.45842	8.42019	-0.409551	0.176188	
53	1580482312.480707801	0.00236913	-0.895054	2.13238	-2.79043	-1.56954	-2.62327	0	0	-0	0	0	0	-4.62872	22.9263	8.3866	8.4441	-0.533266	0.124714	
54	1580482312.488697156	0.00241707	-0.895042	2.13238	-2.79043	-1.56955	-2.62331	0	0	-0	0	0	0	-4.15224	22.4405	8.56171	8.61087	-0.607505	0.201893	
55	1580482312.496700436	0.00235715	-0.895066	2.13237	-2.79043	-1.56952	-2.62331	0	0	-0	0	0	0	-4.22031	22.4406	8.71011	8.3488	-0.53326	0.227633	
56	1580482312.504702265	0.00241707	-0.895066	2.13231	-2.79041	-1.56955	-2.62327	0	0	-0	0	0	0	-4.35645	22.4991	8.25879	8.34873	-0.508536	0.176185	
57	1580482312.512668834	0.00241707	-0.895102	2.13237	-2.79044	-1.56955	-2.62333	0	0	-0	0	0	0	-4.35645	22.3806	8.60896	8.44403	-0.459063	0.22764	
58	1580482312.520875975	0.0023931	-0.895102	2.13242	-2.79045	-1.56954	-2.62329	0	0	-0	0	0	0	-4.42452	21.7146	8.31128	8.46788	-0.459045	0.253361	
59	1580482312.528714288	0.00241707	-0.895054	2.13236	-2.79043	-1.56954	-2.62329	0	0	-0	0	0	0	-4.08417	22.5006	8.51049	8.53936	-0.459046	0.253358	
60	1580482312.536702887	0.0023931	-0.895114	2.1324	-2.79043	-1.56954	-2.62325	0	0	-0	0	0	0	-4.42452	22.5031	8.50959	8.3964	-0.558003	0.0475425	
61	1580482312.544738767	0.0023931	-0.895066	2.13234	-2.79043	-1.56951	-2.62332	0	0	-0	0	0	0	-4.35645	22.6821	8.38443	8.53932	-0.483769	0.201915	
62	1580482312.552695875	0.0023931	-0.895114	2.13237	-2.79043	-1.56955	-2.62332	0	0	-0	0	0	0	-4.35645	22.4416	8.48378	8.46785	-0.384839	0.253368	
63	1580482312.560682220	0.0023931	-0.895089	2.13238	-2.7904	-1.56955	-2.62327	0	0	-0	0	0	0	-4.49258	22.1987	8.41028	8.46791	-0.409573	0.150443	
64	1580482312.568700053	0.00240508	-0.895078	2.13238	-2.79041	-1.56952	-2.62331	0	0	-0	0	0	0	-4.15224	22.0164	8.63527	8.46792	-0.508519	0.22763	
65	1580482312.576700157	0.00241707	-0.895102	2.13238	-2.79041	-1.56957	-2.62326	0	0	-0	0	0	0	-4.15224	22.4418	8.3599	8.44406	-0.409594	0.201901	
66	1580482312.584728268	0.00242905	-0.895102	2.13238	-2.79041	-1.56955	-2.6233	0	0	-0	0	0	0	-3.60768	21.7134	8.28506	8.51553	-0.459058	0.227632	
67	1580482312.592704480	0.0023931	-0.895066	2.13236	-2.79043	-1.56952	-2.6233	0	0	-0	0	0	0	-3.19926	22.5615	8.55996	8.39642	-0.533258	0.0989968	
68	1580482312.600690589	0.00235715	-0.895042	2.13236	-2.79044	-1.56955	-2.62327	0	0	-0	0	0	0	-4.08417	21.954	8.58576	8.44407	-0.483796	0.227629	
69	1580482312.608707753	0.00240508	-0.895089	2.13236	-2.79041	-1.56956	-2.62332	0	0	-0	0	0	0	-4.15224	22.1978	8.80862	8.44406	-0.508555	0.227633	
70	1580482312.616716150	0.00240508	-0.895042	2.13236	-2.79043	-1.56954	-2.62331	0	0	-0	0	0	0	-4.22031	21.954	8.43608	8.4441	-0.533271	0.2019	
71	1580482312.624675396	0.00242905	-0.895078	2.1324	-2.79043	-1.56954	-2.62327	0	0	-0	0	0	0	-3.3354	22.4417	8.41112	8.37263	-0.483785	0.2019	
72	1580482312.632702998	0.0023931	-0.895066	2.1324	-2.79043	-1.56954	-2.62331	0	0	-0	0	0	0	-4.62872	22.1986	8.61117	8.32501	-0.533271	0.253353	
73	1580482312.640693961	0.0023931	-0.895042	2.13242	-2.79045	-1.56955	-2.6233	0	0	-0	0	0	0	-5.03714	22.7453	8.4632	8.49178	-0.50854	0.20189	
74	1580482312.648770535	0.00238112	-0.895089	2.13238	-2.79041	-1.56955	-2.62329	0	0	-0	0	0	0	-3.67575	22.5022	8.51007	8.44408	-0.409575	0.253357	
75	1580482312.656677487	0.00238112	-0.895102	2.13237	-2.79043	-1.56955	-2.62333	0	0	-0	0	0	0	-4.42452	22.0771	8.55908	8.46786	-0.483804	0.20191	
76	1580482312.664701318	0.0023931	-0.895054	2.13238	-2.79045	-1.56951	-2.6233	0	0	-0	0	0	0	-4.22031	22.2586	8.46143	8.32497	-0.533247	0.150451	
77	1580482312.672632952	0.0023931	-0.895089	2.13236	-2.79041	-1.56951	-2.62329	0	0	-0	0	0	0	-4.901	22.3192	8.48424	8.56315	-0.483764	0.253367	
78	1580482312.680634881	0.0023931	-0.895054	2.13235	-2.79044	-1.56956	-2.6233	0	0	-0	0	0	0	-4.83293	22.5608	8.53499	8.49169	-0.533292	0.15045	
79	1580482312.688609534	0.00242905	-0.895042	2.13236	-2.79043	-1.56952	-2.62327	0	0	-0	0	0	0	-4.35645	22.3789	8.58578	8.49173	-0.533255	0.176174	
80	1580482312.696663641	0.00238112	-0.895066	2.13237	-2.79045	-1.56952	-2.62331	0	0	-0	0	0	0	-3.87996	22.3798	8.66017	8.53934	-0.558001	0.20191	
81	1580482312.704655356	0.00244066	-0.895089	2.13237	-2.79044	-1.56952	-2.62331	0	0	-0	0	0	0	-4.0161	22.1982	8.53456	8.44404	-0.558001	0.279096	
82	1580482312.712663524	0.0023931	-0.895042	2.13238	-2.79043	-1.56952	-2.62327	0	0	-0	0	0	0	-4.0161	22.3191	8.63655	8.56322	-0.459033	0.150441	
83	1580482312.720656039	0.00238112	-0.895078	2.13236	-2.79044	-1.56955	-2.62331	0	0	-0	0	0	0	-4.42452	22.926	8.48466	8.49168	-0.558023	0.150454	
84	1580482312.728670151	0.0023931	-0.895114	2.13237	-2.79041	-1.56956	-2.62329	0	0	-0	0	0	0	-3.53961	21.8346	8.6335	8.53932	-0.508549	0.227636	
85	1580482312.736669218	0.00238112	-0.895054	2.13234	-2.79043	-1.56955	-2.6233	0	0	-0	0	0	0	-4.08417	22.5604	8.2102	8.37259	-0.50854	0.176179	
86	1580482312.744680719	0.0023931	-0.895102	2.13237	-2.79043	-1.56955	-2.6233	0	0	-0	0	0	0	-3.47154	22.4413	8.60897	8.58696	-0.459058	0.279093	
87	1580482312.752671866	0.00238112	-0.895066	2.13235	-2.79044	-1.56955	-2.62327	0	0	-0	0	0	0	-4.69679	22.6218	8.53455	8.34874	-0.508536	0.227637	
88	1580482312.760692777	0.00241707	-0.895102	2.13238	-2.79043	-1.56954	-2.62325	0	0	-0	0	0	0	-4.28838	21.5312	8.63435	8.44404	-0.558003	0.227636	
89	1580482312.768696427	0.0023931	-0.895066	2.13238	-2.79043	-1.56954	-2.62325	0	0	-0	0	0	0	-4.15224	22.6231	8.71053	8.3488	-0.533263	0.150445	
90	1580482312.776734609	0.0023931	-0.895078	2.13238	-2.79043	-1.56954	-2.62329	0	0	-0	0	0	0	-3.94803	22.7447	8.56039	8.51554	-0.483786	0.201903	
91	1580482312.784677623	0.00240508	-0.895054	2.13235	-2.79045	-1.56957	-2.6233	0	0	-0	0	0	0	-4.0161	22.3787	8.48507	8.44403	-0.558044	0.279089	
92	1580482312.792705848	0.0023931	-0.895066	2.13235	-2.79045	-1.56956	-2.62331	0	0	-0	0	0	0	-4.62872	22.3183	8.5595	8.4202	-0.533294	0.150455	
93	1580482312.800708230	0.00236913	-0.895078	2.13237	-2.79044	-1.56952	-2.62327	0	0	-0	0	0	0	-4.56065	22.2587	8.51004	8.3964	-0.459033	0.356276	
94	1580482312.808771909	0.00238112	-0.895078	2.13236	-2.79044	-1.56955	-2.62332	0	0	-0	0	0	0	-4.56065	22.4404	8.63437	8.42022	-0.459062	0.20191	
95	1580482312.816725517	0.00236913	-0.895066	2.13235	-2.79043	-1.56952	-2.62329	0	0	-0	0	0	0	-4.83293	22.4397	8.38486	8.2773	-0.459034	0.176183	
96	1580482312.824693723	0.00241707	-0.895078	2.13234	-2.79043	-1.56954	-2.62332	0	0	-0	0	0	0	-4.69679	22.743	8.63351	8.44403	-0.483791	0.35628	
97	1580482312.832698707	0.00240508	-0.895066	2.13235	-2.79044	-1.56955	-2.6233	0	0	-0	0	0	0	-4.96907	22.0755	8.43475	8.5155	-0.483799	0.253365	
98	1580482312.840762177	0.00240508	-0.895054	2.13237	-2.79043	-1.56955	-2.62331	0	0	-0	0	0	0	-3.19926	22.501	8.46103	8.49174	-0.45906	0.150443	
99	1580482312.848732871	0.00241707	-0.895078	2.13241	-2.79041	-1.56954	-2.62329	0	0	-0	0	0	0	-4.0161	21.8958	8.71099	8.46794	-0.508527	0.330533	
100	1580482312.856708142	0.00240508	-0.895054	2.13238	-2.79044	-1.56956	-2.62333	0	0	-0	0	0	0	-4.49258	22.198	8.36165	8.42028	-0.508557	0.201897	
101	1580482312.864726677	0.00242905	-0.895102	2.13236	-2.79043	-1.56951	-2.62329	0	0	-0	0	0	0	-4.0161	22.1981	8.33407	8.44402	-0.483764	0.17619	
102	1580482312.872731961	0.0023931	-0.895089	2.13236	-2.79041	-1.56956	-2.6233	0	0	-0	0	0	0	-3.87996	22.562	8.68386	8.44405	-0.45907	0.0989943	
103	1580482312.880693935	0.00236913	-0.895066	2.13237	-2.79044	-1.56954	-2.6233	0	0	-0	0	0	0	-4.08417	22.3798	8.53543	8.46789	-0.533269	0.201906	
104	1580482312.888694372	0.00241707	-0.895089	2.13238	-2.79041	-1.56952	-2.62331	0	0	-0	0	0	0	-3.74382	23.0485	8.53503	8.44408	-0.508519	0.25336	
105	1580482312.896708740	0.00241707	-0.895042	2.13235	-2.79044	-1.56952	-2.62329	0	0	-0	0	0	0	-4.08417	22.4392	8.53543	8.51552	-0.582738	-0.0553694	
106	1580482312.904684436	0.00240508	-0.895102	2.13236	-2.79043	-1.5695	-2.6233	0	0	-0	0	0	0	-4.22031	22.016	8.68339	8.44402	-0.533236	0.407741	
107	1580482312.912688464	0.00236913	-0.895089	2.13241	-2.79043	-1.56955	-2.62331	0	0	-0	0	0	0	-3.74382	22.5638	8.68559	8.4441	-0.533282	0.176171	
108	1580482312.920702847	0.0023931	-0.895114	2.13238	-2.79045	-1.56955	-2.62327	0	0	-0	0	0	0	-3.94803	22.2599	8.63389	8.49164	-0.384832	0.253371	
109	1580482312.928670524	0.00240508	-0.895078	2.1324	-2.79043	-1.56951	-2.6233	0	0	-0	0	0	0	-4.0161	22.1989	8.41112	8.42027	-0.459025	0.227631	
110	1580482312.936729910	0.00241707	-0.89503	2.1324	-2.79043	-1.56954	-2.6233	0	0	-0	0	0	0	-3.81189	21.7123	8.83704	8.4918	-0.508529	0.150434	
111	1580482312.944689241	0.00238112	-0.895114	2.13235	-2.79043	-1.56955	-2.62327	0	0	-0	0	0	0	-4.08417	22.8049	8.68251	8.53927	-0.533277	0.227646	
112	1580482312.952668093	0.00241707	-0.895054	2.13237	-2.79045	-1.56957	-2.62332	0	0	-0	0	0	0	-3.74382	21.6512	8.83527	8.49171	-0.533307	0.227628	
113	1580482312.960689528	0.00238112	-0.895102	2.13237	-2.79041	-1.56952	-2.62331	0	0	-0	0	0	0	-3.87996	22.6841	8.55909	8.39641	-0.508519	0.176183	
114	1580482312.968734166	0.00238112	-0.895066	2.13237	-2.79045	-1.56952	-2.62332	0	0	-0	0	0	0	-4.08417	22.5012	8.58532	8.44405	-0.508521	0.227638	
115	1580482312.976688587	0.00240508	-0.895078	2.13234	-2.7904	-1.56952	-2.62331	0	0	-0	0	0	0	-3.67575	22.3181	8.68344	8.39641	-0.459038	0.176183	
116	1580482312.984686360	0.00238112	-0.895089	2.13234	-2.79045	-1.56957	-2.6233	0	0	-0	0	0	0	-3.81189	22.1362	8.58314	8.63454	-0.533303	0.304828	
117	1580482312.992692097	0.00240508	-0.895078	2.13241	-2.79041	-1.56952	-2.62326	0	0	-0	0	0	0	-3.67575	21.5923	8.63613	8.46794	-0.483772	0.253352	
118	1580482313.000707668	0.00240508	-0.895066	2.13235	-2.79043	-1.56955	-2.62331	0	0	-0	0	0	0	-3.53961	21.5899	8.63438	8.56316	-0.483801	0.201907	
119	1580482313.008639282	0.00241707	-0.895102	2.13236	-2.79043	-1.56958	-2.62332	0	0	-0	0	0	0	-4.08417	22.3195	8.50874	8.37256	-0.483836	0.201907	
120	1580482313.016677810	0.00242905	-0.895102	2.13235	-2.79044	-1.56952	-2.62331	0	0	-0	0	0	0	-4.0161	22.7439	8.63304	8.34871	-0.483778	0.176194	
121	1580482313.024668292	0.0023931	-0.895066	2.13236	-2.79041	-1.56952	-2.62329	0	0	-0	0	0	0	-3.81189	21.9545	8.46017	8.44408	-0.434294	0.201905	
122	1580482313.032686817	0.0023931	-0.895066	2.13235	-2.79043	-1.56954	-2.6233	0	0	-0	0	0	0	-3.74382	22.5004	8.38486	8.37259	-0.508529	0.176181	
123	1580482313.040689021	0.0023931	-0.895066	2.13236	-2.7904	-1.56954	-2.62327	0	0	-0	0	0	0	-4.28838	21.9546	8.63484	8.46791	-0.508525	0.227628	
124	1580482313.048665529	0.00238112	-0.895078	2.13235	-2.79043	-1.56951	-2.62331	0	0	-0	0	0	0	-4.62872	21.6508	8.68385	8.44404	-0.483767	0.201915	
125	1580482313.056699240	0.00240508	-0.895089	2.13238	-2.7904	-1.56951	-2.62332	0	0	-0	0	0	0	-3.74382	22.0166	8.56	8.51556	-0.607473	0.176176	
126	1580482313.064656700	0.00240508	-0.895042	2.13238	-2.79039	-1.56952	-2.62332	0	0	-0	0	0	0	-4.35645	23.0476	8.68651	8.49182	-0.558003	0.201888	
127	1580482313.072696004	0.00240508	-0.895089	2.13237	-2.79043	-1.56955	-2.62327	0	0	-0	0	0	0	-4.76486	22.3196	8.65932	8.42022	-0.558018	0.253362	
128	1580482313.080668153	0.00238112	-0.895066	2.13238	-2.79043	-1.56955	-2.62331	0	0	-0	0	0	0	-3.87996	22.0768	8.63569	8.32499	-0.483801	0.176171	
129	1580482313.088691222	0.00240508	-0.895054	2.13238	-2.79045	-1.56951	-2.62331	0	0	-0	0	0	0	-4.08417	22.2586	8.61114	8.42026	-0.582731	0.150451	
130	1580482313.096683347	0.00241707	-0.895066	2.13237	-2.7904	-1.56952	-2.62331	0	0	-0	0	0	0	-4.56065	22.2585	8.48557	8.49175	-0.50852	0.0732608	
131	1580482313.104696346	0.0023931	-0.895078	2.13236	-2.79041	-1.56954	-2.62329	0	0	-0	0	0	0	-4.62872	22.3797	8.53458	8.42024	-0.533268	0.253361	
132	1580482313.112659715	0.00238112	-0.895066	2.13236	-2.79043	-1.56955	-2.6233	0	0	-0	0	0	0	-3.67575	22.258	8.51006	8.44406	-0.434318	0.25336	
133	1580482313.120632920	0.00241707	-0.895078	2.1324	-2.79046	-1.56955	-2.62327	0	0	-0	0	0	0	-4.22031	22.4416	8.56078	8.37258	-0.459055	0.253362	
134	1580482313.128692844	0.00242905	-0.895089	2.13241	-2.79044	-1.56951	-2.6233	0	0	-0	0	0	0	-4.28838	22.6244	8.73548	8.53936	-0.508507	0.27909	
135	1580482313.136659107	0.00238112	-0.895054	2.13236	-2.79043	-1.56954	-2.62327	0	0	-0	0	0	0	-4.08417	22.6827	8.83485	8.39643	-0.558007	0.150448	
136	1580482313.144618925	0.00236913	-0.895078	2.13237	-2.79043	-1.56955	-2.62326	0	0	-0	0	0	0	-3.60768	22.3194	8.5849	8.32495	-0.582757	0.176176	
137	1580482313.152618455	0.00236913	-0.895066	2.13236	-2.79041	-1.56955	-2.62329	0	0	-0	0	0	0	-4.15224	21.9545	8.70968	8.39643	-0.533279	0.227629	
138	1580482313.160694382	0.0023931	-0.895066	2.13237	-2.79043	-1.56951	-2.62329	0	0	-0	0	0	0	-4.35645	22.2585	8.58534	8.51554	-0.483764	0.27909	
139	1580482313.168670557	0.00240508	-0.895102	2.13241	-2.79045	-1.56956	-2.62331	0	0	-0	0	0	0	-3.87996	22.3819	8.68511	8.51552	-0.483812	0.176178	
140	1580482313.176659833	0.00238112	-0.895054	2.13236	-2.79043	-1.56955	-2.62332	0	0	-0	0	0	0	-4.08417	22.7434	8.48555	8.51555	-0.508543	0.253357	
141	1580482313.184634037	0.00238112	-0.895078	2.13241	-2.79043	-1.56951	-2.62329	0	0	-0	0	0	0	-3.3354	22.4421	8.38661	8.44411	-0.533246	0.176173	
142	1580482313.193269056	0.00240508	-0.895042	2.13237	-2.79044	-1.56954	-2.6233	0	0	-0	0	0	0	-4.08417	22.3187	8.63611	8.42027	-0.434307	0.2019	
143	1580482313.200665726	0.00238112	-0.895078	2.13234	-2.79043	-1.56955	-2.62331	0	0	-0	0	0	0	-4.62872	22.0146	8.90797	8.4202	-0.508541	0.253368	
144	1580482313.208631439	0.00240508	-0.895078	2.13238	-2.79044	-1.56956	-2.62332	0	0	-0	0	0	0	-4.22031	22.077	8.48553	8.53935	-0.508555	0.176175	
145	1580482313.216645168	0.00240508	-0.895066	2.13236	-2.79043	-1.56956	-2.6233	0	0	-0	0	0	0	-4.35645	21.7724	8.31044	8.49171	-0.508551	0.279085	
146	1580482313.224684189	0.00244066	-0.895066	2.13237	-2.79039	-1.56954	-2.62329	0	0	-0	0	0	0	-4.22031	22.7441	8.58539	8.56323	-0.459046	0.25335	
147	1580482313.232659791	0.00240508	-0.895066	2.13241	-2.79045	-1.56957	-2.62332	0	0	-0	0	0	0	-4.62872	22.6846	8.41197	8.42028	-0.533307	-0.029654	
148	1580482313.240652201	0.00240508	-0.895054	2.13241	-2.79041	-1.56952	-2.62332	0	0	-0	0	0	0	-3.94803	22.0168	8.51226	8.53944	-0.582744	0.150436	
149	1580482313.248683349	0.00240508	-0.895066	2.13236	-2.79045	-1.56956	-2.6233	0	0	-0	0	0	0	-3.60768	22.5615	8.53498	8.27729	-0.558033	0.253363	
150	1580482313.256789850	0.0023931	-0.895089	2.13241	-2.79041	-1.56955	-2.62331	0	0	-0	0	0	0	-4.49258	22.0175	8.61075	8.5394	-0.434319	0.176168	
151	1580482313.264659933	0.00236913	-0.895066	2.13237	-2.79044	-1.56951	-2.6233	0	0	-0	0	0	0	-4.0161	22.6833	8.71009	8.61081	-0.533247	0.227637	
152	1580482313.272697811	0.0023931	-0.895066	2.13232	-2.79043	-1.56952	-2.6233	0	0	-0	0	0	0	-3.87996	22.3174	8.50875	8.46784	-0.508517	0.279099	
153	1580482313.280699697	0.00240508	-0.895078	2.13237	-2.79043	-1.56955	-2.62327	0	0	-0	0	0	0	-3.94803	22.198	8.58491	8.34877	-0.558018	0.227632	
154	1580482313.288805110	0.00238112	-0.895078	2.13236	-2.79043	-1.56956	-2.6233	0	0	-0	0	0	0	-3.06313	21.8941	8.50962	8.53933	-0.558033	0.330544	
155	1580482313.296695874	0.0023931	-0.895066	2.1324	-2.79043	-1.56955	-2.6233	0	0	-0	0	0	0	-4.49258	22.0165	8.43651	8.51557	-0.50854	0.304807	
156	1580482313.304693915	0.00238112	-0.895054	2.13235	-2.79043	-1.56956	-2.62329	0	0	-0	0	0	0	-4.76486	21.8324	8.4851	8.44406	-0.483809	0.176175	
157	1580482313.312696033	0.0023931	-0.895078	2.13241	-2.79044	-1.56951	-2.62331	0	0	-0	0	0	0	-3.19926	22.1993	8.71096	8.4441	-0.483768	0.150448	
158	1580482313.320715294	0.00238112	-0.895102	2.13236	-2.79043	-1.56954	-2.62331	0	0	-0	0	0	0	-3.74382	22.8658	8.58359	8.34874	-0.50853	0.176187	
159	1580482313.328702917	0.00242905	-0.895089	2.1324	-2.79043	-1.56954	-2.62329	0	0	-0	0	0	0	-4.76486	22.5026	8.51049	8.39643	-0.558009	0.227631	
160	1580482313.336694921	0.0023931	-0.895102	2.13236	-2.79043	-1.56951	-2.62332	0	0	-0	0	0	0	-4.22031	22.0767	8.33407	8.34874	-0.53325	0.201918	
161	1580482313.344653297	0.00240508	-0.895054	2.13241	-2.7904	-1.56951	-2.62332	0	0	-0	0	0	0	-4.22031	22.1989	8.53723	8.49182	-0.533251	0.20189	
162	1580482313.352709569	0.00240508	-0.895042	2.13237	-2.79045	-1.56956	-2.62326	0	0	-0	0	0	0	-3.3354	22.6828	8.56123	8.46789	-0.533287	0.253355	
163	1580482313.360714938	0.00240508	-0.895066	2.1324	-2.79045	-1.56951	-2.62327	0	0	-0	0	0	0	-3.94803	22.6235	8.31172	8.42025	-0.434281	0.150451	
164	1580482313.368646437	0.00242905	-0.895078	2.13237	-2.79044	-1.56956	-2.62327	0	0	-0	0	0	0	-3.87996	22.6229	8.51004	8.49169	-0.607511	0.201905	
165	1580482313.376684587	0.0023931	-0.895066	2.13238	-2.79043	-1.56951	-2.62327	0	0	-0	0	0	0	-4.42452	22.6231	8.53587	8.37263	-0.483762	0.279087	
166	1580482313.384731033	0.00236913	-0.895042	2.13241	-2.79044	-1.56955	-2.62329	0	0	-0	0	0	0	-3.87996	22.2593	8.71227	8.42032	-0.533279	0.227618	
167	1580482313.392724573	0.0023931	-0.895054	2.13237	-2.79044	-1.56955	-2.62329	0	0	-0	0	0	0	-4.0161	22.6224	8.68557	8.49172	-0.533279	0.176174	
168	1580482313.400692009	0.00242905	-0.895078	2.13236	-2.79043	-1.56958	-2.6233	0	0	-0	0	0	0	-4.35645	22.4404	8.70923	8.37259	-0.508573	0.279085	
169	1580482313.408694450	0.0023931	-0.895089	2.13237	-2.79045	-1.5695	-2.62329	0	0	-0	0	0	0	-4.42452	22.6838	8.50959	8.4202	-0.533234	0.201919	
170	1580482313.416784929	0.0023931	-0.89503	2.13235	-2.79043	-1.56954	-2.62325	0	0	-0	0	0	0	-3.94803	22.1354	8.83529	8.56319	-0.558003	0.330539	
171	1580482313.424700423	0.00238112	-0.895054	2.13235	-2.79043	-1.56955	-2.62325	0	0	-0	0	0	0	-4.42452	22.318	8.28548	8.46787	-0.508533	0.279087	
172	1580482313.432650634	0.0023931	-0.89503	2.13237	-2.79044	-1.56955	-2.62329	0	0	-0	0	0	0	-4.42452	22.3791	8.53674	8.53939	-0.55802	0.201896	
173	1580482313.440675429	0.00238112	-0.895102	2.13235	-2.79041	-1.56955	-2.62329	0	0	-0	0	0	0	-4.22031	22.1976	8.55821	8.51548	-0.434316	0.176185	
174	1580482313.448735808	0.0023931	-0.895054	2.13238	-2.7904	-1.56955	-2.6233	0	0	-0	0	0	0	-4.83293	22.5015	8.53635	8.34886	-0.483799	0.176163	
175	1580482313.456696229	0.00236913	-0.895078	2.13238	-2.79043	-1.56954	-2.6233	0	0	-0	0	0	0	-3.74382	21.7736	8.53544	8.44408	-0.53327	0.201903	
176	1580482313.464669581	0.00241707	-0.895066	2.13232	-2.79043	-1.56955	-2.62333	0	0	-0	0	0	0	-3.74382	22.3174	8.50876	8.42021	-0.607508	0.433462	
177	1580482313.472692064	0.00236913	-0.895089	2.13236	-2.79043	-1.56954	-2.6233	0	0	-0	0	0	0	-4.49258	21.8336	8.60899	8.5155	-0.434306	0.124728	
178	1580482313.480695830	0.00241707	-0.895042	2.13236	-2.7904	-1.56954	-2.62326	0	0	-0	0	0	0	-4.62872	22.4397	8.78542	8.42029	-0.483783	0.279078	
179	1580482313.488686054	0.00236913	-0.895078	2.13238	-2.79043	-1.56958	-2.6233	0	0	-0	0	0	0	-4.62872	22.4412	8.6103	8.4679	-0.558055	0.176168	
180	1580482313.496698293	0.00240508	-0.895078	2.13238	-2.7904	-1.56952	-2.62331	0	0	-0	0	0	0	-4.35645	22.2592	8.68519	8.44411	-0.459038	0.176172	
181	1580482313.504698201	0.00236913	-0.895066	2.13241	-2.79041	-1.56956	-2.62326	0	0	-0	0	0	0	-4.901	22.017	8.63657	8.51559	-0.508546	0.253344	
182	1580482313.512683327	0.0023931	-0.895089	2.13238	-2.79043	-1.56955	-2.62327	0	0	-0	0	0	0	-4.35645	21.9559	8.51005	8.32495	-0.558018	0.253359	
183	1580482313.520692263	0.00235715	-0.895089	2.13236	-2.79041	-1.56956	-2.62329	0	0	-0	0	0	0	-4.62872	22.4406	8.90842	8.53933	-0.582772	0.304816	
184	1580482313.528641433	0.0023931	-0.895102	2.13237	-2.79044	-1.56956	-2.6233	0	0	-0	0	0	0	-4.22031	22.4413	8.63391	8.39638	-0.48381	0.176183	
185	1580482313.536710936	0.0023931	-0.895066	2.13238	-2.79043	-1.56957	-2.62332	0	0	-0	0	0	0	-4.28838	22.5017	8.8353	8.42028	-0.63227	0.201895	
186	1580482313.544681444	0.00238112	-0.895078	2.1324	-2.79043	-1.56955	-2.62327	0	0	-0	0	0	0	-5.03714	22.5024	8.61073	8.49173	-0.483796	0.150443	
187	1580482313.552690947	0.00238112	-0.895078	2.13235	-2.79044	-1.56955	-2.62326	0	0	-0	0	0	0	-4.69679	21.9543	8.60896	8.49165	-0.459053	0.22764	
188	1580482313.560679731	0.00240508	-0.895078	2.13238	-2.79041	-1.56954	-2.6233	0	0	-0	0	0	0	-5.10521	22.8055	8.4606	8.39645	-0.483788	0.176173	
189	1580482313.568710228	0.0023931	-0.895102	2.13235	-2.7904	-1.56955	-2.62326	0	0	-0	0	0	0	-4.62872	22.5619	8.50831	8.39638	-0.508534	0.150454	
190	1580482313.576681053	0.00244066	-0.895089	2.13236	-2.79043	-1.56954	-2.62327	0	0	-0	0	0	0	-4.22031	22.0764	8.40937	8.37257	-0.459044	0.227639	
191	1580482313.584673172	0.00238112	-0.895102	2.13236	-2.79043	-1.56955	-2.6233	0	0	-0	0	0	0	-4.15224	21.8339	8.45883	8.5393	-0.50854	0.176185	
192	1580482313.592698303	0.00238112	-0.895078	2.1324	-2.79041	-1.56949	-2.62329	0	0	-0	0	0	0	-3.53961	21.8954	8.6856	8.42029	-0.434261	0.150449	
193	1580482313.600698883	0.0023931	-0.895089	2.13236	-2.79043	-1.56951	-2.62331	0	0	-0	0	0	0	-4.22031	22.9262	8.48423	8.32493	-0.55799	0.330553	
194	1580482313.608670697	0.00242905	-0.895042	2.13236	-2.79044	-1.56957	-2.6233	0	0	-0	0	0	0	-4.0161	22.0754	8.43606	8.4679	-0.409599	0.253353	
195	1580482313.616658540	0.00236913	-0.895089	2.13237	-2.79044	-1.56955	-2.62327	0	0	-0	0	0	0	-4.0161	22.441	8.48465	8.46785	-0.508536	0.20191	
196	1580482313.624699566	0.00238112	-0.895102	2.13237	-2.79041	-1.56956	-2.6233	0	0	-0	0	0	0	-3.94803	22.3199	8.48423	8.42023	-0.607514	0.15045	
197	1580482313.632718532	0.0023931	-0.895078	2.13237	-2.79044	-1.56954	-2.62331	0	0	-0	0	0	0	-3.74382	21.7731	8.55995	8.49169	-0.48379	0.253364	
198	1580482313.640771648	0.00241707	-0.895078	2.13237	-2.79043	-1.56955	-2.6233	0	0	-0	0	0	0	-4.76486	22.2587	8.90928	8.3726	-0.459058	0.150449	
199	1580482313.648700852	0.00242905	-0.895078	2.13237	-2.79041	-1.56955	-2.62326	0	0	-0	0	0	0	-3.94803	23.1085	8.55997	8.42025	-0.459053	0.201901	
200	1580482313.656692138	0.00238112	-0.895089	2.13236	-2.79044	-1.56955	-2.62329	0	0	-0	0	0	0	-3.87996	21.8943	8.75868	8.46784	-0.533279	0.150457	
201	1580482313.664664272	0.0023931	-0.895066	2.13235	-2.79041	-1.56951	-2.6233	0	0	-0	0	0	0	-4.42452	22.8646	8.68429	8.51553	-0.533247	0.330548	
202	1580482313.672746302	0.00240508	-0.895078	2.1324	-2.79046	-1.56952	-2.62329	0	0	-0	0	0	0	-4.15224	22.3202	8.56078	8.49169	-0.557997	0.150455	
203	1580482313.680712444	0.00240508	-0.895054	2.13238	-2.79044	-1.56955	-2.6233	0	0	-0	0	0	0	-4.0161	22.6835	8.71096	8.51556	-0.434318	0.201899	
204	1580482313.688689233	0.00241707	-0.895078	2.13236	-2.79043	-1.56955	-2.6233	0	0	-0	0	0	0	-4.08417	22.6832	8.63438	8.49169	-0.459058	0.356273	
205	1580482313.696658112	0.00240508	-0.895078	2.13236	-2.79044	-1.56951	-2.6233	0	0	-0	0	0	0	-3.87996	22.1976	8.53456	8.32493	-0.533247	0.25337	
206	1580482313.704727674	0.00238112	-0.895089	2.13236	-2.79041	-1.56956	-2.62326	0	0	-0	0	0	0	-3.94803	21.4694	8.68385	8.3964	-0.434324	0.124722	
207	1580482313.712720577	0.00240508	-0.895078	2.13237	-2.79044	-1.56954	-2.62327	0	0	-0	0	0	0	-4.62872	22.3194	8.63479	8.37258	-0.434303	0.40773	
208	1580482313.720700473	0.00236913	-0.895102	2.13236	-2.79044	-1.56951	-2.62327	0	0	-0	0	0	0	-3.40347	21.6518	8.45881	8.53928	-0.508503	0.20192	
209	1580482313.728711343	0.00240508	-0.895078	2.13234	-2.79041	-1.56957	-2.62331	0	0	-0	0	0	0	-5.24135	22.8644	8.70838	8.53932	-0.558045	0.201906	
210	1580482313.736772646	0.00244066	-0.895102	2.13237	-2.79043	-1.56956	-2.62329	0	0	-0	0	0	0	-4.56065	22.4413	8.25965	8.37257	-0.434327	0.279091	
211	1580482313.744705714	0.0023931	-0.895089	2.13241	-2.79044	-1.56956	-2.62327	0	0	-0	0	0	0	-3.47154	22.3816	8.56081	8.56318	-0.483807	0.227627	
212	1580482313.752714929	0.00236913	-0.895066	2.13237	-2.79044	-1.56954	-2.62332	0	0	-0	0	0	0	-4.56065	22.2585	8.66019	8.51553	-0.409569	0.0989952	
213	1580482313.760664645	0.00236913	-0.895078	2.13234	-2.79045	-1.56954	-2.62329	0	0	-0	0	0	0	-3.47154	22.1967	8.68337	8.49163	-0.459045	0.20192	
214	1580482313.768741176	0.00238112	-0.895102	2.13236	-2.79041	-1.56956	-2.62331	0	0	-0	0	0	0	-4.28838	22.3195	8.33409	8.56314	-0.508553	0.227636	
215	1580482313.776657117	0.00240508	-0.895078	2.13238	-2.79041	-1.56954	-2.62329	0	0	-0	0	0	0	-4.0161	22.3806	8.66021	8.42027	-0.558009	0.176173	
216	1580482313.784701067	0.00241707	-0.895054	2.13236	-2.79041	-1.56957	-2.6233	0	0	-0	0	0	0	-4.901	22.5613	8.51051	8.37263	-0.459081	0.176167	
217	1580482313.792717524	0.00241707	-0.895078	2.13236	-2.79044	-1.56954	-2.6233	0	0	-0	0	0	0	-4.22031	21.6513	8.75912	8.46786	-0.55801	0.253367	
218	1580482313.800723340	0.0023931	-0.895042	2.13242	-2.7904	-1.56954	-2.6233	0	0	-0	0	0	0	-5.03714	22.8668	8.76267	8.42038	-0.558011	0.150425	
219	1580482313.808693825	0.0023931	-0.895054	2.13241	-2.79043	-1.56954	-2.62331	0	0	-0	0	0	0	-3.53961	21.4704	8.6869	8.44414	-0.533272	0.279075	
220	1580482313.816705817	0.00238112	-0.895078	2.13238	-2.79041	-1.56954	-2.62329	0	0	-0	0	0	0	-3.94803	21.6522	8.66021	8.44409	-0.459046	0.253356	
221	1580482313.824697833	0.0023931	-0.895042	2.13237	-2.79043	-1.56957	-2.62329	0	0	-0	0	0	0	-4.22031	22.6222	8.43651	8.53939	-0.508561	0.304803	
222	1580482313.832728586	0.0023931	-0.895102	2.13238	-2.79043	-1.56952	-2.6233	0	0	-0	0	0	0	-4.35645	22.6845	8.65931	8.42023	-0.483777	0.20191	
223	1580482313.840694830	0.00238112	-0.895102	2.13235	-2.7904	-1.56955	-2.6233	0	0	-0	0	0	0	-4.56065	22.137	8.68298	8.53932	-0.53328	0.20191	
224	1580482313.848694502	0.00240508	-0.895054	2.1324	-2.7904	-1.56955	-2.6233	0	0	-0	0	0	0	-4.35645	22.0163	8.58669	8.51562	-0.582763	0.201887	
225	1580482313.856709474	0.0023931	-0.895078	2.1324	-2.79044	-1.56955	-2.6233	0	0	-0	0	0	0	-4.28838	22.8666	8.76043	8.37262	-0.533281	0.356268	
226	1580482313.864753916	0.00238112	-0.895078	2.13235	-2.79044	-1.56954	-2.62329	0	0	-0	0	0	0	-4.08417	22.622	8.30955	8.61076	-0.558008	0.124731	
227	1580482313.872697005	0.0023931	-0.895089	2.13236	-2.79043	-1.56955	-2.62332	0	0	-0	0	0	0	-4.69679	22.3799	8.58404	8.56315	-0.508543	0.150454	
228	1580482313.880644390	0.0023931	-0.895089	2.13237	-2.79041	-1.56951	-2.62326	0	0	-0	0	0	0	-4.22031	21.5913	8.58448	8.42024	-0.508501	0.201909	
229	1580482313.888721450	0.0023931	-0.895089	2.1324	-2.79044	-1.56954	-2.62327	0	0	-0	0	0	0	-4.42452	22.4419	8.68513	8.46788	-0.483784	0.279089	
230	1580482313.896640708	0.00240508	-0.895066	2.13235	-2.79043	-1.56954	-2.62329	0	0	-0	0	0	0	-4.42452	22.379	8.58447	8.42023	-0.459045	0.176181	
231	1580482313.904734008	0.00240508	-0.895102	2.13242	-2.7904	-1.56955	-2.6233	0	0	-0	0	0	0	-4.22031	22.3824	8.56086	8.61087	-0.434318	0.227621	
232	1580482313.912731457	0.00241707	-0.895078	2.13236	-2.79041	-1.56957	-2.62331	0	0	-0	0	0	0	-4.83293	22.0155	8.43479	8.3726	-0.558046	0.304811	
233	1580482313.920713289	0.00238112	-0.895089	2.13236	-2.79043	-1.56952	-2.62333	0	0	-0	0	0	0	-3.67575	22.562	8.48424	8.34876	-0.508523	0.253369	
234	1580482313.928755437	0.00236913	-0.895102	2.13236	-2.79043	-1.56955	-2.62326	0	0	-0	0	0	0	-4.83293	22.3802	8.65843	8.46783	-0.533275	0.201912	
235	1580482313.936727501	0.00240508	-0.895078	2.1324	-2.79043	-1.56956	-2.62333	0	0	-0	0	0	0	-4.56065	22.6845	8.63569	8.56321	-0.508557	0.201897	
236	1580482313.944745180	0.0023931	-0.895114	2.1324	-2.79043	-1.56952	-2.62333	0	0	-0	0	0	0	-4.0161	21.8961	8.45971	8.44406	-0.508523	0.176183	
237	1580482313.952718885	0.00238112	-0.895078	2.13236	-2.79044	-1.56951	-2.62329	0	0	-0	0	0	0	-4.83293	22.1369	8.58446	8.49167	-0.557986	0.176187	
238	1580482313.960739638	0.00240508	-0.895114	2.13237	-2.79045	-1.56951	-2.62327	0	0	-0	0	0	0	-4.83293	22.5022	8.68335	8.39634	-0.483762	0.227651	
239	1580482313.968735228	0.00240508	-0.895066	2.13238	-2.79045	-1.56952	-2.6233	0	0	-0	0	0	0	-3.87996	21.9554	8.5608	8.51553	-0.533258	0.253363	
240	1580482313.976723518	0.00238112	-0.895066	2.13238	-2.79044	-1.56954	-2.62331	0	0	-0	0	0	0	-3.81189	22.6838	8.68558	8.49172	-0.558012	0.227631	
241	1580482313.984724607	0.00238112	-0.895102	2.13236	-2.79043	-1.56956	-2.62326	0	0	-0	0	0	0	-4.49258	22.3195	8.63348	8.49165	-0.582768	0.330549	
242	1580482313.984724607	0.00238112	-0.895102	2.13236	-2.79043	-1.56956	-2.62326	0	0	-0	0	0	0	-4.49258	22.3195	8.63348	8.49165	-0.582768	0.330549	
243	1580482314.000729446	0.00240508	-0.895054	2.13236	-2.79045	-1.56955	-2.62327	0	0	-0	0	0	0	-4.22031	22.197	8.56036	8.37258	-0.508536	0.201907	
244	1580482314.008744491	0.00238112	-0.895089	2.13231	-2.79044	-1.56952	-2.62329	0	0	-0	0	0	0	-4.56065	22.2567	8.5074	8.44396	-0.483775	0.201927	
245	1580482314.016716033	0.00240508	-0.895078	2.13236	-2.79046	-1.56954	-2.62327	0	0	-0	0	0	0	-3.47154	21.9547	8.53452	8.37254	-0.558006	0.253372	
246	1580482314.024708189	0.00242905	-0.895054	2.13237	-2.79045	-1.56954	-2.6233	0	0	-0	0	0	0	-3.94803	22.7438	8.78536	8.44406	-0.533269	0.201906	
247	1580482314.032718305	0.00238112	-0.895078	2.13237	-2.79043	-1.56955	-2.62327	0	0	-0	0	0	0	-4.49258	22.198	8.4851	8.34877	-0.582759	0.227632	
248	1580482314.040740511	0.00240508	-0.895126	2.13234	-2.79043	-1.56952	-2.62331	0	0	-0	0	0	0	-4.0161	22.6833	8.8064	8.44396	-0.533259	0.176199	
249	1580482314.048640736	0.00238112	-0.895102	2.13237	-2.79043	-1.56951	-2.62331	0	0	-0	0	0	0	-4.15224	21.895	8.60897	8.53932	-0.483767	0.201915	
250	1580482314.056771625	0.00241707	-0.895089	2.13236	-2.79041	-1.56954	-2.62331	0	0	-0	0	0	0	-4.56065	22.4406	8.68386	8.39641	-0.558012	0.304819	
251	1580482314.064724312	0.00242905	-0.895042	2.13234	-2.79041	-1.56952	-2.6233	0	0	-0	0	0	0	-3.67575	22.0139	8.65978	8.58701	-0.632221	0.304816	
252	1580482314.072721496	0.0023931	-0.895102	2.1324	-2.7904	-1.56954	-2.62332	0	0	-0	0	0	0	-4.08417	22.7457	8.70969	8.53938	-0.656977	0.176173	
253	1580482314.080746149	0.00240508	-0.895102	2.1324	-2.79044	-1.56954	-2.62331	0	0	-0	0	0	0	-3.1312	21.8959	8.58488	8.39641	-0.50853	0.150453	
254	1580482314.088750370	0.00238112	-0.895078	2.13238	-2.79044	-1.56954	-2.62331	0	0	-0	0	0	0	-4.69679	22.4412	8.71009	8.44407	-0.50853	0.227634	
255	1580482314.096684131	0.00240508	-0.895066	2.13231	-2.79043	-1.56952	-2.62327	0	0	-0	0	0	0	-3.67575	22.0742	8.7578	8.444	-0.483773	0.124736	
256	1580482314.104691543	0.00241707	-0.895078	2.13232	-2.79043	-1.56952	-2.62332	0	0	-0	0	0	0	-4.35645	21.8321	8.65802	8.44401	-0.508521	0.227646	
257	1580482314.112696231	0.00240508	-0.895102	2.13238	-2.79043	-1.56952	-2.62326	0	0	-0	0	0	0	-3.81189	22.5024	8.70921	8.37258	-0.533253	0.227638	
258	1580482314.120713037	0.00240508	-0.895078	2.13237	-2.79043	-1.56956	-2.62329	0	0	-0	0	0	0	-4.49258	22.2587	8.53501	8.44406	-0.483809	0.253358	
259	1580482314.120713037	0.00240508	-0.895078	2.13237	-2.79043	-1.56956	-2.62329	0	0	-0	0	0	0	-4.49258	22.2587	8.53501	8.44406	-0.483809	0.253358	
260	1580482314.136720031	0.00238112	-0.895054	2.13237	-2.79045	-1.56952	-2.6233	0	0	-0	0	0	0	-4.69679	22.3189	8.53585	8.56317	-0.508518	0.201908	
261	1580482314.144715116	0.0023931	-0.895078	2.13236	-2.79041	-1.56952	-2.62331	0	0	-0	0	0	0	-4.15224	22.7439	8.55954	8.46789	-0.409556	0.124724	
262	1580482314.152727437	0.00241707	-0.895066	2.13236	-2.79043	-1.56954	-2.6233	0	0	-0	0	0	0	-4.35645	22.1973	8.88433	8.34878	-0.483788	0.176178	
263	1580482314.160731138	0.00236913	-0.895066	2.1324	-2.7904	-1.56951	-2.62327	0	0	-0	0	0	0	-3.94803	22.0166	8.7609	8.44413	-0.483763	0.176168	
264	1580482314.168702084	0.00234516	-0.895089	2.13235	-2.79044	-1.56954	-2.62325	0	0	-0	0	0	0	-4.49258	22.3188	8.60853	8.44399	-0.533262	0.2791	
265	1580482314.176702304	0.0023931	-0.895089	2.13238	-2.79045	-1.56955	-2.6233	0	0	-0	0	0	0	-3.94803	22.1987	8.75954	8.42021	-0.483799	0.0218158	
266	1580482314.184718978	0.00240508	-0.895078	2.13238	-2.79043	-1.56951	-2.62329	0	0	-0	0	0	0	-3.87996	22.3805	8.6602	8.4679	-0.434283	0.176179	
267	1580482314.192663023	0.00236913	-0.895042	2.13241	-2.79044	-1.56952	-2.6233	0	0	-0	0	0	0	-4.15224	22.4414	8.48771	8.46796	-0.58274	0.35626	
268	1580482314.200703473	0.00238112	-0.895054	2.13236	-2.79041	-1.56949	-2.62327	0	0	-0	0	0	0	-4.901	22.0757	8.58536	8.3488	-0.459	0.150452	
269	1580482314.208682534	0.0023931	-0.895102	2.13235	-2.79044	-1.56954	-2.62332	0	0	-0	0	0	0	-4.49258	21.9548	8.58314	8.5631	-0.508532	0.227648	
270	1580482314.208682534	0.0023931	-0.895102	2.13235	-2.79044	-1.56954	-2.62332	0	0	-0	0	0	0	-4.49258	21.9548	8.58314	8.5631	-0.508532	0.227648	
271	1580482314.224672444	0.0023931	-0.895078	2.1324	-2.79043	-1.56955	-2.62332	0	0	-0	0	0	0	-4.49258	21.9561	8.91016	8.30117	-0.533284	0.124716	
272	1580482314.232650512	0.00236913	-0.895089	2.13237	-2.79043	-1.56951	-2.6233	0	0	-0	0	0	0	-4.0161	22.3804	8.78408	8.6108	-0.384803	0.253367	
273	1580482314.240651152	0.00240508	-0.895066	2.13237	-2.79044	-1.56955	-2.62331	0	0	-0	0	0	0	-3.94803	22.9261	8.36077	8.42025	-0.558023	0.150449	
274	1580482314.248658227	0.00240508	-0.895102	2.13238	-2.79043	-1.56952	-2.62326	0	0	-0	0	0	0	-3.94803	22.8666	8.30998	8.32493	-0.384808	0.279093	
275	1580482314.256649027	0.0023931	-0.895054	2.13235	-2.7904	-1.56954	-2.62327	0	0	-0	0	0	0	-3.67575	22.2574	8.83445	8.30116	-0.607488	0.279083	
276	1580482314.264659323	0.00240508	-0.895078	2.13235	-2.79045	-1.56954	-2.6233	0	0	-0	0	0	0	-3.81189	22.3792	8.63391	8.51547	-0.459047	0.176189	
277	1580482314.272614669	0.00242905	-0.895102	2.13235	-2.79045	-1.56951	-2.62331	0	0	-0	0	0	0	-4.56065	21.8334	8.63302	8.42016	-0.459026	0.330565	
278	1580482314.280663758	0.00238112	-0.895078	2.13237	-2.79044	-1.56952	-2.62331	0	0	-0	0	0	0	-5.17328	23.1085	8.6348	8.51552	-0.558001	0.124727	
279	1580482314.288678805	0.00238112	-0.895054	2.13236	-2.79043	-1.56954	-2.62331	0	0	-0	0	0	0	-5.30942	22.3792	8.5604	8.39644	-0.533271	0.201903	
280	1580482314.296665066	0.0023931	-0.895078	2.13231	-2.79043	-1.56955	-2.6233	0	0	-0	0	0	0	-4.22031	22.3172	8.58271	8.44399	-0.558021	0.17619	
281	1580482314.304675941	0.00235715	-0.895078	2.13237	-2.79041	-1.56955	-2.6233	0	0	-0	0	0	0	-4.08417	22.198	8.55998	8.4679	-0.558021	0.201901	
282	1580482314.312676530	0.0023931	-0.895078	2.13236	-2.79041	-1.56954	-2.62331	0	0	-0	0	0	0	-4.28838	22.0155	8.65935	8.53935	-0.558012	0.176178	
283	1580482314.320655417	0.00236913	-0.895089	2.13236	-2.79044	-1.56952	-2.6233	0	0	-0	0	0	0	-4.49258	22.4406	8.45926	8.4202	-0.533258	0.176188	
284	1580482314.328683304	0.00236913	-0.895078	2.13235	-2.79041	-1.56955	-2.62325	0	0	-0	0	0	0	-3.81189	22.0757	8.35948	8.42022	-0.459051	0.227634	
285	1580482314.336684798	0.00241707	-0.895078	2.13235	-2.79045	-1.56952	-2.62332	0	0	-0	0	0	0	-3.81189	22.622	8.30955	8.53929	-0.558002	0.253374	
286	1580482314.344697292	0.00238112	-0.895089	2.13236	-2.79043	-1.56952	-2.62332	0	0	-0	0	0	0	-4.42452	22.1978	8.48424	8.46786	-0.434299	0.150458	
287	1580482314.352682656	0.0023931	-0.895018	2.13231	-2.79043	-1.56952	-2.6233	0	0	-0	0	0	0	-5.03714	22.316	8.7346	8.51553	-0.533258	0.201908	
288	1580482314.360684998	0.0023931	-0.895066	2.13236	-2.79041	-1.56952	-2.62332	0	0	-0	0	0	0	-4.49258	22.6222	8.73464	8.46791	-0.558003	0.124722	
289	1580482314.368643243	0.00238112	-0.895102	2.13235	-2.79043	-1.56952	-2.6233	0	0	-0	0	0	0	-4.42452	22.6832	8.43344	8.34872	-0.459036	0.253374	
290	1580482314.376716050	0.00238112	-0.895102	2.13234	-2.79045	-1.56957	-2.6233	0	0	-0	0	0	0	-3.74382	22.3186	8.63258	8.53924	-0.483821	0.20192	
291	1580482314.384724332	0.00241707	-0.895054	2.13237	-2.79043	-1.56951	-2.62331	0	0	-0	0	0	0	-4.08417	22.1368	8.58579	8.46792	-0.508508	0.124721	
292	1580482314.392744819	0.00241707	-0.895078	2.13237	-2.79044	-1.56955	-2.62331	0	0	-0	0	0	0	-4.35645	21.5303	8.33538	8.37259	-0.45906	0.176179	
293	1580482314.400686750	0.0023931	-0.895042	2.13237	-2.7904	-1.56954	-2.62332	0	0	-0	0	0	0	-4.0161	21.8331	8.61121	8.3965	-0.483792	0.279075	
294	1580482314.408764084	0.00241707	-0.895078	2.13241	-2.7904	-1.56954	-2.62331	0	0	-0	0	0	0	-3.94803	22.6242	8.31179	8.42032	-0.558012	0.150437	
295	1580482314.416703809	0.00238112	-0.895078	2.13237	-2.7904	-1.56956	-2.6233	0	0	-0	0	0	0	-4.42452	22.198	8.55999	8.39645	-0.558033	0.330535	
296	1580482314.424700075	0.00244066	-0.895066	2.13238	-2.79044	-1.56954	-2.6233	0	0	-0	0	0	0	-4.49258	22.3196	8.88519	8.37262	-0.459047	0.176175	
297	1580482314.432713376	0.0023931	-0.895102	2.13236	-2.79043	-1.56952	-2.62329	0	0	-0	0	0	0	-4.42452	22.3802	8.58358	8.44402	-0.434293	0.227644	
298	1580482314.440711428	0.00240508	-0.895078	2.13235	-2.79043	-1.56952	-2.62327	0	0	-0	0	0	0	-4.42452	22.622	8.60898	8.51549	-0.582736	0.176185	
299	1580482314.448694558	0.00240508	-0.895066	2.13236	-2.79043	-1.56955	-2.62329	0	0	-0	0	0	0	-4.22031	21.8938	8.60986	8.56317	-0.58276	0.279087	
300	1580482314.456691119	0.00238112	-0.895066	2.13241	-2.79045	-1.56952	-2.62327	0	0	-0	0	0	0	-4.0161	22.6846	8.61157	8.56319	-0.557996	0.201902	
301	1580482314.464691125	0.0023931	-0.895042	2.13237	-2.79044	-1.56951	-2.62326	0	0	-0	0	0	0	-4.0161	22.0152	8.78581	8.49173	-0.384798	0.176176	
302	1580482314.472731841	0.00240508	-0.895102	2.13235	-2.79043	-1.56956	-2.6233	0	0	-0	0	0	0	-3.47154	22.4404	8.68295	8.51547	-0.558032	0.201914	
303	1580482314.480693218	0.00240508	-0.895102	2.1324	-2.79043	-1.56952	-2.62336	0	0	-0	0	0	0	-3.47154	21.9566	8.535	8.42026	-0.63223	0.330546	
304	1580482314.488693889	0.00240508	-0.895089	2.13236	-2.79043	-1.56954	-2.62331	0	0	-0	0	0	0	-4.22031	22.1978	8.7088	8.53932	-0.459049	0.201911	
305	1580482314.496699272	0.00238112	-0.895089	2.13236	-2.79043	-1.56954	-2.6233	0	0	-0	0	0	0	-3.40347	22.5013	8.63394	8.49168	-0.582751	0.176184	
306	1580482314.504661202	0.0023931	-0.895089	2.13235	-2.79041	-1.56957	-2.6233	0	0	-0	0	0	0	-4.62872	22.6223	8.30915	8.42021	-0.582784	0.356272	
307	1580482314.512671876	0.00240508	-0.895102	2.13231	-2.79043	-1.56952	-2.62333	0	0	-0	0	0	0	-4.0161	21.8321	8.60678	8.44397	-0.483781	0.150472	
308	1580482314.520689307	0.0023931	-0.895102	2.13236	-2.79043	-1.56955	-2.62329	0	0	-0	0	0	0	-3.60768	22.2588	8.63348	8.44402	-0.558019	0.22764	
309	1580482314.528695866	0.0023931	-0.895089	2.13236	-2.7904	-1.56952	-2.62326	0	0	-0	0	0	0	-4.08417	21.5908	8.53416	8.51552	-0.557994	0.201907	
310	1580482314.536724070	0.00240508	-0.895078	2.13237	-2.79043	-1.56954	-2.62332	0	0	-0	0	0	0	-4.22031	22.6836	8.53501	8.49171	-0.558014	0.253361	
311	1580482314.544690622	0.00242905	-0.895054	2.13237	-2.79045	-1.56954	-2.62325	0	0	-0	0	0	0	-4.76486	22.9866	8.73545	8.39641	-0.508522	0.227633	
312	1580482314.552694142	0.00241707	-0.895089	2.13236	-2.79045	-1.56955	-2.62332	0	0	-0	0	0	0	-4.08417	22.6227	8.60896	8.46783	-0.508543	0.227643	
313	1580482314.560671150	0.0023931	-0.895089	2.13236	-2.79044	-1.56955	-2.6233	0	0	-0	0	0	0	-3.74382	22.6834	8.40936	8.49166	-0.50854	0.22764	
314	1580482314.568710436	0.00240508	-0.895054	2.13237	-2.79041	-1.56951	-2.62329	0	0	-0	0	0	0	-4.62872	22.6831	8.7355	8.34882	-0.483764	0.150446	
315	1580482314.576690709	0.0023931	-0.895078	2.13237	-2.79044	-1.56957	-2.62331	0	0	-0	0	0	0	-4.901	21.9552	8.6348	8.53934	-0.582786	0.279087	
316	1580482314.584697799	0.00238112	-0.895089	2.13235	-2.79045	-1.56955	-2.62332	0	0	-0	0	0	0	-4.0161	22.3188	8.60853	8.49164	-0.483802	0.17619	
317	1580482314.592657791	0.00235715	-0.895066	2.13236	-2.79039	-1.56951	-2.6233	0	0	-0	0	0	0	-4.901	21.8332	8.48515	8.42029	-0.384803	0.201901	
318	1580482314.600722657	0.0023931	-0.895089	2.1324	-2.7904	-1.56955	-2.6233	0	0	-0	0	0	0	-4.22031	22.6241	8.61033	8.325	-0.50854	0.124713	
319	1580482314.608686639	0.00240508	-0.895042	2.13236	-2.79044	-1.56954	-2.62327	0	0	-0	0	0	0	-4.49258	22.1968	8.61071	8.44407	-0.533266	0.176175	
320	1580482314.616687905	0.00235715	-0.895078	2.13236	-2.79041	-1.56951	-2.62333	0	0	-0	0	0	0	-4.0161	22.0155	8.6843	8.39643	-0.434289	0.150454	
321	1580482314.624649999	0.00240508	-0.895126	2.13241	-2.79043	-1.56955	-2.6233	0	0	-0	0	0	0	-4.42452	22.9287	8.68426	8.46787	-0.558021	0.253362	
322	1580482314.632681978	0.00238112	-0.895078	2.13235	-2.7904	-1.56951	-2.6233	0	0	-0	0	0	0	-5.17328	22.8042	8.55912	8.44406	-0.483766	0.150454	
323	1580482314.640664368	0.0023931	-0.895089	2.13238	-2.79044	-1.56956	-2.6233	0	0	-0	0	0	0	-4.15224	22.3201	8.83441	8.37259	-0.582773	0.15045	
324	1580482314.648689817	0.00240508	-0.895078	2.13238	-2.7904	-1.56954	-2.6233	0	0	-0	0	0	0	-5.10521	21.5915	8.78499	8.325	-0.582751	0.17617	
325	1580482314.656662754	0.00240508	-0.895089	2.13238	-2.79044	-1.56954	-2.6233	0	0	-0	0	0	0	-4.22031	21.8952	8.51004	8.46787	-0.582751	0.201909	
326	1580482314.664701299	0.00238112	-0.895114	2.13234	-2.79043	-1.56951	-2.62331	0	0	-0	0	0	0	-4.96907	22.1974	8.83179	8.51544	-0.58273	0.150471	
327	1580482314.672696079	0.0023931	-0.895102	2.13236	-2.79045	-1.5695	-2.6233	0	0	-0	0	0	0	-3.60768	21.7124	8.48375	8.32488	-0.483754	0.176197	
328	1580482314.680692849	0.0023931	-0.895078	2.13237	-2.79041	-1.56952	-2.62326	0	0	-0	0	0	0	-4.42452	21.6517	8.73463	8.51553	-0.483772	0.227632	
329	1580482314.688698289	0.0023931	-0.895102	2.13237	-2.79043	-1.56954	-2.62331	0	0	-0	0	0	0	-4.83293	21.8343	8.50917	8.56314	-0.558012	0.227639	
330	1580482314.696703522	0.00238112	-0.895054	2.13234	-2.79043	-1.56956	-2.6233	0	0	-0	0	0	0	-4.28838	22.5604	8.83399	8.56316	-0.48381	0.253361	
331	1580482314.704716829	0.00238112	-0.895078	2.13238	-2.79043	-1.56956	-2.62326	0	0	-0	0	0	0	-4.08417	22.5626	8.51048	8.56318	-0.508546	0.253355	
332	1580482314.712686226	0.00238112	-0.895102	2.13235	-2.79044	-1.56958	-2.62327	0	0	-0	0	0	0	-5.10521	22.6225	8.58313	8.49163	-0.53331	0.330551	
333	1580482314.720700430	0.0023931	-0.895066	2.13238	-2.79043	-1.56958	-2.6233	0	0	-0	0	0	0	-3.3354	21.5912	8.38617	8.53938	-0.508574	0.176166	
334	1580482314.728743254	0.0023931	-0.895066	2.13237	-2.79043	-1.56952	-2.62327	0	0	-0	0	0	0	-4.49258	22.4406	8.85981	8.44407	-0.557996	0.124722	
335	1580482314.736639349	0.00240508	-0.895102	2.13238	-2.79043	-1.56955	-2.62327	0	0	-0	0	0	0	-3.94803	22.3203	8.68426	8.46786	-0.558018	0.330545	
336	1580482314.744688761	0.00238112	-0.895114	2.1324	-2.79041	-1.56955	-2.62327	0	0	-0	0	0	0	-4.49258	22.5638	8.73418	8.42024	-0.459055	0.150449	
337	1580482314.752697871	0.00241707	-0.895066	2.13241	-2.79046	-1.56951	-2.6233	0	0	-0	0	0	0	-3.60768	22.5025	8.46185	8.51554	-0.557988	0.27909	
338	1580482314.760705095	0.00240508	-0.895089	2.13238	-2.79044	-1.56955	-2.62332	0	0	-0	0	0	0	-3.67575	22.6236	8.28549	8.51552	-0.508543	0.253362	
339	1580482314.768665559	0.00241707	-0.895102	2.13237	-2.79043	-1.56952	-2.6233	0	0	-0	0	0	0	-4.42452	22.2592	8.63392	8.5155	-0.483777	0.201913	
340	1580482314.776692975	0.00240508	-0.895089	2.13241	-2.79045	-1.56955	-2.62327	0	0	-0	0	0	0	-3.74382	22.5637	8.28633	8.53934	-0.582759	0.253359	
341	1580482314.784695282	0.0023931	-0.895054	2.13231	-2.79043	-1.56951	-2.62329	0	0	-0	0	0	0	-4.56065	22.4988	8.65843	8.44402	-0.409542	0.17619	
342	1580482314.792759723	0.00241707	-0.89503	2.13238	-2.79043	-1.56954	-2.62332	0	0	-0	0	0	0	-3.87996	22.6224	8.81166	8.42032	-0.582755	0.22762	
343	1580482314.800703247	0.00242905	-0.895114	2.1324	-2.79043	-1.56952	-2.6233	0	0	-0	0	0	0	-3.74382	22.7459	8.4597	8.53933	-0.533258	0.253366	
344	1580482314.808682330	0.00238112	-0.895078	2.13236	-2.79043	-1.56954	-2.62329	0	0	-0	0	0	0	-4.83293	22.1976	8.50962	8.42023	-0.582749	0.279092	
345	1580482314.816703667	0.00238112	-0.895078	2.13238	-2.79041	-1.56952	-2.62329	0	0	-0	0	0	0	-4.42452	22.6841	8.51051	8.37263	-0.483775	0.253357	
346	1580482314.824798014	0.00240508	-0.895089	2.13236	-2.7904	-1.56958	-2.62331	0	0	-0	0	0	0	-4.69679	22.7441	8.45931	8.32496	-0.483834	0.279082	
347	1580482314.832702176	0.00241707	-0.895114	2.13235	-2.79043	-1.56954	-2.62331	0	0	-0	0	0	0	-4.49258	22.2586	8.63262	8.46781	-0.50853	0.176192	
348	1580482314.840702584	0.00240508	-0.895089	2.13238	-2.79044	-1.56955	-2.62329	0	0	-0	0	0	0	-4.76486	21.7131	8.55994	8.49169	-0.508538	0.176179	
349	1580482314.848712331	0.0023931	-0.895054	2.13236	-2.79044	-1.56954	-2.62331	0	0	-0	0	0	0	-4.15224	22.622	8.71009	8.44407	-0.459049	0.201906	
350	1580482314.856696541	0.00238112	-0.895054	2.1324	-2.79043	-1.56951	-2.62332	0	0	-0	0	0	0	-4.69679	22.3805	8.76132	8.37267	-0.533251	0.279081	
351	1580482314.864685728	0.00242905	-0.895078	2.1324	-2.7904	-1.56957	-2.6233	0	0	-0	0	0	0	-5.64977	21.9561	8.56086	8.4203	-0.508563	0.150434	
352	1580482314.872707469	0.00238112	-0.895054	2.1324	-2.79043	-1.56957	-2.62333	0	0	-0	0	0	0	-4.69679	22.077	8.51181	8.44413	-0.310642	0.20189	
353	1580482314.880708562	0.00236913	-0.895089	2.13238	-2.79044	-1.56957	-2.62331	0	0	-0	0	0	0	-4.35645	22.5022	8.60985	8.51552	-0.558046	0.227631	
354	1580482314.888713462	0.0023931	-0.895089	2.13232	-2.79045	-1.56955	-2.62329	0	0	-0	0	0	0	-4.0161	22.9249	8.35813	8.46778	-0.459056	0.201923	
355	1580482314.896704843	0.00241707	-0.895089	2.13237	-2.79041	-1.56954	-2.62327	0	0	-0	0	0	0	-4.22031	22.4411	8.55953	8.4917	-0.533266	0.201906	
356	1580482314.904694244	0.00240508	-0.895078	2.13242	-2.79043	-1.56955	-2.6233	0	0	-0	0	0	0	-3.81189	21.8963	8.41201	8.51559	-0.533281	0.253348	
357	1580482314.912645339	0.00241707	-0.895054	2.13237	-2.79044	-1.56958	-2.62331	0	0	-0	0	0	0	-4.49258	21.7726	8.78538	8.56319	-0.459094	0.227624	
358	1580482314.920786648	0.00240508	-0.895078	2.13237	-2.7904	-1.56955	-2.62326	0	0	-0	0	0	0	-4.0161	22.9264	8.38532	8.37262	-0.558016	0.227626	
359	1580482314.928652682	0.00240508	-0.895042	2.13241	-2.79041	-1.56954	-2.62332	0	0	-0	0	0	0	-4.08417	22.1986	8.6624	8.468	-0.632236	0.124703	
360	1580482314.936699906	0.00240508	-0.895078	2.13242	-2.79045	-1.56955	-2.62327	0	0	-0	0	0	0	-4.35645	21.9569	8.7114	8.3488	-0.558018	0.0475323	
361	1580482314.944707648	0.00240508	-0.895066	2.13238	-2.79041	-1.56955	-2.62329	0	0	-0	0	0	0	-5.10521	22.441	8.53589	8.58703	-0.533279	0.201896	
362	1580482314.952767796	0.00238112	-0.895078	2.13238	-2.79043	-1.56956	-2.62329	0	0	-0	0	0	0	-4.83293	22.684	8.63525	8.4679	-0.53329	0.176172	
363	1580482314.960713017	0.00241707	-0.89503	2.13236	-2.79043	-1.56956	-2.62329	0	0	-0	0	0	0	-4.56065	22.3787	8.93554	8.46793	-0.533291	0.176166	
364	1580482314.968667298	0.00241707	-0.895066	2.13241	-2.7904	-1.56956	-2.62327	0	0	-0	0	0	0	-4.96907	22.1991	8.56173	8.46797	-0.55803	0.279069	
365	1580482314.976705547	0.0023931	-0.895066	2.13235	-2.79043	-1.56955	-2.6233	0	0	-0	0	0	0	-4.42452	22.8646	8.73418	8.56315	-0.50854	0.253362	
366	1580482314.984769069	0.00236913	-0.895042	2.13235	-2.79041	-1.56955	-2.62332	0	0	-0	0	0	0	-4.901	22.4392	8.73508	8.34882	-0.459062	0.279082	
367	1580482314.992683674	0.0023931	-0.895078	2.1324	-2.79043	-1.56954	-2.6233	0	0	-0	0	0	0	-4.96907	22.7452	8.58578	8.39645	-0.483788	0.176173	
368	1580482315.000713861	0.00241707	-0.895089	2.13238	-2.79043	-1.56954	-2.6233	0	0	-0	0	0	0	-4.0161	22.5629	8.46015	8.39642	-0.533269	0.279089	
369	1580482315.008682616	0.00240508	-0.895102	2.13237	-2.79041	-1.56952	-2.62329	0	0	-0	0	0	0	-4.83293	22.7448	8.48423	8.44405	-0.508516	0.150455	
370	1580482315.016740830	0.0023931	-0.895089	2.13234	-2.7904	-1.56955	-2.62331	0	0	-0	0	0	0	-3.87996	22.7433	8.73291	8.46786	-0.483801	0.176182	
371	1580482315.024718367	0.00240508	-0.895089	2.13237	-2.79045	-1.56954	-2.62333	0	0	-0	0	0	0	-4.08417	22.3803	8.73416	8.39639	-0.434311	0.176187	
372	1580482315.032692837	0.00236913	-0.895078	2.13236	-2.79043	-1.56951	-2.62329	0	0	-0	0	0	0	-4.42452	22.6225	8.40981	8.46787	-0.533245	0.22764	
373	1580482315.040694266	0.00238112	-0.895078	2.13238	-2.79044	-1.56955	-2.62329	0	0	-0	0	0	0	-4.15224	22.7447	8.58533	8.44406	-0.508538	0.279087	
374	1580482315.048756416	0.00238112	-0.895078	2.13237	-2.7904	-1.5695	-2.62327	0	0	-0	0	0	0	-3.74382	22.5015	8.65979	8.44409	-0.459011	0.304816	
375	1580482315.056708072	0.00240508	-0.895066	2.1324	-2.79041	-1.56957	-2.62327	0	0	-0	0	0	0	-3.74382	22.1986	8.41157	8.34883	-0.483819	0.0989786	
376	1580482315.064714412	0.00242905	-0.895054	2.13237	-2.79043	-1.56954	-2.62331	0	0	-0	0	0	0	-4.28838	21.9547	8.66064	8.46792	-0.459049	0.150445	
377	1580482315.072726429	0.0023931	-0.895078	2.1324	-2.79045	-1.56952	-2.6233	0	0	-0	0	0	0	-3.94803	22.5024	8.53585	8.42024	-0.557999	0.253363	
378	1580482315.080749336	0.00236913	-0.895114	2.1324	-2.79043	-1.56952	-2.62329	0	0	-0	0	0	0	-3.94803	22.5031	8.65931	8.49169	-0.459034	0.176183	
379	1580482315.088709161	0.00238112	-0.895042	2.13235	-2.79043	-1.56952	-2.62331	0	0	-0	0	0	0	-4.35645	22.2571	8.53545	8.42026	-0.459038	0.356271	
380	1580482315.096710269	0.00241707	-0.895078	2.13237	-2.79045	-1.56952	-2.62327	0	0	-0	0	0	0	-4.42452	22.805	9.1338	8.51549	-0.483773	0.227641	
381	1580482315.104678693	0.00238112	-0.895054	2.13237	-2.79044	-1.56951	-2.62331	0	0	-0	0	0	0	-4.69679	21.894	8.56082	8.51555	-0.384805	0.176179	
382	1580482315.112684609	0.00240508	-0.895042	2.13237	-2.79044	-1.56955	-2.62329	0	0	-0	0	0	0	-4.15224	21.4082	8.31174	8.37263	-0.607501	0.201899	
383	1580482315.120691143	0.0023931	-0.895102	2.13236	-2.79044	-1.56952	-2.62329	0	0	-0	0	0	0	-3.53961	22.016	8.40891	8.51546	-0.459034	0.176191	
384	1580482315.128717592	0.0023931	-0.895054	2.13238	-2.79043	-1.56955	-2.62327	0	0	-0	0	0	0	-4.35645	22.3194	8.56126	8.325	-0.483796	0.227623	
385	1580482315.136666484	0.0023931	-0.895066	2.13236	-2.79045	-1.56955	-2.62326	0	0	-0	0	0	0	-4.22031	22.3187	8.70963	8.4202	-0.533275	0.150454	
386	1580482315.144725575	0.0023931	-0.895114	2.13237	-2.7904	-1.56955	-2.6233	0	0	-0	0	0	0	-3.87996	22.6237	8.58362	8.37259	-0.434317	0.227635	
387	1580482315.152729275	0.00241707	-0.895042	2.13236	-2.7904	-1.56955	-2.62331	0	0	-0	0	0	0	-4.42452	22.2576	8.56087	8.49177	-0.483801	0.304804	
388	1580482315.160729951	0.0023931	-0.895078	2.13237	-2.7904	-1.56954	-2.62329	0	0	-0	0	0	0	-4.83293	22.5622	8.58494	8.42027	-0.508527	0.253356	
389	1580482315.168715468	0.00240508	-0.895102	2.13236	-2.79044	-1.56954	-2.62331	0	0	-0	0	0	0	-3.53961	22.3802	8.40891	8.44401	-0.50853	0.227645	
390	1580482315.176760369	0.0023931	-0.895066	2.13237	-2.79044	-1.56954	-2.62329	0	0	-0	0	0	0	-4.0161	22.3191	8.48552	8.46788	-0.459045	0.176178	
391	1580482315.184730646	0.00238112	-0.895078	2.13238	-2.79043	-1.56952	-2.62329	0	0	-0	0	0	0	-4.22031	22.5626	8.46059	8.44408	-0.483775	0.330543	
392	1580482315.192709311	0.00240508	-0.895066	2.13237	-2.79043	-1.56954	-2.62331	0	0	-0	0	0	0	-4.69679	21.4087	8.73506	8.51555	-0.50853	0.253359	
393	1580482315.200721967	0.0023931	-0.895102	2.13236	-2.79044	-1.56954	-2.6233	0	0	-0	0	0	0	-4.83293	22.4409	8.45881	8.51547	-0.459047	0.227645	
394	1580482315.208784921	0.0023931	-0.895054	2.1324	-2.79043	-1.56954	-2.62332	0	0	-0	0	0	0	-4.42452	22.1984	8.412	8.58706	-0.43431	0.176167	
395	1580482315.216736538	0.00238112	-0.895066	2.13234	-2.79043	-1.56956	-2.62327	0	0	-0	0	0	0	-4.76486	22.682	8.45927	8.51549	-0.558029	0.201908	
396	1580482315.224744350	0.00242905	-0.895089	2.1324	-2.79045	-1.56956	-2.62327	0	0	-0	0	0	0	-4.49258	22.4419	8.3857	8.51551	-0.434325	0.0989943	
397	1580482315.232738070	0.0023931	-0.895054	2.13235	-2.79043	-1.56957	-2.62327	0	0	-0	0	0	0	-4.22031	22.1359	8.73461	8.4917	-0.582781	0.279084	
398	1580482315.240748931	0.00240508	-0.895042	2.13236	-2.79043	-1.56952	-2.62326	0	0	-0	0	0	0	-4.49258	21.954	8.56082	8.44409	-0.508513	0.22763	
399	1580482315.248742710	0.0023931	-0.895078	2.13236	-2.79041	-1.56957	-2.62333	0	0	-0	0	0	0	-4.28838	22.319	8.5845	8.49172	-0.558049	0.201901	
400	1580482315.256757870	0.00241707	-0.895089	2.13235	-2.79041	-1.56955	-2.62327	0	0	-0	0	0	0	-4.56065	21.9546	8.40895	8.39639	-0.508536	0.20191	
401	1580482315.264696114	0.00240508	-0.895066	2.1324	-2.79044	-1.56956	-2.62332	0	0	-0	0	0	0	-4.62872	22.1379	8.46145	8.49174	-0.558036	0.124714	
402	1580482315.272752410	0.00241707	-0.895066	2.13235	-2.79044	-1.56955	-2.62327	0	0	-0	0	0	0	-4.42452	22.5611	8.53455	8.53931	-0.508536	0.20191	
403	1580482315.280744838	0.00241707	-0.895054	2.13236	-2.79044	-1.56954	-2.6233	0	0	-0	0	0	0	-4.42452	22.015	8.56038	8.53935	-0.434306	0.0989951	
404	1580482315.288727943	0.00238112	-0.895066	2.13237	-2.79041	-1.56954	-2.62326	0	0	-0	0	0	0	-3.53961	22.6834	8.53545	8.25352	-0.607487	0.227628	
405	1580482315.296723097	0.00240508	-0.895042	2.13237	-2.79041	-1.56951	-2.62329	0	0	-0	0	0	0	-4.901	22.9257	8.33672	8.44412	-0.434283	0.201898	
406	1580482315.304730141	0.00241707	-0.895042	2.1324	-2.7904	-1.56956	-2.6233	0	0	-0	0	0	0	-3.60768	21.834	8.56217	8.34888	-0.508552	0.176155	
407	1580482315.312716315	0.00240508	-0.895078	2.13238	-2.79043	-1.56954	-2.62325	0	0	-0	0	0	0	-5.30942	22.1984	8.41068	8.51553	-0.483781	0.304814	
408	1580482315.320728104	0.00241707	-0.895089	2.13238	-2.79046	-1.56952	-2.6233	0	0	-0	0	0	0	-4.69679	22.7449	8.75952	8.46784	-0.632221	0.227644	
409	1580482315.328730839	0.0023931	-0.895078	2.13234	-2.79043	-1.56952	-2.62332	0	0	-0	0	0	0	-4.0161	22.6823	8.58361	8.46785	-0.558002	0.176188	
410	1580482315.336744486	0.00238112	-0.895078	2.13237	-2.79043	-1.56952	-2.6233	0	0	-0	0	0	0	-3.87996	21.7731	8.63481	8.46789	-0.285851	0.124725	
411	1580482315.344685515	0.00240508	-0.895042	2.13237	-2.79043	-1.56952	-2.62329	0	0	-0	0	0	0	-4.35645	22.258	8.73593	8.46793	-0.434294	0.201899	
412	1580482315.352718932	0.0023931	-0.895102	2.1324	-2.79043	-1.56952	-2.6233	0	0	-0	0	0	0	-3.94803	22.2601	8.63479	8.44406	-0.434295	0.304819	
413	1580482315.360714014	0.00241707	-0.895102	2.13236	-2.79044	-1.56955	-2.62329	0	0	-0	0	0	0	-2.79085	21.7125	8.55862	8.444	-0.558019	0.227643	
414	1580482315.368708426	0.00238112	-0.895089	2.13238	-2.79045	-1.56956	-2.62329	0	0	-0	0	0	0	-4.62872	22.5022	8.73459	8.46785	-0.508549	0.17618	
415	1580482315.376683127	0.00242905	-0.895078	2.13237	-2.79044	-1.56956	-2.62325	0	0	-0	0	0	0	-4.42452	22.3801	8.68469	8.3964	-0.508544	0.227633	
416	1580482315.384703374	0.00240508	-0.895078	2.13237	-2.79043	-1.56955	-2.62327	0	0	-0	0	0	0	-3.87996	22.7443	8.65976	8.4917	-0.508536	0.227632	
417	1580482315.392712340	0.00238112	-0.895066	2.13237	-2.79043	-1.56956	-2.62329	0	0	-0	0	0	0	-4.49258	21.7122	8.38573	8.39643	-0.50855	0.253355	
418	1580482315.400739555	0.00240508	-0.895066	2.13236	-2.79044	-1.56956	-2.62327	0	0	-0	0	0	0	-3.94803	21.651	8.48508	8.44404	-0.508548	0.279088	
419	1580482315.408687961	0.00240508	-0.895066	2.13236	-2.79043	-1.56956	-2.62329	0	0	-0	0	0	0	-4.0161	22.0152	8.58491	8.39642	-0.53329	0.253358	
420	1580482315.416690435	0.00240508	-0.895078	2.13235	-2.79045	-1.56955	-2.6233	0	0	-0	0	0	0	-3.53961	22.1364	8.45925	8.39636	-0.508539	0.201915	
421	1580482315.424672947	0.0023931	-0.895042	2.1324	-2.79041	-1.56956	-2.62331	0	0	-0	0	0	0	-4.15224	22.5624	8.3875	8.42034	-0.434331	0.0989749	
422	1580482315.432709458	0.00238112	-0.895066	2.13234	-2.79041	-1.56954	-2.62332	0	0	-0	0	0	0	-4.49258	22.5	8.63396	8.4917	-0.508532	0.330547	
423	1580482315.440694255	0.0023931	-0.895054	2.13237	-2.79041	-1.56951	-2.62332	0	0	-0	0	0	0	-4.42452	22.6831	8.4361	8.61086	-0.557992	0.227629	
424	1580482315.448702062	0.0023931	-0.895089	2.13232	-2.79041	-1.56951	-2.62326	0	0	-0	0	0	0	-4.15224	22.2572	8.68254	8.46782	-0.533242	0.227648	
425	1580482315.456664332	0.0023931	-0.895078	2.13237	-2.79041	-1.56956	-2.6233	0	0	-0	0	0	0	-4.901	22.805	8.41027	8.44408	-0.533292	0.176172	
426	1580482315.464737772	0.00241707	-0.895089	2.13235	-2.79043	-1.56952	-2.62329	0	0	-0	0	0	0	-4.62872	22.3795	8.45884	8.49166	-0.508516	0.201916	
427	1580482315.472648526	0.00236913	-0.895078	2.13235	-2.7904	-1.56952	-2.62327	0	0	-0	0	0	0	-4.83293	21.6509	8.48426	8.42024	-0.508514	0.253363	
428	1580482315.480689733	0.0023931	-0.895126	2.1324	-2.79044	-1.56955	-2.62331	0	0	-0	0	0	0	-4.49258	21.4108	8.4343	8.32492	-0.434319	0.150457	
429	1580482315.488702327	0.0023931	-0.895089	2.13237	-2.79044	-1.56956	-2.62331	0	0	-0	0	0	0	-4.62872	22.5017	8.4597	8.49168	-0.483812	0.124725	
430	1580482315.496771739	0.00240508	-0.895089	2.13234	-2.7904	-1.56954	-2.62329	0	0	-0	0	0	0	-4.56065	21.8935	8.35863	8.53932	-0.483786	0.227639	
431	1580482315.504690428	0.00240508	-0.895066	2.13237	-2.79043	-1.56952	-2.62329	0	0	-0	0	0	0	-4.22031	22.1978	8.61029	8.51554	-0.434294	0.150449	
432	1580482315.512691451	0.0023931	-0.895089	2.1324	-2.79044	-1.56957	-2.62332	0	0	-0	0	0	0	-3.94803	21.7742	8.51048	8.44407	-0.558047	0.253356	
433	1580482315.520687795	0.00238112	-0.895066	2.13238	-2.79041	-1.56956	-2.62331	0	0	-0	0	0	0	-3.94803	22.8052	8.38619	8.44411	-0.459072	0.304805	
434	1580482315.528720194	0.00241707	-0.895066	2.13236	-2.79043	-1.56954	-2.6233	0	0	-0	0	0	0	-5.24135	22.6222	8.3354	8.39642	-0.55801	0.124723	
435	1580482315.536731752	0.0023931	-0.895078	2.13235	-2.79043	-1.56951	-2.6233	0	0	-0	0	0	0	-4.35645	22.3792	8.53413	8.49168	-0.483766	0.25337	
436	1580482315.544708861	0.0023931	-0.895078	2.13237	-2.79043	-1.56952	-2.62329	0	0	-0	0	0	0	-4.28838	22.4408	8.78452	8.53935	-0.533257	0.356274	
437	1580482315.552702750	0.0023931	-0.895089	2.13237	-2.79043	-1.56957	-2.62329	0	0	-0	0	0	0	-4.56065	22.4411	8.70923	8.42023	-0.508561	0.150448	
438	1580482315.560719329	0.00242905	-0.895089	2.13236	-2.79043	-1.56956	-2.62332	0	0	-0	0	0	0	-4.0161	22.1978	8.73375	8.44404	-0.483814	0.0989972	
439	1580482315.568698165	0.00244066	-0.895102	2.13237	-2.79043	-1.56955	-2.62327	0	0	-0	0	0	0	-3.87996	22.1985	8.90838	8.49167	-0.459055	0.176182	
440	1580482315.576684269	0.00240508	-0.895078	2.13238	-2.79044	-1.56951	-2.62329	0	0	-0	0	0	0	-4.15224	22.3198	8.80989	8.4917	-0.508505	0.30482	
441	1580482315.584702625	0.0023931	-0.895054	2.13236	-2.79044	-1.56952	-2.62326	0	0	-0	0	0	0	-5.10521	22.1364	8.46057	8.6108	-0.508512	0.253363	
442	1580482315.592711675	0.0023931	-0.895066	2.1324	-2.79043	-1.56954	-2.62327	0	0	-0	0	0	0	-3.81189	21.9558	8.2369	8.49175	-0.508525	0.124714	
443	1580482315.600695683	0.0023931	-0.895078	2.13236	-2.79041	-1.56955	-2.62327	0	0	-0	0	0	0	-4.76486	22.5618	8.60943	8.46788	-0.508536	0.201904	
444	1580482315.608691547	0.00241707	-0.895054	2.13235	-2.79041	-1.56954	-2.62327	0	0	-0	0	0	0	-4.901	22.3181	8.43521	8.42025	-0.483785	0.304814	
445	1580482315.616676225	0.00242905	-0.895114	2.1324	-2.79043	-1.56956	-2.62327	0	0	-0	0	0	0	-3.74382	22.5031	8.5096	8.44404	-0.533288	0.176177	
446	1580482315.624727284	0.00238112	-0.89503	2.13231	-2.79041	-1.56955	-2.62335	0	0	-0	0	0	0	-3.47154	22.4984	8.80905	8.42025	-0.533287	0.124721	
447	1580482315.632699023	0.00240508	-0.895042	2.13236	-2.79044	-1.56952	-2.62327	0	0	-0	0	0	0	-4.49258	22.5003	8.81032	8.46789	-0.483773	0.304816	
448	1580482315.640694769	0.00238112	-0.895102	2.13238	-2.79044	-1.56954	-2.62327	0	0	-0	0	0	0	-4.08417	22.6845	8.58444	8.51549	-0.483784	0.227639	
449	1580482315.648697540	0.00238112	-0.895054	2.13241	-2.79043	-1.56956	-2.62331	0	0	-0	0	0	0	-4.42452	21.956	8.46234	8.49178	-0.459072	0.227616	
450	1580482315.656657420	0.0023931	-0.895078	2.13236	-2.79044	-1.56952	-2.62327	0	0	-0	0	0	0	-4.35645	22.319	8.68426	8.39639	-0.483773	0.227641	
451	1580482315.664690482	0.00238112	-0.895054	2.13236	-2.79043	-1.56954	-2.6233	0	0	-0	0	0	0	-4.22031	22.3792	8.83486	8.39644	-0.483788	0.330542	
452	1580482315.672688769	0.00240508	-0.895066	2.13238	-2.79043	-1.56952	-2.6233	0	0	-0	0	0	0	-3.67575	22.2589	8.53588	8.49174	-0.533259	0.279085	
453	1580482315.680690277	0.00240508	-0.895089	2.13241	-2.79041	-1.56952	-2.62335	0	0	-0	0	0	0	-4.35645	23.1101	8.53591	8.44412	-0.483784	0.227627	
454	1580482315.688669319	0.00242905	-0.895066	2.13235	-2.79043	-1.56954	-2.62325	0	0	-0	0	0	0	-4.56065	22.6218	8.53456	8.49168	-0.508522	0.201909	
455	1580482315.696686443	0.0023931	-0.895089	2.13234	-2.79043	-1.56951	-2.62331	0	0	-0	0	0	0	-4.28838	22.8039	8.58317	8.53929	-0.508508	0.279103	
456	1580482315.704703574	0.00241707	-0.895066	2.13236	-2.79045	-1.56952	-2.62331	0	0	-0	0	0	0	-3.87996	22.3187	8.75954	8.30111	-0.582741	0.176185	
457	1580482315.712704236	0.00240508	-0.895078	2.13237	-2.79043	-1.56957	-2.62327	0	0	-0	0	0	0	-4.08417	22.4408	8.55995	8.4917	-0.582781	0.227628	
458	1580482315.720673290	0.00238112	-0.895089	2.13236	-2.79043	-1.56957	-2.62332	0	0	-0	0	0	0	-3.26733	22.0157	8.55909	8.49168	-0.558047	0.176179	
459	1580482315.728690814	0.00240508	-0.895066	2.13241	-2.79041	-1.56952	-2.62331	0	0	-0	0	0	0	-4.56065	21.8956	8.63658	8.46796	-0.483779	0.279077	
460	1580482315.736697979	0.00238112	-0.895042	2.13236	-2.79045	-1.56955	-2.62329	0	0	-0	0	0	0	-4.49258	22.3789	8.68556	8.53935	-0.508538	0.25336	
461	1580482315.744690036	0.0023931	-0.895078	2.13234	-2.7904	-1.56954	-2.62327	0	0	-0	0	0	0	-4.15224	22.3788	8.30916	8.46787	-0.68171	0.201908	
462	1580482315.752712015	0.00240508	-0.895054	2.13236	-2.79043	-1.56952	-2.62329	0	0	-0	0	0	0	-4.08417	22.0757	8.68515	8.49172	-0.434294	0.227632	
463	1580482315.760691990	0.00240508	-0.895089	2.13236	-2.79044	-1.56954	-2.6233	0	0	-0	0	0	0	-4.28838	22.1371	8.25966	8.39638	-0.409565	0.176186	
464	1580482315.768690072	0.00240508	-0.895089	2.13238	-2.79041	-1.56954	-2.62329	0	0	-0	0	0	0	-4.56065	22.745	8.60987	8.39643	-0.508527	0.176175	
465	1580482315.776703253	0.00241707	-0.895054	2.13235	-2.7904	-1.56954	-2.62332	0	0	-0	0	0	0	-4.08417	22.6216	8.63485	8.34882	-0.508532	0.2019	
466	1580482315.784688627	0.00240508	-0.895042	2.13235	-2.7904	-1.56954	-2.62331	0	0	-0	0	0	0	-3.87996	22.4392	8.73509	8.58704	-0.607494	0.279081	
467	1580482315.792684886	0.00236913	-0.895114	2.13236	-2.79043	-1.56954	-2.6233	0	0	-0	0	0	0	-4.22031	22.3197	8.658	8.51547	-0.533269	0.201917	
468	1580482315.800698204	0.0023931	-0.895066	2.13236	-2.79045	-1.56954	-2.6233	0	0	-0	0	0	0	-4.35645	22.5008	8.70964	8.34875	-0.508529	0.0990006	
469	1580482315.808700609	0.00240508	-0.895126	2.13234	-2.7904	-1.56955	-2.62332	0	0	-0	0	0	0	-4.0161	22.0763	8.50702	8.39635	-0.533284	0.227646	
470	1580482315.816718765	0.00238112	-0.895054	2.13238	-2.79044	-1.56955	-2.62329	0	0	-0	0	0	0	-4.08417	22.38	8.76086	8.49173	-0.533279	0.201899	
471	1580482315.824672066	0.00240508	-0.895089	2.1324	-2.79043	-1.56956	-2.62331	0	0	-0	0	0	0	-4.0161	21.9563	8.83486	8.42026	-0.483812	0.176172	
472	1580482315.832695909	0.0023931	-0.895078	2.13234	-2.79045	-1.56951	-2.62327	0	0	-0	0	0	0	-3.81189	22.3788	8.75822	8.56309	-0.508503	0.407745	
473	1580482315.840702809	0.00238112	-0.895078	2.13237	-2.79043	-1.56951	-2.62331	0	0	-0	0	0	0	-3.81189	21.7124	8.78452	8.46789	-0.55799	0.150454	
474	1580482315.848662208	0.00238112	-0.895102	2.13237	-2.79044	-1.56956	-2.6233	0	0	-0	0	0	0	-5.03714	22.3806	8.68381	8.37256	-0.434329	0.176183	
475	1580482315.856705361	0.0023931	-0.895078	2.1324	-2.79045	-1.56952	-2.6233	0	0	-0	0	0	0	-4.15224	22.1989	8.81032	8.39642	-0.533258	0.227635	
476	1580482315.864701002	0.0023931	-0.895054	2.1324	-2.79043	-1.56954	-2.62332	0	0	-0	0	0	0	-4.83293	22.3805	8.48686	8.46795	-0.409569	0.279078	
477	1580482315.872711280	0.00241707	-0.895066	2.13237	-2.79043	-1.56952	-2.62326	0	0	-0	0	0	0	-4.15224	21.8943	8.46058	8.46789	-0.409549	0.279088	
478	1580482315.880723842	0.00241707	-0.895066	2.13235	-2.79043	-1.56954	-2.6233	0	0	-0	0	0	0	-4.0161	22.1969	8.2102	8.44405	-0.508529	0.253364	
479	1580482315.888715296	0.00238112	-0.895018	2.1324	-2.79043	-1.56955	-2.62329	0	0	-0	0	0	0	-4.901	22.5012	8.66282	8.39652	-0.55802	0.098974	
480	1580482315.896699804	0.00241707	-0.895114	2.1324	-2.79041	-1.56952	-2.62329	0	0	-0	0	0	0	-3.94803	22.3817	8.80903	8.56317	-0.582738	0.253363	
481	1580482315.904726159	0.0023931	-0.895078	2.13237	-2.79043	-1.56956	-2.6233	0	0	-0	0	0	0	-3.81189	22.5015	8.4851	8.3726	-0.508551	0.22763	
482	1580482315.912712576	0.00240508	-0.895078	2.13238	-2.79043	-1.56951	-2.62331	0	0	-0	0	0	0	-4.08417	21.3487	8.5105	8.4679	-0.459027	0.201907	
483	1580482315.920689216	0.00240508	-0.895078	2.13238	-2.79043	-1.56955	-2.6233	0	0	-0	0	0	0	-4.08417	22.9268	8.43564	8.53936	-0.483799	0.356268	
484	1580482315.928691459	0.00238112	-0.895042	2.13236	-2.79041	-1.56954	-2.62329	0	0	-0	0	0	0	-4.901	22.2576	8.71055	8.49175	-0.508527	0.17617	
485	1580482315.936709149	0.00240508	-0.895042	2.13237	-2.79043	-1.56955	-2.62332	0	0	-0	0	0	0	-4.35645	22.4401	8.93554	8.46794	-0.558025	0.124713	
486	1580482315.944708882	0.00240508	-0.895102	2.13236	-2.79045	-1.56957	-2.62329	0	0	-0	0	0	0	-4.08417	22.5622	8.15938	8.56309	-0.582783	0.25337	
487	1580482315.952691456	0.0023931	-0.895089	2.13237	-2.79045	-1.56955	-2.62332	0	0	-0	0	0	0	-3.3354	22.0161	8.43474	8.46785	-0.508543	0.176185	
488	1580482315.960673796	0.0023931	-0.895102	2.13237	-2.79043	-1.56956	-2.62329	0	0	-0	0	0	0	-3.53961	22.1378	8.63392	8.46785	-0.483809	0.201908	
489	1580482315.968691500	0.00238112	-0.895089	2.13235	-2.79043	-1.56952	-2.62329	0	0	-0	0	0	0	-4.56065	22.0153	8.5836	8.37255	-0.409553	0.176188	
490	1580482315.976741560	0.00242905	-0.895078	2.13237	-2.7904	-1.56956	-2.62327	0	0	-0	0	0	0	-3.87996	21.9552	8.58494	8.49173	-0.58277	0.253352	
491	1580482315.984683162	0.00240508	-0.895089	2.1324	-2.79043	-1.56954	-2.62331	0	0	-0	0	0	0	-4.69679	22.0777	8.63525	8.39644	-0.409567	0.150448	
492	1580482315.992639202	0.00236913	-0.895089	2.13235	-2.79044	-1.56956	-2.62332	0	0	-0	0	0	0	-3.87996	22.3795	8.70835	8.39637	-0.459073	0.227641	
493	1580482316.000696627	0.00238112	-0.895089	2.13237	-2.79043	-1.56951	-2.6233	0	0	-0	0	0	0	-4.49258	22.5625	8.43477	8.51551	-0.483766	0.201912	
494	1580482316.008764862	0.00240508	-0.895078	2.13236	-2.7904	-1.56951	-2.62329	0	0	-0	0	0	0	-4.62872	21.9548	8.55955	8.39643	-0.483764	0.227634	
495	1580482316.016662720	0.00236913	-0.895102	2.1324	-2.79044	-1.56954	-2.62329	0	0	-0	0	0	0	-2.72278	22.1387	8.65973	8.44405	-0.533268	0.176181	
496	1580482316.024692800	0.00240508	-0.895054	2.13236	-2.79045	-1.56952	-2.62332	0	0	-0	0	0	0	-3.87996	22.3792	8.53542	8.44405	-0.48378	0.304821	
497	1580482316.032671013	0.00241707	-0.895102	2.13237	-2.79043	-1.56954	-2.62327	0	0	-0	0	0	0	-4.22031	22.5627	8.63392	8.51549	-0.483784	0.279095	
498	1580482316.040687202	0.0023931	-0.895078	2.13238	-2.79041	-1.56955	-2.62325	0	0	-0	0	0	0	-4.08417	22.1378	8.58535	8.39644	-0.508533	0.150443	
499	1580482316.048726486	0.00240508	-0.895078	2.1324	-2.79041	-1.56954	-2.62327	0	0	-0	0	0	0	-3.87996	22.3203	8.56084	8.51557	-0.582748	0.17617	
500	1580482316.056698681	0.00238112	-0.895078	2.13237	-2.79045	-1.56954	-2.6233	0	0	-0	0	0	0	-5.17328	22.3801	8.78449	8.46786	-0.533269	0.201911	
501	1580482316.064693196	0.0023931	-0.895018	2.13236	-2.79041	-1.56952	-2.62327	0	0	-0	0	0	0	-3.94803	22.5606	8.71142	8.49178	-0.557996	0.176166	
502	1580482316.072749871	0.00240508	-0.895114	2.13234	-2.79043	-1.56954	-2.62326	0	0	-0	0	0	0	-4.0161	22.6223	8.70702	8.34868	-0.434301	0.176195	
503	1580482316.080708732	0.00241707	-0.895078	2.13236	-2.79041	-1.56954	-2.62327	0	0	-0	0	0	0	-4.49258	22.5618	8.834	8.53934	-0.459044	0.330544	
504	1580482316.088689231	0.00240508	-0.895042	2.13236	-2.79041	-1.56954	-2.62332	0	0	-0	0	0	0	-4.49258	22.2576	8.61075	8.49176	-0.483792	0.17617	
505	1580482316.096711192	0.00240508	-0.895054	2.13241	-2.79045	-1.56954	-2.62327	0	0	-0	0	0	0	-3.81189	22.1988	8.4124	8.42028	-0.508525	0.227625	
506	1580482316.104666889	0.00238112	-0.895102	2.1324	-2.7904	-1.56954	-2.62327	0	0	-0	0	0	0	-4.62872	22.2601	8.48511	8.42027	-0.533266	0.279083	
507	1580482316.112675474	0.00241707	-0.895114	2.13238	-2.79041	-1.56951	-2.6233	0	0	-0	0	0	0	-3.94803	22.1992	8.73374	8.42023	-0.434284	0.253367	
508	1580482316.120691673	0.00238112	-0.895089	2.13236	-2.7904	-1.56956	-2.62333	0	0	-0	0	0	0	-3.3354	22.5621	8.70883	8.42025	-0.533297	0.279085	
509	1580482316.128679161	0.00240508	-0.895078	2.13238	-2.79041	-1.56954	-2.62329	0	0	-0	0	0	0	-4.69679	22.2592	8.58536	8.49173	-0.533268	0.2019	
510	1580482316.136730289	0.00242905	-0.895078	2.13237	-2.79043	-1.56952	-2.62326	0	0	-0	0	0	0	-4.62872	22.3194	8.43519	8.51552	-0.533253	0.227635	
511	1580482316.144693485	0.00241707	-0.895054	2.13236	-2.79043	-1.56954	-2.6233	0	0	-0	0	0	0	-3.94803	21.5294	8.58535	8.53936	-0.508529	0.0989923	
512	1580482316.152694337	0.00240508	-0.895089	2.13235	-2.79041	-1.56952	-2.6233	0	0	-0	0	0	0	-4.0161	21.8939	8.58362	8.44403	-0.483777	0.227641	
513	1580482316.160693597	0.0023931	-0.895054	2.13237	-2.79043	-1.56954	-2.62329	0	0	-0	0	0	0	-4.28838	21.9547	8.83529	8.39645	-0.508527	0.150445	
514	1580482316.168691621	0.00244066	-0.895066	2.13236	-2.79043	-1.56955	-2.6233	0	0	-0	0	0	0	-4.22031	22.258	8.63481	8.51553	-0.459058	0.304815	
515	1580482316.176647149	0.00238112	-0.895078	2.13235	-2.7904	-1.56955	-2.62331	0	0	-0	0	0	0	-4.28838	22.3793	8.53417	8.46789	-0.508541	0.201904	
516	1580482316.184620500	0.0023931	-0.895078	2.13231	-2.79044	-1.56955	-2.6233	0	0	-0	0	0	0	-4.42452	22.3779	8.73241	8.44397	-0.558021	0.304832	
517	1580482316.192646719	0.00244066	-0.895089	2.13242	-2.79041	-1.56955	-2.6233	0	0	-0	0	0	0	-3.74382	22.1393	8.5613	8.51559	-0.50854	0.150438	
518	1580482316.200744059	0.00241707	-0.895042	2.13235	-2.79044	-1.56955	-2.62331	0	0	-0	0	0	0	-4.62872	22.3178	8.71009	8.46789	-0.483801	0.25336	
519	1580482316.208698309	0.00244066	-0.895066	2.13234	-2.79043	-1.56957	-2.62329	0	0	-0	0	0	0	-4.08417	22.1965	8.58404	8.58696	-0.508561	0.201906	
520	1580482316.216668113	0.00242905	-0.895114	2.13236	-2.79044	-1.56951	-2.62329	0	0	-0	0	0	0	-3.53961	21.9555	8.33362	8.51545	-0.409541	0.176196	
521	1580482316.224701657	0.0023931	-0.895089	2.13238	-2.79041	-1.56957	-2.62327	0	0	-0	0	0	0	-3.87996	22.138	8.63482	8.4679	-0.459078	0.201898	
522	1580482316.232702868	0.00238112	-0.895054	2.13238	-2.7904	-1.56952	-2.62331	0	0	-0	0	0	0	-4.49258	22.198	8.63615	8.44414	-0.50852	0.176166	
523	1580482316.240715557	0.00242905	-0.895078	2.13238	-2.79044	-1.56956	-2.62329	0	0	-0	0	0	0	-3.94803	21.9556	8.83484	8.56317	-0.53329	0.176175	
524	1580482316.248693037	0.00238112	-0.895042	2.1324	-2.79044	-1.56955	-2.6233	0	0	-0	0	0	0	-3.87996	21.8339	8.61203	8.4203	-0.483799	0.304804	
525	1580482316.256694696	0.0023931	-0.895078	2.13238	-2.79041	-1.56954	-2.62329	0	0	-0	0	0	0	-3.87996	22.3199	8.68517	8.49173	-0.533268	0.227628	
526	1580482316.264722940	0.00240508	-0.895066	2.13237	-2.79043	-1.56955	-2.62331	0	0	-0	0	0	0	-4.15224	22.3192	8.58535	8.3488	-0.533282	0.253357	
527	1580482316.272678659	0.0023931	-0.895078	2.13234	-2.79043	-1.56954	-2.6233	0	0	-0	0	0	0	-4.22031	21.529	8.43389	8.51548	-0.582751	0.227642	
528	1580482316.280653000	0.00238112	-0.89503	2.13236	-2.79041	-1.56955	-2.62327	0	0	-0	0	0	0	-3.94803	22.5001	8.56128	8.34883	-0.533277	0.201893	
529	1580482316.288689575	0.00241707	-0.895042	2.13241	-2.79041	-1.56954	-2.62326	0	0	-0	0	0	0	-3.3354	22.5628	8.31307	8.46798	-0.459043	0.356252	
530	1580482316.296722587	0.0023931	-0.895054	2.13238	-2.79041	-1.56955	-2.62329	0	0	-0	0	0	0	-3.81189	22.5622	8.68604	8.44412	-0.483798	0.304804	
531	1580482316.304723583	0.00238112	-0.895078	2.13237	-2.79041	-1.56955	-2.62331	0	0	-0	0	0	0	-3.67575	22.6229	8.68473	8.44408	-0.508542	0.253357	
532	1580482316.312721736	0.0023931	-0.895078	2.13237	-2.7904	-1.56955	-2.62329	0	0	-0	0	0	0	-4.0161	22.0766	8.46018	8.34881	-0.533279	0.176171	
533	1580482316.320732483	0.0023931	-0.895078	2.13236	-2.79044	-1.56952	-2.6233	0	0	-0	0	0	0	-3.67575	22.7439	8.55951	8.56314	-0.533258	0.176185	
534	1580482316.328724125	0.0023931	-0.895054	2.13236	-2.7904	-1.56952	-2.62329	0	0	-0	0	0	0	-3.94803	22.6827	8.53547	8.46793	-0.557998	0.201899	
535	1580482316.336732275	0.0023931	-0.895102	2.13237	-2.79043	-1.56954	-2.62331	0	0	-0	0	0	0	-4.15224	22.4413	8.58402	8.32493	-0.533271	0.33055	
536	1580482316.344658743	0.00240508	-0.895078	2.13236	-2.79043	-1.56955	-2.62327	0	0	-0	0	0	0	-3.94803	22.319	8.50961	8.51551	-0.409573	0.201907	
537	1580482316.352703771	0.0023931	-0.895138	2.13237	-2.79043	-1.56954	-2.62329	0	0	-0	0	0	0	-4.22031	22.3813	8.33319	8.51545	-0.533267	0.253375	
538	1580482316.360664817	0.00238112	-0.895089	2.1324	-2.7904	-1.5695	-2.62329	0	0	-0	0	0	0	-3.53961	22.0778	8.51052	8.37264	-0.483753	0.0989918	
539	1580482316.368687242	0.00238112	-0.895089	2.1324	-2.79043	-1.56955	-2.6233	0	0	-0	0	0	0	-4.69679	22.5633	8.41069	8.44408	-0.434318	0.304812	
540	1580482316.376667868	0.00238112	-0.895066	2.13235	-2.79043	-1.56952	-2.62329	0	0	-0	0	0	0	-3.1312	22.1362	8.63437	8.44405	-0.557997	0.20191	
541	1580482316.384683953	0.00240508	-0.895089	2.13235	-2.79044	-1.56954	-2.62331	0	0	-0	0	0	0	-3.87996	22.6223	8.58359	8.46783	-0.434308	0.124734	
542	1580482316.392683729	0.0023931	-0.895066	2.13238	-2.7904	-1.56957	-2.62329	0	0	-0	0	0	0	-4.08417	22.8659	8.4361	8.46794	-0.508561	0.201889	
543	1580482316.400700232	0.00240508	-0.895114	2.13236	-2.79045	-1.56956	-2.62332	0	0	-0	0	0	0	-3.94803	23.3516	8.45837	8.51544	-0.582776	0.176191	
544	1580482316.408665361	0.00236913	-0.895102	2.13238	-2.79041	-1.56957	-2.62327	0	0	-0	0	0	0	-3.74382	22.1383	8.68427	8.46788	-0.55804	0.253356	
545	1580482316.416681098	0.0023931	-0.895089	2.13237	-2.7904	-1.56954	-2.62331	0	0	-0	0	0	0	-4.15224	22.4411	8.75917	8.4679	-0.459049	0.201903	
546	1580482316.424633417	0.00242905	-0.895054	2.13238	-2.79041	-1.56954	-2.62326	0	0	-0	0	0	0	-4.49258	22.3801	8.53632	8.56322	-0.582746	0.176167	
547	1580482316.432685725	0.00240508	-0.895089	2.13238	-2.79041	-1.56955	-2.6233	0	0	-0	0	0	0	-3.67575	22.2594	8.46017	8.49172	-0.50854	0.227629	
548	1580482316.440721388	0.00235715	-0.89515	2.13234	-2.79041	-1.56952	-2.62327	0	0	-0	0	0	0	-3.74382	22.6838	8.73068	8.49158	-0.459032	0.176202	
549	1580482316.448718541	0.0023931	-0.895054	2.13238	-2.79045	-1.56952	-2.62332	0	0	-0	0	0	0	-4.35645	22.2586	8.5862	8.51555	-0.533262	0.15045	
550	1580482316.456690514	0.0023931	-0.895089	2.1324	-2.79043	-1.56949	-2.6233	0	0	-0	0	0	0	-4.08417	22.8061	8.6103	8.32497	-0.557966	0.176182	
551	1580482316.464730554	0.0023931	-0.895066	2.1324	-2.79044	-1.56954	-2.6233	0	0	-0	0	0	0	-4.08417	22.1379	8.46145	8.46792	-0.607492	0.2019	
552	1580482316.472699363	0.00240508	-0.895066	2.13237	-2.79043	-1.56955	-2.62331	0	0	-0	0	0	0	-4.49258	22.4406	8.58535	8.53937	-0.45906	0.253357	
553	1580482316.480721158	0.00240508	-0.895078	2.13241	-2.79044	-1.56955	-2.62331	0	0	-0	0	0	0	-3.87996	22.6242	8.51135	8.4441	-0.533282	0.227626	
554	1580482316.488742374	0.0023931	-0.895078	2.13237	-2.79044	-1.56954	-2.62327	0	0	-0	0	0	0	-5.17328	22.6229	8.55994	8.56315	-0.483784	0.253364	
555	1580482316.496737269	0.00242905	-0.895078	2.13241	-2.7904	-1.56951	-2.62331	0	0	-0	0	0	0	-4.0161	22.1387	8.36169	8.61089	-0.55799	0.253351	
556	1580482316.504757203	0.00242905	-0.895054	2.13237	-2.79044	-1.56955	-2.62331	0	0	-0	0	0	0	-3.87996	22.4403	8.66062	8.4679	-0.508542	0.407723	
557	1580482316.512726538	0.00240508	-0.89503	2.1324	-2.7904	-1.56951	-2.62331	0	0	-0	0	0	0	-4.15224	22.38	8.58756	8.51565	-0.508509	0.176159	
558	1580482316.520767129	0.00238112	-0.895054	2.13243	-2.79045	-1.56955	-2.62326	0	0	-0	0	0	0	-3.74382	22.139	8.61289	8.49177	-0.434313	0.0989794	
559	1580482316.528759057	0.00238112	-0.895078	2.13235	-2.79041	-1.56956	-2.62326	0	0	-0	0	0	0	-4.15224	22.5006	8.45929	8.49168	-0.483805	0.279088	
560	1580482316.536725051	0.00240508	-0.895078	2.13237	-2.79045	-1.56952	-2.6233	0	0	-0	0	0	0	-4.49258	22.2587	8.51003	8.46786	-0.557999	0.227641	
561	1580482316.544726880	0.00240508	-0.895066	2.1324	-2.79043	-1.56958	-2.62326	0	0	-0	0	0	0	-4.69679	22.32	8.73592	8.42028	-0.434346	0.227618	
562	1580482316.552709625	0.00238112	-0.895089	2.13236	-2.79043	-1.56952	-2.62327	0	0	-0	0	0	0	-4.08417	22.4406	8.73374	8.49167	-0.483773	0.150458	
563	1580482316.560732590	0.0023931	-0.895102	2.13236	-2.79041	-1.56951	-2.62332	0	0	-0	0	0	0	-4.22031	22.8051	8.70836	8.49168	-0.533251	0.201915	
564	1580482316.568724167	0.0023931	-0.895042	2.13236	-2.79045	-1.56954	-2.62332	0	0	-0	0	0	0	-4.901	22.3789	8.56081	8.42025	-0.558014	0.176178	
565	1580482316.576703859	0.00234516	-0.895089	2.1324	-2.79043	-1.56954	-2.62329	0	0	-0	0	0	0	-4.22031	22.5633	8.7101	8.4679	-0.483786	0.201903	
566	1580482316.584741946	0.00240508	-0.895089	2.1324	-2.7904	-1.56952	-2.62329	0	0	-0	0	0	0	-4.0161	22.0778	8.76003	8.46793	-0.483775	0.150444	
567	1580482316.592717822	0.00240508	-0.895078	2.13237	-2.79041	-1.56954	-2.62329	0	0	-0	0	0	0	-4.49258	22.8657	8.46017	8.4679	-0.483786	0.201903	
568	1580482316.600676247	0.00241707	-0.895102	2.13237	-2.79043	-1.56956	-2.62327	0	0	-0	0	0	0	-4.08417	22.0771	8.80858	8.44403	-0.483807	0.227636	
569	1580482316.608720310	0.00238112	-0.895078	2.13237	-2.79043	-1.56955	-2.6233	0	0	-0	0	0	0	-4.76486	21.8338	8.55996	8.3726	-0.533281	0.279087	
570	1580482316.616719726	0.00240508	-0.895078	2.13238	-2.7904	-1.56954	-2.62327	0	0	-0	0	0	0	-3.74382	22.3806	8.66023	8.51557	-0.483785	0.330536	
571	1580482316.624678892	0.0023931	-0.895102	2.13236	-2.79041	-1.56951	-2.6233	0	0	-0	0	0	0	-4.15224	22.7444	8.55865	8.39639	-0.508506	0.279098	
572	1580482316.632703831	0.00240508	-0.895114	2.1324	-2.79045	-1.56951	-2.62326	0	0	-0	0	0	0	-3.67575	21.4712	8.68422	8.51547	-0.582723	0.201918	
573	1580482316.640703743	0.00236913	-0.895066	2.1324	-2.79045	-1.56956	-2.6233	0	0	-0	0	0	0	-3.87996	22.0165	8.58619	8.4679	-0.483811	0.150444	
574	1580482316.648689706	0.0023931	-0.895054	2.13235	-2.79044	-1.56949	-2.62327	0	0	-0	0	0	0	-4.15224	22.5001	8.41023	8.42022	-0.508481	0.201915	
575	1580482316.656693549	0.00240508	-0.895042	2.13236	-2.79044	-1.56955	-2.62329	0	0	-0	0	0	0	-3.81189	21.7112	8.76042	8.44408	-0.434316	0.227629	
576	1580482316.664695489	0.00238112	-0.895054	2.13237	-2.79044	-1.56954	-2.62333	0	0	-0	0	0	0	-4.08417	22.0154	8.58578	8.58701	-0.483793	0.12472	
577	1580482316.672696941	0.00238112	-0.895078	2.13236	-2.79043	-1.56954	-2.6233	0	0	-0	0	0	0	-5.10521	22.5618	8.63438	8.44405	-0.55801	0.253364	
578	1580482316.680708031	0.0023931	-0.895102	2.13234	-2.79043	-1.56951	-2.62332	0	0	-0	0	0	0	-4.49258	22.1972	8.68252	8.42017	-0.53325	0.279106	
579	1580482316.688692741	0.00238112	-0.895089	2.13237	-2.79041	-1.56954	-2.62332	0	0	-0	0	0	0	-4.0161	22.0162	8.55954	8.61082	-0.508532	0.124723	
580	1580482316.696673562	0.0023931	-0.895102	2.13235	-2.79043	-1.56956	-2.62327	0	0	-0	0	0	0	-4.62872	22.7439	8.73285	8.42018	-0.558029	0.227641	
581	1580482316.704702754	0.00241707	-0.895078	2.1324	-2.79039	-1.56956	-2.62326	0	0	-0	0	0	0	-4.35645	22.3203	8.36126	8.44413	-0.483806	0.253344	
582	1580482316.712735845	0.00238112	-0.895078	2.13236	-2.79045	-1.56951	-2.6233	0	0	-0	0	0	0	-4.15224	21.894	8.50959	8.34873	-0.508506	0.227645	
583	1580482316.720673148	0.00238112	-0.895054	2.13238	-2.79045	-1.56954	-2.6233	0	0	-0	0	0	0	-5.24135	22.4407	8.53629	8.39644	-0.53327	0.176175	
584	1580482316.728687830	0.00241707	-0.895066	2.13241	-2.79043	-1.56954	-2.6233	0	0	-0	0	0	0	-3.94803	21.6528	8.56171	8.58705	-0.459048	0.201895	
585	1580482316.736707742	0.0023931	-0.895102	2.13237	-2.79043	-1.56954	-2.62327	0	0	-0	0	0	0	-4.56065	22.1378	8.53411	8.49167	-0.384821	0.304822	
586	1580482316.744685404	0.00240508	-0.895054	2.13237	-2.79044	-1.56954	-2.62331	0	0	-0	0	0	0	-4.62872	22.3189	8.53587	8.3488	-0.50853	0.150448	
587	1580482316.752690693	0.00241707	-0.895078	2.13236	-2.79045	-1.56955	-2.62326	0	0	-0	0	0	0	-4.0161	22.1368	8.73414	8.49165	-0.459053	0.279095	
588	1580482316.760700960	0.00240508	-0.895042	2.1324	-2.79044	-1.56955	-2.62329	0	0	-0	0	0	0	-4.0161	22.5623	8.48727	8.53941	-0.533279	0.381987	
589	1580482316.768713623	0.00235715	-0.895078	2.13237	-2.79041	-1.56956	-2.62327	0	0	-0	0	0	0	-4.08417	22.0766	8.68473	8.39643	-0.434326	0.176172	
590	1580482316.776712725	0.00236913	-0.895042	2.13234	-2.7904	-1.56954	-2.62331	0	0	-0	0	0	0	-4.56065	22.4995	8.51009	8.39646	-0.508531	0.176173	
591	1580482316.784688398	0.0023931	-0.895089	2.13238	-2.79045	-1.56955	-2.6233	0	0	-0	0	0	0	-4.901	21.7738	8.73459	8.44403	-0.558021	0.279093	
592	1580482316.792671862	0.00238112	-0.89503	2.1324	-2.79043	-1.56954	-2.6233	0	0	-0	0	0	0	-4.49258	22.2586	8.66238	8.53944	-0.459048	0.253345	
593	1580482316.800657560	0.00241707	-0.895089	2.13234	-2.79041	-1.56956	-2.62329	0	0	-0	0	0	0	-4.76486	22.5612	8.55823	8.49166	-0.434327	0.227638	
594	1580482316.808727282	0.00238112	-0.895078	2.13238	-2.79041	-1.56954	-2.62329	0	0	-0	0	0	0	-4.22031	22.3199	8.48555	8.49173	-0.508527	0.253356	
595	1580482316.816659872	0.00240508	-0.895066	2.13238	-2.7904	-1.56954	-2.62332	0	0	-0	0	0	0	-4.76486	22.2589	8.53592	8.58706	-0.483792	0.304806	
596	1580482316.824673959	0.0023931	-0.895102	2.13238	-2.79041	-1.56949	-2.62332	0	0	-0	0	0	0	-4.15224	22.2597	8.63438	8.44407	-0.483747	0.356279	
597	1580482316.832725644	0.00238112	-0.895078	2.13235	-2.79043	-1.56955	-2.62327	0	0	-0	0	0	0	-4.901	22.6827	8.35947	8.46785	-0.483795	0.124727	
598	1580482316.840740510	0.00240508	-0.895114	2.1324	-2.79043	-1.56954	-2.6233	0	0	-0	0	0	0	-4.28838	21.714	8.43475	8.32494	-0.409566	0.201909	
599	1580482316.848713848	0.0023931	-0.895066	2.13237	-2.79044	-1.56952	-2.62331	0	0	-0	0	0	0	-3.94803	22.6833	8.41068	8.58699	-0.558001	0.253363	
600	1580482316.856692691	0.00236913	-0.895054	2.13238	-2.79043	-1.56951	-2.6233	0	0	-0	0	0	0	-3.94803	22.4408	8.78583	8.46793	-0.483766	0.201901	
601	1580482316.864675444	0.00236913	-0.895089	2.13238	-2.79041	-1.56954	-2.62329	0	0	-0	0	0	0	-4.42452	22.4415	8.70968	8.34879	-0.558009	0.304814	
602	1580482316.872728668	0.0023931	-0.895078	2.13238	-2.79044	-1.56954	-2.62331	0	0	-0	0	0	0	-5.03714	22.6233	8.73504	8.39642	-0.409567	0.0989951	
603	1580482316.880702218	0.00238112	-0.895089	2.1324	-2.79043	-1.56955	-2.6233	0	0	-0	0	0	0	-3.81189	22.2598	8.6103	8.4679	-0.632244	0.253357	
604	1580482316.888676045	0.00238112	-0.895078	2.13236	-2.7904	-1.56957	-2.62329	0	0	-0	0	0	0	-4.22031	22.7439	8.50965	8.34879	-0.533302	0.304809	
605	1580482316.896714624	0.00240508	-0.89503	2.13237	-2.79043	-1.56954	-2.62332	0	0	-0	0	0	0	-4.83293	21.9542	8.33715	8.44413	-0.558014	0.381989	
606	1580482316.904775254	0.00240508	-0.895054	2.13237	-2.7904	-1.56954	-2.62329	0	0	-0	0	0	0	-4.56065	22.4403	8.58581	8.56323	-0.483787	0.176167	
607	1580482316.912676064	0.0023931	-0.895054	2.13236	-2.79041	-1.56954	-2.6233	0	0	-0	0	0	0	-3.94803	22.1364	8.66022	8.49174	-0.607492	0.2019	
608	1580482316.920689734	0.0023931	-0.895089	2.13236	-2.79043	-1.56954	-2.62329	0	0	-0	0	0	0	-3.74382	22.5013	8.73374	8.44403	-0.558008	0.356278	
609	1580482316.928695740	0.00244066	-0.895054	2.13238	-2.79041	-1.56952	-2.62329	0	0	-0	0	0	0	-5.03714	22.0766	8.66109	8.4203	-0.557998	0.253352	
610	1580482316.936718068	0.00238112	-0.895138	2.13236	-2.79043	-1.56951	-2.62329	0	0	-0	0	0	0	-3.47154	22.2595	8.50742	8.63454	-0.508504	0.201926	
611	1580482316.944688100	0.00240508	-0.895054	2.13241	-2.79043	-1.56956	-2.62329	0	0	-0	0	0	0	-3.94803	22.0167	8.63699	8.39649	-0.533291	0.279072	
612	1580482316.952689730	0.00238112	-0.895078	2.13238	-2.79044	-1.56952	-2.6233	0	0	-0	0	0	0	-4.28838	22.1377	8.63523	8.42024	-0.508518	0.0732691	
613	1580482316.960689184	0.0023931	-0.895078	2.13238	-2.79044	-1.56952	-2.62329	0	0	-0	0	0	0	-4.69679	22.7447	8.63523	8.34878	-0.557997	0.227635	
614	1580482316.968764178	0.0023931	-0.895066	2.13232	-2.79041	-1.56954	-2.62329	0	0	-0	0	0	0	-4.49258	22.6209	8.384	8.42021	-0.483786	0.201911	
615	1580482316.976696981	0.0023931	-0.895054	2.13236	-2.79043	-1.56951	-2.62331	0	0	-0	0	0	0	-4.0161	22.1364	8.80991	8.44408	-0.55799	0.27909	
616	1580482316.984649410	0.00241707	-0.895066	2.13234	-2.79041	-1.56956	-2.62332	0	0	-0	0	0	0	-3.94803	21.8323	8.75872	8.51552	-0.434332	0.176177	
617	1580482316.992636592	0.00235715	-0.895114	2.13234	-2.79044	-1.56955	-2.62326	0	0	-0	0	0	0	-4.901	22.7437	8.6072	8.39631	-0.558015	0.176196	
618	1580482317.000725450	0.0023931	-0.895054	2.13238	-2.7904	-1.56955	-2.62332	0	0	-0	0	0	0	-4.42452	22.8657	8.4615	8.46797	-0.483803	0.253346	
619	1580482317.008697278	0.00238112	-0.895089	2.13236	-2.79043	-1.56956	-2.62327	0	0	-0	0	0	0	-4.08417	22.1371	8.70879	8.42021	-0.656992	0.17618	
620	1580482317.016703648	0.00238112	-0.895089	2.13237	-2.79043	-1.56954	-2.62329	0	0	-0	0	0	0	-4.28838	22.3197	8.60942	8.42023	-0.459045	0.201909	
621	1580482317.024694079	0.00240508	-0.895078	2.1324	-2.79043	-1.5695	-2.62329	0	0	-0	0	0	0	-4.08417	22.1382	8.51093	8.42027	-0.483753	0.15045	
622	1580482317.032737059	0.00236913	-0.895066	2.13235	-2.79043	-1.56956	-2.6233	0	0	-0	0	0	0	-4.15224	22.6825	8.60942	8.46787	-0.607514	0.176177	
623	1580482317.040698663	0.00236913	-0.895089	2.13237	-2.79044	-1.56954	-2.62332	0	0	-0	0	0	0	-4.08417	22.1982	8.53456	8.42022	-0.508532	0.279095	
624	1580482317.048647630	0.00238112	-0.895066	2.13237	-2.7904	-1.56951	-2.62332	0	0	-0	0	0	0	-4.83293	22.562	8.56043	8.46794	-0.483769	0.279084	
625	1580482317.056698873	0.00240508	-0.895054	2.13237	-2.79041	-1.56951	-2.62329	0	0	-0	0	0	0	-4.15224	22.5617	8.46104	8.51557	-0.508505	0.150446	
626	1580482317.064674433	0.00236913	-0.895078	2.13237	-2.7904	-1.56954	-2.62325	0	0	-0	0	0	0	-5.17328	21.8338	8.73464	8.49173	-0.558003	0.227628	
627	1580482317.072693625	0.0023931	-0.895078	2.13238	-2.79041	-1.56951	-2.62329	0	0	-0	0	0	0	-3.87996	22.6234	8.53546	8.46791	-0.483764	0.227631	
628	1580482317.080699907	0.00244066	-0.895102	2.13238	-2.79043	-1.56954	-2.62327	0	0	-0	0	0	0	-3.1312	22.6238	8.21018	8.42022	-0.582747	0.227636	
629	1580482317.088693634	0.00240508	-0.895066	2.13238	-2.79043	-1.56957	-2.62326	0	0	-0	0	0	0	-4.35645	22.8659	8.53587	8.49173	-0.58278	0.176167	
630	1580482317.096723022	0.00238112	-0.895102	2.13238	-2.79041	-1.56951	-2.62329	0	0	-0	0	0	0	-4.0161	22.9881	8.80903	8.44406	-0.434283	0.253365	
631	1580482317.104708875	0.00240508	-0.895089	2.13242	-2.79043	-1.56955	-2.62327	0	0	-0	0	0	0	-3.94803	21.9572	8.53633	8.37264	-0.558018	0.201896	
632	1580482317.112720493	0.00240508	-0.895114	2.13236	-2.79043	-1.5695	-2.62331	0	0	-0	0	0	0	-4.15224	22.6839	8.25878	8.34872	-0.483756	0.176195	
633	1580482317.120712161	0.0023931	-0.895054	2.13236	-2.79041	-1.56957	-2.62329	0	0	-0	0	0	0	-4.15224	22.015	8.66021	8.46791	-0.48382	0.201895	
634	1580482317.128706604	0.00241707	-0.895089	2.13236	-2.79044	-1.56955	-2.62327	0	0	-0	0	0	0	-3.67575	22.0764	8.70877	8.51548	-0.533277	0.176185	
635	1580482317.136702813	0.00241707	-0.895078	2.13238	-2.79045	-1.56952	-2.6233	0	0	-0	0	0	0	-4.15224	22.9875	8.43561	8.39641	-0.557999	0.20191	
636	1580482317.144706352	0.00241707	-0.895089	2.13235	-2.7904	-1.56958	-2.62329	0	0	-0	0	0	0	-3.40347	21.9546	8.63353	8.51551	-0.45909	0.201902	
637	1580482317.152666954	0.00240508	-0.895066	2.13234	-2.79044	-1.56952	-2.62327	0	0	-0	0	0	0	-4.42452	22.1357	8.45926	8.61076	-0.459032	0.15046	
638	1580482317.160788837	0.0023931	-0.895054	2.13236	-2.79043	-1.56951	-2.6233	0	0	-0	0	0	0	-3.60768	22.8648	8.58535	8.49172	-0.508507	0.227634	
639	1580482317.168664377	0.0023931	-0.895102	2.13237	-2.79043	-1.56956	-2.62331	0	0	-0	0	0	0	-4.35645	22.1985	8.50917	8.44404	-0.533294	0.201908	
640	1580482317.176698808	0.00240508	-0.895078	2.13242	-2.79041	-1.56954	-2.62327	0	0	-0	0	0	0	-4.15224	22.7461	8.71144	8.49178	-0.533266	0.253347	
641	1580482317.184696757	0.00241707	-0.895066	2.13236	-2.79043	-1.56954	-2.62331	0	0	-0	0	0	0	-4.42452	22.5615	8.48511	8.39642	-0.459049	0.176178	
642	1580482317.192776439	0.0023931	-0.895066	2.13238	-2.79044	-1.56954	-2.62333	0	0	-0	0	0	0	-3.87996	22.0161	8.63568	8.44409	-0.632238	0.304814	
643	1580482317.200973456	0.00240508	-0.895066	2.13238	-2.7904	-1.56951	-2.62327	0	0	-0	0	0	0	-4.49258	22.3803	8.56086	8.44412	-0.533244	0.279081	
644	1580482317.208704284	0.00241707	-0.895042	2.13235	-2.79044	-1.56952	-2.62329	0	0	-0	0	0	0	-4.15224	21.8322	8.53543	8.32496	-0.508516	0.304818	
645	1580482317.216708199	0.00241707	-0.895066	2.13236	-2.7904	-1.56954	-2.62326	0	0	-0	0	0	0	-3.47154	22.865	8.48513	8.56319	-0.558005	0.2019	
646	1580482317.224741608	0.00238112	-0.895066	2.13238	-2.79044	-1.56955	-2.6233	0	0	-0	0	0	0	-4.15224	21.9554	8.53587	8.39644	-0.50854	0.304812	
647	1580482317.232707647	0.00241707	-0.895066	2.13241	-2.79043	-1.56954	-2.62329	0	0	-0	0	0	0	-3.47154	22.1384	8.6116	8.46794	-0.533268	0.356261	
648	1580482317.240708382	0.0023931	-0.895042	2.13237	-2.79043	-1.56954	-2.62329	0	0	-0	0	0	0	-4.69679	22.5615	8.71097	8.46793	-0.508527	0.227625	
649	1580482317.248722070	0.00236913	-0.895078	2.13242	-2.79043	-1.56954	-2.62331	0	0	-0	0	0	0	-4.42452	22.564	8.46192	8.51559	-0.434308	0.25335	
650	1580482317.256785598	0.00238112	-0.895078	2.13238	-2.79043	-1.5695	-2.6233	0	0	-0	0	0	0	-3.47154	22.3805	8.5604	8.44408	-0.582718	0.356274	
651	1580482317.264691769	0.00240508	-0.895042	2.13235	-2.79045	-1.56954	-2.6233	0	0	-0	0	0	0	-4.22031	22.075	8.51046	8.49169	-0.483788	0.227636	
652	1580482317.272671606	0.00241707	-0.895054	2.13235	-2.79043	-1.56955	-2.62327	0	0	-0	0	0	0	-4.83293	22.318	8.75956	8.39642	-0.434314	0.227632	
653	1580482317.280643085	0.00240508	-0.895078	2.13238	-2.79043	-1.56952	-2.62331	0	0	-0	0	0	0	-3.74382	22.3805	8.85981	8.56319	-0.483779	0.227633	
654	1580482317.288659310	0.0023931	-0.895078	2.1324	-2.79043	-1.56954	-2.62329	0	0	-0	0	0	0	-4.83293	21.8347	8.46102	8.53938	-0.508527	0.176173	
655	1580482317.296672846	0.00241707	-0.895066	2.13236	-2.79044	-1.5695	-2.62331	0	0	-0	0	0	0	-4.49258	22.9257	8.38529	8.53934	-0.60746	0.253369	
656	1580482317.304604442	0.00241707	-0.895089	2.1324	-2.79043	-1.56955	-2.62331	0	0	-0	0	0	0	-4.96907	22.3812	8.48554	8.49172	-0.558023	0.227629	
657	1580482317.312666639	0.00240508	-0.895066	2.13238	-2.79041	-1.56951	-2.6233	0	0	-0	0	0	0	-4.42452	22.5017	8.5359	8.51557	-0.459025	0.0989901	
658	1580482317.320617706	0.0023931	-0.895089	2.13235	-2.79045	-1.5695	-2.6233	0	0	-0	0	0	0	-3.81189	22.4401	8.65842	8.51545	-0.557976	0.201925	
659	1580482317.328681431	0.00242905	-0.895054	2.13235	-2.79044	-1.56954	-2.6233	0	0	-0	0	0	0	-3.81189	22.1966	8.5849	8.49169	-0.459047	0.176181	
660	1580482317.336667492	0.00238112	-0.895078	2.13237	-2.79041	-1.56956	-2.62331	0	0	-0	0	0	0	-4.62872	22.7443	8.65978	8.44408	-0.533294	0.30481	
661	1580482317.344603821	0.0023931	-0.895102	2.13237	-2.79043	-1.56956	-2.62331	0	0	-0	0	0	0	-4.69679	22.0771	8.70878	8.49168	-0.533294	0.304819	
662	1580482317.352669378	0.0023931	-0.895066	2.13235	-2.79043	-1.56952	-2.62329	0	0	-0	0	0	0	-4.08417	21.9541	8.31001	8.44405	-0.557997	0.253366	
663	1580482317.360674756	0.00240508	-0.895102	2.13235	-2.79044	-1.56955	-2.6233	0	0	-0	0	0	0	-3.53961	22.0762	8.63303	8.56309	-0.483799	0.124735	
664	1580482317.368678436	0.00238112	-0.895078	2.13236	-2.7904	-1.56956	-2.6233	0	0	-0	0	0	0	-4.15224	22.1976	8.55955	8.51554	-0.45907	0.227627	
665	1580482317.376697684	0.00240508	-0.895066	2.1324	-2.79043	-1.56951	-2.6233	0	0	-0	0	0	0	-4.15224	22.1986	8.61117	8.49175	-0.483766	0.0732626	
666	1580482317.384730105	0.00241707	-0.895089	2.13237	-2.79043	-1.56956	-2.62331	0	0	-0	0	0	0	-3.67575	22.0162	8.75914	8.49169	-0.508553	0.227633	
667	1580482317.392672834	0.0023931	-0.895042	2.13237	-2.79044	-1.56958	-2.6233	0	0	-0	0	0	0	-4.42452	22.5615	8.86067	8.5632	-0.533314	0.381987	
668	1580482317.400707678	0.0023931	-0.895054	2.13236	-2.79043	-1.56955	-2.62329	0	0	-0	0	0	0	-4.28838	22.3185	8.51049	8.4679	-0.409575	0.253357	
669	1580482317.408695816	0.00241707	-0.895078	2.13238	-2.79041	-1.56952	-2.62329	0	0	-0	0	0	0	-4.28838	21.895	8.85982	8.51556	-0.508516	0.124719	
670	1580482317.416685706	0.00236913	-0.895078	2.13235	-2.79041	-1.56954	-2.62332	0	0	-0	0	0	0	-5.03714	23.2897	8.78367	8.46788	-0.43431	0.253364	
671	1580482317.416685706	0.00236913	-0.895078	2.13235	-2.79041	-1.56954	-2.62332	0	0	-0	0	0	0	-5.03714	23.2897	8.78367	8.46788	-0.43431	0.253364	
672	1580482317.432693460	0.00240508	-0.895042	2.13237	-2.79044	-1.56954	-2.6233	0	0	-0	0	0	0	-3.94803	21.8938	8.58621	8.42027	-0.409566	0.227628	
673	1580482317.440700523	0.00238112	-0.895078	2.13235	-2.79043	-1.56954	-2.62329	0	0	-0	0	0	0	-3.74382	22.5613	8.63394	8.44403	-0.508527	0.253367	
674	1580482317.448722527	0.0023931	-0.89503	2.1324	-2.79041	-1.56956	-2.62327	0	0	-0	0	0	0	-4.22031	21.7123	8.862	8.42034	-0.55803	0.176155	
675	1580482317.456697562	0.00238112	-0.895078	2.13237	-2.79043	-1.56952	-2.62327	0	0	-0	0	0	0	-4.42452	22.6229	8.63481	8.3726	-0.508514	0.330546	
676	1580482317.464666396	0.0023931	-0.895078	2.13238	-2.79043	-1.56952	-2.6233	0	0	-0	0	0	0	-3.74382	21.8342	8.6103	8.51554	-0.483777	0.330543	
677	1580482317.472773092	0.00238112	-0.895042	2.13238	-2.79044	-1.56951	-2.62327	0	0	-0	0	0	0	-3.26733	22.0763	8.68644	8.42028	-0.483763	0.201901	
678	1580482317.480749696	0.00240508	-0.895042	2.13236	-2.79043	-1.56952	-2.62329	0	0	-0	0	0	0	-4.56065	22.1968	8.56083	8.61084	-0.459035	0.304813	
679	1580482317.488714507	0.00241707	-0.895089	2.13235	-2.79043	-1.56952	-2.62329	0	0	-0	0	0	0	-4.69679	21.4083	8.5337	8.5393	-0.557997	0.253371	
680	1580482317.496692168	0.00240508	-0.895066	2.13234	-2.79043	-1.56955	-2.62331	0	0	-0	0	0	0	-4.56065	21.7716	8.43433	8.53932	-0.434319	0.20191	
681	1580482317.504709705	0.00240508	-0.89503	2.13235	-2.79041	-1.56954	-2.62325	0	0	-0	0	0	0	-4.28838	22.1355	8.48598	8.4441	-0.508522	0.124714	
682	1580482317.512767605	0.00240508	-0.895078	2.13236	-2.79045	-1.56954	-2.62333	0	0	-0	0	0	0	-4.42452	22.2583	8.58445	8.42021	-0.483793	0.25337	
683	1580482317.520725008	0.00238112	-0.895078	2.13236	-2.79043	-1.56952	-2.62335	0	0	-0	0	0	0	-3.94803	22.319	8.50963	8.42024	-0.483784	0.227638	
684	1580482317.528700175	0.00238112	-0.895102	2.13237	-2.7904	-1.56951	-2.6233	0	0	-0	0	0	0	-4.49258	22.4413	8.75871	8.51553	-0.656951	0.279092	
685	1580482317.536637955	0.00238112	-0.895078	2.13238	-2.79041	-1.5696	-2.62329	0	0	-0	0	0	0	-4.35645	22.5627	8.23604	8.46791	-0.459102	0.201892	
686	1580482317.544763305	0.0023931	-0.895078	2.13238	-2.79043	-1.5695	-2.62332	0	0	-0	0	0	0	-4.49258	22.1378	8.53545	8.53937	-0.508499	0.304819	
687	1580482317.552708234	0.00241707	-0.895054	2.13238	-2.79045	-1.56954	-2.6233	0	0	-0	0	0	0	-5.24135	22.9263	8.51134	8.44408	-0.508529	0.12472	
688	1580482317.560698012	0.00240508	-0.895066	2.13238	-2.79041	-1.56955	-2.62327	0	0	-0	0	0	0	-4.42452	22.0161	8.7854	8.37264	-0.459055	0.201896	
689	1580482317.568688693	0.00242905	-0.895078	2.13237	-2.79039	-1.56951	-2.62329	0	0	-0	0	0	0	-4.28838	21.9553	8.53505	8.39646	-0.483764	0.0732624	
690	1580482317.576692151	0.00236913	-0.895078	2.13235	-2.79041	-1.56952	-2.62327	0	0	-0	0	0	0	-3.74382	22.3185	8.5591	8.42022	-0.557996	0.279093	
691	1580482317.584707943	0.00240508	-0.895042	2.13236	-2.79041	-1.56952	-2.6233	0	0	-0	0	0	0	-4.49258	22.1969	8.51094	8.46793	-0.459036	0.227627	
692	1580482317.592720624	0.00241707	-0.895089	2.13232	-2.79043	-1.56955	-2.62331	0	0	-0	0	0	0	-4.22031	22.5	8.55778	8.34871	-0.607504	0.253373	
693	1580482317.600744644	0.00240508	-0.89503	2.13236	-2.79043	-1.56952	-2.62329	0	0	-0	0	0	0	-4.15224	22.0145	8.38661	8.37264	-0.582738	0.176172	
694	1580482317.608686314	0.0023931	-0.895114	2.13237	-2.7904	-1.56954	-2.6233	0	0	-0	0	0	0	-4.35645	22.2595	8.65847	8.46787	-0.533269	0.279092	
695	1580482317.616673200	0.00238112	-0.895066	2.13236	-2.79041	-1.56955	-2.62331	0	0	-0	0	0	0	-4.42452	22.3794	8.73464	8.56319	-0.483801	0.201901	
696	1580482317.624706313	0.00236913	-0.895089	2.13236	-2.79043	-1.56951	-2.62327	0	0	-0	0	0	0	-3.60768	22.562	8.68384	8.32492	-0.557984	0.124732	
697	1580482317.632720637	0.00242905	-0.895102	2.1324	-2.79043	-1.56954	-2.62329	0	0	-0	0	0	0	-4.15224	22.3208	8.63479	8.42024	-0.582749	0.304817	
698	1580482317.640667803	0.00238112	-0.895078	2.13241	-2.79043	-1.56954	-2.6233	0	0	-0	0	0	0	-3.53961	22.4421	8.66107	8.49175	-0.483788	0.150442	
699	1580482317.648692048	0.0023931	-0.895078	2.13235	-2.79041	-1.56952	-2.62329	0	0	-0	0	0	0	-4.901	21.7723	8.78366	8.44405	-0.508516	0.304821	
700	1580482317.656691275	0.00240508	-0.895066	2.13237	-2.79041	-1.56954	-2.62331	0	0	-0	0	0	0	-4.15224	22.2585	8.73507	8.42028	-0.459049	0.2019	
701	1580482317.664695393	0.00242905	-0.895078	2.13237	-2.79044	-1.56955	-2.62329	0	0	-0	0	0	0	-4.42452	22.5015	8.60984	8.32494	-0.508538	0.201907	
702	1580482317.672672499	0.00238112	-0.895054	2.13237	-2.79041	-1.56952	-2.6233	0	0	-0	0	0	0	-3.94803	22.0154	8.5858	8.46793	-0.483777	0.201899	
703	1580482317.680672674	0.00241707	-0.895066	2.13238	-2.79041	-1.56954	-2.62327	0	0	-0	0	0	0	-4.0161	22.2589	8.56084	8.42028	-0.558007	0.253353	
704	1580482317.688673864	0.00240508	-0.895078	2.13236	-2.79044	-1.56955	-2.62331	0	0	-0	0	0	0	-3.60768	22.1976	8.43475	8.37257	-0.508541	0.20191	
705	1580482317.696701690	0.00236913	-0.895066	2.13238	-2.79043	-1.56954	-2.62327	0	0	-0	0	0	0	-4.15224	21.4091	8.56083	8.46791	-0.558007	0.176173	
706	1580482317.704771130	0.00241707	-0.895102	2.13238	-2.79041	-1.56952	-2.62331	0	0	-0	0	0	0	-4.62872	23.1095	8.53457	8.51553	-0.483779	0.201908	
707	1580482317.712704628	0.00240508	-0.895054	2.13235	-2.79041	-1.56952	-2.6233	0	0	-0	0	0	0	-2.99506	22.3181	8.58493	8.44408	-0.483777	0.176177	
708	1580482317.720700940	0.00238112	-0.895078	2.13236	-2.7904	-1.56954	-2.62332	0	0	-0	0	0	0	-3.87996	22.6225	8.60946	8.46791	-0.508532	0.227631	
709	1580482317.728683534	0.00241707	-0.895078	2.13238	-2.79043	-1.56955	-2.62331	0	0	-0	0	0	0	-3.47154	22.2591	8.43564	8.42026	-0.483801	0.124718	
710	1580482317.736706612	0.0023931	-0.895089	2.13236	-2.79044	-1.56954	-2.62335	0	0	-0	0	0	0	-4.08417	22.8655	8.8086	8.39639	-0.558017	0.227642	
711	1580482317.744690890	0.00241707	-0.895089	2.13238	-2.79044	-1.56956	-2.62331	0	0	-0	0	0	0	-4.35645	22.4415	8.41024	8.49169	-0.508553	0.227633	
712	1580482317.752690151	0.0023931	-0.895018	2.13234	-2.79041	-1.56955	-2.6233	0	0	-0	0	0	0	-4.22031	22.499	8.6856	8.42029	-0.434318	0.227623	
713	1580482317.760691186	0.00242905	-0.895066	2.13238	-2.79041	-1.56951	-2.6233	0	0	-0	0	0	0	-3.87996	22.3803	8.46104	8.46793	-0.557988	0.150446	
714	1580482317.768721599	0.0023931	-0.895042	2.13237	-2.79044	-1.56954	-2.6233	0	0	-0	0	0	0	-4.28838	22.4401	8.36164	8.53938	-0.483788	0.124717	
715	1580482317.776690390	0.00241707	-0.895102	2.13242	-2.79043	-1.56957	-2.6233	0	0	-0	0	0	0	-4.49258	22.6252	8.8353	8.42027	-0.483822	0.253351	
716	1580482317.784686948	0.00240508	-0.895042	2.13236	-2.7904	-1.56955	-2.62329	0	0	-0	0	0	0	-4.35645	21.8934	8.56086	8.46794	-0.483798	0.304804	
717	1580482317.792673561	0.00241707	-0.895078	2.13237	-2.79043	-1.56956	-2.62332	0	0	-0	0	0	0	-4.28838	22.4408	8.58492	8.49171	-0.508555	0.176175	
718	1580482317.801004802	0.00240508	-0.895066	2.13238	-2.79044	-1.56952	-2.62331	0	0	-0	0	0	0	-4.69679	22.3803	8.48596	8.68229	-0.508519	0.330543	
719	1580482317.808694027	0.0023931	-0.895078	2.13238	-2.7904	-1.56952	-2.62332	0	0	-0	0	0	0	-4.28838	22.6841	8.61033	8.32501	-0.558003	0.253355	
720	1580482317.816692342	0.00241707	-0.895066	2.13238	-2.79041	-1.56952	-2.6233	0	0	-0	0	0	0	-4.0161	22.3196	8.38619	8.49175	-0.607481	0.201899	
721	1580482317.824701456	0.0023931	-0.895054	2.13236	-2.79043	-1.56955	-2.62331	0	0	-0	0	0	0	-4.22031	22.2578	8.46059	8.44408	-0.409579	0.33054	
722	1580482317.832711426	0.00241707	-0.895042	2.13238	-2.79043	-1.56956	-2.62331	0	0	-0	0	0	0	-5.24135	22.4405	8.412	8.39648	-0.533294	0.227619	
723	1580482317.840692500	0.00238112	-0.895102	2.1324	-2.79044	-1.56954	-2.62329	0	0	-0	0	0	0	-4.28838	22.3815	8.51002	8.46787	-0.533268	0.176181	
