terrinbabu/Matlab/log_filtering/UR10_35_KF/rjt_0kg_lift_drop.txt
seq	time	q0	q1	q2	q3	q4	q5	Dq0	Dq1	Dq2	Dq3	Dq4	Dq5	eff0	eff1	eff2	eff3	eff4	eff5	
29	1580406960.718684153	0.00247662	-0.92881	2.13525	-2.77703	-1.56958	-2.62323	0	0	-0	0	0	0	-17.4939	-4.02642	-2.02796	-3.32117	-0.953833	1.10642	
30	1580406960.726668176	0.00245265	-0.928834	2.13521	-2.77703	-1.56957	-2.62323	0	0	-0	0	0	0	-16.7451	-4.45208	-1.98021	-3.13067	-1.02804	1.0807	
31	1580406960.734697687	0.0024886	-0.928846	2.13523	-2.77704	-1.56957	-2.62324	0	0	-0	0	0	0	-17.2896	-4.39069	-2.08003	-3.13068	-1.10227	1.00352	
32	1580406960.742741002	0.00247662	-0.92881	2.1352	-2.77702	-1.56957	-2.62321	0	0	-0	0	0	0	-16.9493	-3.66394	-1.95482	-3.01154	-0.879598	1.02924	
33	1580406960.750698302	0.0024886	-0.928822	2.13525	-2.77703	-1.5696	-2.62325	0	0	-0	0	0	0	-16.4728	-4.87594	-1.87868	-3.08297	-1.00333	1.10642	
34	1580406960.758750015	0.00247662	-0.928846	2.13525	-2.77702	-1.56958	-2.6232	0	0	-0	0	0	0	-16.2686	-4.02561	-1.97934	-3.08299	-0.904348	1.08069	
35	1580406960.766711083	0.0024886	-0.928834	2.13525	-2.77703	-1.5696	-2.62321	0	0	-0	0	0	0	-16.677	-4.57219	-2.07873	-3.05917	-1.00332	1.1836	
36	1580406960.774687878	0.00247662	-0.928858	2.13529	-2.77703	-1.56958	-2.62319	0	0	-0	0	0	0	-17.5619	-4.57034	-2.00343	-3.05916	-1.05279	1.3637	
37	1580406960.782748073	0.0024886	-0.928786	2.13523	-2.77704	-1.56956	-2.62318	0	0	-0	0	0	0	-17.0174	-4.14925	-1.92818	-3.10681	-1.05277	0.977784	
38	1580406960.790737380	0.00250058	-0.928834	2.13523	-2.77703	-1.5696	-2.62321	0	0	-0	0	0	0	-16.9493	-3.78395	-1.97978	-3.01156	-1.10229	1.31225	
39	1580406960.798709166	0.00252455	-0.928846	2.13523	-2.77703	-1.56958	-2.6232	0	0	-0	0	0	0	-16.7451	-4.26928	-2.12993	-3.01157	-0.929089	1.18361	
40	1580406960.806753214	0.0024886	-0.928834	2.13525	-2.77703	-1.56957	-2.62321	0	0	-0	0	0	0	-17.1535	-4.57219	-2.00387	-3.08299	-1.12701	1.02924	
41	1580406960.814757007	0.0024886	-0.928858	2.13523	-2.77703	-1.56961	-2.62324	0	0	-0	0	0	0	-16.3367	-3.47991	-2.00559	-3.05922	-1.07756	1.20934	
42	1580406960.822703702	0.0024886	-0.928798	2.13524	-2.777	-1.56956	-2.62321	0	0	-0	0	0	0	-16.5409	-4.33059	-1.95308	-3.1544	-0.929068	0.977775	
43	1580406960.830737855	0.00247662	-0.928834	2.13524	-2.77702	-1.56962	-2.62319	0	0	-0	0	0	0	-17.2216	-4.08701	-2.1041	-3.46413	-1.05282	1.13214	
44	1580406960.838774301	0.00250058	-0.928846	2.13529	-2.77705	-1.56957	-2.62321	0	0	-0	0	0	0	-17.4258	-4.20644	-2.05292	-3.03535	-0.95382	1.05497	
45	1580406960.846778003	0.00247662	-0.928846	2.13523	-2.77704	-1.56957	-2.62324	0	0	-0	0	0	0	-16.3367	-4.32999	-1.98022	-2.94012	-1.10227	0.952068	
46	1580406960.854685056	0.00246463	-0.928834	2.13526	-2.777	-1.5696	-2.62318	0	0	-0	0	0	0	-16.5409	-4.63243	-2.05332	-3.01149	-0.978578	1.02923	
47	1580406960.862700048	0.0024886	-0.928834	2.13527	-2.77703	-1.56955	-2.62319	0	0	-0	0	0	0	-17.0174	-4.08572	-1.97805	-3.08297	-0.978535	1.13215	
48	1580406960.870753984	0.00250058	-0.928786	2.13529	-2.77702	-1.56958	-2.6232	0	0	-0	0	0	0	-16.6089	-4.14704	-2.02578	-3.05906	-1.05279	1.08067	
49	1580406960.878729783	0.00247662	-0.928846	2.13525	-2.77702	-1.56957	-2.62321	0	0	-0	0	0	0	-17.0854	-3.54001	-2.02924	-3.03535	-0.978561	0.977785	
50	1580406960.886754232	0.00244066	-0.928834	2.13523	-2.77703	-1.5696	-2.62324	0	0	-0	0	0	0	-17.63	-3.96605	-2.07958	-3.03537	-0.978587	1.15788	
51	1580406960.894684120	0.00245265	-0.928858	2.13529	-2.77702	-1.5696	-2.62318	0	0	-0	0	0	0	-17.2896	-4.14543	-2.12817	-3.01151	-0.978578	1.05496	
52	1580406960.902735307	0.00246463	-0.928858	2.13527	-2.777	-1.56956	-2.62321	0	0	-0	0	0	0	-17.1535	-4.32794	-2.02878	-3.05914	-0.953809	1.10642	
53	1580406960.910753088	0.00251257	-0.928834	2.13524	-2.77703	-1.56957	-2.62319	0	0	-0	0	0	0	-16.8812	-4.39052	-1.95441	-3.03537	-1.07752	1.18361	
54	1580406960.918664366	0.00244066	-0.928846	2.13526	-2.77699	-1.5696	-2.62321	0	0	-0	0	0	0	-16.9493	-4.26794	-2.10363	-3.0353	-1.00332	1.13214	
55	1580406960.926718513	0.00247662	-0.928822	2.13529	-2.77702	-1.56957	-2.62318	0	0	-0	0	0	0	-17.4258	-4.14624	-2.00212	-3.03528	-0.904334	1.13214	
56	1580406960.934761823	0.0024886	-0.928834	2.13526	-2.77702	-1.56955	-2.62321	0	0	-0	0	0	0	-17.2216	-4.57174	-1.97848	-3.08296	-1.02802	1.10642	
57	1580406960.942687818	0.00250058	-0.928834	2.13529	-2.77704	-1.56958	-2.62321	0	0	-0	0	0	0	-16.6089	-4.44949	-1.97763	-2.89239	-0.929091	1.02923	
58	1580406960.950681434	0.00250058	-0.928822	2.13523	-2.77702	-1.56958	-2.62318	0	0	-0	0	0	0	-16.9493	-4.14841	-1.87954	-3.03536	-0.929086	1.08069	
59	1580406960.958712371	0.00247662	-0.928846	2.13523	-2.77702	-1.56963	-2.62324	0	0	-0	0	0	0	-16.4047	-4.39066	-1.93029	-3.08301	-1.10232	0.900598	
60	1580406960.966727179	0.00247662	-0.928858	2.13526	-2.77702	-1.5696	-2.6232	0	0	-0	0	0	0	-17.3577	-4.44981	-2.1041	-3.01153	-1.02806	1.1836	
61	1580406960.974728896	0.00247662	-0.928846	2.13526	-2.77702	-1.56955	-2.62321	0	0	-0	0	0	0	-17.4258	-4.51077	-1.95395	-3.03533	-1.10224	1.05497	
62	1580406960.982758525	0.00246463	-0.928822	2.13524	-2.77702	-1.5696	-2.6232	0	0	-0	0	0	0	-17.0174	-4.14798	-1.8791	-3.13062	-1.00332	1.05496	
63	1580406960.990744641	0.0024886	-0.928834	2.13527	-2.77703	-1.56961	-2.62323	0	0	-0	0	0	0	-16.9493	-4.4499	-1.90319	-3.03532	-0.953855	1.0035	
64	1580406960.998748599	0.00247662	-0.928858	2.13521	-2.77702	-1.56956	-2.6232	0	0	-0	0	0	0	-17.1535	-4.39083	-2.10582	-3.10687	-1.05277	1.05498	
65	1580406961.006766946	0.00247662	-0.92881	2.13524	-2.77702	-1.5696	-2.62324	0	0	-0	0	0	0	-17.7661	-4.33034	-1.97847	-2.94003	-1.02807	1.10641	
66	1580406961.014743211	0.00247662	-0.928858	2.13525	-2.77703	-1.56958	-2.6232	0	0	-0	0	0	0	-17.1535	-3.96466	-1.75522	-2.98774	-1.05279	1.33798	
67	1580406961.022702951	0.00250058	-0.92887	2.13523	-2.77703	-1.56957	-2.62323	0	0	-0	0	0	0	-17.3577	-4.51154	-1.90622	-3.0116	-0.978563	1.00353	
68	1580406961.030733128	0.00247662	-0.928834	2.13523	-2.77703	-1.56958	-2.6232	0	0	-0	0	0	0	-17.4258	-4.14815	-1.78017	-3.03538	-1.12701	0.952061	
69	1580406961.038730524	0.00247662	-0.928834	2.13525	-2.77703	-1.56957	-2.62325	0	0	-0	0	0	0	-16.7451	-4.26868	-2.15357	-2.94006	-0.929085	1.10642	
70	1580406961.046748466	0.00250058	-0.928834	2.13527	-2.77704	-1.5696	-2.62318	0	0	-0	0	0	0	-16.6089	-3.66084	-1.87826	-2.9877	-1.0528	1.13214	
71	1580406961.054733744	0.00247662	-0.928822	2.13523	-2.77699	-1.56957	-2.62321	0	0	-0	0	0	0	-16.8132	-4.39117	-1.95436	-3.05914	-1.02804	1.13215	
72	1580406961.062697647	0.00250058	-0.928822	2.13529	-2.77702	-1.56958	-2.62319	0	0	-0	0	0	0	-16.4728	-4.44974	-2.12688	-3.01146	-1.07753	0.952041	
73	1580406961.070752507	0.00246463	-0.928858	2.13524	-2.77703	-1.56957	-2.62324	0	0	-0	0	0	0	-16.9493	-4.32928	-1.95526	-2.96392	-1.00331	1.0807	
74	1580406961.078734866	0.00247662	-0.928834	2.13527	-2.77702	-1.56958	-2.62323	0	0	-0	0	0	0	-16.4047	-4.08569	-1.92812	-3.08294	-1.07754	1.13214	
75	1580406961.086708382	0.00247662	-0.928846	2.13525	-2.77702	-1.56956	-2.6232	0	0	-0	0	0	0	-17.0854	-4.08631	-1.85458	-3.03535	-0.953808	0.977786	
76	1580406961.094780623	0.00246463	-0.928798	2.13525	-2.77699	-1.56958	-2.62321	0	0	-0	0	0	0	-16.7451	-3.90525	-2.02749	-3.0829	-1.02805	1.15786	
77	1580406961.102717642	0.00250058	-0.928858	2.13525	-2.77704	-1.56958	-2.62321	0	0	-0	0	0	0	-16.6089	-4.32886	-1.85504	-2.96393	-1.05279	1.02925	
78	1580406961.110745653	0.00246463	-0.92881	2.13527	-2.77704	-1.5696	-2.62323	0	0	-0	0	0	0	-16.9493	-4.14696	-2.10195	-2.86855	-1.02807	1.05496	
79	1580406961.118715327	0.00247662	-0.928858	2.13524	-2.77702	-1.56958	-2.62319	0	0	-0	0	0	0	-16.4728	-3.41878	-1.98021	-3.0592	-1.00331	1.0807	
80	1580406961.126722114	0.00247662	-0.928822	2.13526	-2.77702	-1.5696	-2.62319	0	0	-0	0	0	0	-16.5409	-4.32922	-1.85329	-2.86856	-1.07754	1.05496	
81	1580406961.134747469	0.00245265	-0.928822	2.13525	-2.77702	-1.5696	-2.6232	0	0	-0	0	0	0	-16.9493	-4.32964	-1.95353	-3.08296	-0.953841	0.977776	
82	1580406961.142704275	0.00245265	-0.928786	2.13525	-2.77702	-1.56961	-2.62323	0	0	-0	0	0	0	-17.1535	-4.33044	-1.75262	-3.10674	-1.05282	1.23504	
83	1580406961.150738658	0.00247662	-0.928846	2.13525	-2.77703	-1.56957	-2.62321	0	0	-0	0	0	0	-16.9493	-3.84352	-1.92945	-3.13065	-1.10226	0.977787	
84	1580406961.158786407	0.00250058	-0.928798	2.13524	-2.77702	-1.56958	-2.62324	0	0	-0	0	0	0	-17.4258	-4.2699	-2.12775	-2.98766	-1.12702	1.1836	
85	1580406961.166735277	0.00245265	-0.928846	2.13525	-2.77705	-1.5696	-2.6232	0	0	-0	0	0	0	-16.9493	-4.32915	-1.90453	-3.08304	-0.953841	1.00352	
86	1580406961.174696223	0.00244066	-0.928846	2.13524	-2.77702	-1.56956	-2.62324	0	0	-0	0	0	0	-16.7451	-3.84393	-2.02967	-3.083	-1.02803	1.00352	
87	1580406961.182689230	0.00247662	-0.928822	2.13521	-2.777	-1.56955	-2.62321	0	0	-0	0	0	0	-16.8812	-4.20952	-2.00471	-3.05917	-0.953798	1.0807	
88	1580406961.190745469	0.00247662	-0.928822	2.13527	-2.77703	-1.56958	-2.62324	0	0	-0	0	0	0	-16.6089	-4.57157	-1.85285	-3.05912	-0.978576	1.0035	
89	1580406961.198707406	0.00247662	-0.928822	2.13531	-2.777	-1.56957	-2.62319	0	0	-0	0	0	0	-16.5409	-4.44886	-2.00124	-3.03524	-0.953817	1.08067	
90	1580406961.206722673	0.0024886	-0.928858	2.13524	-2.77699	-1.56957	-2.62321	0	0	-0	0	0	0	-16.9493	-4.51134	-2.05503	-3.03535	-0.95382	0.900602	
91	1580406961.214683076	0.00250058	-0.928798	2.13525	-2.77702	-1.56955	-2.62321	0	0	-0	0	0	0	-17.5619	-4.02668	-1.82791	-3.05911	-1.00328	1.15787	
92	1580406961.222721795	0.0024886	-0.928834	2.13524	-2.77703	-1.56957	-2.62321	0	0	-0	0	0	0	-16.677	-3.60143	-2.07916	-3.03536	-0.879598	0.977787	
93	1580406961.230745098	0.00246463	-0.92887	2.13524	-2.77705	-1.56954	-2.62324	0	0	-0	0	0	0	-17.2216	-4.32904	-1.95572	-3.03543	-1.00327	0.952079	
94	1580406961.238727427	0.00250058	-0.928846	2.13527	-2.777	-1.56955	-2.6232	0	0	-0	0	0	0	-17.63	-3.90332	-2.07825	-2.96384	-1.0775	1.00351	
95	1580406961.246686151	0.00246463	-0.92881	2.13529	-2.777	-1.56958	-2.62321	0	0	-0	0	0	0	-17.0854	-4.26789	-1.92682	-3.03525	-1.00331	0.926308	
96	1580406961.254789901	0.00246463	-0.928846	2.13525	-2.77702	-1.56957	-2.62321	0	0	-0	0	0	0	-17.1535	-3.96491	-2.05419	-3.01153	-0.904339	1.18361	
97	1580406961.262755037	0.00246463	-0.928834	2.13524	-2.77702	-1.56957	-2.62321	0	0	-0	0	0	0	-16.8812	-4.8154	-2.05419	-3.05917	-0.904339	1.10642	
98	1580406961.270724451	0.00247662	-0.928822	2.13525	-2.77702	-1.56957	-2.62318	0	0	-0	0	0	0	-17.2216	-4.51175	-1.95353	-3.03533	-1.02804	1.15787	
99	1580406961.278717672	0.00250058	-0.928822	2.13524	-2.77702	-1.56961	-2.62321	0	0	-0	0	0	0	-16.9493	-3.90518	-1.90405	-2.98769	-0.978594	1.08069	
100	1580406961.286778829	0.0024886	-0.928786	2.13527	-2.77702	-1.56956	-2.62324	0	0	-0	0	0	0	-17.1535	-4.45096	-1.87649	-3.08288	-0.978553	1.2865	
101	1580406961.294668554	0.00247662	-0.928834	2.13524	-2.77702	-1.56958	-2.6232	0	0	-0	0	0	0	-16.677	-4.20841	-1.95439	-3.03535	-0.95383	1.1836	
102	1580406961.302714606	0.00245265	-0.928834	2.13529	-2.77702	-1.5696	-2.6232	0	0	-0	0	0	0	-17.1535	-4.57086	-2.0275	-3.03529	-0.953841	1.02923	
103	1580406961.310659775	0.0024886	-0.928846	2.13524	-2.77704	-1.56956	-2.62323	0	0	-0	0	0	0	-16.5409	-4.32956	-1.92989	-3.13067	-1.07751	1.02925	
104	1580406961.318712611	0.00245265	-0.92881	2.13529	-2.777	-1.5696	-2.62321	0	0	-0	0	0	0	-16.6089	-3.84299	-1.85196	-3.01143	-0.978583	0.874851	
105	1580406961.326650435	0.00244066	-0.928846	2.13529	-2.77702	-1.56955	-2.6232	0	0	-0	0	0	0	-17.2216	-4.3278	-1.97803	-3.01149	-0.953796	1.08069	
106	1580406961.334695492	0.00247662	-0.928846	2.13527	-2.77704	-1.56958	-2.62323	0	0	-0	0	0	0	-17.1535	-4.14615	-1.80382	-3.15445	-1.02806	1.05497	
107	1580406961.342673012	0.00246463	-0.928834	2.13527	-2.77702	-1.56957	-2.62319	0	0	-0	0	0	0	-16.9493	-3.7215	-2.00298	-3.03531	-1.05278	0.926321	
108	1580406961.350701383	0.00242905	-0.928858	2.13525	-2.77702	-1.56961	-2.6232	0	0	-0	0	0	0	-17.3577	-4.08604	-1.80511	-3.03536	-1.05281	1.05497	
109	1580406961.358691732	0.0024886	-0.928798	2.13526	-2.777	-1.5696	-2.62321	0	0	-0	0	0	0	-17.0854	-4.45113	-1.97717	-2.9638	-1.10229	1.08068	
110	1580406961.366712871	0.00247662	-0.928786	2.13526	-2.77702	-1.56958	-2.62321	0	0	-0	0	0	0	-17.0854	-4.26932	-1.9019	-2.91616	-1.3002	1.00349	
111	1580406961.374704901	0.0024886	-0.928846	2.13524	-2.77704	-1.56954	-2.62321	0	0	-0	0	0	0	-16.4728	-4.57236	-1.9798	-3.03539	-1.02801	1.08071	
112	1580406961.382666806	0.00250058	-0.92881	2.13525	-2.77704	-1.56958	-2.62319	0	0	-0	0	0	0	-16.7451	-4.14785	-1.85332	-3.13062	-0.953828	1.02924	
113	1580406961.390729552	0.00251257	-0.928846	2.13521	-2.777	-1.56957	-2.62321	0	0	-0	0	0	0	-16.7451	-4.02689	-1.98062	-3.08302	-1.05278	0.97779	
114	1580406961.398745870	0.0024886	-0.928822	2.13525	-2.77703	-1.56958	-2.6232	0	0	-0	0	0	0	-16.4047	-4.63316	-1.95354	-3.01152	-0.97857	0.926325	
115	1580406961.406687903	0.00250058	-0.928822	2.13525	-2.77704	-1.56957	-2.6232	0	0	-0	0	0	0	-17.3577	-4.39037	-1.9286	-3.08299	-1.02804	1.05497	
116	1580406961.414789473	0.00247662	-0.928846	2.13525	-2.77702	-1.56958	-2.62321	0	0	-0	0	0	0	-16.7451	-4.4505	-1.95439	-3.01153	-1.02805	1.26079	
117	1580406961.422745335	0.00247662	-0.928882	2.13526	-2.77702	-1.56958	-2.62323	0	0	-0	0	0	0	-17.0854	-3.72086	-1.95526	-3.15448	-0.953833	1.28652	
118	1580406961.430763984	0.00247662	-0.928846	2.13525	-2.77702	-1.56956	-2.62323	0	0	-0	0	0	0	-16.8812	-4.8147	-2.05419	-3.10681	-1.00329	0.977786	
119	1580406961.438682228	0.00246463	-0.92881	2.13524	-2.77702	-1.56957	-2.62317	0	0	-0	0	0	0	-17.1535	-4.33035	-2.02839	-3.01151	-0.978554	1.23506	
120	1580406961.447161981	0.0024886	-0.928846	2.13524	-2.777	-1.5696	-2.62321	0	0	-0	0	0	0	-17.0854	-4.26882	-2.02966	-3.01153	-1.00332	1.15788	
121	1580406961.454719705	0.00245265	-0.928834	2.13529	-2.77703	-1.56957	-2.62321	0	0	-0	0	0	0	-16.5409	-4.69227	-1.90276	-2.98766	-1.05278	1.20933	
122	1580406961.462695452	0.00247662	-0.928834	2.13526	-2.77702	-1.56956	-2.62323	0	0	-0	0	0	0	-17.1535	-4.38964	-2.05333	-3.08296	-0.904329	1.1836	
123	1580406961.470748500	0.0024886	-0.928846	2.13525	-2.77702	-1.56958	-2.6232	0	0	-0	0	0	0	-17.2896	-4.08631	-2.1041	-3.01153	-1.02805	1.26079	
124	1580406961.478775866	0.0024886	-0.928822	2.13524	-2.77703	-1.56957	-2.6232	0	0	-0	0	0	0	-17.3577	-4.51219	-2.02883	-3.03535	-0.929078	1.02924	
125	1580406961.486740599	0.0024886	-0.928834	2.13523	-2.77703	-1.56958	-2.6232	0	0	-0	0	0	0	-17.2896	-3.84466	-2.12949	-3.41652	-0.929089	1.10643	
126	1580406961.494712285	0.00247662	-0.928798	2.13523	-2.77704	-1.56957	-2.62318	0	0	-0	0	0	0	-17.0174	-4.14898	-1.92861	-2.98771	-0.904334	1.15788	
127	1580406961.502690539	0.00245265	-0.928846	2.13527	-2.777	-1.56958	-2.62321	0	0	-0	0	0	0	-16.5409	-4.20681	-2.00339	-3.10677	-0.929091	1.05496	
128	1580406961.510820129	0.00247662	-0.928846	2.13525	-2.77704	-1.56956	-2.62323	0	0	-0	0	0	0	-16.9493	-4.45053	-2.07917	-3.15448	-0.953811	1.10643	
129	1580406961.518702285	0.00245265	-0.928834	2.13523	-2.77702	-1.56958	-2.62319	0	0	-0	0	0	0	-16.677	-4.14814	-1.97977	-3.17829	-0.953828	1.28652	
130	1580406961.526770565	0.00247662	-0.92881	2.13521	-2.77702	-1.56955	-2.62324	0	0	-0	0	0	0	-17.3577	-4.63469	-1.97933	-3.01152	-0.953801	1.0807	
131	1580406961.534713045	0.00250058	-0.928846	2.13524	-2.777	-1.56958	-2.62324	0	0	-0	0	0	0	-17.1535	-4.32952	-2.17936	-3.03534	-1.00332	0.952055	
132	1580406961.542702693	0.00250058	-0.928822	2.13523	-2.77704	-1.56958	-2.62321	0	0	-0	0	0	0	-17.4939	-4.14843	-2.12908	-3.01156	-0.879609	1.20934	
133	1580406961.550711562	0.00251257	-0.928822	2.13525	-2.77702	-1.56956	-2.6232	0	0	-0	0	0	0	-17.1535	-4.08685	-2.02838	-3.03532	-0.953808	1.15787	
134	1580406961.558734774	0.00251257	-0.928834	2.13525	-2.777	-1.56958	-2.62319	0	0	-0	0	0	0	-16.7451	-4.20796	-1.9789	-3.10679	-0.879606	1.15787	
135	1580406961.566721036	0.0024886	-0.928858	2.13525	-2.77702	-1.56957	-2.62323	0	0	-0	0	0	0	-16.677	-3.90394	-1.97977	-3.03536	-0.953822	1.05497	
136	1580406961.574734388	0.0024886	-0.928798	2.13525	-2.77704	-1.56955	-2.62323	0	0	-0	0	0	0	-17.2216	-4.08741	-1.95269	-3.03532	-0.953799	1.00351	
137	1580406961.582761004	0.00245265	-0.92881	2.13529	-2.77702	-1.56956	-2.62319	0	0	-0	0	0	0	-16.9493	-3.72161	-2.00169	-3.01145	-0.879584	1.0035	
138	1580406961.590764291	0.00250058	-0.928834	2.13527	-2.777	-1.56958	-2.62323	0	0	-0	0	0	0	-17.3577	-4.81407	-1.8283	-3.05911	-1.02806	1.18359	
139	1580406961.598721656	0.00247662	-0.928798	2.13527	-2.77704	-1.56956	-2.62323	0	0	-0	0	0	0	-17.4258	-3.96513	-1.82705	-3.24968	-0.92907	1.10641	
140	1580406961.606773210	0.00246463	-0.928834	2.13525	-2.77702	-1.56958	-2.62321	0	0	-0	0	0	0	-16.4728	-4.26867	-2.05376	-3.08298	-1.07754	1.00351	
141	1580406961.614736496	0.00247662	-0.928834	2.13525	-2.77702	-1.56961	-2.6232	0	0	-0	0	0	0	-16.3367	-4.02588	-2.05376	-3.03534	-1.00333	1.13214	
142	1580406961.622672559	0.00251257	-0.928822	2.13525	-2.77703	-1.56958	-2.62319	0	0	-0	0	0	0	-17.1535	-3.90477	-1.92859	-3.03534	-1.00331	1.15787	
143	1580406961.630709536	0.0024886	-0.92881	2.13527	-2.77699	-1.56962	-2.62321	0	0	-0	0	0	0	-17.0174	-3.84341	-2.00209	-3.08289	-0.929124	1.18358	
144	1580406961.638709316	0.00250058	-0.928846	2.13525	-2.77702	-1.56958	-2.62324	0	0	-0	0	0	0	-17.0174	-4.4505	-1.80467	-3.03534	-1.0528	1.10642	
145	1580406961.646723427	0.00247662	-0.928846	2.13524	-2.777	-1.56962	-2.62318	0	0	-0	0	0	0	-16.9493	-4.45093	-2.25423	-3.083	-1.02808	1.08069	
146	1580406961.654742575	0.00247662	-0.928834	2.13521	-2.777	-1.56957	-2.62319	0	0	-0	0	0	0	-16.3367	-4.33066	-2.00514	-3.08301	-1.05278	1.10643	
147	1580406961.662696953	0.00245265	-0.928834	2.13529	-2.77704	-1.5696	-2.6232	0	0	-0	0	0	0	-17.4258	-3.6604	-2.10238	-3.08296	-1.07754	0.92632	
148	1580406961.670778173	0.0024886	-0.92881	2.13527	-2.77704	-1.56957	-2.62323	0	0	-0	0	0	0	-17.0854	-4.20766	-1.90234	-3.0353	-1.02804	1.23505	
149	1580406961.678746506	0.00247662	-0.928822	2.13526	-2.77699	-1.56958	-2.62321	0	0	-0	0	0	0	-16.8132	-4.14708	-2.02792	-3.13056	-1.1765	1.20932	
150	1580406961.686735402	0.00247662	-0.928834	2.13525	-2.77703	-1.56958	-2.6232	0	0	-0	0	0	0	-16.2686	-3.84379	-1.90407	-3.01153	-1.05279	1.23506	
151	1580406961.694693346	0.0024886	-0.92881	2.13526	-2.77703	-1.56958	-2.62319	0	0	-0	0	0	0	-16.0644	-4.026	-1.95268	-3.01149	-1.00331	1.05496	
152	1580406961.702759015	0.0024886	-0.928858	2.13525	-2.77699	-1.56958	-2.62321	0	0	-0	0	0	0	-16.8132	-4.51091	-2.05459	-2.98769	-1.07754	1.10642	
153	1580406961.710753607	0.0024886	-0.92887	2.13525	-2.77704	-1.56957	-2.6232	0	0	-0	0	0	0	-16.6089	-3.843	-1.90538	-3.08305	-1.07752	1.13216	
154	1580406961.718716313	0.00247662	-0.928834	2.13525	-2.77703	-1.56956	-2.6232	0	0	-0	0	0	0	-16.7451	-4.39009	-1.95397	-2.98771	-1.10225	0.926331	
155	1580406961.726684200	0.00247662	-0.928762	2.13526	-2.77704	-1.56958	-2.62321	0	0	-0	0	0	0	-16.9493	-4.33059	-2.10066	-2.91616	-1.05279	0.952039	
156	1580406961.734765396	0.00245265	-0.928822	2.13526	-2.77702	-1.56957	-2.6232	0	0	-0	0	0	0	-17.0174	-4.32921	-1.9531	-3.08295	-1.05278	1.02923	
157	1580406961.742724775	0.00247662	-0.928834	2.13529	-2.77702	-1.56958	-2.6232	0	0	-0	0	0	0	-17.1535	-3.90317	-1.9776	-3.10676	-1.07753	1.13214	
158	1580406961.750681281	0.0024886	-0.928822	2.13527	-2.77702	-1.56958	-2.62319	0	0	-0	0	0	0	-16.8132	-4.51087	-1.95265	-3.08294	-1.07753	0.926316	
159	1580406961.758694223	0.0024886	-0.92881	2.13524	-2.77702	-1.5696	-2.62323	0	0	-0	0	0	0	-17.2216	-4.20894	-2.02838	-3.01149	-0.953844	1.10641	
160	1580406961.766706692	0.00250058	-0.928822	2.13526	-2.777	-1.56955	-2.62319	0	0	-0	0	0	0	-16.8132	-4.4506	-2.05289	-3.0353	-0.929054	1.05496	
161	1580406961.774758584	0.00247662	-0.928798	2.13525	-2.77702	-1.56957	-2.62319	0	0	-0	0	0	0	-17.63	-4.57298	-2.00257	-3.0353	-1.127	1.13214	
162	1580406961.782749414	0.00246463	-0.92881	2.13523	-2.77704	-1.56955	-2.6232	0	0	-0	0	0	0	-17.0174	-4.2701	-1.90408	-3.05919	-1.00328	1.13216	
163	1580406961.790739308	0.0024886	-0.928834	2.13527	-2.77703	-1.56961	-2.62323	0	0	-0	0	0	0	-16.8132	-3.90361	-1.90319	-2.91621	-1.07756	1.02923	
164	1580406961.798844679	0.00246463	-0.928822	2.13521	-2.77699	-1.5696	-2.62318	0	0	-0	0	0	0	-15.8602	-4.33091	-2.02965	-2.94006	-1.02806	1.10642	
165	1580406961.806734616	0.00247662	-0.928858	2.13526	-2.777	-1.56957	-2.62321	0	0	-0	0	0	0	-17.4258	-3.96419	-1.92942	-3.01151	-0.978561	1.00351	
166	1580406961.814748736	0.0024886	-0.928846	2.13527	-2.77704	-1.56962	-2.62323	0	0	-0	0	0	0	-17.0174	-3.78196	-2.02839	-3.13063	-1.12705	1.10642	
167	1580406961.822705624	0.0024886	-0.928846	2.13526	-2.77703	-1.56956	-2.62321	0	0	-0	0	0	0	-16.8132	-4.32869	-2.00387	-2.96388	-1.00329	1.31225	
168	1580406961.830810511	0.00245265	-0.928822	2.13525	-2.77703	-1.5696	-2.6232	0	0	-0	0	0	0	-17.2216	-3.90476	-2.0783	-2.98769	-1.00332	1.13214	
169	1580406961.838761655	0.00246463	-0.928882	2.13523	-2.77704	-1.56954	-2.62323	0	0	-0	0	0	0	-16.7451	-4.69337	-1.95659	-2.94016	-1.02801	1.1579	
170	1580406961.846679686	0.00250058	-0.928834	2.1353	-2.777	-1.56955	-2.62324	0	0	-0	0	0	0	-16.8812	-4.38831	-1.97715	-3.10672	-0.879579	1.0035	
171	1580406961.854735252	0.00250058	-0.928846	2.13525	-2.77702	-1.56961	-2.6232	0	0	-0	0	0	0	-17.0174	-4.38981	-2.05419	-2.98771	-0.90437	1.10642	
172	1580406961.862753336	0.00250058	-0.928834	2.13526	-2.77702	-1.56958	-2.62319	0	0	-0	0	0	0	-16.9493	-4.38965	-2.12819	-3.0115	-0.953828	1.05496	
173	1580406961.870684250	0.00246463	-0.928834	2.13523	-2.77702	-1.56958	-2.6232	0	0	-0	0	0	0	-16.8132	-4.45164	-2.12948	-3.03536	-1.00331	1.10642	
174	1580406961.878682609	0.00246463	-0.928834	2.13524	-2.77702	-1.56961	-2.62319	0	0	-0	0	0	0	-16.9493	-4.14771	-2.0542	-3.17828	-0.95385	1.23506	
175	1580406961.886735654	0.00242905	-0.928786	2.13527	-2.77703	-1.56955	-2.6232	0	0	-0	0	0	0	-16.8132	-4.20819	-1.92642	-3.05909	-1.12698	1.18359	
176	1580406961.894790915	0.00250058	-0.928834	2.13523	-2.777	-1.56958	-2.62319	0	0	-0	0	0	0	-16.7451	-4.14813	-1.855	-2.98771	-0.953828	1.08069	
177	1580406961.902736534	0.00251257	-0.928834	2.13526	-2.77703	-1.56957	-2.62323	0	0	-0	0	0	0	-17.4258	-4.38965	-2.10324	-3.15444	-1.0033	1.13215	
178	1580406961.910735627	0.0024886	-0.928846	2.13525	-2.777	-1.56955	-2.62323	0	0	-0	0	0	0	-16.8812	-4.20769	-1.87951	-3.2259	-0.929059	1.0807	
179	1580406961.918686959	0.0024886	-0.928822	2.13524	-2.77702	-1.56956	-2.62318	0	0	-0	0	0	0	-16.8132	-3.90518	-1.90406	-2.9877	-1.00329	1.02924	
180	1580406961.926796266	0.00247662	-0.928846	2.13525	-2.77704	-1.56957	-2.62323	0	0	-0	0	0	0	-16.7451	-4.38983	-1.77975	-3.15448	-0.904341	1.18361	
181	1580406961.934752648	0.00246463	-0.928858	2.13525	-2.77704	-1.56956	-2.6232	0	0	-0	0	0	0	-16.8812	-4.02537	-2.07961	-2.96393	-0.953808	0.900612	
182	1580406961.942685239	0.00247662	-0.928822	2.13525	-2.77703	-1.56961	-2.62321	0	0	-0	0	0	0	-16.7451	-4.45105	-1.87868	-3.03533	-0.953854	0.977777	
183	1580406961.950706247	0.0024886	-0.928834	2.1353	-2.77703	-1.56958	-2.62321	0	0	-0	0	0	0	-17.63	-4.32765	-1.85242	-3.05911	-0.953831	0.977772	
184	1580406961.958764272	0.0024886	-0.928858	2.13525	-2.77703	-1.56957	-2.62319	0	0	-0	0	0	0	-16.6089	-4.51095	-1.90494	-3.03538	-0.953817	0.900607	
185	1580406961.966699057	0.00250058	-0.92881	2.13524	-2.77703	-1.56957	-2.62323	0	0	-0	0	0	0	-16.677	-4.14825	-2.07829	-3.08297	-0.830118	1.20933	
186	1580406961.974707818	0.00250058	-0.92881	2.13526	-2.777	-1.56955	-2.62319	0	0	-0	0	0	0	-16.5409	-4.32947	-1.90275	-3.0591	-0.978535	1.1836	
187	1580406961.982687655	0.0024886	-0.928834	2.13526	-2.77703	-1.5696	-2.62323	0	0	-0	0	0	0	-16.9493	-3.53986	-1.92858	-3.10679	-1.00333	0.977779	
188	1580406961.990724172	0.0024886	-0.928798	2.13523	-2.777	-1.56957	-2.6232	0	0	-0	0	0	0	-16.9493	-4.39173	-2.02837	-3.01149	-0.953819	1.0035	
189	1580406961.998744533	0.0024886	-0.928834	2.13525	-2.77702	-1.56957	-2.62321	0	0	-0	0	0	0	-17.4258	-3.84378	-2.00386	-3.13062	-1.0033	0.926326	
190	1580406962.006747697	0.00247662	-0.928846	2.13525	-2.77702	-1.56958	-2.62323	0	0	-0	0	0	0	-16.8132	-4.147	-1.95438	-3.08299	-0.879611	1.28652	
191	1580406962.014704106	0.0024886	-0.928822	2.13519	-2.77702	-1.56958	-2.6232	0	0	-0	0	0	0	-16.4047	-4.69601	-2.05551	-3.01157	-0.97857	1.0807	
192	1580406962.022834104	0.00246463	-0.928822	2.13527	-2.77702	-1.56954	-2.62324	0	0	-0	0	0	0	-16.8812	-4.57155	-1.92769	-3.05911	-0.879568	1.15787	
193	1580406962.030762939	0.00246463	-0.928798	2.13526	-2.77702	-1.56958	-2.62321	0	0	-0	0	0	0	-16.2005	-4.45115	-1.80252	-3.08292	-0.929091	0.977769	
194	1580406962.038691579	0.0024886	-0.928822	2.13526	-2.777	-1.56957	-2.62321	0	0	-0	0	0	0	-16.9493	-4.3899	-2.05288	-3.03529	-0.92908	1.20932	
195	1580406962.046703818	0.00247662	-0.928846	2.13527	-2.777	-1.56957	-2.6232	0	0	-0	0	0	0	-16.4728	-4.26751	-1.92854	-3.05913	-0.904337	1.26078	
196	1580406962.054727640	0.00245265	-0.928834	2.13526	-2.77704	-1.56956	-2.6232	0	0	-0	0	0	0	-16.4728	-4.32897	-2.05336	-3.08299	-0.978548	1.13215	
197	1580406962.062728188	0.00250058	-0.92881	2.13524	-2.77703	-1.56956	-2.62321	0	0	-0	0	0	0	-17.4939	-3.96616	-1.95354	-2.98769	-0.97855	0.900601	
198	1580406962.070745575	0.00242905	-0.928858	2.13525	-2.77702	-1.5696	-2.6232	0	0	-0	0	0	0	-17.2216	-4.26814	-2.12948	-3.03536	-0.978582	0.977784	
199	1580406962.078739685	0.00246463	-0.928858	2.13523	-2.77704	-1.56957	-2.62318	0	0	-0	0	0	0	-16.2686	-3.96554	-1.88086	-3.03543	-0.904334	1.13216	
200	1580406962.086762903	0.0024886	-0.928822	2.13524	-2.77702	-1.56958	-2.6232	0	0	-0	0	0	0	-16.677	-4.33008	-2.02881	-3.05916	-1.00331	1.00351	
201	1580406962.094738727	0.00247662	-0.928822	2.13524	-2.77704	-1.56957	-2.6232	0	0	-0	0	0	0	-17.0174	-4.3908	-2.02884	-3.03537	-0.978559	1.10643	
202	1580406962.102775451	0.00247662	-0.928798	2.13525	-2.777	-1.56957	-2.62318	0	0	-0	0	0	0	-16.8812	-3.66248	-2.15227	-3.10675	-0.978556	1.10641	
203	1580406962.110732317	0.00247662	-0.928822	2.13525	-2.77702	-1.56956	-2.62319	0	0	-0	0	0	0	-16.677	-4.20825	-2.10324	-3.13061	-0.904324	1.08069	
204	1580406962.118842553	0.00247662	-0.928798	2.13525	-2.77699	-1.56956	-2.6232	0	0	-0	0	0	0	-17.0854	-4.33015	-1.92768	-3.13055	-0.904326	1.05495	
205	1580406962.126762255	0.0024886	-0.928846	2.13525	-2.777	-1.56955	-2.62321	0	0	-0	0	0	0	-16.7451	-4.14699	-1.95437	-3.05915	-0.879575	0.977785	
206	1580406962.134697533	0.00247662	-0.928822	2.13521	-2.77704	-1.5696	-2.62318	0	0	-0	0	0	0	-17.1535	-4.57377	-1.88	-3.08304	-0.978578	0.952062	
207	1580406962.142712683	0.0024886	-0.928834	2.13529	-2.77702	-1.56961	-2.62324	0	0	-0	0	0	0	-16.6089	-4.44946	-1.90274	-3.05911	-0.978598	1.15786	
208	1580406962.150698290	0.00247662	-0.928822	2.1353	-2.77703	-1.56956	-2.62323	0	0	-0	0	0	0	-17.3577	-3.90302	-1.85199	-3.10674	-0.953811	1.13214	
209	1580406962.158704281	0.0024886	-0.928846	2.13523	-2.77702	-1.56958	-2.62321	0	0	-0	0	0	0	-16.4728	-4.45137	-1.9303	-2.96391	-1.05279	1.20934	
210	1580406962.166736875	0.00246463	-0.928846	2.13525	-2.77702	-1.56958	-2.6232	0	0	-0	0	0	0	-17.0854	-4.38981	-2.12905	-3.03535	-0.929089	1.1836	
211	1580406962.174727831	0.00246463	-0.928858	2.13525	-2.77703	-1.56958	-2.62319	0	0	-0	0	0	0	-16.8132	-4.45025	-1.90494	-3.10685	-0.929087	1.10643	
212	1580406962.182780494	0.0024886	-0.928846	2.13525	-2.77702	-1.56958	-2.62321	0	0	-0	0	0	0	-16.2005	-4.08631	-2.02924	-3.03535	-0.879609	1.10642	
213	1580406962.190780150	0.0024886	-0.928822	2.13529	-2.77702	-1.56962	-2.62321	0	0	-0	0	0	0	-17.4939	-4.14623	-1.77755	-3.08292	-1.02809	1.1064	
214	1580406962.198779856	0.00247662	-0.928846	2.13525	-2.777	-1.56956	-2.62324	0	0	-0	0	0	0	-16.3367	-4.45048	-1.95437	-3.01151	-1.05278	1.08069	
215	1580406962.206702804	0.00246463	-0.928846	2.13526	-2.77702	-1.5696	-2.62323	0	0	-0	0	0	0	-17.0854	-4.38937	-1.9789	-3.05915	-0.929104	1.1836	
216	1580406962.214777811	0.0024886	-0.928846	2.13529	-2.77702	-1.56958	-2.62321	0	0	-0	0	0	0	-16.3367	-4.085	-1.95308	-3.0353	-0.953831	1.1836	
217	1580406962.222756062	0.0024886	-0.92881	2.13525	-2.77702	-1.5696	-2.62319	0	0	-0	0	0	0	-16.8132	-4.39061	-2.0529	-2.7971	-1.00332	1.15787	
218	1580406962.230696799	0.00245265	-0.928822	2.13521	-2.77703	-1.56958	-2.62321	0	0	-0	0	0	0	-16.4047	-4.20955	-2.02969	-3.0592	-1.10228	1.10643	
219	1580406962.238737056	0.00246463	-0.928822	2.13525	-2.77702	-1.56957	-2.62321	0	0	-0	0	0	0	-16.5409	-4.20824	-1.80382	-2.91621	-0.978561	1.05496	
220	1580406962.246732866	0.00245265	-0.928834	2.13524	-2.77702	-1.56956	-2.6232	0	0	-0	0	0	0	-17.4258	-4.45121	-1.85458	-3.05917	-0.953808	1.02924	
221	1580406962.254695266	0.00246463	-0.928822	2.13525	-2.77703	-1.56956	-2.62324	0	0	-0	0	0	0	-17.4258	-4.32965	-1.92858	-3.13061	-1.02803	1.10642	
222	1580406962.262675362	0.00250058	-0.928798	2.13523	-2.77704	-1.56957	-2.6232	0	0	-0	0	0	0	-16.7451	-4.20967	-1.90365	-3.05917	-1.07752	1.10642	
223	1580406962.270716697	0.00247662	-0.928834	2.13524	-2.77702	-1.56958	-2.62323	0	0	-0	0	0	0	-16.677	-3.84421	-2.07914	-3.01152	-1.07754	1.13215	
224	1580406962.278772467	0.00250058	-0.928822	2.13525	-2.777	-1.56956	-2.62324	0	0	-0	0	0	0	-16.9493	-4.20822	-2.02836	-3.01148	-0.929072	1.10642	
225	1580406962.286779816	0.00247662	-0.928846	2.13525	-2.77702	-1.56958	-2.62319	0	0	-0	0	0	0	-16.9493	-4.26841	-2.1041	-3.01153	-0.755902	1.02924	
226	1580406962.294681711	0.0024886	-0.92881	2.13521	-2.77703	-1.56957	-2.62321	0	0	-0	0	0	0	-16.7451	-4.51332	-1.92945	-3.20211	-1.0033	1.20934	
227	1580406962.302696914	0.00247662	-0.92881	2.13526	-2.777	-1.56957	-2.6232	0	0	-0	0	0	0	-17.0854	-4.02597	-1.9776	-3.13056	-0.978559	0.977771	
228	1580406962.310706093	0.00250058	-0.928846	2.13529	-2.77703	-1.56955	-2.62318	0	0	-0	0	0	0	-17.0174	-4.08502	-1.97805	-3.05915	-0.929052	0.926327	
229	1580406962.318715456	0.00247662	-0.928834	2.13524	-2.77703	-1.56957	-2.62319	0	0	-0	0	0	0	-17.1535	-4.26912	-2.07916	-3.01155	-0.978558	1.02924	
230	1580406962.326710541	0.0024886	-0.928822	2.13529	-2.77703	-1.56958	-2.62321	0	0	-0	0	0	0	-16.5409	-4.57114	-2.00213	-3.13057	-1.00331	1.05495	
231	1580406962.334702428	0.00250058	-0.928834	2.13527	-2.77702	-1.56957	-2.62324	0	0	-0	0	0	0	-17.0174	-3.84289	-2.00297	-3.0353	-0.904342	1.05496	
232	1580406962.342704811	0.00250058	-0.928798	2.13525	-2.77703	-1.56956	-2.62324	0	0	-0	0	0	0	-16.5409	-3.72319	-1.87782	-3.10676	-1.07752	0.977778	
233	1580406962.350806055	0.00247662	-0.928822	2.13525	-2.77702	-1.56958	-2.62323	0	0	-0	0	0	0	-17.0854	-4.39034	-2.07828	-3.01149	-0.978574	1.15787	
234	1580406962.358760412	0.00251257	-0.92881	2.13527	-2.77703	-1.56956	-2.62321	0	0	-0	0	0	0	-17.0854	-3.41855	-2.22669	-3.03529	-1.05277	0.900592	
235	1580406962.366717557	0.0024886	-0.928858	2.13523	-2.77704	-1.56958	-2.62321	0	0	-0	0	0	0	-16.9493	-4.14763	-1.806	-3.08306	-1.00331	1.13216	
236	1580406962.374747918	0.00246463	-0.928822	2.13526	-2.77702	-1.5696	-2.62321	0	0	-0	0	0	0	-16.5409	-3.78291	-2.02795	-3.01148	-1.05281	1.20932	
237	1580406962.382759786	0.0024886	-0.92881	2.13524	-2.777	-1.56955	-2.62321	0	0	-0	0	0	0	-17.0174	-4.57312	-1.95351	-3.01148	-1.0775	1.08069	
238	1580406962.390683277	0.00246463	-0.928822	2.13521	-2.77703	-1.5696	-2.62321	0	0	-0	0	0	0	-17.6981	-4.45235	-1.92988	-2.98773	-0.854879	1.13215	
239	1580406962.398708817	0.00247662	-0.928846	2.13525	-2.77703	-1.56957	-2.62317	0	0	-0	0	0	0	-17.1535	-4.26843	-1.77975	-2.94009	-0.978554	1.0807	
240	1580406962.406815115	0.00246463	-0.928834	2.13527	-2.77703	-1.56956	-2.62321	0	0	-0	0	0	0	-16.677	-4.38921	-2.00299	-2.94003	-0.97855	1.00351	
241	1580406962.414686649	0.00246463	-0.928822	2.13526	-2.77702	-1.56957	-2.62321	0	0	-0	0	0	0	-16.5409	-4.51131	-2.02795	-3.10677	-1.0033	1.20933	
242	1580406962.422733194	0.00247662	-0.928834	2.13525	-2.77705	-1.56958	-2.62326	0	0	-0	0	0	0	-17.4939	-4.815	-1.90409	-3.10683	-0.854875	0.952061	
243	1580406962.430724508	0.0024886	-0.928858	2.13529	-2.777	-1.56957	-2.62321	0	0	-0	0	0	0	-16.8812	-4.50961	-2.07825	-3.13059	-0.978561	1.10641	
244	1580406962.438806278	0.00247662	-0.928798	2.13526	-2.77702	-1.5696	-2.62319	0	0	-0	0	0	0	-16.7451	-4.08695	-2.00214	-3.01146	-0.97858	0.977767	
245	1580406962.446668156	0.00250058	-0.928858	2.13525	-2.77703	-1.5696	-2.62318	0	0	-0	0	0	0	-17.1535	-4.51096	-2.00474	-3.13067	-1.07754	1.10643	
246	1580406962.454684860	0.00247662	-0.928834	2.13524	-2.77703	-1.56956	-2.6232	0	0	-0	0	0	0	-16.9493	-4.51192	-1.97936	-3.05919	-1.02803	1.05497	
247	1580406962.462718140	0.00246463	-0.928786	2.13523	-2.77703	-1.56957	-2.62321	0	0	-0	0	0	0	-17.4258	-4.08853	-1.97806	-3.03532	-0.95382	1.13215	
248	1580406962.470818280	0.00246463	-0.928846	2.13521	-2.77703	-1.56957	-2.62321	0	0	-0	0	0	0	-17.2216	-4.14831	-2.0555	-3.15451	-0.95382	1.2608	
249	1580406962.478725253	0.00247662	-0.928858	2.13524	-2.77703	-1.56957	-2.62324	0	0	-0	0	0	0	-16.677	-4.32928	-2.12992	-3.05921	-1.15175	1.0807	
250	1580406962.486677280	0.00246463	-0.928882	2.13525	-2.77704	-1.56956	-2.6232	0	0	-0	0	0	0	-17.2896	-3.84272	-1.80602	-3.03542	-0.978548	1.13217	
251	1580406962.494710065	0.00250058	-0.928846	2.13526	-2.77703	-1.56957	-2.62318	0	0	-0	0	0	0	-17.3577	-4.268	-2.02883	-3.05918	-0.854852	1.02924	
252	1580406962.502796023	0.0024886	-0.928846	2.13524	-2.77698	-1.56958	-2.62319	0	0	-0	0	0	0	-16.2686	-4.2688	-2.22925	-3.13061	-0.904346	1.08069	
253	1580406962.510701725	0.00246463	-0.928858	2.13525	-2.77702	-1.56956	-2.62321	0	0	-0	0	0	0	-17.2216	-4.38954	-1.95482	-3.01154	-0.929068	1.18361	
254	1580406962.518747783	0.00247662	-0.928834	2.13527	-2.77702	-1.56957	-2.62324	0	0	-0	0	0	0	-17.0854	-4.02499	-2.05288	-2.98766	-0.953824	0.977776	
255	1580406962.526738573	0.00245265	-0.928822	2.13526	-2.77704	-1.56957	-2.62323	0	0	-0	0	0	0	-16.6089	-4.14714	-2.02797	-3.05915	-0.953822	0.952054	
256	1580406962.534760681	0.00250058	-0.928834	2.13523	-2.777	-1.56958	-2.62321	0	0	-0	0	0	0	-16.3367	-4.39092	-1.83005	-3.08299	-1.07754	1.05497	
257	1580406962.542753896	0.00251257	-0.928822	2.13525	-2.77703	-1.56958	-2.6232	0	0	-0	0	0	0	-17.5619	-3.90476	-2.0783	-3.03534	-1.05279	1.20933	
258	1580406962.550747317	0.00247662	-0.928822	2.13523	-2.77702	-1.56957	-2.62323	0	0	-0	0	0	0	-16.3367	-4.634	-1.97934	-2.9877	-1.0033	1.15788	
259	1580406962.558680885	0.00247662	-0.928858	2.13527	-2.77704	-1.56956	-2.6232	0	0	-0	0	0	0	-17.0174	-4.32799	-2.00387	-3.08301	-0.978548	1.02924	
260	1580406962.566721514	0.00247662	-0.928834	2.13524	-2.77702	-1.56958	-2.6232	0	0	-0	0	0	0	-17.2216	-4.02631	-2.22885	-3.08299	-1.02805	0.977783	
261	1580406962.574704198	0.00250058	-0.928834	2.13525	-2.77702	-1.56957	-2.62319	0	0	-0	0	0	0	-17.4258	-4.26868	-1.95396	-3.05916	-1.02804	1.02924	
262	1580406962.582712104	0.00250058	-0.92881	2.13529	-2.77703	-1.5696	-2.62321	0	0	-0	0	0	0	-16.8132	-4.45001	-2.02665	-3.0591	-1.07755	1.0035	
263	1580406962.590689519	0.0024886	-0.928858	2.13524	-2.77703	-1.56958	-2.62321	0	0	-0	0	0	0	-17.2896	-4.63278	-1.95526	-3.05921	-0.978572	0.900608	
264	1580406962.598699719	0.0024886	-0.928834	2.13527	-2.777	-1.56963	-2.62318	0	0	-0	0	0	0	-17.0854	-4.38919	-2.00297	-2.96383	-0.953871	0.952037	
265	1580406962.606687612	0.00245265	-0.928798	2.13526	-2.77698	-1.5696	-2.62321	0	0	-0	0	0	0	-16.4728	-4.20831	-1.90229	-3.03523	-1.17651	1.05494	
266	1580406962.614706059	0.00246463	-0.928858	2.13524	-2.77702	-1.56957	-2.62318	0	0	-0	0	0	0	-17.0174	-3.72228	-2.03011	-3.10685	-0.929074	1.02925	
267	1580406962.622706635	0.00247662	-0.928786	2.13525	-2.77703	-1.5696	-2.6232	0	0	-0	0	0	0	-17.1535	-4.63396	-2.0271	-3.08294	-0.879619	1.05495	
268	1580406962.630705429	0.0024886	-0.92881	2.13525	-2.777	-1.56958	-2.62325	0	0	-0	0	0	0	-17.2896	-4.26919	-2.02792	-3.03528	-1.0528	1.20932	
269	1580406962.638709731	0.0024886	-0.928786	2.13525	-2.77702	-1.5696	-2.62324	0	0	-0	0	0	0	-17.4258	-4.14834	-1.87737	-3.03527	-1.07755	1.08068	
270	1580406962.646781802	0.00246463	-0.92887	2.13524	-2.777	-1.56956	-2.62319	0	0	-0	0	0	0	-16.8812	-4.51109	-2.00557	-3.22595	-1.07751	0.874881	
271	1580406962.654678124	0.0024886	-0.928822	2.13525	-2.77702	-1.56957	-2.62323	0	0	-0	0	0	0	-17.2896	-4.20824	-1.92857	-3.08296	-1.10227	1.26078	
272	1580406962.662761377	0.00247662	-0.92881	2.13525	-2.77703	-1.56956	-2.62318	0	0	-0	0	0	0	-17.4939	-4.08714	-2.05292	-3.05915	-0.953804	1.08069	
273	1580406962.670742110	0.00246463	-0.928846	2.13526	-2.77702	-1.56958	-2.62321	0	0	-0	0	0	0	-17.0854	-4.45007	-2.02881	-2.98769	-0.978572	1.10642	
274	1580406962.678670490	0.00246463	-0.928822	2.13527	-2.77704	-1.56957	-2.62325	0	0	-0	0	0	0	-16.8812	-4.20738	-1.97762	-3.15442	-0.953826	1.15787	
275	1580406962.686718655	0.00247662	-0.928822	2.13524	-2.77702	-1.56957	-2.62323	0	0	-0	0	0	0	-16.8132	-4.45147	-1.8791	-3.05915	-1.0033	1.10642	
276	1580406962.694747682	0.00245265	-0.928858	2.13523	-2.77702	-1.56958	-2.62321	0	0	-0	0	0	0	-16.9493	-4.269	-1.93073	-2.98775	-1.00331	1.02925	
277	1580406962.702722356	0.0024886	-0.928834	2.13524	-2.77703	-1.5696	-2.6232	0	0	-0	0	0	0	-17.9703	-4.39052	-2.00431	-3.05919	-1.0528	1.08069	
278	1580406962.710724485	0.00245265	-0.928798	2.1352	-2.777	-1.56957	-2.62326	0	0	-0	0	0	0	-16.8812	-4.02838	-2.07912	-3.0115	-1.02805	0.977782	
279	1580406962.718728469	0.00251257	-0.928846	2.13525	-2.77702	-1.56958	-2.62324	0	0	-0	0	0	0	-16.8812	-4.147	-2.02923	-3.08298	-1.10228	1.13215	
280	1580406962.726739626	0.00250058	-0.92881	2.13526	-2.777	-1.5696	-2.62323	0	0	-0	0	0	0	-16.8812	-4.45086	-2.0774	-3.10674	-0.978585	1.0035	
281	1580406962.734732535	0.00246463	-0.92881	2.13526	-2.777	-1.56957	-2.6232	0	0	-0	0	0	0	-16.9493	-4.45087	-2.10236	-3.08292	-0.904337	1.08068	
282	1580406962.742745160	0.0024886	-0.928822	2.13523	-2.777	-1.56958	-2.62321	0	0	-0	0	0	0	-16.9493	-4.14839	-1.95437	-2.96387	-0.978572	1.00351	
283	1580406962.750676023	0.00250058	-0.928858	2.13523	-2.77702	-1.56958	-2.62321	0	0	-0	0	0	0	-16.9493	-4.69389	-2.13034	-2.98775	-0.953831	0.849153	
284	1580406962.758786842	0.0024886	-0.92887	2.13524	-2.77702	-1.56958	-2.62321	0	0	-0	0	0	0	-17.0174	-4.329	-2.03053	-3.08303	-0.953831	1.0807	
285	1580406962.766746253	0.0024886	-0.928834	2.13521	-2.77703	-1.56958	-2.62323	0	0	-0	0	0	0	-16.7451	-4.26998	-1.90536	-2.96392	-1.02806	1.15789	
286	1580406962.774756588	0.0024886	-0.928846	2.13521	-2.77702	-1.56956	-2.62323	0	0	-0	0	0	0	-16.8132	-4.2697	-1.95568	-3.15449	-1.00329	0.952067	
287	1580406962.782681681	0.00247662	-0.92881	2.13525	-2.77704	-1.56956	-2.62323	0	0	-0	0	0	0	-16.9493	-4.57273	-2.05292	-3.05915	-0.978552	0.694779	
288	1580406962.790796976	0.00246463	-0.92881	2.13525	-2.77703	-1.5696	-2.6232	0	0	-0	0	0	0	-16.677	-4.39063	-1.95311	-3.0115	-0.978582	1.15787	
289	1580406962.798720581	0.00250058	-0.928834	2.13525	-2.77702	-1.56955	-2.62323	0	0	-0	0	0	0	-17.1535	-4.02587	-2.02881	-3.13061	-0.953799	1.00351	
290	1580406962.806731403	0.00246463	-0.92881	2.13525	-2.77702	-1.56956	-2.62321	0	0	-0	0	0	0	-16.8132	-4.32991	-2.0529	-3.05913	-0.929068	1.05496	
291	1580406962.814682661	0.00250058	-0.92881	2.13527	-2.777	-1.56954	-2.62323	0	0	-0	0	0	0	-16.7451	-3.90412	-2.02705	-3.20201	-1.05275	1.31223	
292	1580406962.822684573	0.00250058	-0.928834	2.13526	-2.77703	-1.56956	-2.62323	0	0	-0	0	0	0	-16.677	-3.72196	-2.02839	-3.05915	-1.00329	1.13215	
293	1580406962.830698094	0.00251257	-0.928834	2.13525	-2.777	-1.56957	-2.62321	0	0	-0	0	0	0	-17.1535	-4.32936	-2.05375	-2.94003	-1.0033	1.00351	
294	1580406962.838742508	0.0024886	-0.928822	2.13526	-2.77702	-1.56958	-2.62321	0	0	-0	0	0	0	-17.4258	-4.26851	-2.0529	-3.05913	-1.00331	1.1836	
295	1580406962.846696994	0.00245265	-0.928822	2.13525	-2.77702	-1.56956	-2.62324	0	0	-0	0	0	0	-17.0174	-4.75453	-1.95352	-3.05913	-0.805368	1.15787	
296	1580406962.854735290	0.00247662	-0.92881	2.13525	-2.77702	-1.56958	-2.62323	0	0	-0	0	0	0	-16.9493	-4.02641	-1.97804	-2.98766	-0.953833	0.952047	
297	1580406962.862687909	0.00250058	-0.92881	2.1353	-2.77702	-1.56958	-2.62318	0	0	-0	0	0	0	-17.3577	-4.08538	-1.97631	-3.05908	-0.904345	1.00349	
298	1580406962.870751092	0.00246463	-0.928822	2.13523	-2.777	-1.56957	-2.62323	0	0	-0	0	0	0	-17.2216	-4.14839	-2.05417	-3.01151	-0.978563	1.05496	
299	1580406962.878741197	0.00246463	-0.928834	2.13523	-2.77703	-1.56956	-2.62321	0	0	-0	0	0	0	-17.0854	-3.96605	-2.12949	-2.98773	-0.953809	1.05498	
300	1580406962.886781797	0.0024886	-0.92881	2.13521	-2.77702	-1.56957	-2.62321	0	0	-0	0	0	0	-16.7451	-4.7561	-1.92943	-2.98771	-0.95382	0.952057	
301	1580406962.894738787	0.00247662	-0.928834	2.13525	-2.77703	-1.56957	-2.6232	0	0	-0	0	0	0	-16.2686	-3.84379	-2.00387	-3.15446	-0.879596	1.15788	
302	1580406962.902688717	0.0024886	-0.928822	2.13527	-2.77703	-1.56955	-2.62321	0	0	-0	0	0	0	-17.0854	-3.96458	-2.10237	-3.08295	-0.904316	1.08069	
303	1580406962.910706398	0.00250058	-0.92881	2.13526	-2.77702	-1.56957	-2.62319	0	0	-0	0	0	0	-17.1535	-4.57228	-2.02752	-3.01147	-0.780632	1.10641	
304	1580406962.918732982	0.00250058	-0.928846	2.13521	-2.77702	-1.56957	-2.62324	0	0	-0	0	0	0	-17.2896	-4.26969	-1.88082	-3.05921	-0.904342	1.02925	
305	1580406962.926686428	0.00251257	-0.928846	2.13532	-2.77703	-1.5696	-2.62321	0	0	-0	0	0	0	-17.2216	-4.32652	-2.07655	-3.10674	-0.780657	1.08068	
306	1580406962.934721747	0.0024886	-0.928858	2.13529	-2.777	-1.5696	-2.62324	0	0	-0	0	0	0	-17.0174	-4.631	-2.05329	-2.96384	-0.929105	1.10641	
307	1580406962.942698947	0.0024886	-0.92881	2.13526	-2.77704	-1.56958	-2.6232	0	0	-0	0	0	0	-17.1535	-4.14741	-2.0026	-3.0115	-1.07753	1.15787	
308	1580406962.950683479	0.00245265	-0.928846	2.13524	-2.777	-1.5696	-2.62321	0	0	-0	0	0	0	-16.8812	-3.72253	-2.02966	-3.17827	-0.953843	1.10642	
309	1580406962.958723154	0.0024886	-0.928822	2.13525	-2.77704	-1.56958	-2.62323	0	0	-0	0	0	0	-16.7451	-4.14757	-2.05336	-3.08299	-0.953833	1.10642	
310	1580406962.966704689	0.00247662	-0.928834	2.13527	-2.77702	-1.56957	-2.62318	0	0	-0	0	0	0	-17.1535	-4.1464	-2.05289	-3.29734	-1.02804	0.926321	
311	1580406962.974719463	0.00247662	-0.928822	2.13523	-2.77706	-1.56958	-2.62319	0	0	-0	0	0	0	-17.5619	-4.63406	-1.9295	-3.48801	-1.05279	1.00352	
312	1580406962.982690390	0.00247662	-0.928846	2.13525	-2.77702	-1.56958	-2.62324	0	0	-0	0	0	0	-16.9493	-3.9649	-2.02923	-2.9877	-1.00332	1.13215	
313	1580406962.990768391	0.00250058	-0.928822	2.13523	-2.77702	-1.5696	-2.6232	0	0	-0	0	0	0	-16.4728	-3.90561	-1.77973	-3.10681	-0.9291	1.08069	
314	1580406962.998732371	0.00250058	-0.92881	2.1352	-2.77703	-1.56957	-2.62319	0	0	-0	0	0	0	-17.3577	-4.08886	-2.02969	-3.15449	-1.0033	1.0807	
315	1580406963.006702939	0.00247662	-0.928834	2.13524	-2.77702	-1.56957	-2.62323	0	0	-0	0	0	0	-17.2896	-3.9049	-1.95438	-2.9877	-1.02804	1.02924	
316	1580406963.014763365	0.0024886	-0.928822	2.13523	-2.77702	-1.56957	-2.62321	0	0	-0	0	0	0	-16.6089	-4.5126	-1.82963	-3.13063	-0.978561	0.823418	
317	1580406963.022748880	0.00247662	-0.928822	2.13525	-2.77699	-1.5696	-2.6232	0	0	-0	0	0	0	-16.677	-4.26892	-2.0034	-3.05911	-1.02806	1.20932	
318	1580406963.030753791	0.00250058	-0.92881	2.13521	-2.77703	-1.56955	-2.62321	0	0	-0	0	0	0	-17.2896	-4.20982	-2.02926	-3.05918	-0.978538	1.0807	
319	1580406963.038735495	0.0024886	-0.928846	2.13525	-2.77702	-1.56957	-2.62321	0	0	-0	0	0	0	-17.1535	-3.84351	-2.12905	-3.05917	-1.15175	1.02924	
320	1580406963.046711937	0.0024886	-0.928822	2.13526	-2.77702	-1.56957	-2.62321	0	0	-0	0	0	0	-17.0854	-3.96501	-2.07785	-3.0353	-0.854857	1.08069	
321	1580406963.054764360	0.00250058	-0.928822	2.13525	-2.77702	-1.56956	-2.62321	0	0	-0	0	0	0	-16.7451	-3.96544	-2.05333	-3.03532	-0.904328	1.15787	
322	1580406963.062694954	0.00247662	-0.92881	2.13525	-2.77699	-1.56958	-2.62323	0	0	-0	0	0	0	-16.8132	-3.72288	-2.05287	-3.10674	-0.953833	1.0035	
323	1580406963.070722078	0.00247662	-0.92887	2.13527	-2.77702	-1.5696	-2.62321	0	0	-0	0	0	0	-17.2896	-4.57049	-2.00427	-3.05917	-0.904361	0.952053	
324	1580406963.078785544	0.00250058	-0.928858	2.13524	-2.77702	-1.56957	-2.62319	0	0	-0	0	0	0	-16.4728	-4.51137	-1.98021	-3.15449	-1.10226	1.0807	
325	1580406963.086752831	0.00245265	-0.928798	2.13524	-2.77703	-1.56957	-2.62319	0	0	-0	0	0	0	-17.1535	-4.20923	-2.02797	-3.05915	-1.05278	1.10642	
326	1580406963.094725428	0.00245265	-0.928834	2.13525	-2.77703	-1.56957	-2.6232	0	0	-0	0	0	0	-17.63	-4.26869	-2.20349	-3.05917	-1.05278	1.05497	
327	1580406963.102689651	0.00246463	-0.928834	2.13523	-2.77702	-1.56958	-2.62317	0	0	-0	0	0	0	-17.0174	-4.20885	-1.90493	-2.98773	-1.05279	1.20933	
328	1580406963.110835103	0.00247662	-0.928822	2.13525	-2.777	-1.56961	-2.62321	0	0	-0	0	0	0	-17.3577	-3.54053	-2.10322	-3.08295	-1.00334	1.20932	
329	1580406963.118724738	0.0024886	-0.928798	2.13529	-2.77703	-1.56957	-2.62324	0	0	-0	0	0	0	-17.3577	-4.20748	-1.90146	-3.03526	-1.17649	1.0035	
330	1580406963.126775637	0.00246463	-0.928834	2.13525	-2.77705	-1.56956	-2.62324	0	0	-0	0	0	0	-17.5619	-4.39011	-1.87914	-2.98773	-0.953813	1.00352	
331	1580406963.134744028	0.00250058	-0.928858	2.13525	-2.77703	-1.56958	-2.62319	0	0	-0	0	0	0	-17.0174	-4.32886	-2.00474	-3.08302	-1.07753	0.977789	
332	1580406963.142705308	0.00246463	-0.928846	2.13529	-2.77702	-1.56956	-2.62323	0	0	-0	0	0	0	-16.4728	-4.32779	-1.97802	-3.01148	-1.02803	1.08069	
333	1580406963.150788916	0.00250058	-0.928822	2.13526	-2.777	-1.56958	-2.62319	0	0	-0	0	0	0	-16.7451	-4.0864	-1.90318	-2.98765	-1.00331	0.952044	
334	1580406963.158756924	0.00245265	-0.92881	2.13525	-2.77702	-1.56958	-2.62324	0	0	-0	0	0	0	-17.0174	-4.512	-2.00299	-3.1544	-1.10228	1.02923	
335	1580406963.166697293	0.00250058	-0.928834	2.13526	-2.77703	-1.56957	-2.62325	0	0	-0	0	0	0	-16.677	-4.38965	-1.90363	-2.98768	-1.00331	1.13215	
336	1580406963.174780186	0.00247662	-0.928822	2.13526	-2.77704	-1.56956	-2.6232	0	0	-0	0	0	0	-16.677	-4.14714	-2.20264	-3.01152	-1.02803	0.900601	
337	1580406963.182737308	0.00247662	-0.92881	2.13521	-2.77702	-1.56956	-2.6232	0	0	-0	0	0	0	-17.2216	-4.4526	-1.92944	-3.08299	-1.02803	0.874876	
338	1580406963.190708057	0.00246463	-0.928798	2.13525	-2.77705	-1.56958	-2.62318	0	0	-0	0	0	0	-16.677	-4.08743	-1.90281	-3.05916	-0.978567	1.15787	
339	1580406963.198709702	0.00247662	-0.928822	2.13523	-2.77703	-1.56955	-2.62319	0	0	-0	0	0	0	-16.677	-4.14843	-2.02926	-2.98773	-0.904313	0.952063	
340	1580406963.206699625	0.00247662	-0.92881	2.13524	-2.77703	-1.5696	-2.62323	0	0	-0	0	0	0	-16.8812	-3.96616	-2.00344	-3.03533	-1.00333	1.05496	
341	1580406963.214729351	0.00247662	-0.928846	2.13524	-2.77704	-1.56958	-2.62323	0	0	-0	0	0	0	-16.9493	-4.45096	-2.0297	-3.03539	-0.953833	1.05497	
342	1580406963.222734348	0.00250058	-0.928822	2.13527	-2.77703	-1.56957	-2.62318	0	0	-0	0	0	0	-16.9493	-4.57158	-1.82791	-3.05913	-1.0033	1.05496	
343	1580406963.230691036	0.00247662	-0.928846	2.13526	-2.77702	-1.56957	-2.62318	0	0	-0	0	0	0	-17.63	-4.69288	-2.05377	-3.17827	-1.02804	1.15788	
344	1580406963.238761108	0.00246463	-0.928858	2.13521	-2.777	-1.56957	-2.62321	0	0	-0	0	0	0	-17.0854	-4.45151	-1.9561	-3.03539	-0.978561	1.0807	
345	1580406963.246702376	0.00247662	-0.928846	2.13524	-2.77702	-1.5696	-2.62321	0	0	-0	0	0	0	-16.5409	-4.20814	-2.07957	-2.98772	-0.929102	1.20933	
346	1580406963.254698265	0.00246463	-0.928834	2.13529	-2.777	-1.56955	-2.62321	0	0	-0	0	0	0	-16.8132	-4.20665	-2.12729	-3.03528	-0.953798	1.13214	
347	1580406963.262715958	0.00247662	-0.928846	2.13524	-2.77702	-1.56957	-2.6232	0	0	-0	0	0	0	-17.5619	-4.45094	-2.00472	-3.01154	-0.953819	1.13215	
348	1580406963.270799076	0.00247662	-0.92881	2.13529	-2.77702	-1.56958	-2.6232	0	0	-0	0	0	0	-17.4258	-4.2072	-2.12644	-3.05908	-1.00331	0.977766	
349	1580406963.278683468	0.0024886	-0.928822	2.13523	-2.77702	-1.56957	-2.62321	0	0	-0	0	0	0	-17.4939	-4.4519	-1.97934	-3.03535	-1.0033	1.13215	
350	1580406963.286774812	0.00247662	-0.92881	2.13525	-2.77703	-1.56957	-2.62319	0	0	-0	0	0	0	-17.0174	-4.32993	-1.92816	-3.03532	-1.22597	0.977779	
351	1580406963.294737700	0.0024886	-0.928834	2.13524	-2.77705	-1.56955	-2.6232	0	0	-0	0	0	0	-16.7451	-4.26915	-2.05424	-3.13068	-1.00328	1.08071	
352	1580406963.302756894	0.00250058	-0.928822	2.13529	-2.77702	-1.56957	-2.62321	0	0	-0	0	0	0	-17.4258	-4.63183	-2.00212	-3.0591	-0.95382	0.952043	
353	1580406963.310699040	0.00250058	-0.928822	2.13526	-2.77702	-1.5696	-2.62321	0	0	-0	0	0	0	-16.9493	-4.75411	-2.00299	-3.13059	-1.00332	1.02923	
354	1580406963.318695387	0.00250058	-0.92881	2.13526	-2.77702	-1.5696	-2.62319	0	0	-0	0	0	0	-17.63	-4.02599	-2.05247	-3.05912	-0.953839	0.874859	
355	1580406963.326722562	0.00247662	-0.928822	2.13525	-2.77703	-1.56956	-2.62321	0	0	-0	0	0	0	-17.0174	-4.69385	-1.92859	-3.08298	-1.02803	1.10642	
356	1580406963.334708824	0.00247662	-0.928846	2.13525	-2.77703	-1.5696	-2.62323	0	0	-0	0	0	0	-17.2216	-4.26842	-1.87954	-3.03536	-1.00333	1.05497	
357	1580406963.342763736	0.0024886	-0.928786	2.13525	-2.77703	-1.56958	-2.62319	0	0	-0	0	0	0	-16.8132	-3.84487	-2.10196	-2.98765	-0.978569	0.952044	
358	1580406963.350730806	0.00247662	-0.928846	2.13524	-2.77702	-1.56955	-2.62321	0	0	-0	0	0	0	-16.9493	-3.72254	-1.85501	-3.01154	-1.0775	1.00352	
359	1580406963.358705217	0.00251257	-0.928834	2.13525	-2.777	-1.56955	-2.6232	0	0	-0	0	0	0	-17.0174	-4.32936	-2.0288	-2.96386	-0.904314	1.00351	
360	1580406963.366714390	0.00247662	-0.928822	2.13527	-2.77703	-1.5696	-2.6232	0	0	-0	0	0	0	-17.0174	-4.38948	-1.82791	-3.10677	-0.978582	1.18359	
361	1580406963.374728024	0.00246463	-0.928798	2.13525	-2.777	-1.56958	-2.62323	0	0	-0	0	0	0	-16.9493	-4.02666	-1.9776	-3.22584	-0.978574	1.05495	
362	1580406963.382752734	0.00250058	-0.928834	2.13529	-2.77703	-1.56961	-2.6232	0	0	-0	0	0	0	-16.7451	-4.44948	-1.95266	-3.08295	-1.02807	1.13214	
363	1580406963.390730329	0.00250058	-0.92881	2.13526	-2.77702	-1.5696	-2.62321	0	0	-0	0	0	0	-16.7451	-4.32948	-1.85286	-3.01147	-0.953843	1.13214	
364	1580406963.398727861	0.00247662	-0.928846	2.13526	-2.777	-1.56957	-2.62319	0	0	-0	0	0	0	-17.3577	-4.26796	-1.9789	-3.0115	-1.02804	1.23506	
365	1580406963.406757472	0.00247662	-0.928834	2.13524	-2.77699	-1.56957	-2.62318	0	0	-0	0	0	0	-16.9493	-3.84419	-2.02922	-3.08297	-0.953815	0.952051	
366	1580406963.414777658	0.0024886	-0.928834	2.13524	-2.77705	-1.56955	-2.6232	0	0	-0	0	0	0	-16.3367	-4.51195	-1.92948	-3.01157	-0.953796	1.15789	
367	1580406963.422705176	0.00247662	-0.928858	2.13526	-2.77702	-1.56955	-2.62321	0	0	-0	0	0	0	-16.7451	-4.14631	-2.02924	-3.08299	-1.10224	1.05497	
368	1580406963.430736437	0.00247662	-0.928834	2.13523	-2.77703	-1.56956	-2.6232	0	0	-0	0	0	0	-16.8812	-4.26955	-1.90493	-3.08302	-0.805363	1.10643	
369	1580406963.438753306	0.0024886	-0.928858	2.13529	-2.77704	-1.56958	-2.6232	0	0	-0	0	0	0	-16.9493	-4.14546	-2.05334	-2.98771	-1.02805	1.13215	
370	1580406963.446718927	0.00247662	-0.928834	2.13525	-2.77702	-1.56958	-2.62319	0	0	-0	0	0	0	-16.5409	-4.32938	-1.87911	-2.96388	-1.00331	0.926325	
371	1580406963.454702443	0.00247662	-0.928822	2.13525	-2.77702	-1.56958	-2.62321	0	0	-0	0	0	0	-16.9493	-4.20824	-2.05333	-2.96386	-0.953831	1.02923	
372	1580406963.462739518	0.00250058	-0.928834	2.13523	-2.77703	-1.56955	-2.62321	0	0	-0	0	0	0	-16.7451	-4.33025	-2.10454	-3.08302	-0.929057	0.977794	
373	1580406963.470730324	0.00246463	-0.928846	2.13525	-2.77703	-1.56957	-2.62321	0	0	-0	0	0	0	-16.9493	-4.51122	-1.8546	-3.083	-0.706413	1.26079	
374	1580406963.478695550	0.00247662	-0.928834	2.13523	-2.77702	-1.56957	-2.62323	0	0	-0	0	0	0	-16.4728	-4.14813	-2.00472	-3.083	-0.929081	1.13215	
375	1580406963.486724524	0.00251257	-0.928858	2.13525	-2.77702	-1.56957	-2.62323	0	0	-0	0	0	0	-16.677	-4.14673	-2.02967	-3.05918	-0.978563	0.900604	
376	1580406963.494751406	0.00246463	-0.928846	2.13529	-2.77702	-1.56957	-2.6232	0	0	-0	0	0	0	-17.4939	-3.7815	-2.17764	-3.08295	-1.05278	1.08069	
377	1580406963.502713404	0.0024886	-0.928822	2.13525	-2.77702	-1.5696	-2.6232	0	0	-0	0	0	0	-16.8132	-4.81524	-1.92857	-3.03532	-0.904359	0.977776	
378	1580406963.510773151	0.00246463	-0.928858	2.13524	-2.77703	-1.56957	-2.62321	0	0	-0	0	0	0	-16.8812	-4.32928	-1.95526	-3.05921	-1.05278	1.10643	
379	1580406963.518719487	0.00250058	-0.928834	2.13525	-2.77702	-1.56954	-2.62318	0	0	-0	0	0	0	-16.2005	-3.05469	-1.92901	-3.01152	-1.00326	0.952059	
380	1580406963.526801758	0.00251257	-0.928822	2.13525	-2.77702	-1.56961	-2.62318	0	0	-0	0	0	0	-16.677	-4.20825	-1.92858	-3.08297	-0.978589	1.05496	
381	1580406963.534748940	0.00247662	-0.928858	2.13525	-2.77702	-1.56957	-2.62317	0	0	-0	0	0	0	-16.9493	-3.72185	-2.05463	-3.15448	-1.20122	1.18361	
382	1580406963.542739171	0.00245265	-0.928858	2.13526	-2.777	-1.56961	-2.6232	0	0	-0	0	0	0	-17.2216	-4.51049	-1.97933	-3.01151	-1.07756	1.10642	
383	1580406963.550696329	0.0024886	-0.928822	2.13527	-2.77703	-1.56958	-2.62321	0	0	-0	0	0	0	-16.9493	-4.02528	-2.05247	-3.01148	-1.07754	1.1836	
384	1580406963.558711467	0.00251257	-0.92881	2.13525	-2.77706	-1.56957	-2.62325	0	0	-0	0	0	0	-16.8812	-4.14786	-2.10285	-3.05918	-0.929085	1.13215	
385	1580406963.566677149	0.0024886	-0.92881	2.13524	-2.77699	-1.56956	-2.62323	0	0	-0	0	0	0	-16.677	-4.45171	-2.07825	-3.17821	-0.978552	1.08069	
386	1580406963.574741939	0.00247662	-0.928822	2.13523	-2.77702	-1.56956	-2.6232	0	0	-0	0	0	0	-17.4939	-4.5126	-2.154	-3.10681	-0.805363	1.02924	
387	1580406963.582741580	0.00246463	-0.928834	2.13531	-2.777	-1.56957	-2.6232	0	0	-0	0	0	0	-16.8132	-4.32719	-2.02662	-3.17818	-0.978559	1.00349	
388	1580406963.590732767	0.0024886	-0.92881	2.13523	-2.77699	-1.56957	-2.62324	0	0	-0	0	0	0	-16.9493	-4.08794	-1.95392	-3.10676	-0.854861	0.977776	
389	1580406963.598731850	0.0024886	-0.928798	2.13529	-2.77702	-1.56958	-2.62318	0	0	-0	0	0	0	-17.5619	-4.14678	-2.05117	-3.03525	-1.00331	1.02922	
390	1580406963.606737694	0.0024886	-0.928834	2.13525	-2.77705	-1.56961	-2.62321	0	0	-0	0	0	0	-16.8812	-3.78312	-2.0039	-3.08302	-0.953854	1.13215	
391	1580406963.614714954	0.00246463	-0.928822	2.13524	-2.77702	-1.56955	-2.62324	0	0	-0	0	0	0	-16.8132	-4.87636	-2.10366	-3.08297	-1.15173	1.05497	
392	1580406963.622802237	0.0024886	-0.928786	2.13527	-2.77702	-1.5696	-2.6232	0	0	-0	0	0	0	-16.8132	-3.84397	-2.07611	-2.93996	-1.10229	0.977762	
393	1580406963.630693420	0.00245265	-0.928846	2.13527	-2.77704	-1.56961	-2.62321	0	0	-0	0	0	0	-17.8342	-4.32825	-1.85373	-3.13063	-1.02808	1.02923	
394	1580406963.638713166	0.0024886	-0.928834	2.13525	-2.77703	-1.56962	-2.62321	0	0	-0	0	0	0	-16.5409	-4.26869	-2.00387	-3.08299	-1.00335	1.15787	
395	1580406963.646712813	0.00250058	-0.92881	2.13523	-2.77702	-1.56955	-2.62321	0	0	-0	0	0	0	-17.3577	-4.45217	-2.05376	-3.03533	-1.00328	1.00351	
396	1580406963.654736401	0.00245265	-0.92887	2.13526	-2.77703	-1.56958	-2.62319	0	0	-0	0	0	0	-17.0854	-4.38886	-1.97979	-3.01156	-0.953828	0.977789	
397	1580406963.662701566	0.00247662	-0.92887	2.13526	-2.77699	-1.56957	-2.62319	0	0	-0	0	0	0	-17.0854	-4.08531	-1.92984	-3.05916	-1.05278	1.02924	
398	1580406963.670757116	0.00247662	-0.928846	2.13526	-2.77702	-1.5696	-2.62321	0	0	-0	0	0	0	-17.4939	-4.26797	-2.00386	-2.98769	-1.07755	1.10642	
399	1580406963.678709523	0.00247662	-0.928822	2.13521	-2.77703	-1.56958	-2.62321	0	0	-0	0	0	0	-16.9493	-4.08815	-1.95483	-3.01156	-1.12702	1.00352	
400	1580406963.686826314	0.00250058	-0.928822	2.13526	-2.77703	-1.5696	-2.6232	0	0	-0	0	0	0	-17.2216	-4.69342	-1.97806	-3.05914	-1.00332	1.02923	
401	1580406963.694742446	0.0024886	-0.928822	2.13525	-2.77702	-1.56958	-2.62321	0	0	-0	0	0	0	-17.4258	-4.02614	-1.85372	-3.05914	-1.00331	1.05496	
402	1580406963.702739028	0.00246463	-0.928846	2.13529	-2.77703	-1.56958	-2.62324	0	0	-0	0	0	0	-16.9493	-4.3885	-1.92813	-3.03531	-1.15176	1.08069	
403	1580406963.710711529	0.0024886	-0.928858	2.13526	-2.77703	-1.5696	-2.62319	0	0	-0	0	0	0	-16.3367	-4.44982	-2.10411	-3.03537	-0.929098	1.00351	
404	1580406963.718799390	0.00245265	-0.928822	2.13525	-2.77702	-1.56957	-2.62324	0	0	-0	0	0	0	-16.4728	-4.26894	-2.00342	-3.05913	-1.02805	1.13215	
405	1580406963.726759359	0.00246463	-0.928822	2.13523	-2.777	-1.56957	-2.62321	0	0	-0	0	0	0	-17.0854	-4.26979	-2.00427	-3.13062	-1.0033	1.26079	
406	1580406963.734699325	0.00247662	-0.928834	2.13525	-2.777	-1.56957	-2.62321	0	0	-0	0	0	0	-16.7451	-4.75425	-2.00384	-3.03532	-1.17649	1.1836	
407	1580406963.742726123	0.00252455	-0.928834	2.13524	-2.77702	-1.56958	-2.62321	0	0	-0	0	0	0	-16.3367	-4.4512	-1.92943	-3.05917	-0.978572	1.05497	
408	1580406963.750700926	0.0024886	-0.928846	2.13527	-2.77703	-1.5696	-2.6232	0	0	-0	0	0	0	-17.0854	-4.20684	-2.07828	-2.98769	-1.0528	0.823412	
409	1580406963.758671443	0.00245265	-0.92881	2.13525	-2.77702	-1.56956	-2.6232	0	0	-0	0	0	0	-16.8812	-4.32991	-1.90319	-2.98767	-1.07751	1.31224	
410	1580406963.766731221	0.00247662	-0.928798	2.13526	-2.77702	-1.56958	-2.6232	0	0	-0	0	0	0	-17.3577	-4.14765	-2.12689	-3.03528	-1.05279	1.08068	
411	1580406963.774703312	0.00246463	-0.928834	2.13525	-2.77702	-1.56962	-2.62321	0	0	-0	0	0	0	-17.0854	-4.20797	-2.00386	-3.1068	-1.02809	1.23505	
412	1580406963.782729711	0.00246463	-0.928834	2.13524	-2.77703	-1.56957	-2.6232	0	0	-0	0	0	0	-17.2216	-3.96562	-1.92945	-3.13065	-1.0033	1.10643	
413	1580406963.790749763	0.0024886	-0.92887	2.13526	-2.77703	-1.56956	-2.62324	0	0	-0	0	0	0	-16.8812	-3.78185	-1.95483	-3.10683	-0.978553	1.0807	
414	1580406963.798744768	0.00247662	-0.928834	2.13525	-2.77705	-1.56955	-2.6232	0	0	-0	0	0	0	-17.0854	-4.39012	-1.92905	-3.48798	-0.953796	1.02925	
415	1580406963.806696167	0.00247662	-0.928846	2.13525	-2.777	-1.5696	-2.62319	0	0	-0	0	0	0	-17.0174	-4.45049	-1.95438	-3.01152	-0.953839	1.13214	
416	1580406963.814736656	0.00251257	-0.928822	2.13527	-2.777	-1.56955	-2.62321	0	0	-0	0	0	0	-17.0174	-4.08595	-1.85282	-3.01145	-1.05276	1.0035	
417	1580406963.822782195	0.0024886	-0.928822	2.13524	-2.77702	-1.5696	-2.6232	0	0	-0	0	0	0	-16.8132	-3.96588	-2.07871	-3.08298	-0.9291	0.977778	
418	1580406963.830691698	0.00250058	-0.928834	2.13526	-2.777	-1.56958	-2.62325	0	0	-0	0	0	0	-16.677	-4.02542	-1.9036	-2.96383	-1.07754	1.1836	
419	1580406963.838724934	0.00247662	-0.928834	2.13525	-2.77705	-1.56961	-2.6232	0	0	-0	0	0	0	-17.4939	-4.02592	-1.9041	-3.03538	-1.00333	0.900602	
420	1580406963.846750262	0.00247662	-0.928834	2.13529	-2.777	-1.56957	-2.62323	0	0	-0	0	0	0	-16.677	-4.32804	-2.02748	-3.13056	-1.07753	1.02923	
421	1580406963.854688303	0.00247662	-0.928858	2.13521	-2.77704	-1.56957	-2.62325	0	0	-0	0	0	0	-17.4258	-4.51225	-2.18069	-3.0116	-0.830122	1.20935	
422	1580406963.862737270	0.00247662	-0.928846	2.13523	-2.77702	-1.56957	-2.62319	0	0	-0	0	0	0	-17.1535	-4.39067	-2.00516	-3.32124	-1.10226	1.13216	
423	1580406963.870712046	0.0024886	-0.928822	2.13525	-2.777	-1.5696	-2.62319	0	0	-0	0	0	0	-17.2896	-4.14753	-2.05332	-3.01149	-1.07754	1.08068	
424	1580406963.878776995	0.00247662	-0.928798	2.13527	-2.77704	-1.56957	-2.62321	0	0	-0	0	0	0	-16.677	-4.08653	-2.05162	-3.05911	-0.95382	1.0035	
425	1580406963.886738707	0.00250058	-0.928846	2.13526	-2.77702	-1.56957	-2.62321	0	0	-0	0	0	0	-17.0174	-3.96448	-1.95395	-3.03533	-1.07752	1.23506	
426	1580406963.894745604	0.0024886	-0.928834	2.13524	-2.77702	-1.56958	-2.62321	0	0	-0	0	0	0	-16.8812	-4.2084	-2.05419	-3.08299	-0.854868	1.08069	
427	1580406963.902713289	0.00250058	-0.928834	2.13527	-2.77702	-1.56958	-2.62319	0	0	-0	0	0	0	-17.0854	-4.5106	-1.77842	-3.32116	-0.904346	1.08069	
428	1580406963.910790004	0.00246463	-0.928798	2.13525	-2.77702	-1.5696	-2.62323	0	0	-0	0	0	0	-17.63	-4.51227	-1.92771	-3.01147	-1.10229	1.08068	
429	1580406963.918733828	0.00247662	-0.928822	2.13523	-2.77702	-1.5696	-2.6232	0	0	-0	0	0	0	-16.2686	-4.20911	-2.00429	-3.05917	-0.904359	1.15788	
430	1580406963.926777057	0.00247662	-0.92887	2.1352	-2.77703	-1.56958	-2.62323	0	0	-0	0	0	0	-16.3367	-4.5731	-2.00689	-3.05927	-1.00331	1.23508	
431	1580406963.934741605	0.00250058	-0.92881	2.13526	-2.77703	-1.56961	-2.62321	0	0	-0	0	0	0	-16.8812	-4.26879	-1.97763	-2.98766	-0.929113	1.05495	
432	1580406963.942775972	0.00251257	-0.92887	2.1353	-2.77703	-1.56956	-2.62319	0	0	-0	0	0	0	-16.7451	-4.26615	-2.02838	-3.20209	-1.10225	1.26079	
433	1580406963.950744529	0.00250058	-0.928858	2.13523	-2.777	-1.5696	-2.62321	0	0	-0	0	0	0	-16.2686	-4.32968	-1.95567	-3.03538	-1.05281	0.952059	
434	1580406963.958748829	0.00250058	-0.92887	2.13526	-2.77703	-1.56957	-2.62323	0	0	-0	0	0	0	-16.6089	-4.08535	-1.90493	-3.0592	-0.953822	1.00352	
435	1580406963.967350183	0.00246463	-0.928822	2.13524	-2.77702	-1.56955	-2.62323	0	0	-0	0	0	0	-16.6089	-4.20867	-1.90405	-3.15444	-1.02802	1.05497	
436	1580406963.974786618	0.00250058	-0.928822	2.13529	-2.77702	-1.56961	-2.62323	0	0	-0	0	0	0	-16.8132	-4.14623	-1.97716	-2.98763	-1.05282	1.08068	
437	1580406963.982690692	0.00241707	-0.928822	2.13526	-2.77702	-1.5696	-2.62321	0	0	-0	0	0	0	-16.5409	-4.32921	-2.00299	-2.94002	-1.02806	1.15787	
438	1580406963.990751692	0.00245265	-0.928834	2.13525	-2.77702	-1.56958	-2.62323	0	0	-0	0	0	0	-16.5409	-4.20797	-1.95395	-3.01151	-0.929092	0.97778	
439	1580406963.998716918	0.00245265	-0.928822	2.13524	-2.77703	-1.56957	-2.62324	0	0	-0	0	0	0	-16.6089	-3.90519	-2.07872	-3.03534	-1.02805	1.10642	
440	1580406964.006705608	0.0024886	-0.928858	2.13525	-2.77702	-1.56955	-2.62321	0	0	-0	0	0	0	-16.8812	-4.63233	-1.92987	-2.98772	-1.00328	0.87488	
441	1580406964.014775288	0.00251257	-0.928846	2.13525	-2.77703	-1.56957	-2.62324	0	0	-0	0	0	0	-16.4728	-4.20771	-1.90449	-3.03536	-0.978565	1.00352	
442	1580406964.022710863	0.00247662	-0.928834	2.13524	-2.77702	-1.5696	-2.62323	0	0	-0	0	0	0	-16.9493	-4.2691	-1.90448	-3.22591	-0.978585	1.05496	
443	1580406964.030719682	0.00247662	-0.928834	2.13523	-2.77702	-1.5696	-2.62324	0	0	-0	0	0	0	-16.4728	-4.57303	-2.05462	-3.32121	-1.05281	1.08069	
444	1580406964.038761474	0.00247662	-0.928822	2.13526	-2.77703	-1.56958	-2.6232	0	0	-0	0	0	0	-16.677	-4.32923	-2.12777	-3.13061	-1.02805	1.02923	
445	1580406964.046759184	0.00246463	-0.928834	2.13519	-2.777	-1.56956	-2.62323	0	0	-0	0	0	0	-16.3367	-4.14943	-1.90621	-3.03539	-1.10226	1.10643	
446	1580406964.054729351	0.0024886	-0.928858	2.13525	-2.77703	-1.56958	-2.62323	0	0	-0	0	0	0	-16.8132	-4.51095	-2.07959	-3.13066	-1.02806	1.13215	
447	1580406964.062701847	0.00250058	-0.928834	2.13523	-2.77702	-1.5696	-2.62319	0	0	-0	0	0	0	-17.2896	-4.20884	-1.92987	-3.03537	-0.953839	1.10642	
448	1580406964.070768132	0.00250058	-0.928798	2.13526	-2.77702	-1.56956	-2.6232	0	0	-0	0	0	0	-16.677	-4.08695	-1.95223	-3.0591	-0.929067	1.0035	
449	1580406964.078796003	0.0024886	-0.928822	2.13525	-2.77703	-1.56957	-2.6232	0	0	-0	0	0	0	-16.5409	-4.32966	-1.92859	-3.03534	-1.05278	1.23506	
450	1580406964.086768920	0.00245265	-0.928846	2.13527	-2.777	-1.56957	-2.62321	0	0	-0	0	0	0	-16.5409	-4.81381	-2.07825	-3.0353	-0.92908	1.13214	
451	1580406964.094693283	0.0024886	-0.92881	2.13524	-2.77702	-1.56956	-2.62323	0	0	-0	0	0	0	-16.9493	-4.51244	-1.92857	-3.05914	-1.02803	1.15787	
452	1580406964.102719113	0.00247662	-0.92881	2.13521	-2.77702	-1.56958	-2.6232	0	0	-0	0	0	0	-17.0174	-4.39191	-1.92944	-2.91624	-1.05279	1.08069	
453	1580406964.110758521	0.00246463	-0.92887	2.13525	-2.77702	-1.5696	-2.6232	0	0	-0	0	0	0	-17.4258	-4.26787	-1.90535	-3.15448	-1.07754	1.0807	
454	1580406964.118785478	0.0024886	-0.928822	2.13525	-2.77702	-1.56961	-2.62323	0	0	-0	0	0	0	-16.8812	-4.14754	-1.95352	-3.03532	-1.00334	1.15787	
455	1580406964.126692439	0.00246463	-0.928882	2.13525	-2.77704	-1.5696	-2.6232	0	0	-0	0	0	0	-16.8132	-4.32832	-2.05553	-3.03542	-0.904359	0.92634	
456	1580406964.134817450	0.0024886	-0.928858	2.13529	-2.77703	-1.5696	-2.62321	0	0	-0	0	0	0	-17.2896	-4.32754	-1.90362	-3.20208	-0.978583	1.13214	
457	1580406964.142736717	0.0024886	-0.92887	2.1352	-2.77703	-1.56957	-2.6232	0	0	-0	0	0	0	-16.7451	-4.39101	-1.83223	-3.10691	-1.0033	0.952076	
458	1580406964.150760105	0.00247662	-0.928846	2.13525	-2.777	-1.56961	-2.6232	0	0	-0	0	0	0	-16.8812	-4.08629	-2.15399	-3.01151	-0.87963	0.926321	
459	1580406964.158680546	0.00251257	-0.928822	2.13527	-2.77702	-1.5696	-2.62323	0	0	-0	0	0	0	-17.2216	-4.69296	-1.95264	-2.94	-0.978585	1.05495	
460	1580406964.166812415	0.00250058	-0.928834	2.13523	-2.77702	-1.56962	-2.62319	0	0	-0	0	0	0	-17.0174	-4.33024	-1.97977	-3.05919	-1.07757	1.08069	
461	1580406964.174771351	0.00250058	-0.92881	2.13527	-2.777	-1.56957	-2.62318	0	0	-0	0	0	0	-16.4728	-3.84343	-2.02706	-3.05909	-1.10226	1.20932	
462	1580406964.182727913	0.00247662	-0.928858	2.13525	-2.77702	-1.5696	-2.6232	0	0	-0	0	0	0	-17.0174	-3.72184	-2.10453	-3.2974	-1.02806	1.08069	
463	1580406964.190742032	0.00250058	-0.928846	2.13524	-2.77702	-1.56958	-2.62319	0	0	-0	0	0	0	-16.6089	-4.14744	-1.90492	-3.05919	-1.02805	1.31225	
464	1580406964.198803180	0.00247662	-0.928846	2.13525	-2.777	-1.56955	-2.62319	0	0	-0	0	0	0	-17.1535	-4.63259	-1.92943	-3.03534	-1.02802	0.900602	
465	1580406964.206730713	0.00247662	-0.928834	2.13524	-2.77703	-1.56957	-2.62319	0	0	-0	0	0	0	-16.7451	-4.26912	-2.02926	-3.05919	-0.978558	1.13215	
466	1580406964.214734386	0.00251257	-0.928774	2.13524	-2.77703	-1.56956	-2.62317	0	0	-0	0	0	0	-17.4258	-4.02769	-1.92729	-3.08294	-0.929062	1.23505	
467	1580406964.222682128	0.00247662	-0.928858	2.13519	-2.77703	-1.56957	-2.62321	0	0	-0	0	0	0	-16.4728	-4.02753	-2.18157	-3.03545	-0.978561	1.00353	
468	1580406964.230738145	0.00245265	-0.92881	2.13526	-2.77704	-1.56958	-2.62319	0	0	-0	0	0	0	-16.9493	-4.32951	-1.90279	-3.03532	-1.07753	1.05496	
469	1580406964.238740401	0.00247662	-0.928834	2.13525	-2.77702	-1.56957	-2.6232	0	0	-0	0	0	0	-17.2216	-4.45077	-1.92901	-3.05916	-0.953819	1.05496	
470	1580406964.246777721	0.00244066	-0.928822	2.13527	-2.77702	-1.56961	-2.62321	0	0	-0	0	0	0	-17.0174	-4.32876	-1.90274	-3.05911	-0.929113	1.23505	
471	1580406964.254716055	0.0024886	-0.928834	2.13523	-2.77704	-1.56958	-2.62323	0	0	-0	0	0	0	-16.8132	-4.26956	-1.92989	-3.08303	-1.0528	1.00352	
472	1580406964.262775106	0.00247662	-0.928834	2.13525	-2.77699	-1.56961	-2.62323	0	0	-0	0	0	0	-16.8132	-3.66165	-2.05373	-2.98766	-0.978596	1.13214	
473	1580406964.270741905	0.00246463	-0.928834	2.13527	-2.77702	-1.5696	-2.62323	0	0	-0	0	0	0	-16.7451	-4.26779	-2.02793	-2.96384	-1.05281	1.08068	
474	1580406964.278731858	0.00246463	-0.928846	2.13525	-2.777	-1.56957	-2.62319	0	0	-0	0	0	0	-17.1535	-4.3291	-2.05418	-3.08298	-1.05278	1.05496	
475	1580406964.286736461	0.0024886	-0.92881	2.13526	-2.77703	-1.56956	-2.62321	0	0	-0	0	0	0	-17.2216	-4.63299	-2.00258	-3.05913	-0.953809	1.05496	
476	1580406964.294792210	0.00250058	-0.92881	2.13524	-2.77702	-1.56958	-2.62323	0	0	-0	0	0	0	-17.2896	-3.96614	-2.00342	-2.98767	-1.02806	1.28651	
477	1580406964.302699878	0.0024886	-0.928822	2.13523	-2.77702	-1.56958	-2.62324	0	0	-0	0	0	0	-17.2216	-4.3305	-1.82962	-3.03534	-1.0528	0.952055	
478	1580406964.310732985	0.0024886	-0.92881	2.13524	-2.777	-1.5696	-2.62321	0	0	-0	0	0	0	-16.9493	-4.26963	-1.87866	-3.05913	-1.02806	1.10641	
479	1580406964.318702237	0.00247662	-0.928858	2.13525	-2.77702	-1.56955	-2.62323	0	0	-0	0	0	0	-16.2005	-4.57163	-1.92986	-3.32121	-1.05276	0.977791	
480	1580406964.326729041	0.00251257	-0.928858	2.1353	-2.77702	-1.56957	-2.62321	0	0	-0	0	0	0	-17.2896	-4.0236	-1.90317	-3.05913	-0.95382	1.10641	
481	1580406964.334719515	0.0024886	-0.928846	2.13525	-2.777	-1.56957	-2.62323	0	0	-0	0	0	0	-16.8812	-4.26839	-2.07913	-3.08297	-0.953822	1.20933	
482	1580406964.342692386	0.00244066	-0.928822	2.1353	-2.77702	-1.56958	-2.62321	0	0	-0	0	0	0	-16.677	-4.4493	-1.97673	-3.13055	-1.05279	0.952038	
483	1580406964.350658199	0.0024886	-0.92887	2.13527	-2.77703	-1.5696	-2.62318	0	0	-0	0	0	0	-16.4728	-4.32771	-2.00429	-3.08301	-0.978578	1.00351	
484	1580406964.358733494	0.0024886	-0.928822	2.13521	-2.77703	-1.56958	-2.62321	0	0	-0	0	0	0	-16.4728	-4.14885	-2.07959	-3.01156	-0.805387	0.926333	
485	1580406964.366717161	0.00247662	-0.928786	2.13524	-2.777	-1.56957	-2.62319	0	0	-0	0	0	0	-17.0854	-3.90597	-2.00256	-2.98764	-0.978558	0.977771	
486	1580406964.374724022	0.00247662	-0.928834	2.13524	-2.77705	-1.56956	-2.62324	0	0	-0	0	0	0	-16.9493	-4.08704	-1.95442	-3.10685	-1.10226	1.18362	
487	1580406964.382713770	0.00250058	-0.928822	2.13527	-2.77702	-1.5696	-2.62319	0	0	-0	0	0	0	-17.0174	-4.26807	-2.0275	-3.10676	-1.0528	1.2865	
488	1580406964.390731249	0.00250058	-0.928858	2.13524	-2.77704	-1.56956	-2.62324	0	0	-0	0	0	0	-16.8812	-4.45069	-1.98022	-2.94012	-1.05278	1.08071	
489	1580406964.398656787	0.00247662	-0.928846	2.13525	-2.77702	-1.56958	-2.62324	0	0	-0	0	0	0	-17.7661	-4.3291	-2.05419	-3.03534	-0.978576	1.05497	
490	1580406964.406709374	0.00247662	-0.928834	2.13525	-2.77704	-1.56957	-2.62321	0	0	-0	0	0	0	-17.0854	-4.5115	-1.85418	-2.98772	-0.63219	1.00352	
491	1580406964.414699736	0.0024886	-0.928846	2.13525	-2.77699	-1.56955	-2.62325	0	0	-0	0	0	0	-16.8132	-4.14697	-2.10406	-3.08295	-1.02803	1.15788	
492	1580406964.422687218	0.00247662	-0.928846	2.13525	-2.77703	-1.56962	-2.62323	0	0	-0	0	0	0	-17.1535	-3.72212	-1.9045	-3.083	-0.929126	1.05496	
493	1580406964.430705942	0.0024886	-0.928822	2.13523	-2.77703	-1.56958	-2.62321	0	0	-0	0	0	0	-16.8132	-4.20912	-2.02925	-3.20211	-0.978572	1.13215	
494	1580406964.438712642	0.00247662	-0.928822	2.13526	-2.77699	-1.5696	-2.62323	0	0	-0	0	0	0	-16.7451	-4.38988	-1.92811	-3.01145	-0.953844	1.02922	
495	1580406964.446684881	0.00247662	-0.92881	2.13524	-2.77703	-1.56957	-2.62324	0	0	-0	0	0	0	-17.3577	-4.39105	-2.20305	-3.03533	-1.00331	1.05497	
496	1580406964.454703286	0.0024886	-0.928822	2.13525	-2.77703	-1.56958	-2.62321	0	0	-0	0	0	0	-17.0174	-4.39036	-1.90364	-3.05915	-0.929091	0.97778	
497	1580406964.462711593	0.00247662	-0.928834	2.13523	-2.77702	-1.56961	-2.6232	0	0	-0	0	0	0	-16.9493	-4.14814	-2.00472	-3.10683	-0.978593	1.05497	
498	1580406964.470752225	0.00246463	-0.92881	2.13529	-2.77702	-1.56957	-2.62318	0	0	-0	0	0	0	-16.8132	-4.45001	-1.90189	-3.15437	-1.05278	1.20932	
499	1580406964.478684715	0.00250058	-0.92881	2.13523	-2.777	-1.5696	-2.62321	0	0	-0	0	0	0	-16.4728	-4.45216	-1.95394	-3.51174	-1.00332	1.0035	
500	1580406964.486736805	0.00245265	-0.92881	2.13523	-2.77703	-1.56955	-2.62319	0	0	-0	0	0	0	-17.5619	-4.33079	-1.92902	-3.10682	-1.02802	1.0807	
501	1580406964.494741279	0.0024886	-0.928834	2.13524	-2.77702	-1.56956	-2.62323	0	0	-0	0	0	0	-16.7451	-4.3298	-1.85458	-2.8686	-1.02803	1.02924	
502	1580406964.502731858	0.00245265	-0.92881	2.13526	-2.777	-1.56958	-2.62319	0	0	-0	0	0	0	-17.0854	-4.20807	-1.90275	-3.29731	-0.978569	1.05495	
503	1580406964.510712412	0.0024886	-0.92881	2.13525	-2.77703	-1.56961	-2.62319	0	0	-0	0	0	0	-17.0174	-3.60154	-2.10282	-3.05915	-1.02807	1.13214	
504	1580406964.518776354	0.00247662	-0.92887	2.13523	-2.77699	-1.56958	-2.6232	0	0	-0	0	0	0	-16.8812	-4.5115	-2.00599	-3.0592	-1.02805	1.15788	
505	1580406964.526743624	0.00247662	-0.92881	2.13524	-2.77703	-1.56957	-2.6232	0	0	-0	0	0	0	-17.2896	-4.08756	-2.0284	-3.01152	-0.904337	1.02924	
506	1580406964.534726024	0.00245265	-0.928786	2.13524	-2.77703	-1.56958	-2.62321	0	0	-0	0	0	0	-16.8132	-4.20949	-1.95268	-3.03531	-0.978572	1.1836	
507	1580406964.542712188	0.00251257	-0.928834	2.13523	-2.77703	-1.56956	-2.62319	0	0	-0	0	0	0	-17.7661	-4.14816	-1.95484	-3.08302	-1.07751	1.18361	
508	1580406964.550760600	0.00247662	-0.928846	2.13525	-2.77702	-1.5696	-2.62323	0	0	-0	0	0	0	-16.4728	-4.4505	-1.87953	-2.79713	-0.978585	1.10642	
509	1580406964.558753441	0.00251257	-0.928846	2.13526	-2.77702	-1.5696	-2.62323	0	0	-0	0	0	0	-17.0854	-3.78238	-2.12861	-3.08297	-1.00333	1.05496	
510	1580406964.566796613	0.00247662	-0.92881	2.13525	-2.77699	-1.56956	-2.62319	0	0	-0	0	0	0	-16.4047	-4.57268	-1.90317	-3.08292	-1.00329	1.10641	
511	1580406964.574716614	0.0024886	-0.928846	2.13525	-2.777	-1.56961	-2.62321	0	0	-0	0	0	0	-16.6089	-4.57189	-2.05418	-3.08298	-1.02808	1.20933	
512	1580406964.582738911	0.00250058	-0.928798	2.13527	-2.77698	-1.56957	-2.62321	0	0	-0	0	0	0	-16.7451	-4.45065	-1.80203	-3.03522	-0.92908	1.08067	
513	1580406964.590716757	0.00245265	-0.928846	2.13526	-2.77703	-1.56957	-2.62319	0	0	-0	0	0	0	-17.2216	-4.20729	-1.87912	-2.96389	-0.978558	1.02924	
514	1580406964.598781319	0.00247662	-0.928846	2.13525	-2.77702	-1.56956	-2.6232	0	0	-0	0	0	0	-16.8812	-4.26841	-2.00429	-3.10681	-1.07751	1.15788	
515	1580406964.606687393	0.00246463	-0.928846	2.13526	-2.77702	-1.56955	-2.6232	0	0	-0	0	0	0	-17.0854	-3.90378	-1.95396	-3.08298	-1.00328	1.0807	
516	1580406964.614742021	0.00247662	-0.928858	2.13525	-2.777	-1.56958	-2.62323	0	0	-0	0	0	0	-16.7451	-4.57162	-2.0047	-3.03534	-1.00331	1.20933	
517	1580406964.622746634	0.00250058	-0.928822	2.13529	-2.777	-1.56961	-2.62323	0	0	-0	0	0	0	-16.3367	-3.78202	-2.07695	-3.0829	-0.879633	1.31222	
518	1580406964.630756855	0.00247662	-0.928846	2.13525	-2.77703	-1.56957	-2.62321	0	0	-0	0	0	0	-16.8132	-3.84352	-1.87955	-3.03536	-0.879598	1.15788	
519	1580406964.638712373	0.0024886	-0.928834	2.13529	-2.77702	-1.5696	-2.62324	0	0	-0	0	0	0	-16.8132	-4.20666	-1.90274	-3.08293	-0.904364	0.952042	
520	1580406964.647662946	0.00247662	-0.92887	2.13525	-2.77702	-1.56958	-2.6232	0	0	-0	0	0	0	-16.9493	-4.57137	-1.83049	-3.10684	-1.00331	1.15788	
521	1580406964.654735187	0.00246463	-0.92881	2.13525	-2.77699	-1.56957	-2.6232	0	0	-0	0	0	0	-16.6089	-4.32988	-2.07782	-2.96382	-1.10226	1.15786	
522	1580406964.662723133	0.00246463	-0.928822	2.13525	-2.77705	-1.5696	-2.6232	0	0	-0	0	0	0	-16.9493	-4.32969	-1.95357	-3.05919	-0.978582	0.900601	
523	1580406964.670724121	0.00251257	-0.928858	2.13524	-2.77699	-1.56958	-2.6232	0	0	-0	0	0	0	-17.0854	-3.66155	-1.98017	-3.05917	-1.07753	1.08069	
524	1580406964.678740422	0.00252455	-0.928834	2.1353	-2.77699	-1.56955	-2.62321	0	0	-0	0	0	0	-17.3577	-4.1455	-2.00209	-3.08289	-0.978538	1.02922	
525	1580406964.686716217	0.00247662	-0.928846	2.13525	-2.77703	-1.56955	-2.62325	0	0	-0	0	0	0	-17.0854	-4.32911	-1.97934	-3.03535	-0.929062	1.0807	
526	1580406964.694767373	0.00246463	-0.928834	2.13526	-2.77704	-1.56954	-2.62319	0	0	-0	0	0	0	-16.677	-4.81457	-1.80385	-3.15446	-1.02801	1.18361	
527	1580406964.702681861	0.00246463	-0.928846	2.13527	-2.77704	-1.56958	-2.62324	0	0	-0	0	0	0	-17.2896	-4.26755	-1.92858	-3.22591	-1.00332	0.952055	
528	1580406964.710778830	0.00246463	-0.92881	2.13527	-2.77702	-1.5696	-2.62321	0	0	-0	0	0	0	-16.6089	-3.96483	-1.97717	-3.13056	-0.978583	0.95204	
529	1580406964.718753847	0.0024886	-0.928846	2.13527	-2.77705	-1.56957	-2.62321	0	0	-0	0	0	0	-17.1535	-4.26757	-2.05336	-2.9639	-1.02804	1.13215	
530	1580406964.726776758	0.00247662	-0.928798	2.13529	-2.77702	-1.56956	-2.62318	0	0	-0	0	0	0	-16.677	-4.08608	-1.8266	-2.98761	-1.07751	1.20932	
531	1580406964.734741095	0.00247662	-0.928834	2.13524	-2.77702	-1.5696	-2.62323	0	0	-0	0	0	0	-16.5409	-3.9656	-2.05419	-3.17827	-0.953844	1.10642	
532	1580406964.742841271	0.00250058	-0.928846	2.13525	-2.77702	-1.56954	-2.6232	0	0	-0	0	0	0	-17.0854	-4.51121	-2.00429	-3.05917	-1.10223	0.97779	
533	1580406964.750751157	0.00250058	-0.928858	2.13525	-2.77702	-1.56957	-2.62321	0	0	-0	0	0	0	-16.0644	-4.51093	-2.02967	-3.17829	-1.15175	0.900604	
534	1580406964.758699731	0.00247662	-0.92887	2.13526	-2.77703	-1.56961	-2.62323	0	0	-0	0	0	0	-17.2216	-4.02465	-2.05464	-3.08302	-1.12704	1.00351	
535	1580406964.766710220	0.00247662	-0.928822	2.13526	-2.77704	-1.56958	-2.62321	0	0	-0	0	0	0	-16.6089	-4.32924	-2.05293	-3.08298	-0.978572	1.10642	
536	1580406964.774698478	0.00247662	-0.928858	2.13527	-2.77702	-1.56958	-2.62321	0	0	-0	0	0	0	-16.677	-4.14586	-2.07869	-3.08297	-1.07754	1.33797	
537	1580406964.782675803	0.00246463	-0.928834	2.13525	-2.77703	-1.56958	-2.62321	0	0	-0	0	0	0	-17.0174	-4.26869	-2.00387	-3.08299	-1.10228	1.05497	
538	1580406964.790755448	0.00246463	-0.928822	2.13524	-2.77704	-1.56961	-2.62317	0	0	-0	0	0	0	-16.8812	-4.20871	-1.87914	-3.08302	-1.02807	1.1836	
539	1580406964.798714465	0.00247662	-0.928822	2.13525	-2.77704	-1.56957	-2.6232	0	0	-0	0	0	0	-16.7451	-4.26897	-1.90365	-3.05917	-1.127	1.10642	
540	1580406964.806861933	0.00244066	-0.92881	2.13523	-2.77702	-1.56958	-2.62319	0	0	-0	0	0	0	-16.677	-4.45218	-2.02881	-2.96388	-1.05279	1.31224	
541	1580406964.814735578	0.00247662	-0.928834	2.13526	-2.77702	-1.5696	-2.62323	0	0	-0	0	0	0	-16.6089	-4.26824	-1.95352	-3.20206	-0.929104	1.13214	
542	1580406964.822814157	0.00250058	-0.92887	2.13525	-2.77702	-1.56957	-2.62323	0	0	-0	0	0	0	-16.7451	-4.08577	-2.12991	-3.01155	-1.05279	1.15788	
543	1580406964.830722458	0.00247662	-0.928822	2.13525	-2.77703	-1.56955	-2.62319	0	0	-0	0	0	0	-16.7451	-3.78337	-1.90364	-2.9877	-0.978535	0.977785	
544	1580406964.838792153	0.00247662	-0.928822	2.13526	-2.77703	-1.56958	-2.62324	0	0	-0	0	0	0	-16.3367	-4.38992	-1.92815	-3.1306	-0.953835	1.02923	
545	1580406964.846750975	0.00250058	-0.92881	2.13525	-2.77704	-1.56958	-2.62318	0	0	-0	0	0	0	-16.9493	-4.45135	-1.85332	-3.01152	-1.00331	1.08069	
546	1580406964.854707465	0.0024886	-0.928834	2.13526	-2.77702	-1.56958	-2.62317	0	0	-0	0	0	0	-17.0854	-4.69315	-2.1781	-3.10679	-1.00331	1.02923	
547	1580406964.862737658	0.00251257	-0.928834	2.13527	-2.77702	-1.56958	-2.62321	0	0	-0	0	0	0	-17.2216	-4.38919	-2.02793	-3.24969	-0.953831	1.13214	
548	1580406964.870843016	0.00245265	-0.928846	2.13525	-2.77703	-1.56958	-2.62321	0	0	-0	0	0	0	-16.677	-4.51122	-2.02925	-3.083	-0.929091	1.05497	
549	1580406964.878751939	0.00250058	-0.92881	2.13525	-2.77703	-1.56956	-2.6232	0	0	-0	0	0	0	-16.4047	-4.20853	-1.87826	-3.08296	-0.929067	1.08069	
550	1580406964.886693333	0.00247662	-0.92881	2.13527	-2.77704	-1.56958	-2.6232	0	0	-0	0	0	0	-17.1535	-3.72207	-1.95225	-3.08295	-1.02805	1.0035	
551	1580406964.894700486	0.00250058	-0.928834	2.13525	-2.77703	-1.5696	-2.62318	0	0	-0	0	0	0	-17.4939	-4.51149	-2.15359	-3.01154	-1.02806	1.08069	
552	1580406964.902758213	0.0024886	-0.92887	2.13525	-2.77702	-1.5696	-2.62323	0	0	-0	0	0	0	-17.2896	-4.38926	-2.15486	-2.98773	-0.929104	1.23506	
553	1580406964.910754049	0.00247662	-0.928846	2.13526	-2.77703	-1.56957	-2.6232	0	0	-0	0	0	0	-17.63	-3.7217	-1.85417	-3.03535	-0.929078	1.00351	
554	1580406964.918677332	0.00250058	-0.928858	2.13526	-2.77703	-1.56957	-2.62321	0	0	-0	0	0	0	-16.6089	-3.72142	-1.92945	-2.9639	-0.830117	1.05497	
555	1580406964.926736116	0.00245265	-0.928846	2.13524	-2.77702	-1.56957	-2.62318	0	0	-0	0	0	0	-16.677	-4.20814	-2.02968	-3.03537	-0.978556	1.15788	
556	1580406964.934764919	0.00250058	-0.92887	2.13525	-2.77702	-1.56958	-2.62323	0	0	-0	0	0	0	-16.8132	-4.44996	-1.95525	-3.03537	-0.904352	1.31225	
557	1580406964.942742954	0.00245265	-0.928834	2.13525	-2.777	-1.56961	-2.6232	0	0	-0	0	0	0	-17.0174	-4.02586	-2.00385	-3.05914	-1.00333	1.13214	
558	1580406964.950761691	0.00246463	-0.928834	2.13524	-2.77703	-1.56961	-2.62321	0	0	-0	0	0	0	-17.0174	-4.08702	-2.10411	-3.03536	-0.953854	1.10642	
559	1580406964.958733742	0.00246463	-0.928846	2.13527	-2.77703	-1.56956	-2.62323	0	0	-0	0	0	0	-17.0174	-4.08544	-1.87866	-3.10679	-0.904329	1.02924	
560	1580406964.966772626	0.00247662	-0.92881	2.13526	-2.77705	-1.56955	-2.62319	0	0	-0	0	0	0	-17.2216	-4.14743	-1.97766	-3.05916	-0.929054	1.02924	
561	1580406964.974771318	0.00247662	-0.928846	2.13524	-2.77702	-1.56961	-2.62315	0	0	-0	0	0	0	-16.9493	-3.60116	-2.10454	-2.98773	-0.953845	0.952054	
562	1580406964.982727546	0.0024886	-0.928834	2.13525	-2.77702	-1.5696	-2.6232	0	0	-0	0	0	0	-16.677	-4.02588	-2.02881	-3.01151	-0.978582	1.00351	
563	1580406964.990737684	0.00250058	-0.928846	2.13525	-2.77704	-1.5696	-2.6232	0	0	-0	0	0	0	-17.3577	-3.96494	-2.00432	-2.96392	-1.0528	1.05497	
564	1580406964.998772270	0.00250058	-0.928834	2.13526	-2.777	-1.56956	-2.62323	0	0	-0	0	0	0	-16.2686	-3.96473	-1.95351	-3.10677	-0.92907	1.10642	
565	1580406965.006755087	0.0024886	-0.928846	2.1353	-2.77703	-1.56957	-2.62324	0	0	-0	0	0	0	-17.0854	-4.50947	-1.90275	-3.01148	-0.978565	1.0035	
566	1580406965.014744846	0.0024886	-0.928834	2.13526	-2.77702	-1.56956	-2.6232	0	0	-0	0	0	0	-17.0174	-3.60055	-1.97848	-3.05914	-0.978548	1.02924	
567	1580406965.022731083	0.00247662	-0.92881	2.13525	-2.777	-1.56956	-2.62319	0	0	-0	0	0	0	-17.2896	-4.2085	-1.97804	-3.08294	-1.05277	1.13214	
568	1580406965.030771107	0.00252455	-0.92887	2.13524	-2.77703	-1.56956	-2.62325	0	0	-0	0	0	0	-16.8132	-4.329	-2.08044	-3.05922	-0.879592	1.18362	
569	1580406965.038747402	0.00247662	-0.92881	2.13525	-2.77702	-1.56958	-2.62321	0	0	-0	0	0	0	-17.0854	-4.57271	-1.82834	-3.0353	-0.879609	1.0035	
570	1580406965.046752298	0.00250058	-0.92881	2.13526	-2.77705	-1.56957	-2.62319	0	0	-0	0	0	0	-16.4728	-4.32953	-1.95271	-2.9877	-1.05278	0.977782	
571	1580406965.054730948	0.00247662	-0.928882	2.13526	-2.77702	-1.5696	-2.62319	0	0	-0	0	0	0	-16.6089	-3.78157	-1.95527	-3.03538	-1.0528	1.0807	
572	1580406965.062724332	0.00251257	-0.928822	2.13525	-2.77705	-1.56958	-2.62321	0	0	-0	0	0	0	-16.6089	-4.02619	-1.82881	-2.98772	-0.978572	1.0807	
573	1580406965.070713428	0.0024886	-0.92881	2.13524	-2.77702	-1.5696	-2.62323	0	0	-0	0	0	0	-17.0174	-3.90544	-1.92857	-3.03532	-0.953844	1.10641	
574	1580406965.078707511	0.00245265	-0.928822	2.13526	-2.77702	-1.56961	-2.6232	0	0	-0	0	0	0	-16.6089	-4.69341	-2.02795	-3.03531	-1.02807	1.05495	
575	1580406965.086735714	0.00246463	-0.92887	2.13525	-2.77704	-1.5696	-2.6232	0	0	-0	0	0	0	-17.0854	-4.0858	-2.08004	-3.01159	-0.953841	1.00352	
576	1580406965.094693996	0.00246463	-0.92881	2.13526	-2.77702	-1.56958	-2.62321	0	0	-0	0	0	0	-16.6089	-3.90458	-2.07742	-3.08293	-1.02805	1.15787	
577	1580406965.102704817	0.00245265	-0.928846	2.13525	-2.77703	-1.5696	-2.62323	0	0	-0	0	0	0	-16.4728	-3.90422	-1.9544	-2.94008	-1.17651	1.08069	
578	1580406965.110769819	0.00246463	-0.928834	2.13525	-2.77703	-1.56956	-2.62319	0	0	-0	0	0	0	-16.8812	-4.26869	-1.97893	-3.03535	-0.978547	0.926331	
579	1580406965.118727977	0.00246463	-0.928798	2.13524	-2.77703	-1.5696	-2.62319	0	0	-0	0	0	0	-17.0174	-4.39133	-1.97806	-3.03532	-1.00332	1.10641	
580	1580406965.126717864	0.0024886	-0.928846	2.13526	-2.77703	-1.5696	-2.62321	0	0	-0	0	0	0	-16.2686	-4.20729	-2.00387	-2.98771	-1.02806	1.26079	
581	1580406965.134746551	0.00250058	-0.928834	2.13524	-2.77703	-1.56957	-2.62323	0	0	-0	0	0	0	-16.8132	-4.32982	-1.85459	-3.083	-0.953822	0.977787	
582	1580406965.142749099	0.00246463	-0.928846	2.13527	-2.77702	-1.5696	-2.62324	0	0	-0	0	0	0	-17.0174	-4.26752	-1.92855	-3.1306	-0.953846	1.23505	
583	1580406965.150695482	0.0024886	-0.928846	2.13523	-2.777	-1.56957	-2.6232	0	0	-0	0	0	0	-17.2896	-3.96576	-2.05504	-3.10683	-0.953819	0.95206	
584	1580406965.158756476	0.00251257	-0.928834	2.13526	-2.77702	-1.56958	-2.62321	0	0	-0	0	0	0	-17.3577	-4.38964	-2.00343	-3.03532	-1.05279	1.1836	
585	1580406965.166753532	0.00251257	-0.928786	2.13526	-2.77703	-1.56957	-2.6232	0	0	-0	0	0	0	-17.3577	-4.45143	-1.90191	-3.0591	-0.978559	1.02923	
586	1580406965.174685597	0.00247662	-0.928822	2.13527	-2.77703	-1.56958	-2.62319	0	0	-0	0	0	0	-16.677	-3.66109	-1.85286	-3.03531	-0.978569	1.1836	
587	1580406965.182717145	0.0024886	-0.928834	2.13524	-2.77703	-1.56957	-2.6232	0	0	-0	0	0	0	-17.2216	-4.51192	-1.9045	-3.03537	-1.05278	1.13215	
588	1580406965.190788278	0.00247662	-0.928834	2.13529	-2.77704	-1.5696	-2.6232	0	0	-0	0	0	0	-17.0854	-4.146	-1.82792	-3.05914	-0.904359	1.15787	
589	1580406965.198734580	0.00247662	-0.928822	2.13526	-2.777	-1.56954	-2.62321	0	0	-0	0	0	0	-16.8132	-4.0257	-1.87822	-3.08293	-1.00327	1.13214	
590	1580406965.206734500	0.00246463	-0.928822	2.13525	-2.777	-1.56956	-2.62321	0	0	-0	0	0	0	-16.677	-4.75452	-1.90361	-3.34498	-1.02803	1.02923	
591	1580406965.214724869	0.00246463	-0.928834	2.13524	-2.77702	-1.5696	-2.62323	0	0	-0	0	0	0	-17.0854	-4.1477	-1.90448	-3.03534	-0.929104	1.13215	
592	1580406965.222781144	0.00247662	-0.928798	2.13526	-2.77699	-1.56955	-2.62323	0	0	-0	0	0	0	-16.677	-4.81531	-2.07696	-3.10671	-1.00328	0.977769	
593	1580406965.230771448	0.00247662	-0.928846	2.13521	-2.77702	-1.56958	-2.6232	0	0	-0	0	0	0	-16.5409	-4.0269	-1.80597	-3.13068	-1.05279	1.20934	
594	1580406965.238736212	0.00251257	-0.92887	2.13524	-2.777	-1.56957	-2.62321	0	0	-0	0	0	0	-16.8132	-4.20758	-2.13032	-2.98773	-0.95382	1.05497	
595	1580406965.246711608	0.00245265	-0.928822	2.13527	-2.777	-1.56958	-2.6232	0	0	-0	0	0	0	-17.4258	-4.14665	-2.07739	-3.22585	-1.02805	1.15786	
596	1580406965.254707295	0.00250058	-0.928834	2.13525	-2.77702	-1.56957	-2.6232	0	0	-0	0	0	0	-17.5619	-4.57217	-2.10367	-3.03534	-0.978559	1.15788	
597	1580406965.262674549	0.00250058	-0.928846	2.13525	-2.77704	-1.56958	-2.62321	0	0	-0	0	0	0	-16.8132	-3.84354	-2.00432	-3.0592	-1.00331	1.02924	
598	1580406965.270725062	0.0024886	-0.928834	2.13525	-2.77702	-1.56957	-2.6232	0	0	-0	0	0	0	-16.5409	-4.39007	-1.92901	-3.03534	-0.904337	1.10642	
599	1580406965.278734125	0.0024886	-0.92881	2.13525	-2.77702	-1.56958	-2.62323	0	0	-0	0	0	0	-17.4939	-4.20851	-2.0529	-3.01148	-1.00331	1.13214	
600	1580406965.286725751	0.0024886	-0.92881	2.13524	-2.77702	-1.56956	-2.62321	0	0	-0	0	0	0	-16.4047	-4.57314	-2.12818	-3.0115	-1.00329	1.08069	
601	1580406965.294698862	0.0024886	-0.928798	2.13526	-2.77704	-1.56957	-2.62319	0	0	-0	0	0	0	-17.4939	-4.39048	-2.00217	-3.10677	-1.02804	1.13214	
602	1580406965.302660348	0.00246463	-0.928798	2.13526	-2.777	-1.56956	-2.62319	0	0	-0	0	0	0	-17.4258	-4.57254	-1.85242	-3.08291	-1.02803	0.952042	
603	1580406965.310738473	0.0024886	-0.928822	2.13523	-2.777	-1.5696	-2.62319	0	0	-0	0	0	0	-16.0644	-4.027	-2.07913	-3.13062	-1.07754	1.08069	
604	1580406965.318732918	0.00247662	-0.92881	2.13526	-2.77703	-1.56961	-2.62321	0	0	-0	0	0	0	-17.2896	-3.9046	-2.00258	-3.08295	-0.953854	1.10641	
605	1580406965.326733563	0.00250058	-0.928786	2.13525	-2.777	-1.56958	-2.6232	0	0	-0	0	0	0	-17.0174	-4.02694	-2.02707	-3.17819	-0.879607	1.26077	
606	1580406965.334720372	0.0024886	-0.928822	2.1352	-2.77702	-1.56961	-2.6232	0	0	-0	0	0	0	-17.0174	-4.08857	-1.9802	-3.01156	-0.978593	1.05497	
607	1580406965.342686097	0.00245265	-0.928846	2.13524	-2.77702	-1.56957	-2.6232	0	0	-0	0	0	0	-16.5409	-4.45094	-2.02967	-3.05919	-0.904337	1.13215	
608	1580406965.350680942	0.00250058	-0.928846	2.13526	-2.77704	-1.56956	-2.62321	0	0	-0	0	0	0	-17.0174	-4.5108	-1.97894	-3.083	-1.00329	1.33798	
609	1580406965.358707820	0.00250058	-0.92881	2.13524	-2.777	-1.56957	-2.62321	0	0	-0	0	0	0	-17.5619	-4.45173	-2.07827	-3.10677	-0.92908	1.08069	
610	1580406965.366678674	0.00246463	-0.928798	2.13529	-2.77702	-1.56956	-2.62324	0	0	-0	0	0	0	-16.677	-3.90397	-2.0761	-3.05906	-0.978553	1.05495	
611	1580406965.374680810	0.00250058	-0.928822	2.13521	-2.77699	-1.56958	-2.6232	0	0	-0	0	0	0	-16.9493	-4.08811	-2.0546	-3.13062	-1.02805	0.97778	
612	1580406965.382718631	0.00245265	-0.928834	2.13523	-2.77703	-1.56956	-2.62319	0	0	-0	0	0	0	-17.3577	-4.75515	-2.02969	-3.0592	-0.904324	1.18361	
613	1580406965.390676632	0.00245265	-0.928858	2.13521	-2.77703	-1.5696	-2.6232	0	0	-0	0	0	0	-16.7451	-3.54105	-2.00603	-3.15453	-0.953841	1.18362	
614	1580406965.398744032	0.00247662	-0.928846	2.13527	-2.77705	-1.56958	-2.6232	0	0	-0	0	0	0	-16.8132	-3.96407	-1.8288	-3.08301	-0.95383	0.900603	
615	1580406965.406763395	0.00247662	-0.928822	2.13525	-2.77702	-1.56956	-2.62324	0	0	-0	0	0	0	-17.3577	-4.69383	-2.05332	-2.96385	-1.15174	1.13215	
616	1580406965.414819076	0.00246463	-0.928798	2.13525	-2.77702	-1.56957	-2.62324	0	0	-0	0	0	0	-16.4728	-3.84458	-1.95266	-3.03528	-1.05279	1.05496	
617	1580406965.422742439	0.00244066	-0.92881	2.13527	-2.77702	-1.56961	-2.6232	0	0	-0	0	0	0	-17.2896	-4.20763	-2.07697	-3.01146	-1.02807	0.92631	
618	1580406965.430752482	0.00246463	-0.928822	2.13529	-2.77703	-1.56958	-2.62323	0	0	-0	0	0	0	-16.8812	-3.78205	-2.07698	-3.05911	-1.00331	1.05495	
619	1580406965.438740833	0.00250058	-0.92887	2.13524	-2.777	-1.56956	-2.6232	0	0	-0	0	0	0	-16.8812	-4.08619	-2.08042	-3.03538	-0.929067	0.874881	
620	1580406965.446796469	0.00247662	-0.928822	2.13525	-2.77702	-1.56957	-2.62321	0	0	-0	0	0	0	-17.3577	-4.57244	-2.07828	-3.05914	-0.978561	1.00351	
621	1580406965.454732973	0.00246463	-0.928846	2.13527	-2.77703	-1.5696	-2.62319	0	0	-0	0	0	0	-17.4939	-3.96405	-1.87867	-2.9877	-1.00332	1.00351	
622	1580406965.462727849	0.00251257	-0.92881	2.13527	-2.77702	-1.56958	-2.62325	0	0	-0	0	0	0	-17.4939	-4.02552	-1.82745	-3.05909	-0.953837	1.10641	
623	1580406965.470701616	0.00251257	-0.928858	2.13527	-2.77699	-1.56958	-2.62324	0	0	-0	0	0	0	-16.9493	-3.84233	-2.00381	-3.0353	-1.0528	0.900591	
624	1580406965.478842570	0.00247662	-0.92881	2.13521	-2.777	-1.56961	-2.62323	0	0	-0	0	0	0	-17.4258	-4.51328	-2.05417	-3.13061	-0.879633	1.08069	
625	1580406965.486680287	0.0024886	-0.928822	2.13524	-2.77702	-1.56956	-2.6232	0	0	-0	0	0	0	-16.9493	-4.26938	-1.90406	-3.05916	-1.00329	1.05497	
626	1580406965.494680085	0.00246463	-0.92881	2.13525	-2.77703	-1.5696	-2.62319	0	0	-0	0	0	0	-16.7451	-4.02643	-2.02797	-3.08297	-1.07754	0.952048	
627	1580406965.502753630	0.00247662	-0.928846	2.13524	-2.777	-1.56957	-2.62321	0	0	-0	0	0	0	-17.0174	-3.84393	-1.97975	-3.03535	-0.879598	1.13215	
628	1580406965.510781146	0.0024886	-0.928834	2.13526	-2.77705	-1.56956	-2.6232	0	0	-0	0	0	0	-17.6981	-4.20759	-2.00347	-3.08301	-1.02803	1.15788	
629	1580406965.518752103	0.00246463	-0.928846	2.13524	-2.77703	-1.56961	-2.62321	0	0	-0	0	0	0	-16.9493	-4.57235	-2.12949	-3.0592	-0.929113	1.13215	
630	1580406965.526725960	0.00245265	-0.928822	2.13525	-2.77703	-1.56954	-2.6232	0	0	-0	0	0	0	-16.8812	-4.20826	-1.95354	-3.08298	-1.05275	0.926332	
631	1580406965.534715839	0.00247662	-0.92881	2.13525	-2.77702	-1.56958	-2.62319	0	0	-0	0	0	0	-16.677	-4.26922	-2.0529	-3.01149	-1.02805	1.10641	
632	1580406965.542700705	0.0024886	-0.92881	2.13525	-2.77702	-1.5696	-2.62321	0	0	-0	0	0	0	-16.9493	-4.14781	-1.85329	-3.05913	-1.12703	1.0035	
633	1580406965.550759567	0.00245265	-0.928858	2.13525	-2.77702	-1.56958	-2.6232	0	0	-0	0	0	0	-16.8812	-4.45024	-2.00472	-3.01154	-1.05279	1.05497	
634	1580406965.558712426	0.00251257	-0.928834	2.13527	-2.77702	-1.56957	-2.62324	0	0	-0	0	0	0	-17.8342	-4.44989	-1.95307	-3.10676	-1.00331	1.15787	
635	1580406965.566741729	0.00250058	-0.928786	2.13525	-2.77702	-1.56955	-2.62324	0	0	-0	0	0	0	-17.1535	-4.14834	-2.02708	-3.05909	-0.879579	1.08069	
636	1580406965.574732592	0.00247662	-0.92881	2.13527	-2.77702	-1.5696	-2.62323	0	0	-0	0	0	0	-16.8812	-4.14693	-1.92726	-3.03527	-1.05281	0.95204	
637	1580406965.582715368	0.00247662	-0.928858	2.13524	-2.77704	-1.56957	-2.62319	0	0	-0	0	0	0	-16.9493	-4.39	-1.98023	-3.10687	-0.978558	1.00352	
638	1580406965.590747172	0.00246463	-0.92887	2.13524	-2.77702	-1.56957	-2.6232	0	0	-0	0	0	0	-17.6981	-4.2076	-1.93073	-3.10686	-1.02804	1.02925	
639	1580406965.598692947	0.00246463	-0.928834	2.13529	-2.77702	-1.5696	-2.62321	0	0	-0	0	0	0	-17.0854	-4.20666	-1.90274	-3.08293	-1.02806	1.08068	
640	1580406965.606724685	0.0024886	-0.928858	2.13525	-2.77703	-1.5696	-2.62321	0	0	-0	0	0	0	-17.2896	-4.38955	-1.92988	-3.0592	-1.10229	1.0807	
641	1580406965.614757380	0.00246463	-0.928822	2.13527	-2.777	-1.56955	-2.62321	0	0	-0	0	0	0	-16.8132	-3.78245	-2.00253	-3.22584	-1.0775	1.05496	
642	1580406965.622747551	0.00250058	-0.92881	2.13524	-2.77703	-1.56958	-2.6232	0	0	-0	0	0	0	-17.0174	-4.69456	-2.0783	-3.05916	-0.97857	1.00351	
643	1580406965.630745562	0.00247662	-0.928846	2.13526	-2.77704	-1.56956	-2.62321	0	0	-0	0	0	0	-17.0174	-4.1466	-1.87913	-3.10683	-1.05277	1.0807	
644	1580406965.638784941	0.0024886	-0.928834	2.13525	-2.77702	-1.56961	-2.62321	0	0	-0	0	0	0	-16.4047	-4.20797	-2.05376	-3.08298	-1.05282	0.926321	
645	1580406965.646768768	0.0024886	-0.928822	2.13526	-2.77702	-1.56957	-2.62319	0	0	-0	0	0	0	-17.4939	-3.54012	-2.003	-3.13059	-1.0033	1.10641	
646	1580406965.654673342	0.00247662	-0.928858	2.13527	-2.77704	-1.56958	-2.62321	0	0	-0	0	0	0	-17.2216	-3.84239	-2.15358	-3.10683	-1.00331	1.15788	
647	1580406965.662709466	0.00251257	-0.928846	2.13523	-2.77702	-1.56955	-2.62321	0	0	-0	0	0	0	-17.1535	-4.02647	-2.00515	-3.03538	-0.904316	1.00352	
648	1580406965.670778352	0.00251257	-0.928834	2.13526	-2.77703	-1.56958	-2.62318	0	0	-0	0	0	0	-17.4258	-4.51106	-1.87869	-3.01152	-1.05279	1.08069	
649	1580406965.678696548	0.0024886	-0.928846	2.1352	-2.77702	-1.56957	-2.62324	0	0	-0	0	0	0	-16.5409	-4.27012	-1.93115	-3.08304	-1.10227	1.08071	
650	1580406965.686748733	0.00247662	-0.928846	2.13525	-2.77703	-1.56962	-2.62321	0	0	-0	0	0	0	-16.677	-4.26842	-1.97935	-3.10683	-0.904383	0.900598	
651	1580406965.694693613	0.00250058	-0.928846	2.1352	-2.77702	-1.5696	-2.62319	0	0	-0	0	0	0	-17.2896	-3.90594	-2.03097	-3.03541	-1.00332	1.10643	
652	1580406965.702763433	0.0024886	-0.928834	2.13527	-2.777	-1.56955	-2.62321	0	0	-0	0	0	0	-17.0174	-4.38918	-1.95306	-3.08293	-1.17646	0.952049	
653	1580406965.710753177	0.00247662	-0.928846	2.13527	-2.77704	-1.56956	-2.62319	0	0	-0	0	0	0	-17.2216	-4.38896	-1.95354	-3.01153	-1.00329	0.926331	
654	1580406965.718765526	0.00247662	-0.928846	2.13526	-2.77702	-1.56961	-2.62323	0	0	-0	0	0	0	-16.7451	-4.32867	-2.00385	-3.17826	-1.02808	1.05496	
655	1580406965.726738876	0.00250058	-0.928846	2.13524	-2.77702	-1.56957	-2.6232	0	0	-0	0	0	0	-17.5619	-4.69373	-1.95482	-3.13065	-1.05278	1.0807	
656	1580406965.734784308	0.00250058	-0.928834	2.13523	-2.77703	-1.56958	-2.6232	0	0	-0	0	0	0	-16.8812	-4.20885	-1.97979	-3.03538	-1.07753	1.15788	
657	1580406965.742753085	0.00250058	-0.928846	2.13525	-2.77703	-1.56958	-2.62319	0	0	-0	0	0	0	-16.4728	-4.45052	-1.9045	-3.05919	-1.05279	1.00351	
658	1580406965.750730119	0.00251257	-0.928846	2.13526	-2.77703	-1.56958	-2.62321	0	0	-0	0	0	0	-16.8132	-4.20729	-2.10368	-3.01153	-1.07754	0.952055	
659	1580406965.758727321	0.00246463	-0.928846	2.13525	-2.77703	-1.56958	-2.62321	0	0	-0	0	0	0	-17.1535	-4.08632	-1.97935	-3.10683	-0.953831	1.05497	
660	1580406965.766816930	0.0024886	-0.928834	2.13524	-2.77702	-1.56956	-2.6232	0	0	-0	0	0	0	-17.4939	-3.96561	-1.77973	-2.98771	-0.953808	1.0807	
661	1580406965.774736414	0.00246463	-0.928822	2.13525	-2.77702	-1.5696	-2.62321	0	0	-0	0	0	0	-17.5619	-3.96544	-2.00343	-2.94003	-1.05281	1.08069	
662	1580406965.782679056	0.00246463	-0.928822	2.13525	-2.77703	-1.56956	-2.62318	0	0	-0	0	0	0	-16.677	-4.02617	-2.00345	-2.9877	-0.953804	1.00351	
663	1580406965.790731526	0.00246463	-0.928846	2.13524	-2.77702	-1.56958	-2.6232	0	0	-0	0	0	0	-16.7451	-4.81513	-2.05463	-3.08301	-1.05279	1.10642	
664	1580406965.798731321	0.00250058	-0.92881	2.13525	-2.777	-1.56954	-2.6232	0	0	-0	0	0	0	-17.0854	-4.2085	-1.85328	-3.05911	-0.978526	1.23506	
665	1580406965.806742596	0.0024886	-0.92887	2.13524	-2.777	-1.56958	-2.62326	0	0	-0	0	0	0	-16.9493	-4.32897	-2.10536	-3.08301	-1.00332	1.15788	
666	1580406965.814749195	0.00250058	-0.928822	2.13524	-2.77703	-1.56956	-2.62325	0	0	-0	0	0	0	-16.5409	-3.54099	-1.87911	-2.96388	-1.10226	1.00351	
667	1580406965.822712915	0.00245265	-0.928846	2.13525	-2.77703	-1.56961	-2.62324	0	0	-0	0	0	0	-16.6089	-4.02562	-2.02925	-3.083	-0.904376	0.926327	
668	1580406965.830754392	0.0024886	-0.928822	2.13526	-2.777	-1.5696	-2.6232	0	0	-0	0	0	0	-17.0854	-4.0257	-2.12774	-3.01147	-0.978582	1.10641	
669	1580406965.838732661	0.0024886	-0.928834	2.13526	-2.77702	-1.5696	-2.62324	0	0	-0	0	0	0	-17.0174	-4.38964	-1.85371	-3.1306	-0.978587	1.20932	
670	1580406965.846724843	0.00247662	-0.92881	2.13529	-2.77703	-1.56957	-2.62319	0	0	-0	0	0	0	-16.9493	-3.90372	-2.0017	-3.03528	-1.0033	1.10641	
671	1580406965.854682683	0.0024886	-0.928822	2.13525	-2.77704	-1.56957	-2.62323	0	0	-0	0	0	0	-16.677	-4.20827	-2.10326	-2.91624	-0.805378	0.952057	
672	1580406965.862692562	0.0024886	-0.928846	2.13525	-2.777	-1.56956	-2.62324	0	0	-0	0	0	0	-17.6981	-3.84349	-1.97932	-2.96386	-0.978553	0.926328	
673	1580406965.870655402	0.00246463	-0.928882	2.13525	-2.777	-1.5696	-2.62324	0	0	-0	0	0	0	-17.8342	-4.44967	-2.00558	-3.05919	-0.978587	0.900604	
674	1580406965.878708953	0.0024886	-0.928822	2.13521	-2.77702	-1.56956	-2.6232	0	0	-0	0	0	0	-17.0854	-4.39164	-2.00472	-3.01154	-0.879585	1.02924	
675	1580406965.886656943	0.00250058	-0.928786	2.13523	-2.77703	-1.56954	-2.62319	0	0	-0	0	0	0	-17.4939	-4.20993	-2.15272	-3.15443	-1.02801	1.13215	
676	1580406965.894723653	0.00247662	-0.928882	2.13527	-2.77702	-1.56957	-2.62323	0	0	-0	0	0	0	-17.1535	-4.26671	-1.97977	-3.24975	-0.904341	1.05497	
677	1580406965.902757821	0.0024886	-0.928834	2.13525	-2.777	-1.56958	-2.62321	0	0	-0	0	0	0	-17.2216	-4.75425	-1.92899	-3.15442	-0.90435	1.15787	
678	1580406965.910739873	0.00250058	-0.928834	2.13527	-2.77702	-1.5696	-2.6232	0	0	-0	0	0	0	-16.4728	-4.44989	-2.02793	-3.03531	-1.17651	1.15787	
679	1580406965.918727399	0.00250058	-0.928834	2.13524	-2.77704	-1.56956	-2.62325	0	0	-0	0	0	0	-17.0854	-4.20843	-2.00431	-3.15447	-0.978555	0.952064	
680	1580406965.926783639	0.0024886	-0.928834	2.13527	-2.77704	-1.56958	-2.62319	0	0	-0	0	0	0	-16.7451	-4.26783	-2.05292	-3.01152	-0.854865	0.952052	
681	1580406965.934772824	0.0024886	-0.928846	2.13529	-2.77703	-1.56958	-2.62321	0	0	-0	0	0	0	-16.8132	-4.26711	-1.90319	-3.03532	-0.953831	1.13214	
682	1580406965.942676217	0.00250058	-0.928858	2.13523	-2.777	-1.56958	-2.6232	0	0	-0	0	0	0	-17.0174	-4.51178	-1.83091	-3.03538	-1.05279	1.18361	
683	1580406965.950731100	0.0024886	-0.928834	2.13526	-2.77702	-1.5696	-2.6232	0	0	-0	0	0	0	-17.0174	-4.02545	-1.85372	-3.05914	-0.953841	1.02923	
684	1580406965.958767000	0.0024886	-0.92881	2.13525	-2.77702	-1.56961	-2.62319	0	0	-0	0	0	0	-16.4728	-4.26922	-2.0529	-3.05913	-1.07755	1.20932	
685	1580406965.966713564	0.0024886	-0.928834	2.13526	-2.77703	-1.56955	-2.62325	0	0	-0	0	0	0	-16.677	-4.45035	-1.95353	-3.08297	-0.929062	0.977785	
686	1580406965.974750437	0.00252455	-0.928822	2.13526	-2.77702	-1.56954	-2.6232	0	0	-0	0	0	0	-17.0854	-4.02572	-2.003	-3.05913	-0.953785	1.02924	
687	1580406965.982745859	0.0024886	-0.92881	2.13527	-2.77703	-1.56958	-2.62321	0	0	-0	0	0	0	-16.677	-4.63254	-1.95223	-3.1544	-1.12702	1.08068	
688	1580406965.990769272	0.0024886	-0.92881	2.13525	-2.77703	-1.56957	-2.62321	0	0	-0	0	0	0	-17.0854	-4.45132	-1.95311	-3.03532	-0.879598	1.1836	
689	1580406965.998732896	0.00244066	-0.92881	2.13525	-2.77702	-1.56957	-2.62323	0	0	-0	0	0	0	-16.2005	-4.32991	-1.92814	-3.0353	-0.978563	1.23505	
690	1580406966.006739307	0.00247662	-0.928858	2.13521	-2.77703	-1.56961	-2.62321	0	0	-0	0	0	0	-16.8132	-3.90525	-1.98108	-2.98778	-1.00334	1.05498	
691	1580406966.014679890	0.00247662	-0.928822	2.13523	-2.77702	-1.5696	-2.6232	0	0	-0	0	0	0	-17.0174	-3.84491	-2.00429	-3.10681	-1.0528	1.20933	
692	1580406966.022785460	0.00244066	-0.92881	2.13527	-2.77702	-1.56958	-2.6232	0	0	-0	0	0	0	-16.8132	-4.26833	-2.00212	-3.22585	-0.97857	0.977769	
693	1580406966.030669025	0.00247662	-0.928846	2.13527	-2.77704	-1.56961	-2.62321	0	0	-0	0	0	0	-17.2896	-4.14616	-2.00344	-3.17827	-0.978594	0.952052	
694	1580406966.038762670	0.00246463	-0.928798	2.13526	-2.77702	-1.56957	-2.62321	0	0	-0	0	0	0	-17.1535	-3.72275	-2.15184	-3.10674	-1.02804	1.2865	
695	1580406966.046744939	0.00247662	-0.928822	2.13525	-2.777	-1.56958	-2.62321	0	0	-0	0	0	0	-17.0174	-4.08683	-2.02836	-3.10677	-0.879609	0.900592	
696	1580406966.054715539	0.00247662	-0.928834	2.13526	-2.77703	-1.5696	-2.6232	0	0	-0	0	0	0	-17.2216	-4.02546	-1.95354	-3.03534	-1.00332	1.05496	
697	1580406966.062691674	0.00250058	-0.928822	2.13525	-2.77702	-1.56958	-2.62321	0	0	-0	0	0	0	-17.0854	-3.90474	-2.02838	-3.08296	-1.07754	0.95205	
698	1580406966.070736528	0.00247662	-0.928822	2.13523	-2.777	-1.56958	-2.6232	0	0	-0	0	0	0	-17.1535	-4.08769	-1.95437	-2.82095	-1.10227	1.15787	
699	1580406966.078730943	0.00251257	-0.928798	2.13524	-2.77702	-1.56957	-2.62319	0	0	-0	0	0	0	-16.1325	-4.20922	-2.003	-3.01149	-0.929076	1.1836	
700	1580406966.086755421	0.00246463	-0.928858	2.13525	-2.77702	-1.56961	-2.62323	0	0	-0	0	0	0	-17.0174	-4.32883	-1.90491	-3.05918	-0.929115	1.10642	
701	1580406966.094735593	0.00250058	-0.928834	2.13526	-2.77703	-1.56957	-2.62321	0	0	-0	0	0	0	-17.4258	-4.08616	-1.92859	-3.1068	-0.95382	0.952054	
702	1580406966.102744562	0.0024886	-0.928822	2.13524	-2.77703	-1.56958	-2.62321	0	0	-0	0	0	0	-16.8812	-4.33009	-2.07873	-3.03535	-1.25072	1.05497	
703	1580406966.110722373	0.0024886	-0.928834	2.13526	-2.777	-1.5696	-2.62321	0	0	-0	0	0	0	-16.8812	-4.57173	-1.92856	-3.10677	-1.07755	1.13214	
704	1580406966.118723914	0.0024886	-0.928834	2.13527	-2.77703	-1.56955	-2.62321	0	0	-0	0	0	0	-17.0854	-3.66081	-1.95309	-3.22589	-0.879575	1.10642	
705	1580406966.126695896	0.00245265	-0.928762	2.13526	-2.77702	-1.56958	-2.62319	0	0	-0	0	0	0	-16.4728	-4.63407	-2.02578	-3.08288	-1.00331	0.977761	
706	1580406966.134753921	0.00247662	-0.928834	2.13525	-2.77705	-1.56961	-2.62319	0	0	-0	0	0	0	-16.0644	-3.90453	-2.00391	-3.03538	-1.10229	1.00351	
707	1580406966.142733099	0.00247662	-0.928882	2.13525	-2.77704	-1.56956	-2.62319	0	0	-0	0	0	0	-17.0854	-4.20692	-1.88088	-3.0116	-1.00329	1.02926	
708	1580406966.150870136	0.00246463	-0.928858	2.13524	-2.77699	-1.56957	-2.62323	0	0	-0	0	0	0	-16.9493	-4.51133	-2.00512	-3.15445	-1.02804	1.13215	
